/* XPM */
static char *dbb921eb55eb47b0a510c892ea367a3e9uG3DYvWf3KGyIiM[] = {
/* columns rows colors chars-per-pixel */
"600 600 256 2 ",
"   c #2A0A01",
".  c #340D00",
"X  c #3B0D00",
"o  c #380601",
"O  c #2B1304",
"+  c #341302",
"@  c #3C1402",
"#  c #3D1A04",
"$  c #39190A",
"%  c #391B12",
"&  c #3C220E",
"*  c #1E0803",
"=  c #450C00",
"-  c #431401",
";  c #4B1501",
":  c #441A03",
">  c #4B1B03",
",  c #441C0A",
"<  c #4B1D0B",
"1  c #45160A",
"2  c #531C02",
"3  c #5B1D01",
"4  c #541A06",
"5  c #4A1D12",
"6  c #631E02",
"7  c #621F16",
"8  c #4C2204",
"9  c #4C220C",
"0  c #46230A",
"q  c #542204",
"w  c #5C2303",
"e  c #53230B",
"r  c #5B240B",
"t  c #5C2A0C",
"y  c #572908",
"u  c #4C2413",
"i  c #482616",
"p  c #532512",
"a  c #542A13",
"s  c #5C2B13",
"d  c #592A18",
"f  c #5C3219",
"g  c #59310D",
"h  c #632403",
"j  c #642A04",
"k  c #6B2B04",
"l  c #63250A",
"z  c #642B0C",
"x  c #6B2C0C",
"c  c #6A2504",
"v  c #732D0B",
"b  c #742C05",
"n  c #6C320D",
"m  c #683309",
"M  c #73330C",
"N  c #7B340C",
"B  c #7C3A0D",
"V  c #763607",
"C  c #632C13",
"Z  c #6B2D12",
"A  c #652C18",
"S  c #732E13",
"D  c #643214",
"F  c #6C3314",
"G  c #64331B",
"H  c #6C341B",
"J  c #6C3A1C",
"K  c #6A3A17",
"L  c #743413",
"P  c #7B3513",
"I  c #743A14",
"U  c #7C3B14",
"Y  c #73351A",
"T  c #743B1C",
"R  c #7C3C1B",
"E  c #7A361A",
"W  c #5A3423",
"Q  c #522D22",
"!  c #6C3B23",
"~  c #673824",
"^  c #743C23",
"/  c #7B3D22",
"(  c #763A27",
")  c #6C342A",
"_  c #7D4215",
"`  c #7C421C",
"'  c #77441A",
"]  c #774211",
"[  c #754223",
"{  c #7C4323",
"}  c #7C442A",
"|  c #7A4828",
" . c #7A4833",
".. c #71462B",
"X. c #5E4026",
"o. c #833C0D",
"O. c #86390B",
"+. c #833C14",
"@. c #8A3D14",
"#. c #833D1B",
"$. c #8A3E1B",
"%. c #823615",
"&. c #913D14",
"*. c #823E22",
"=. c #893E24",
"-. c #933E23",
";. c #87430D",
":. c #844215",
">. c #8B4315",
",. c #8C4A15",
"<. c #84431C",
"1. c #8B441C",
"2. c #854A1C",
"3. c #8C4A1D",
"4. c #854A15",
"5. c #924415",
"6. c #934A15",
"7. c #92451C",
"8. c #934B1C",
"9. c #9A4C1C",
"0. c #9A4817",
"q. c #8C521C",
"w. c #94521D",
"e. c #9B531D",
"r. c #99571A",
"t. c #94470D",
"y. c #A3571D",
"u. c #A24C1B",
"i. c #844423",
"p. c #8B4523",
"a. c #844A24",
"s. c #8C4B23",
"d. c #83452A",
"f. c #8B452A",
"g. c #844B2B",
"h. c #8C4C2B",
"j. c #924623",
"k. c #934C23",
"l. c #9A4D24",
"z. c #934D2A",
"x. c #9A4E2B",
"c. c #954627",
"v. c #8D5224",
"b. c #8C522C",
"n. c #885429",
"m. c #945224",
"M. c #9B5324",
"N. c #9C5A24",
"B. c #94532B",
"V. c #9B542B",
"C. c #955A2C",
"Z. c #9C5A2C",
"A. c #955A24",
"S. c #8B4D32",
"D. c #844B33",
"F. c #954D32",
"G. c #8C5333",
"H. c #8A5636",
"J. c #945432",
"K. c #9B5532",
"L. c #945A34",
"P. c #9C5B33",
"I. c #945B3B",
"U. c #9C5C3A",
"Y. c #96553A",
"T. c #A24E26",
"R. c #A25424",
"E. c #A35B25",
"W. c #A2552B",
"Q. c #A35B2C",
"!. c #AA5C2C",
"~. c #AA5926",
"^. c #A25632",
"/. c #A35C33",
"(. c #AA5D33",
"). c #A35D3A",
"_. c #A95B39",
"`. c #B15D2E",
"'. c #9C622A",
"]. c #9D6234",
"[. c #9C623B",
"{. c #986538",
"}. c #906435",
"|. c #A4622C",
" X c #AB632D",
".X c #A86728",
"XX c #B3672C",
"oX c #A46334",
"OX c #AB6334",
"+X c #AC6A34",
"@X c #A4633B",
"#X c #AB643B",
"$X c #A56A3C",
"%X c #AC6B3C",
"&X c #A56A34",
"*X c #B26534",
"=X c #B36B34",
"-X c #B2653B",
";X c #B36C3C",
":X c #BA6D3C",
">X c #BA6A35",
",X c #AC723A",
"<X c #B4733C",
"1X c #BB733C",
"2X c #B87738",
"3X c #B4732C",
"4X c #A4631D",
"5X c #C2783C",
"6X c #C16E36",
"7X c #995D42",
"8X c #8B5942",
"9X c #A45D42",
"0X c #9B6544",
"qX c #97694B",
"wX c #A46442",
"eX c #A46B43",
"rX c #AC6B43",
"tX c #AA6947",
"yX c #B36C43",
"uX c #B66C45",
"iX c #AB7347",
"pX c #B47344",
"aX c #BB7443",
"sX c #BC7B44",
"dX c #B4744B",
"fX c #BB744A",
"gX c #BC7B4B",
"hX c #B57A48",
"jX c #B97A54",
"kX c #AC7353",
"lX c #BC7C61",
"zX c #C37B44",
"xX c #C37C4B",
"cX c #C47747",
"vX c #C47D53",
"bX c #C57045",
"nX c #C17F62",
"mX c #BC823B",
"MX c #C5843B",
"NX c #BC8249",
"BX c #BC8356",
"VX c #B08353",
"CX c #BB8764",
"ZX c #C4834C",
"AX c #C88649",
"SX c #C48353",
"DX c #C98857",
"FX c #D38C57",
"GX c #D5945A",
"HX c #CF9051",
"JX c #C98B64",
"KX c #D79666",
"LX c #D19369",
"PX c #E5A671",
"IX c #DE9F68",
"UX c #E9AF84",
/* pixels */
"8.Q.+X&XpXDXJXBXkXn.t > = o - r 2.A.&X&X'.'.|..X&X|.'.w.4.4.4.s.G.I.0X[.oX%X&X'..X3XMXMXMXMXMXMXAXMXmX2X,X&XP.B.s.<.U U :.3.w.w.8.E.<XZXDXSXgXpX%X].v.' n w q > : , < < 4 = = = X . . $ u a u : e s ^ | H.[.Y.b.p.R L L Y Y Y F 7 7 4 4 p p e < > : : - : q y z w w j j V q.+XNXsX2X1XZXAXzX=XQ._.9X9XY.c.=.*.#.p.z.V.V.M.E.;XzXAXzX=XE.N.N./.+XP.oX$X%XrXiX<X,X%X%XhXSXDXAXzXzXsXsX<XoXP.[.L.f.L k k B N.sXAXAXGX.X0.y. Xe.E.1X=X XXXAXGXHX;XN.;.>.:.+.1.k.f.#.E / D.J.J.B.Z.&XpXaX;XN.8.|.fXSXxX>XR.0.5.e.*X5XHXAXAXHXAX3X4Xy.r.r.E.+X2X2XmXAXHXGXMXMX3XXX2X XE.e. XxXHXHXAX>X8.8.5.o.N N +.1.yXDXKXDX$XP.L.2.F 2 3 i.0XiXI.^ 4 Z *.F.z.V.(.:X=X XE. X=X~.e. X.X.XMXGXHXAXAXAX1X=XE.6.e. XXX~.3XAXHXAXAX2X2X X XQ.OXN.8.m.m.oXtX@XP.B.a.L n n U <.z.P./.x.$.N 1.@.@.@.@.1.W.;X;XOX(.OXOXW.8.,.w.w.A.|.;X<X%X/.1.b c N p.s.z.z./.pXpX#XpXsXsXsX<X<X|.w.q.N.'.Z.w.w.A.C.'.'.A.q.4.;.V V B :.:.:._ 4.s.m.N.N.M.8.8.M.N.Q.#XaXvXvXaX=X+X;XgXgXpX$X].[.L.a.^ T F y y y e > ; 2 C ^ ^ ( } { ( ^ [ ` <.7.k.M.M.|.=XNXAXZXZXhX$Xn.' D e e > - : e a y D [ H.eXhXhXBXSX2X,X|.'.].@XU.J.h.a.<.<.3.A.N..X'..X3X3X2XAXHXHXHXHXGXGXHXHXGXIXGXLXLXGXJXSXBXgXrX%X&X|.3X3X3X.XXX X.X.X.X3X2XZXIXBX].m ; 3 d.tXtX@XV.k.l.8.7.@.0.M.E.E.;XSXfXZ.U k 3 3 j L i.B.",
"E.OX%X%XgXJXJXVX{.J : - - = 1 r ` m.&X+X&X&X&X&X&X|.'.w.q.q.m.B.U.I.J.s.s.m.'..X.X3XmXMXAXAXAXHXAXmX2X,X|.m.2.:.<.1.3.3.w.r.e.r.+X2X1XzXsXpX%X&Xm.2._ n w w 2 > : , < < 4 4 4 < 1 @ @ # 0 u u < : e C H ^ a.g.i.R R E E E Y Y Y ) A 7 p r d s e e 8 8 8 2 2 q 2 2 2 q j I v.|.,XNXsX1X=X=X+X XE.^.^.c.-.=.=.f.h.s.k.V.Z.|.+X1X1X2XXXE.w.,.,.3.k.k.m.B.C.].oX].oXrX%X#X%X;X+X2X1XzXZXsX%XoX@XU.b.<.P B 3.&XZXHXHX5X.Xr.y.E.y. X1X=X3X2XAXFXzX X8.;.:.:.+.p.z.f.#./ *.S.J.z.p.1.8.N.|.OXOXOX;XfXxXaX!.5.O.O.0.XX5XAXAXHXHX5XXX4X4Xr.e.E.+X2XsXAXHXHXGXMX2X3XXX2X.XE.e. XzXHXHXzX=Xe.9.5.@.%.N O.B V.hXKXLXSXSXBXrXJ.L R wXkX0X{ z 7 Y f.F.z.V.(.:X=X XE. X=XE.e. XXX.X5XHXHXHXHXAXsX2XE.e.y.~.~.y.XX2XAXAXAX1X<X+XOX|.;XoXN.V.M.#XdX@Xh.<.L x x M U <.s.K./.V.$.N $.$.1.@.%.@.M.#XuX-XQ.Q.Q.Q.M.8.w.w.e.Q.+X<X;X+Xm.+.B <.s.p.f.z.@XgXgX%X%X+X&X+X|.'.A.w.A.Z.N.3.'.N.w.4.4.4.,.q.,.4.4._ _ :.:.3.B.B.m.m.N.N.E.Q.=X=X;X;XaXfXvXvXxXsX1X<X<X%XoXC.` ` I F D z y > - ; > > 2 < r r C A H ^ ^ T ' R 1.1.1.8.N.|.<XsXNXsX,X].a.K t q 2 2 : - : e e 8 y m [ L.[.iXgXDX,X2XsX,X,X%XrXwXB.b.s.4.>.,.,.;.'..X3X2X2XAXHXHXHXGXGXGXGXGXGXGXKXGXNXpXrXrXdXhXrX%X&X|..X|.r.r.r.r..X.X.X3X2XDXIXBXC.j = ; Y S.tX@X/.Z.V.k.5.>.0.R.E.M.OXaXfX#Xs.M 3 3 h U h.P.",
" X+X;X<XSXLXBXiX| y X X - 1 < r R B.%XpXpXpX<X<X,X&X'.N.N.Z.'.].U.L.v.2.4.,.'.+XmX2X2XMXHXGXHXAX2X,X|.A.3.:.U B :.3.r.N.N..X.X.XAXAXAXZX2X|.m.3.m m j w 2 2 2 q > , < r A H H G d p , # # , , < - > e e r x Y T R i.i.i.*.R E ^ ( H A A A H G s t t y y q 2 ; ; 2 q j I C.&X%X&XpX2X2X.XE.r.N.Q.l.c.$.#.$.p.z.V.V.Z.Z.&X<X1X1X2X.X.Xe.,.;.o.B +.+.:.<.3.m.C.C.C.@XP.V.m.M.N.|.=XzXAXZX<X&X@XU.L.s.2.3.Z.sXHXHXAX.X4Xy.r.y. X=X1X=X2XAXAXAX=Xe.,.o.o.+.1.k.z.j.#.d.f.S.S.p.U U +.:.3.Q.aXSXxXaXaX*X9.O.O.5.R.=XzXAXHXHX5XXX4X4X4X0.y.|. X<XZXGXGXHXGXMX3X3X3X2X.XE.e. XzXHXHXzX=XR.e.0.7.@.%.N b :.].SXJXJXLXLXJXiXh.G.kXkXg.C l Y *.S.z.j.k.(.1X=X XE. X=XE.e.E.XXXX2XHXAXHXGXHXsX=X XE.E.y.u.y..X3XzXAXAX5X1X=XOXQ.;X;XOXV.k.#XvXtXP.p.<.R ` i.P U <.B.^.V.$.N %.$.3.1.%.%.7./.aXyX(.M.M.Q.Q.M.8.6.w.N.|.+X;X;X/.B.k.k.z.s.k.V.yXDXDXpX&XN.A.N.|.'.N.|.%X,X|.q.A.w.,.B V V B :.3.w.m.w.3.3.3.m.Z.Z.Z.N.N.|.OX=XaXaXaXaXaXaXpXpX<X2X1X<X&XN.4.I j 3 2 2 w q 2 > = @ - ; > < 2 > < r G T ^ { { i.s.1.1.3.N.+X<X<X,X'.q.I j q 2 > ; > : : > e q 8 : 8 g ' g.C.@XpXZXGXKXDXpX&X].P.rX$XoXN.w.,.;.;..X3XmXZXAXAXHXHXHXHXHXGXGXHXHXHXZXgX%X].Z.P.@X%XrX$X].C.N.A.r.w.;.,.r.'..X3XNXDXIXBXn.w = = r ^ Y.).rX#XW.k.1.>.9.R.R.9.N.;XaXpXoX<.k h x ` h.L.",
" X+X<XsXDXLXVX}.' q - - - 1 < < T b.eXhXgXNXgXhX,X,X&X|.&X&XoX].Z.C.Z.'.'.N.&X2XHXAXmXAXHXAX2X+X$X].v.:.U _ 4.3.,.w.r.4X.X3X2XMXMXMXMX2X.Xw.V k w w w 2 2 2 e a e e t H ( d.} ( ! ~ a 0 # # , , < e e > ; r H d.f.h.S.S.h.f.i.d.Y S Z H ( { T D K D z y w w w w F I a.[.hXSXNXpX&X+X+X XE.w.8.0.@.@.1.1.7.k.B.Z.&X&X&X,X2X2X2X2X3XXXN.6.,.4.:._ <.<.<.<.4.4.2.<.s.s.3.3.8.w.N..XzXAXHXsX%X&XoXP.Z.B.N.%XZXHXAX2Xr.y.y.r.y.3X2X=X=XzXHXHX1XE.6.;.o.o.%.#.k.x.z.p.f.d.d.i.R P U :.o.;.N.xXGXSX<XOXE.5.O.O.u.*XzXAXAXHXHX3Xy.y.y.y.r..X|.|.<XSXGXHXHXHXMX3XXX3X2X XE.e. XzXAXAXzXXXe.M.M.l.1.%.N b V 3.%XgXBXLXLXJXiXL.L.[.g.z w l / d.F.z.j.k.(.:X*X!.E.!.=XE.M.E. XXXsXAXAXAXHXFXsX<XOX XE.6.0.y.y. X2XzXAXzX1X1X+XE.;XaX;XQ.k.#XtXU.h.i.R I L L M L <.z.V.x.$.%.%.%.@.1.+.%.1.l.;XaX-XM.8.N.Q.E.6.,.8.M.Q.OX;XpX/.Q.P./.V.B.K.#XfXFXDXgX<X&XN.'.|.N.A.A.N.A.3.B B ;.4.,.:.;.;.;.3.w.A.Z.Z.Z.Z.Z.oXoX&X%X;X1X1X1X=X=X=X=X+XOX&X|.<X1XAXHXZX<XC.2.m q ; 2 2 2 2 q > > : : > < 2 4 4 s H T { i.g.h.z.s.s.B./.&X&X'.q.4.V w 2 : > 2 ; > < < e e e > : > q j n I ` v.$XNXKXKXDXZXSXSXgXpX,X+X+X.X.X'.2XAXHXAXAXHXGXGXGXHXAXAXAXNX2X+X|.&X$X%X$X@XP.J.].K.v.3.3.q.A.r.6.r.'..X.X&XNXDXLXiX| q o = 4 A h.U.uXuX_.k.7.7.0.M.M.9.M.OXaXfXpXC.U V U 4.v.B.",
".X+X2XNXDXBX$X| D e > : - X - < F a.U.eXdXhXgXhXpX<X<X<X<X,X&X'.|.|.+X2X2X<X2XAXHXAXNXNXsX,X'.v.h.f.i.` :.3.A.N.r.4X4X3X2XMXMXAX3X2X2X3X.X,.] k j j j w 4 4 r r t t D T d.h.d.[ ! G a 0 & # , 0 u u 5 < 4 C d.U.U.U.K.K.K.J.B.h.i./ Y Y / } { T ' K x w j n R i.G.[.iXBXDXBXgXpX'.'.N.N.M.,.>.o.O.;.8.w.w.M.'.&X,X,X<X,X2XNXNXNXZX2X+X'.A.A.m.m.C.B.v.2._ I n m R <.<.:.:.6.e.r.5XAXHXZX<X&XoX].Q.oX+XsXAXAXsX3Xy.4Xy.y..X3X=X.X1XAXGXDX=Xe.,.;.o.N N +.k.z.z.p.i.R L v x b U 3.1.>.E.zXFXxXOXN.5.O.O.9.XXcXAXHXHXHXzX.Xr.r.r.r.E..X|.OXsXGXGXHXHXHXMX3XXXXX2X XE.e. XzXAXAX5X.X9.M.E.N.7.%.N N k B m.$XdXSXDXjX@XJ.b.` w 2 w l / f.S.z.k.M.(.:X*X!.R.!.=XE.M.Q.E..XZXHXsX<XsXZXZXsX;X+XE.6.t.y.e.E.+X1XAXAXzXzX;XE.<XzXfXOXk./.V.z.i.U M k j h k L <.k.z.k.$.+.N N %.@.1.1.1.1.W.yXaXQ.k.M.Q.Q.,.,.6.M.Q.|.OX;X/.OX#X/.V.V.).dXjXSXvXgXxXsX%X+X|.N.q.4.B B B B _ ;.4.q.A.A.m.m.q.m.m.P.&X%X$X&XyXyXpXaXzXzXzX5XXX XE.r.r.r.N.|..X+XsXDXGXDXhXiXL.` m w q > > 2 a s s s s p a a s C H T ` a.h.B.B.K.).$XoXC.m.4.I m w 2 > : > < e s G A A f s q q q q w w w h k :.'.hXDXGXIXIXIXNX2X<X2XAXHXHXAXDXHXGXHXSXAXHXHXAXAXsX2X+X&XN.r.A.C.oX$X$XoXK.B.s.s.2.2.s.v.m.A.'..X.X.X&X,XNXBXCXeX' > X = 4 r / F.tXdX_.V.k.k.7.9.M.9.M.Q.=XaXjX$Xs.:.<.s.Z.@X",
".X2XNXDXDXhXC.K q q e < - o = < C R h.L.[.rXhXhXgXgXNXZXZXNXsX<X2X2X2XmXNXmXNXAXAXZXNXpX%X'.m.s./ d.i.p.v.A.N.'.4X.X3XMXAXHXAXMXAXAXMX2X3X+X&X&Xv.a.{ T F C C C z j n L E E L F G a 0 # & 0 i u u 5 < e r ^ I.kXdXtX#X)././.P.V.K.f.R L M L I I F n j j n 2.J.@XiXkXjXBXhX$XoX'.'.A.,.:.:.:.o.V ;.t.6.r.N.|.,XhXiX,X,X,XhXNXHXGXHXAXsXpXpXhXpXpX].].L.C.b.v.a.2.i.i.<.B V ;.8.r.1XzXAXAX1X+X|.|.&X;XsXDXHXAX2X.X.Xy.y.4X3X3X3XXXzXHXFXzXE.6.;.o.N b N 1.x.V.z.p.#.L x h h c V :.8.m.oXaXxXaXQ.e.O.O.5.R.:XzXAXAXHXAX2XE.r.r.r.r.|..X+XpXDXLXGXZXAXHXMX3XXX.X>X XE.e. XzXAXzX1X X9.M.E.N.7.+.+.+.b V 2.K.@XrXrXB.s.i.` n 3 h L I i.h.F.z.k.M.!.>X*X!.E. X;X/.V./.E.|.ZXGXpXA.Z.<XSXZXsX=XE.6.t.6.r.e..X2XAXAXAXAX<XE.=X<XaXOX8.m.P.K.z.U M n n M M I <.s.z.z.1.#.N b N +.3.1.1.>.8.OXaX-XW.M.V.E.8.,.,.w.E.Q.|.%X+X;XyXOXV.V.#XfXDXSXfX<XaX;XN.r.,.,.4.;.B B 2.C.A.q.4.4.w.C.oXoX&XoX@X%XpXdXdXrXyX;X;X+XOX XXXXX Xr.t.;.] ;.w.r.r.r.'.,XsXDXDXDXBXiXL.{ F w 2 > a f ~ ! ~ ~ G G C C H I { a.B.K.U.tXdXdX$Xv.U n j w q > > : : : A ~ ( ( ( ! H C t q q q 2 2 2 2 w m q.&XNXHXHXHXGXHXAXAXGXGXGXHXHXHXHXZXsX1XsX2X+X&X|.|.|.|.|.|.N.A.w.q.3.v.v.m.s.B.C.P.].].P.C.r.'..X|.&XhXBXJXBX{.K : X - 1 < H d.9XtXtX^.x.l.7.7.9.9.R.E. X;XxX,XZ.3.:.3.oXhX",
"3XmXAXZXhX{.' z > q a u - o X < A H ^ { i.b.L.].$X,XpXsXNXZXZXAXMXMXmXmXMXAXAXNXsXpX,XoXC.B.s.h.d.d.h.B.Z.'..X.X3X2XMXMXAXMX2X3XAXAXNX2XsXNXSXDXiXrX[.L.G.g.d.{ ' ] I I N M x x D e 0 # # 0 i a a p p a H d.wXvXvXvXgXaX;X+X X&X).V.p.P M k m M x n L ` b.[.iXjXBXBXBXdX@XC.m.A.A.3.4.B o.:.:.:.6.r.r.|.+XpXhXhX].}.n.}.$XhXBXBXNXNXNXNXDXDXDXBXeXeXrXrXrXeX@X@Xb.B.s.U V >.e.E.2X5XAXAXAX=X.XE.+X1XAXHXAX1XXX4X3Xr.r..X3X3X3X1XAXFXSX;Xm.:.B N b b N k.)./.z.p.P x c c c k V B 8.N.+XpXaX;XE.8.;.;.0. X1XzXzXAXHX5XXX.Xy.r.r.4X.X&X<XSXDXDXgX2XmXHXMX3XXX.X>XXXE.e.~.5XAXzX1X XR.E.M.l.7.1.1.1.B V U s.Z.%XrXP.L.U n x k I a.h.h.J.K.B.k.M. X:X-X(.E.OX;X/.V._.Q.E.sXKXpX:.:.m.gXSXZX<X.Xr.6.t.r.6.r.=XzXAXAXDXaX X+X=X;X;X8.1.s.B.k.:.M M _ 2._ U <.s.K.K.p.U v b N +.1.1.+.:.1.V.;XyX#XV.M.N.E.6.;.6.M.M.Q.OX;XaXyX/.l.l.#XfXFXDX<X+X;XQ.,.;.B ;.4.4.:.<.B.$XoX'.'.C.'.oX$XrXhXdXiXrXrXrXrXrX$X+XOXOXOX XE.E.y.r.6.;.;.;.;.;.r.r.'.|.,XhXBXJXDXDXBXiXL.g.T D G G ~ ! ! ~ G G C H / i.b.K.@XrXdXdXjXjXwXa.n w 2 q q 2 > > : 1 s ) ( ( ( ^ ! H t w q w w w w j 2 j ] A.2XHXGXHXIXIXGXHXHXAXMXsXNXNXsX<X+X+X&X'.w.w.r.r.A.N.Z.|.r.w.,.4.4.,.w.m.P.oX$X%XrXrXrX%X'.|.&X&X,XNXBXBXkXH.g - X - : 1 A ( Y.9XtX_.^.V.l.7.5.9.E.E.E.OXpXpX%XZ.3.3.Z.hX",
"2XNXAXNX&X2.m q 8 a s p - X - < C C C l l n I I 3.m.Z.&X+X<XsXAXmXMXMXmXMXHXAXsX,X&XC.3.<.R <.i.J.J.B.m.A..X3X2XMXMXMXMX2X3X+X+X|.|.&X+X,XpXgXgXDXBXhXiXiXeX@X].].C.m.2.+.U U T J g 0 # & i a f f a s D T g.eXSXFXFXFXAX1X=XXX3XoXoXP.m.:.V V k M U v.@XdXSXJXJXLXJXBXiXoXC.N.C.4.:.:.:.1.3.k.m.r.r.N.,XNXBXiX{.| ] m ] | {.{.}.{.&X,XVXBXDXBXVXBXBXBXjXkXrX@X[.B.J.B.1.:.8.E.E.=X5XAXHXAX3X.XE. X1XAXHXAX2X.Xr.XXr.r.3X3X.X3XHXHXFXZX|.1.B V b k c P K.rX@Xz.#.k k k M M V V B >.N.;XpX<X;X|.8.6.e.!.:XcXzXAXAXAX2X.X.X.Xr.r..X|.&XgXDXDXdX&X&X2XAXMX2X3X.X>X=XE.e.~.5XzXzX2XE.!.E.e.8.8.k.j.j.+.b V :.Z.jXLXLXSXs.k k n I i.s.J.K.K.B.k.N.OX:X>X*XE.OXyX/.V._.OXN.pXKXhXB k U pXgXZXpX+X.Xr.t.6.6.6. XsXZXAXHXZX<X<X;XaXzXQ.8.+.m.Z.v.<.2.B.P.a.` ` s.).).z.U v V P <.1.+.+.+.1.k.OXuXyX/.M.M. X8.o.,.8.e.N.OXyXaXyX/.k.M.#XaXDXZX<X=X<X Xr.w.|.&X,X,X@XC.L.@X$XiXBXBXBXhXdXiXjXjXiXwXL.J.J.L.$XyXgXZXZXzX2X+Xy.4X.X.X4Xq.] V ] 4.w.A.'.'.&XiXVXJXLXJXVXiX[.H.[ ~ f s G H G C H T g.J.[.rXdXjXjXjXjXjXwXa.j 2 > > 2 q e e < < 4 A ^ ^ ^ T H F x j w j F F R i.L.].$XhXHXGXGXHXAXHXGXHXMX3X3X=X+X+X&X&X&X+X|.A.'.N.A.q.4.;.;.4.w.r.r.N.'.'.'.N.&X&XoXoX&X%XdXgXDXDXDXBXBXVXVXeX0X| 8 X X : < < 7 S D.7XtXtX_.W.W.7.@.9.E.E.E. X&X<XsX;XA.:.w.&X",
"mXAXAX+Xq.I m y y a e : X o - < H H F F z l w w j V :.3.E.<XZXAXMXMX5X5X2X3X+X+XZ.m.s.2.a.s.h.b.B.C.N.N.&XmXAXMXmX2X.X.XN.N.Z./.K.P.@X@X@XoXoXoX%XhXNXgXhXNXNXhX,XpX,X%XOX/.V.h.| [ f 0 u f W f s s t t K v.$XpXDXAXGXHXAXHXHX2XsX%XoXC.Z.m.>.B B 1.V.$XfXDXLXJXDXgX%XoX].C.q.4._ _ :.2.s.s.B.P.|.,XpXpXiX[.n.' s y 8 e s f G K ' ' n.}.{.[.qXeXkXkXBXBXBXBXkXeXeXP.B.V.N.M.M.E.>X5XHXGXHX5X3XXX3XzXHXHX1X.Xr.y.r..X3X3X.X3XMXHXHXZX%X3.B :.+.h h v s.U.@XtX#XB.N P U U +.:.:.+.m.+XaXfX;X|.M.6.9. X>X>X1XAXAXAX1X Xy..X.Xr..X=X&XpXSXLXJXP._ 4.+XHXAX3X.XXX=X Xe.9. X5XzXzX1X XE.E.E.Q.l.7.j.l.B.k.s.<.2.%XDXSXdXP.a.<.s.L.[.[.@XtXrX/.k.M.OX;X*X!.M._.yX^.x._.oXQ.gXSXyX<.3 w B.pXDXNX+X.Xr.6.r.e.r.e.|.aXZXZXDXzX;X;XsXxX;XQ.+.+.2.m.m.v.C.[.b.s.b.@XtXwXh.U v M P +.+.#.:.<.1.1.V.yXfX#XM.8. XM.6.,.,.,.e. X;X1X;XQ.V.(.uXxXDXzX1X1X=X|.N.N.pX&XoXpXhXiXiXkXiXhXjXVXjXiXeX[.[.L.b.d./ Y T / p.P.yXgXxXZXzX1X3X.X.X.X.Xr.q.,.] ,.4.4.q.A.'.&X,XhXBXBXJXJXBXiX{.| D t t t H } d.G.0XeXiXdXgXgXjXjXdXdX[.i.n w 2 t t > > p p < r A A Y Y T { { R ` a.G.[.eXiXiXBXBXjXBXHXGXHXHXMXmX3X3X3X3X+X.X&X|.Z.Z.|.Z.w.,.3.w.w.A.w.w.w.w.r.4X4X4X.X.X3X+X=X1XsXsXsXsXxXSXDXDXBXVXhX[.}.H.H.J > X X : < < 4 Z ( Y.9XtX_.W.W.l.9.5.5.0.E.Q.OX;XaXaX|.,.,.8.",
"MXAXsX|.4.I m t D s e : X X 1 e H H H F z w 3 2 ; h V ,.|.2XZXAXMXMXMX2X3Xy.r.r.3.<._ :.a.B.[.@Xw.'.&X3XmXAXMXMX3X.Xr.,.:.1.s.z.J.L.U.P.L.B.B.B.C.&XpXNXNXDXAXNXZXSXDXSXDXSXfXrXG.H.| X.G ~ ~ G s t t j n 2.|.<X2XmXHXGXGXGXGXHXNXpX,X+X+XoXA.3.o.>.m.oXgXFXKXDXhX%X].C.q.4.;.;.:.4.3.m.B.Z.@XrXgXgXpX$XL.n.[ f @ .   + + @ # , y y g K ' |  .n.0XeXkXkXjXjXBXBXjX$XZ.Z.Q.Q.E.E.>X5XAXHXHX5X3X3X2XAXHXAX3X.Xr.r.6.XX1X3X.X2XAXHXAX<XZ.:.N +.U h 6 c p.).tXdXdX#XC.m.<.:.<.2.s.k.P.pXSXxXOXe.,.;.e.XX1X5XzXAXAXzX.X.Xy.r.r..X+X=X%XgXDXJXkXa.n _ +XGXAX3X3XXX>X XR.e. XcXzXzX2X XE.!.OX/.V.k.V._.yX#XoXk.<.Z.pXpXdX@XL.B.P.rXhXjXrXdXrXZ.8.M. X=X*X!.M._.yX^.x.).oXZ.gXSXiX2.2 3 I ].BXNX<X+X'.,.r.r.w.e.E.<XzXZXDXDXaXOX1XZXzX XB B :.v.C.].].$X].C.L.kXJXjXL.U x M P U <.<.1.1.1.1.k.#XuX;XQ.8.Q.E.M.,.>.>.e.N.OX=XOXOXOX;XxXxXxXzXzXzX=X|.N.|.pX%X,XhXBXBXBXBXkXkXkXiXeX{.G.n.` T F z 4 ; ; 3 I p.P.%XdXSXHXHXAX1X.X4Xr.'..X&Xw.q.] V 4.q.m.A.A.].$XhXSXLXJXVXiXG.' F D D T g.Y.0XiXdXgXgXgXdXjXjXdXdX[.i.n z x D C t e p p e 4 r Z Y R <.a.p.eXiXkXBXJXLXLXLXLXJXJXDXDXAXMXmX.X4X4X.X.X.X.X X&X|.N.A.w.w.,.:.V 4.A.|.&X&X|.|.r.4X.X3X3X3X3X3X1XAXHXGXGXFXDXSXgXhXiX].L.n.| | | f : X X - : > 4 l ( D.U.wX_./.^.R.9.5.5.0.R.E.Q.+XsXsX|.,.o.,.",
"AX5X=XA.U n x C D s < : ; > 2 2 q y t t r w l h k U q.|.<XsXAX5XMX3X.X.X.Xr.,.;.:.4.s.B.C.C.m.q.r..X3XmXMXMX2X3X3X.Xw.;.N N E #./ d.h.h.b.B.B.C.'.'.'.N.'.,X2X2XNXNXZXSXDXvXuX).L.H.H. .[ G G G D m m m V 4.|.2X2XMXAXHXGXIXIXIXGXDXNXpXpX;X&XQ.8.,.6.N.aXFXGXDXpX+X'.N.q.] ] ,.q.m.C.].@XrXdXjXjXiX{.a.J D e : @ @ + $ $ $ $ % # # : 0 8 y D G J [ | D.H.[.iXBXDXiXP.Z.oX X!.E.XX2XAXHXHXMX5X5XAXHXAX2X XE.E.e.r.2XZX=X3XAXHXAXsXZ.:.B N P L h 3 c i.@XrXdXSXjXoXm.3.B.Z.B.m.B.yXDXFXxXQ.,.;.6.E.=XzXAXHXHXAX1Xr.E.E.r.r..X=X+XpXBXDXjXL.z w I &XHXAX3X3XXX2X.XR.e. XcXzX5X2X XE. XOX(.W.^.yXfXSXvXyXZ.<.m.#X%X$X@XrXrXdXdXpXrXrXrX#XV.k.M.!.*X*X!.R.(.yX^.z./.oXZ.gXSXrXi.2 2 3 i.eXhXgX2X|.q.r.w.6.e.E. X<XzXAXFXzX|.+XDXHX<X,.o.B :.m.C.].].].].eXBXJXiXb.L R R R <.<.<.1.1.1.1.7.V.-XuX#XV.M.!.!.0.@.5.8.8.E.!.OX*X:XcXxXxX1X5XAXzX2X.X|.|.,X,XiXhXBXBXjXiX[.{.L.n.| T K D C s r e > - - ; w x T a.L.rXSXDXZXSXZX2X&X.X'.'.'.'.w.4.] V B 3.m.A.'.$XNXDXDXhX$Xb.` R ` i.G.wXtXdXdXdXpXdXgXdXpXdXjXdXU.i.L F t r t s s s G ! H { G.U.rXdXhXgXBXSXDXJXLXJXJXJXJXSXhX,X'.'.|..X3X.X.X'.N.N.r.r.w.w.3.,.q.w.N.N.r.N.'.|.'.|.+X2X3X3X3XmXMXAXAXAX2XmXAXAXZXsX&X'.Z.v.2.I n D D D ! s : X X - : < 4 l S *.F.).#X#X(.W.9.5.5.5.9.R.M. XaXsXOX8.o.O.",
"AX1X|.,.V k x C C r e e s s r q - - ; > w z I ` P.$XpXsXzXZX1X2XXX.XE.y.e.,.;.,.:.4.m.Z.oXoX].'.mXmXmXmXmXmX2X+X+X|.m.<.+.U #.*.Y R i.a.h.b.B.C.'.A.q.4.,.r.'..X+X%X;XaXcXcX-XK.a.a.n.D.[ t t H T K n M B ,.|.sXAXMX2X3XMXHXHXGXPXKXDXZXsXpX+X XQ.w.,.6.|.sXHXGXDX2X+X&XN.4.4.r.r.N.oX%XgXSXBXjX[.b.T D e 9 : + $ % % % % O % % # # # # : > 9 e : 2 q t z T L.dXDXhX&XZ.Z.E.E.E.XX>X5XAXAXMXMXMXHXHXzX.Xy.E.E.M.|.=X1X=X2XAXHXAX,X3.V B P L v 6 h x f.@X@XrXSXLXgX$XZ.&X$XP.P.$XDXKXFXfXM.;.6.E..X1XAXHXGXHXzX=XE.E.r.r.r..X+X,XhXDXBXeXT 2 2 I &XHXAX3X3XXX1XXXE.e. XcXzX1X=X XE.!.E.W.W.#XfXvXSXdX#Xm.1.V.rXyX#XrXdXdXrX@XP.B.K.K.V.k.8.M.!.*X*X!.R.(.yXW.l./.|.Q.sXSXtXa.2 2 = F L.iXBXNX,Xr.w.6.6.e.M.N.+XzXAXHXzX X XsXAXZXsX+XN.m.Z.].$XiXiXBXLXLXjX[.L.P.eXU.b.<.R <.<.1.1.1.$.3./.uXuX/.8.E.!.M.5.>.5.0.E.Q.OX;X:XcXxXxX5X5XzX5X2X X.X+X+X,XhXdXiXeXY.g.' ' D t y q q e < : : : - - = 1 - > q z I n.].$X%XSXGXHXNX2X&Xq.C.$X&X'.m._ V ;.A.r.'.+XNXZX2X+XZ.s.<.2.B.P.rXdXrXdXdXpXrXrX%X&X#XpXjXfX@Xs.I L w 2 w C A s ~  .d.G.@XdXDXFXGXGXGXGXDXDXBXhXiXiX$X&X].C.m.w.A.N.|.'.N.r.r.w.w.,.,.3.w.w.w.N.|.+X,X<X<X+X|.&X<XsXHXAXAXAXAXHXHXHXMXZXsX1X+XN.:.V k h h w w t D G ~ f e - - ; > e C Z L E p.V._.-X-X!.9.5.5.5.9.9.e.E.=XaX1XE.>.V ",
"zX=Xe.o.b k z Z C C G ^ } ^ C q - - : 2 w I b.[.dXgXgXsX1X1X=XXXe.E.!.e.o.V o.k.oXZ.Z.A.A.|.,X2XMXmXmXmX2X,X&X|.N.V.B.m.k.k.k.k.a.a.a.2.<._ _ _ 4.3.m.C.'.'.A.A.A.M.E.!.-XuX#XZ.s.a.g.g.J r l T T I L P U 3.+XZXAXMX.X4X.X3X3XAXIXKXKXKXGXSXaX;X+XE.6.;.6..XAXKXGXNX+X.X'.,.,.q.r.N.oXpXDXLXDXrX` F y q e 9 , $ + $ % O O O O O + # # # , : : : > > q q 2 z n.iXBXgX,X|.M.e.E. X~.XX6XMXAXMXMXMXHXAX2XE.e.E.E.E.<X+X X2XAXHXAXAXZ.;.V U R L Z 6 l Z h.).K.P.jXKXKXSX<XoXZ.Z.%XvXKXLXxXQ.,.;.w. X=X1XAXHXGXAX1X.X Xr.r.r..X.X.XsXBXBXkXG.z = ; I $XGXAX3XXXXX1XXXE.M. X5XzX1X=X X XE.9.8.W.yXfXfX#Xk.<.+.+.V.yXyXgXdXpX%XoXZ.B.B.L R <.p.k.M.!.*X*X!.R.OX;XW.k./. XQ.aXjXdXh.3 2 = z d.@XjXBXhX|.w.6.6.w.e.M. X1XzXZXZX1X X X<XxXFXSXsX<X,XiXVXBXLXPXUXLXkX[.iXJXLXBX@Xp.U U <.1.<.<.+.+.x.yXuX-XM.9.E.!.e.@.@.9.9.E. X*X=X:XcXAXzXzX5X2XXX+X+X+X&XpXBXjXeXG.T z t y 8 > : > 9 e < : 1 , 1 1 1 1 @ : > q t n ' 2.'.pXSXNXNXDXZXsX$X].m.C.%XZ.:.] q.q.'.<XAXAX2X.Xw.8.8.N./.#XrXuX/.rXdXfXpX&Xm.:.N.%XgXgX#Xs.U M F z x H D s H D.g.b.oXdXDXGXGXHXAXAXNX<X$X{.{.L.v.m.C.].oXP.m.3._ _ :.4.8.A.N.A.'.|.|.|.N.N.'.|.+X<XZXDXDXSXZXSXGXHXHXAXAXAXAXMX5X1X2X=X|.3.b 6 3 3 3 l C H ! ( ~ G p > ; : 2 q C Z n M U 3./.-X-X!.R.9.5.5.7.7.9.e.E.;XcX;XM.O.",
"1XE.>.N v x Z Z H H ( } g.^ x q q w j K { I.kXBXDXDXxX<X+X.X.Xy.9.>.O.@.1.8.8.8.oXoX|.|.&X+X2XmX2X3X3X2X2X<X%X%X#X#X#X$X/.Z.V.m.m.v.q.4._ I V V :.<.3.v.v.s.v.v.m.M.M.M.W.W.l.1.s.s.a.` F z S / ` L v P <.k.+XsXsX1X.X'.,X,X'.,XNXDXKXPXPXKXSXsX=X Xr.;.;.r.sXIXIXHX2X3X.Xr.6.q.r.N.|.<XDXKXSXeXI t > > 9 0 # +   O O O O O O O O + $ # , , , : 9 8 q 2 2 w ` [.hXNXsX|.w.6.E.XXy.y.>X5XAXAXMXMXAX5XXXE.y.E.Q.OXsXOX|.sXHXAX2X2Xw.B B <.R P L x x Z f.).B.k.rXDXKXKXKXDXjXSXLXIXLXgXQ.>.o.;.e.+X5XAXAXHXAX1X+Xy.|.w.6..X.X.X+XZXSXBX0XT 2 o ; I $XGXAX2XXXXX1XXXE.e. X1X5X1X2X X XE.0.8.W.yXuX/.1.b c b U B.oX/.P.oX%XrXiX$Xm.<.3 c P 1.k.M.!.*X*X~.R.OX;XQ.k.Q. X|.aXjXdXJ.w 2 ; y T G.iXBXNX,XA.w.8.8.8.e.E.+XzXZXDXZX=XN.N.=XZXFXKXKXKXKXIXIXUXPXLXBXkXkXJXLXPXJXiXJ.i.<.#.#.#.#.+.+.k./.-X;XE.9.9.!.E.>.O.9.5.9.E. XOX*X1XAXAXAX5X3X.X+XXX+X'.,XBXjX[.' r > 8 8 : @ @ - : , u , 1 1 1 @ X . + @ # 8 q q w m 2.A.].&X<XNXDXNXpXrXP.Z.P.3.;.,.w.r..XmXAX2X.Xy.;.5.e.E.=XyXyXyXyXyX#X/.Z.m.3.;.8.OXsXsX#Xk.U x n x C F C r H D.a.s.B.%XZXHXAX1X.X.X.X'.A.A.n.v.q.4.4._ <.<.i.i.i.a.s.m.V.Z.Q.|.A.'.&X+X+X+X<X2XpXNXDXGXGXGXGXGXxXsXsXsXsX2X.XE..X+X<X<X%XV.+.k 6 6 l l A H ! ) G f p e > > > > w l k k V +.M.OX*X*X!.R.0.5.5.5.9.8.e.OXcXxXOX>.",
" X0.O.N N L S Y H ^ / } { T n j m ' n.{.iXjXJXJXJXDXgX+XE.r.6.t.9.O.b %.^.#X/.k.+.3.&X2XAXAXmXmX.X.X3X2XNXgXjXjXjXjXfXdXyX&XQ.N.A.A.r.w.q.4.3.3.B.s.2.U M M R b.oXOXOX(.!.W.l.7.p.p.<.L L E =.f.f.E S E p.z.#XgXsXsX&X|.<X|.q.'.{.iXBXLXKXKXFXDXzX2X Xr.,.,..XAXIXGXHXmX.X.X4Xr.r.N.'.&XgXJXDXdX{ D : : > : +         * * O O   O O % & 5 5 , , < : : 2 > 2 F b.pXNXsX.X6.6.E.XXy.y.>X5XAXAXMXAX5X>X X XE.N.E.;XpX;X<XZXHXAX+XN.;.B U U P E / ^ Y Z d.).K.s.Z.%XGXPXPXPXPXUXPXPXuXZ.+.B o.6.|.2XAXAXHXHXzX=XE.r.r.6.r..X+X+X2XZXBXiX| w = = 2 I $XGXZX2XXXXX>X XE.e. X1X5X1X2X XE.Q.M.M./.-X/.p.B b b +.1.V.Z.m.:.3.Z.rXgX%X2.k 3 h R s.k.k.E.=X*XE.R.OX;XQ.k./. X|.aXgXdXL.z 2 2 2 z { [.hXNXhX|.Q.e.6.6.M.N.E.=XzXFXHXsX Xr.e.+XZXKXPXPXUXUXUXUXLXkXiXiXjXJXJXBXjXiX[.L.h.<.P +.+.$.1.1.k.(.uX*XE.e.E.E.9.>.5.5.6.e.!. X X=XzXAXAX5X3X.X X+X+XZ.%XhXhXG.z ; > : : @ @ + + @ # @ .             . . + , : > > w m m I q.&X<X<X,XyXdXtXP.1.V V r.N..X3XMXMX3Xr.t.t.6.~.*X1XaX;X-XyX#XN.:.:.3.3.3.w. X1X<XoXm.U m x x x x r y J g.<.U :.N.1XAX2X.X4X4X4X'.'.A.n.v.q.4.V j j n #.h.tXtXwX@X@XoXoX|.A.'..X<XNXSXDXHXDXDXSXSXSXSXAXZXoX/.N.N.N.N.w.8.|.+XpXgXjXdX#XK./ ^ Z l 3 p p p p p a s C t q > q h j k b B 8.E.*X*X*X!.9.&.&.5.0.0.9.E.uXxX;XN.",
"R.;.V N P P L Y Y ^ / d./ R R ` n.{.iXBXDXBXBXjXiXrX&XN.6.,.;.O.>.7.k.V.Z.V.Q.OX+X<XsXZXsX+X.XA.4.] ] q.C.P.@XiXtXdXdXdXpX<X+X.X&X&X&X|.'.N.N.C.m.v.h.a.R L { b.k.V.Q.^.^.^.W.c.p.f.i.P R z.K.U.F.*.L R f.V.#XfXsXgX|.A.&Xq.V _ }.{.eXhXSXDXFXFXHXzX2X.Xq.;.r..XGXIXGXAX3X.X.X'.r.N.N.'.,XDXJXBXL.' q > 8 : + O + O O O O % & $ O $ $ $ $ $ # @ : - : q q w I n.,XsX2X|.6.6.E.XXy.~.>XMXHXHXMXAX2X.XE..X XE.E.1X+XaXZXDXHXZX.X;.B B _ U M E d.d.*.L i.@XP.1.<.q.<XZXFXSXSXDXjX#Xk.+.V N >.N.;XzXHXHXHXHX5X.Xy.e.,.r..X.X.X2XNXsXhX[.K - X = w T $XJXSX2XXXXX>X XE.e. X1X5X5X2X XM.E.Q.Q.OX#XV.%.B N #.V.V.P.P.B.m.s.s.Z.%X$X2.M 6 v #.z.k.8.E.=XXXE.R.OX;XQ.k.Q.|.|.pXgXhXU.x 2 ; > w T L.kXhXhXOX XN.,.,.e.r.6.E.1XHXDXAXsX|.;.V w.%XNXJXLXIXLXjX[.a.` g.n.L.I.U.[.eXeXeXP.2.M U +.1.7.1.$.W.aX:XOXE.R.Q.W.0.o.8.0.M. X*X X X=XzXAXAX>XE..X X+X&X,XgXhXb.w ; q : : # @ @ @ @ @ @ .   . . . . $ . . @ , 0 : > q w 2 2 m v.&XhXgXrXtXP.B.k.B o.r.N..X3XMXmX.Xr.t.y.~.>X:X1X:X#X/.M.x.k.1.3.3.,.;.e. X<X;XQ.k.+.M R R R F w w F i.s.:.:.N.ZXHX5X.Xr.r.r.r.q.4._ ] 4.,.q.4.:.<.h.J.U.U.@X@X%X%X%X%XpXpXsXNXZXDXZXZXsXsXNXZXAXsX+X|.V.s.+.B +.1.8.k.8.M./.#XtXdXuXtXY.S.^ l 4 ; > > > e C J ^ T z 2 h j m V b V >.M.*X-X>X(.l.5.&.7.0.0.9.E.-XaX:XOX",
">.o.o.N U +.U E #.*.*.*.*.f.F.P.,XmXNXDXNXhX<X,X'.A.w.w.,.] V B >.V.#XOXZ.N.+X;XFXSXxXfX%XZ.<.M z t y t D [ G.L.[.].@X,XpXsXsXsX<X2X2X+X+X,X<X,XoXC.b.J.G.} { a.k.7.8.W._._.^.x.z.p.#.*.z.).9X9XY.*.S S <.B.%XgXgXpXN.w.A.] j m ] ' n.}.&X<XZXGXGXHXAXZX.Xq.,.N.SXPXPXHX3X.X.X.X.Xq.w.N.N.<XDXDXhXL.n > : : , # # & 0 i u 0 0 9 , $ @ @ : 8 9 9 > > : : > t T a.,XsXsX&XM.N.E.Q.R.E.1XAXMXHXHXMX3X.Xr.E.+X=X=X3X.XzXGXHXzX+X8.b 2.a.` L L ` h.J.i.M s.oXoX3.k V q.+XsX,X].C.s.<.k k N 3.Z.%XaXzXAXIXGX3X.X.Xr.r.;.|..X|.,XHXDX,XwX{ 2 ; ; ; w g.iXDXgX=X.XXX3X4Xy.e. X5X5X5X1X XQ.M.k.V.#X#Xl.+.$.#.z.tXdXtX).K.K.K.z.s.z.V.<.c v +.s.k.8.e.E.XX X~.e.E.;XQ.8.oX|.A.sXSXdXL.F r ; ; 4 A d.{.iXNX2X+XN.w.,.q.r.6.r.+X1XAXHXZX=XM.V V B v.%XjXjXkXL.g.I z t z m m ' L.eXtXkXU.I L L U #.3.1.@.j.!.>X=XE.8.M.OXN.+.3.k.M.N.E. X*X>X6XFXAX=XE.E..X+X.XpXgX$X` w 2 2 - @ @ @ @ @ . . . . X @ , u u , , # @ @ - : > 2 2 2 w m v.%XhXpXoXZ.P.m.:.m.|.w.+X+X2XAX2Xr.,.6.XX5XxXcXuXyX_.K.#.$.1.+.:.,.,.;.w. X;X%X+Xk.U E #.i.f.f.P x x R B o.,.Q.zXFXAX<X XE.M.,.B +.:.V ;.,.N.|.oXZ.Z.Z.B.P.$XrX%X%XdXjXBXBXDXDXVXpX,X$X<X<X<X=X+XE.e.8.V.j.+.N b N $.k.k.j.p.B.).tXtXtXfX9XF.S 3 ; ; - - > z [ h.h.` M v b V V N b %.k.^.-XuXyX(.l.7.7.7.8.M.N.(.;XaX:X",
"+.o.B B B U U U U #.p.z.F.U.tXdXsXNXNXNXsX,X&X'.A.q.4.;.;.;.4.q.V.Z.Q.Q.oX;XsXxXSXgX%XP.z.R x w > < : : e s D T n I 2.v.'.&X<XpX<XpXsX<X<XpXpX,X%X].C.B.g.` | b.V.9.k.W./.^.x.c.p.=.*.f.K.).).).F.*.S P i.V.rXgXhXpX'.A.A.B w j ' | n.C.'.&X<XAXHXHXHXHXNX|.r.A.ZXKXPXIXAX3X.X.X.Xr.r.N.N.%XSXDXBX$X` j q 8 0 0 u i a f f s g s 9 , : : > q t f s e : - ; y K 2.$XsXgX+XN.V.V.M.E.E.XX2XMXHXHXMX3X.XN.r..X3X3X.X.X5XHXHX1XN.,.B i.} R F F ` h.B.p.N s.oX/.1.k V 4.'.,X+XZ.v.P k k V #.B.#XfXxXZXAXGXHX3X.Xy.6.r.r..X.X|.2XHXAX$XY.^ 2 ; 2 ; r b.iXDXgX=X.XXX3X4Xy.u. X5X5X5X:X XE.N.V./.#X/.k.+.f.F.9XuXtX).z.z.).).).K.K.B.p.v M +.k.k.8.e.E.XX X~.e.E.<XQ.3.oX|.A.sXZXpXL.F r < < 4 A ^ G.$XhXNX+X'.r.q.,.,.r.r. X<XzXSXZX1X|.4.V k V v.[.eXeXjXeXb.n 2 : q j K a.L.I.I.b.T I I U #.1.1.@.7.R.*X*X!.8.8.Z.V.<.2.3.k.M.W. X=X:XcXFXcXXX~. X X+X=XsXhX]._ h 2 2 : , < , 1 - X X - , 9 e s f d a u u < - - - < e 2 w x 2.&XsXsX%XQ.Z.V.m.3.A.|.Q.+X<XNXNX,X.X'..XzXxXxXuX_.K.z.p.c.f.#.V k V B ] r.&X&X%XoXk.%.E *.c.Y.U.z.R U U :.;.,.M.1XZXxX<XQ.k.1.:.>.N.OXN.,.q.A.|.&X&X&XoX$X%XpXgXjXjXjXhXVXVXVXiX].a.' _ q.q.N.Z.E.E. XOXZ.V.k.1.#.+.%.%.$.j.x.K.J.J.U.wXtXtX9XU.S./ C y q q z I a.B.h.p.+.B b b b b %.1.V./.yXyX_.W.l.7.1.8.9.M.W.OXuXxX",
"#.#.U P P P P +.U <.B./.#XpXjXSXNXNXsX<X+XoXC.m.3._ V B :.3.m.C.oX/.Z.oXpXSXDXgXrXoXs.R x h 2 ; - - - - : > q q 2 w m n I _ 3.m.].$X,X<XpXsXsXpX%XoXP.m.` I i.K.Z.l.l.W.^.K.z.c.p.p.f.z.K.K.V.z.p.%.S E s.P.pXNXNXgX&XN.C.4.k I n.C.{.}.m.m.N. X=X2XAXHXHXSXpX,XNXDXIXPXKX2X.X+X.X.X'.A.|.&XpXSXDXhX].` F t a u u u f f G K D G d p 9 8 y g J [ ! A > = - q K ' &XpXZX<X|.N.M.8.E. XE..XAXGXHXMX3X+X.Xr..X2X3X.X2XZXAXAX+X,.o.<.{ { I F L ` B.P.B.U s.P.oX3.b V ,.|.gXDXSXpXs.b N #.m.@XpXxXZXZXHXHX5X.X4X0.t.6..X.X|.+XNXHXNX'.R C 2 2 4 ; z G.iXDXgX2X.X.X3X4Xy.u.XX5X5X5X:X!.E.Q.Q.OX#XV.3.+.B.wXdXuXK.z.p.#.z.).tXtX).K.h.#.U <.k.m.9.e.E.XX X~.e.E.;XQ.3.oX|.e.<XZXpXP.F w < 4 r s F { {.hXSX<X&X.Xr.;.;.r.r.E.+X1XZXDXxX<X|.,.k h m <.B.U.[.eXkX[.a.K K ' I ` G.[.Y.G.G.i.I L P #.1.1.7.7.E.*XOXM.8.m.V.m.1.1.3.8.M.!.:XcXcXAX6X X.XXX+X=XsXsXpXC.I j w 2 < p p d p 9 : - : e f G G ~ G f d f d : - > a C 3 x ` ].gXZX<XZ.N.V.m.k.m.A.N.&X<XsXNX<X.X+X2XNXAXxXfX%XK.f.*.*.#.#.U k h k ] 4.A.|.&X&XoXk.P P E p.K.tX@Xh.R N :.;.;.8.OXxXxXaX;XN.>.o.>.N.;X+XA.r.N. X<XpXpXpXpXiXiXhXjXhXeX{.G.G.n.' m w w w m ] 3.m.m.M.Q.OX/.P.V.z.k.p.#.%.%.$.j.s.p.p.h.K.Y._.tXtXtX0Xg.' K m m n ` h.B.V.k.+.N b N N N N j.V.#XyX-X(.W.l.7.5.8.M.M.N.;XDX",
"*.#.#.P L P +.<.1.m.oX;XaXsXZXSXgXpX$XoX].C.s.<.B B :.3.v.m.m.C.&X%X%XhXBXSXpXoXv.2.L z 3 2 ; ; - - - : : > > > q q q q w w j j _ 2.v.C.oXiXhXpX&X'.m.3.U B <.V.l.9.l.W./.V.k.j.p.p.j.k.z.k.1.+.$.#.P +.s./.pXZXZXNX|.A.'.A.v.].[.iXiX{.m.:.,.,.r..X2XZXDXGXGXDXNXZXKXPXPXAX2X<X.X.XN.r.|.OXOXpXFXSXhX].` m t a 0 9 e s G G H H ~ f s t D J |  . .~ < = ; q n I '.<XZXsX+XQ.M.l.E. Xy.4XAXGXMXMX3X+X.X.X.X3X3X.XAXAXAX<XN.:.+.<.E T F n L i.B.P.B.U 1.Z.%X/.:.B 4.|.SXPXPXKXpXs.:.m.#XpXaXxXZXAXHXMXXX4Xy.0.6.e.XX.X.X<XDXZX&Xv.z r 4 3 w 2 z b.iXDXgX2X.X.X3X4Xy.u.XX5X5X5X:X!.OXQ.Q.OXOXV.3.$.J.wXtXK.f.#.R P P z.wXdXdXwXK.p.#.p.k.M.l.M.E.XX X~.e.E.;XQ.3.oX|.r.<XNXpXP.L r 4 p p r r F n.iXZXsX<X+Xr.;.,.r.r.r. X=XxXDXSXsX<X'.B h w j U a.g.0XjXCXkX[.g.` a.` Y.eX0X0X0Xg.L M M U #.1.$.@.9.!.;XQ.k.k.B.Z.2.1.1.>.8.E.;XcXcXzX>X XXX3X=X=XsXsX%Xm.I x w 2 a f ~ ~ ~ G a e e f ! ! ! ! ! G ~ ~ G < 2 s H H l I C.rXgXsX+XA.M.V.3.8.N.m.m.%X<XsX<X+X+X2XAXSXsX<X&X].B.<.#.f.x L R U I I _ q.w.'.&X+X#XB.P v v E z.).).J.<.N +.o.o.,./.gXSXSXsXoXw.,.o.8.E.N.|. X+X<XsXsXhXhXiX$X[.{.I.G.g.' t w y q : : > 8 q m _ 2.s.s.k.B.P.B.z.k.z.z.k.p.$.+.P P i.s.h.f.z.F.K.).eXeX[.L.b.{ I n I 2.s.z.B.1.+.N N N b b @.k./.-XyX-X(.W.8.>.7.M.9.8.OXxX",
"*.*.E E E #.s.V.oX%XaXsXsX1X2X1X%X@XZ.B.k.2.U V V :.m.Z.C.Z.Z.Z.%XgXSXSXhX$Xn.` K m y q > : 1 - X X @ @ - : < < > > ; : 2 2 q q w j m n ` C.&X&X|.M.,.>.;.>.5.9.8.l.W.(./.x.p.$.1.1.3.3.3.>.,.:.3.3.1.>.8.|.aXZXgXsX'.q.Z.N.m.$XiXiXdX$Xm.4.o.;.8.N.|.+X=XsXSXDXSXDXDXKXIXIXHX2X.X.Xr.w.|.OXQ.OXSXDXSXiXn.K t s 8 9 e s G ! ( ( ( ! H H J | g.n.D.^ r ; ; w n I N.+XgXsX%XQ.E.E.E.*X~.4XMXHXMXHX2X.X4X.X3X.X.XXXHXHXsXN.1.3.1.U L F F L R p.J.U.B.P +.B.rXpXm.3.:.A.pXJXKXJXrXB.k.oXfXgXsXxXHXGXAX3Xy.y.r.r.e.E.E.|.+XNXDX<XA._ 2 r 3 r r 2 z b.iXDXZX2X.XXX3X4Xy.0. X5X5X1X:X!.*XN.k.Q./.Z.k.p.B.U.K.p.U U E M c U B.wXuXtX).z.p.k.k.m.l.M.!.XX X~.e.|.;XQ.3.Q.E.w.<XgXpX].I r 4 4 s r r z a.[.rXNXNX+Xr.w.w.6.r.N.|.=XaXZXSXgX2X&Xq.V h w k I R { h.Y.0XeXeXeXU.a.G.[.I.0XY.R L L L U #.1.@.o.>.E.;X;XW.k.k.Z.k.3.1.:.>.9.OX1XcX5X>XXX=X2X3X3XsXhX%Xs.R L l ; C H (  .} ^ ~ G H ^ } | [ [ [ ^ G G t e C T / I U B.rXgXaX=X XE.N.Z.k.m.Q.A.m.%XpX2X,X+X<XAXZXNX+X'.m.m.p.R R { T { g.n.a.` _ _ 3.C.&X%XrXV.P v b S #.z.K.B.p.U +.+.:.3.Q.aXSXSX<X|.N.w.;.,.e.e.|.=XsXxXsX,X$X@X].G.g.' K D s s 8 > : @ X @ - : - > w n R a.b.B.[.L.B.B.B.K.V.x.k.$.N N %.1.p.p.z.z.z.J.U.wXeXeX0X{.n.2.` <.<.<.s.3.1.+.%.N b b B $.x._.yXyX_./.M.5.>.9.M.8.E.;X",
"/ *.*.*.f.K.@X%XfXgXZXZX2X3X.X.XP.B.s.<.<.+.B V :.s.Z.Z.Z.&X%XpXhXNXBXiX}.2.] m y q 8 : : - - # @ @ @ @ # , 9 p 9 < - - > 4 e 2 2 > > q m 2.C.Z.N.w.;.;.t.0.0.0.9.M.(.#X/.k.$.+.1.1.1.>.,.8.r.A.N.N.m.,.w.|.aXZXgXNX&XN.|.A.3.m.].@X$X@XB.3.>.,.8.w.w.w.r.|.<XZXNXDXDXNXGXPXKXZX+X+XN.e.E.E.Q.|.sXAXDXgXP.` F D t e q e C ^ ( } } } ( ^ { { a.d.} Y r 4 2 l n I w.&XsXxX<XQ.Q.E.R. X X.X5XHXHXHXMX.X.X3X3X.X.XzXHXZX%X3.+.s.p.P L L L R p.h.J.P.z.N P <.oXpX/.Z.P.].$XpXdXrXP.m.Z.;XgXgXzXAXGXGX2X4Xr.r.r.e. X.Xr.|.sXZXgX&X4.n 2 r r z z w n B.pXDXZX2X.XXX3X4Xy.0. X5X5X1X=X!.OX9.1.M./.V.k.k.B.z.f.#.P P P P P E <.z.).).).K.s.k.k.k.9.M.!.XX X!.e.E.;XQ.3.Q.|.e.;XgXhX].I z 4 r A C r z I b.].sXSX,XZ.N.e.,.6.N.|. X=XaXxXxXsX<X&Xw.4.B U _ L x z F i.U.eXkXwXB.f.b.G.G.g.L I R R #.<.1.@.o.o.8.OX;X/.m.k.B.k.k.1.@.+.7.E.=X5X5X5X=X5X2X3X2X<XpX@Xs.R Y l ; A H (  . .} ( ( } } D.} } } { T z y w z Y { i.R B.rXSXxX<X X X XQ./.N.N.oXQ.oX<XsXpX<X<XpXNX2X+X'.m.a.2.` I L T g.g.n.b.n.a.2.4.4.Z.&X%XyXV.%.N b N P U 1.s.s.<.+.1.1.8.V.;XxXSX;X X|.E.6.,.e.r.E.=XsXxX%XC.2.` ` T D y > : 8 9 9 > : - @ @ - : @ @ - : y K | b.L.L.L.P.U.P.B.k.k.k.k.1.%.B +.3.p.f.z.B.J.P.[.[.iXeX{.].C.v.<.U <.s.s.1.+.B N b N %.1.W.#X-X-X_.W.8.>.0.9.8.M.Q.",
"*.*.f.J.).rXpXfXsXsXzX1X+X.Xy.N.m.s.<.+.+.<.1.3.m.Z.Z.Z.$XhXgXgXpXiX].v.] m g y 8 8 , : # $ $ $ , , , , 0 u u p p p < < < 1 - - > > : q m a.C.'.A.8.;.;.t.u.u.0.9.R.(.#X/.k.1.+.8.8.8.6.6.r..X=X=X+XQ.w.6.|.<XZXZXZX;XZ.oXN.:.3.s.B.K.P.].Z.Z.N.8.:.;.,.3.w.Z.,X,XNXNXpXNXGXGXZXsX<X+X XM.M. X XXXzXHXSX%Xv.` ` H C q 4 l Y ( D.D.D.} { ` ` ` / Y A r 4 4 w M _ ,.|.NXSXaX|.E.E.E.E..X.X3XMXGXHXMX3X3X3X3XXX2XAXZX<XN.:.+.p.#.P E L R h.J.J.B.B.h.P P N 2.oXoX%XjXjXjXdXrX$XP.Z.+XpXsXsXZXHXHXAX=Xr.r.r.6.e. X.Xe.=XZXZXrXC.I w w r l C Z j L B.hXFXZX2XXXXX3X4Xy.0. X5X5X1X=X!.E.5.@.k.V.k.3.k.z.s.1.+.N b b v U #.<.z.K.P.).).z.z.k.k.l.M.!.XX X!.e.E.;XQ.3./.|.r.=XsXpX&X_ z r r A H C z n U B.rXNXgX%X|.A.w.w.r.N.E.Q.=XsXZXZX2X<X+X,X%X].L.P.Y.J.a.R I L L p.s.i.f.L.b.R L ` f.B.h.1.<.+.+.o.>.M.#XOXM.8.k.k.k.8.>.+.>.M. X1X5X5X5XMX2X3X2XsXsX$Xp.Y H 3 = 4 C ^ ( ( / / { } d.g.d.d.{ T F w 2 w I i.p.p.s.%XvXFXZX=XE.E.!.N.V.Q./.Q.%XsXaXsXpXpXsX2X+X'.A.A.m.2.U U ` i.R b.a.` v.C.b.a.2.4.Z.&X%X#XV.+.%.%.#.+.P +.1.p.<.<.1.1.1.k.+XfXSXzX+X X.X6.t.6.6.E.+XsXsX&X3.n j w q q : : # : , 9 , : : - : - : : - - @ - q D J | n.G.L.P.K.B.z.k.V.K.x.7.+.+.+.+.$.s.h.b.v.b.L.{.$XiXiXiX@XB.2.1.s.s.<.+.U B b b N +.k./.#X#X_.Q.M.8.5.8.8.M.M.",
"1.s.V.@XuXfXfXfX<X<X<X+XQ.r.r.M.3.<.+.+.:.m.Z.&XZ.|.|.&XhXSXSXhX&X}.` m m g y 0 0 0 , $ $ $ % % u u u u u p u p 5 u u 5 1 - 1 1 < > > q K b.].&XM.6.;.O.t.0.0.t.9.R.!.OX/.l.1.7.M.N.M.e.r..X=XsX1X1X.X6.,.N.2XZXZXZX+Xr.N.A.>.8.1.3.B./.$X#XoXoXm.:.B ,.8.,.3.m.'.$XiX,XiXNXSXZXZX2XzX<Xe.e. X X.X2XHXHXpX'.v.s.i.T l 3 l Y *.S.Y.D.d.` R R R E Z Z 3 4 4 h L <.4..XZXHXsXOXM.M.E.e.y..X3XMXGXMXMXMX2X3X.X3XZXFXxX+Xk.<.#.E E R #.R i.J.U.K.B.B.s.U P k V m.P.pXDXJXJXJXjX%XoXP.pXpX<X2XzXHXAX3X X6.6.0.;.e.XXE.E.aXDXgX$Xv.I q w z z x F x P Z.hXFXAX1XXXXX2X4Xy.0. X5X5X1X=XE.8.>.>.k.k.@.+.3.k.1.<.+.N 6 6 k P #.f.K.).P.K.).z.k.k.k.k.M.!.XX X XM.Q.;XQ.3./. Xr.=XzXsX&X_ x z A A ) H C x n B.oXgXSXgX&XA.r.,.r.e.w.w.|.aXZXAX2X+X2XSXDXgXrXrXiXdXU.R h 3 h h U <.h.@XJ.I L a.L.U.J.p.<.<.+.%.+.8./._.M.7.3.k.k.8.>.+.>.l.Q.=X5XMXAXMX2X3X2XsXgX%Xi.L Z 3 = 4 l Z Y Y R / d.d.h.h.h.h.d.I x 3 3 k i.B.s.s.V.fXSXGXAX=XE.y.y.8.k.Z./.Z.pXSXsXpX<XhXNX,XA.,.,.v.v.<.P R h.J.B.J.i.<.s.Z.B.<.B 3.Z.&X#XOXM.@.$.k.c.j.$.#.p.s.1.+.1.+.+.8.OXxXDXxX+XE.E.6.6.r.r. X=XaX<X&X4.j 2 - : > 8 9 u 0 0 9 < , - @ @ X . @ : , : - - 9 s K ' { n.b.B.K.P.k.k.x.^.^.x.+.b %.#.s.s.s.a.s.b.b.].iXhXgXrX].m.3.s.3.+.U +.+.N b N B 3.W.#X#X#XW.N.8.>.>.8.M.M.",
"M.|.+X;XpXgXxXsXOXQ.N.N.N.V.8.:.V +.3.m.N.N.A.r.|.+XsXSXDXNX&XC.` I j w y y 8 8 u 0 $ + . $ 5 i d u , : , < < < u p Q Q p 1 1 1 @ > e q K L.$XoXM.6.O.t.t.u.u.u.u.R.!.OXQ.8.1.8.V.N.Q. X=X2X2X2XGXAX.X6.t.r.1XHXZXsXOXQ.Q.w.,.8.m.oXyX#XoXoX/.P.yXoXV.3.B V :.C.m.A.'.&XrXhXgXgXSXZXZXsX=XE.E.+Xy.3XAXAXZX<XoXK.p.i.E Z x Z *.Y.Y.Y.S.i.U U U L x l 3 6 l z M P ] r.<XDXSXaX!.M.M.E.E.6.y.5XHXIXHXAX3X.X3XAXAXsX;Xm.B U #.#.#.#.p.B.K.K.K.)./.K.<.N k h k <.oXdXIXdXrXDXLXSX&XA.<XsXsXsXAXGXZX.Xr.E.6.;.E. XE.=X1XaXgXpXB.n w j z z z F F k I P.gXFXAX1XXX.X2X Xy.0.~.1X1X1X=X!.R.>.+.k./.W.k.1.3.+.V k k k c c k M p.K.9X).K.z.f.z.k.k.k.M.!.*XXX~.E.OX;XV.k.oXE.e..XsX<X'.2.L F A H H F F L L s.B.rXjXSXhXOXN.A.w.w.e.M.E.+XaXAX2X2XsX,Xm.3.B.P.dXSXdXwXK.i.M k k U B.B.R F I Y.jXkXL.J.B.#.U +.%.@.k.OX;XW.+.8.M.V.1.B o.k.Q.XX2XMXMX2X3X2XZXZXpXP.p.E l 4 4 3 3 h Z Y / *.*.h.f.h.J.h.R v k h M 2.P.Z.m./.aXZXFXDX1X XE.y.e.Q.N.V.Q.%XhXgXgXsXsXpX&XA.,.4.;._ U #.s.z.K.).tXtX).z.p.B.k.<.1.3.m./.#XOXV.8.1.1.V._.#X/.B.<.P +.1.1.1.>.8.;XFXSXsXE.6.e.r.6.r.E.OXaXxXhXB.n q q y a a 0 0 # # @ @ - - - @ X X @ - , , : : : : 8 q m ' n.J.P.@XK.V.V.V.V.V.k.j.#.+.P +.1.v.v.s.v.v.P.%XhXgXhX%X%XZ.1.<.:.+.U B N b b B 7.^.#X#XOXE.l.8.7.>.0.Q.",
".X2XZXZXsX<X+XQ.N.Q.Z.k.+.B U <.3.8.m.A.N.|..X&X<X2XNXNX,X'.q._ m j y q 8 8 8 0 # # + + % 5 i d 9 , - @ : < < < p p d d Q d 5 5 X : e z { L.@XQ.8.5.t.t.0.t.t.0.R.E.OX*XW.8.8.M.OXOX;XaX1X1XAXHXAXMX3Xr.6.r.2XAXZXsXOXQ.Q.w.,.8.V.OXyXyXrX%X$XP.P.Z.Z.oXm.:.B 4.4.v.C.].].&XpXgXZXZXZXzX=XE. X=X3X3X5XHXGXHXpXZ.k.s.p.R S S *.F.7XU.J.i.<.<.s.i.Y Z l l l z M U ;.r.<XAXHXsXOXM.M.E.E.6.y.2XHXGXHXHXMX3X2XAXAXaXoX3.P U #.#.#.#.f.B.K.K.J.K.B.k.z.U k c P V.dXJXLXdXwXdXdX$XZ.A.=X1XZXAXHXHX2XE.r.e.e.e.E. X X=XaXsXfX@Xs.n w z C C x F L k P Z.gXFXAX1XXX.X2X Xy.0..X1X1X1X=X!.9.>.@.k./.#XZ.k.<.U V k k b N P P +.p.K.).K.z.z.#.#.p.k.k.M.!.=X*X!.R. X;XZ.k./.E.r. X1X<X'.4.L F H ) H H H L L U s.$XjXSXgX&XN.M.w.w.e.M.N.OX;XmXmXNXNX&X4.B :.<.P.tXdXdXrXV.:.B +.s.K.z.R L I G.wXI.h.J.B.<.R +.+.1.k./.#X(.l.7.l.M.8.+.+.3.N. X3X5XMX2X2X2XZXsX;XP.s.R Z 3 3 4 3 l L *.f.F.J.K.J.J.J.z.#.M k V +.m.Q.Z.Q.+XaXZXAX5X=X~.y.0.6.Q.N.N.oX;XgXgXfX,X&X'.A.q.4._ B :.1.3.z./.#XyXuXtX_.z.j.V.k.1.1.3.m./.OX_.V.k.1.k./.yXfXvXjXrXP.k.8.1.>.>.8.+XZXxX1X Xe.r.r.t.6.E.OXaXZXgXP.I w > q e 0 # # # 0 , < < < 5 5 5 < < , - @ @ : , 0 y q y D T i.h.P.).)./.^.^.K.V.z.3.1.#.+.#.<.2.2.B.m.v.m.Z.$XpXgXrX$XZ.m.1.+.U B +.B N N $.x./.#XOXQ.N.8.>.>.8.M.",
"1XZXAXAX2XOXQ.M.m.m.s.+.N M U 1.B.N.N.Z.|.+X<X2XNXNX<X'.q.V j w q q q q 8 8 0 # + + + $ i Q d u : : : : > e e p p e p d ~ ~ Q p = - e H h.U.oXQ.6.5.t.0.u.0.0.u.~. X*XOXN.8.N.OX;XaXsXzX1X2XzXHXMXAXmX.X6.r.=XZXAXsXOXE.Q.w.,.8.E.OX;XpXdXdXrX$XZ.C.Z.&XoXm.4.4.4.4.2.v.m.].$XrXpXsXZXzX<X X=X1XAX3XXX5XGXIXZXoXV.V.B.s.#.P #.f.U.Y.z.p.1.s.B.J.d./ S Z z x L U ;.r.+XAXFXZX*XM.9.R.e.6.y.3XAXHXHXHXMXMXAXHXZX;Xk.+.E #.#.#.#.f.K.P./.V.z.k.p.<.z.<.P <.).jXJXLXjXdXrXoXB.v.m.N.+X1XAXGXGXZX3Xr.6.6.e. XE.E.=X2XzXgX%XB.U x l r H F F F L m +.Q.xXGXAX1XXX.X2X Xy.y. X1X1X1X=X!.0.>.+.7./.yX_.k.o.B V V V +.1.3.k.p.z.K.).K.f.*.S #.k.z.l.M.!.=X*X~.M.OX-XZ.k./.E.r..X2X2X'.3.I F Y ^ ^ H F F L x R K.dXDXSX;XQ.N.w.8.8.M.N.Q.&X=XNXAXsX|.:.V b V :.V.rXgXvX%Xk.k.^.#X@XJ.i.i.i.g.g.R R b.J.a.<.U +.+.1.l./.OXOX8.8.k.l.8.+.+.8.r..X2XMX5X2XMXAX1X+XZ.s.E x l l 6 x P #.p.z.K.K.K.K.K.P.z.<.N V s.N.N.Q.Q.=XaXzXAX1XXX X~.y.9.8.Q.Z./.%XgXgXfX;XoXm.3.:.:.4._ _ :.k.Z./.#XfXjXfXuX#Xx.k.W.l.$.1.3.k./.oX/.W.l.8.W.(.uXSXKXKXJXjX#XV.1.>.,.8.|.<XsX1X+XE..Xr.t.6.E.OXpXSXSXeX` w > > : : @ # 0 u a s s d s d G ~ f e - @ @ , 0 0 9 8 > q t F / h.).).).).).P.K.V.z.z.s.<.+.U +.<.v.v.s.2.2.B.$XhXpXyXrX@XB.2.:.+.U B N B +.k.V./.OXOXQ.9.>.>.5.7.",
"AXzX2X+X|.Q.Q.Q.8.<.B U <.s.k.s.k.N.|.&X%X<X2XNXsX,X'._ m w q q q q q q 8 0 : # + @ , u d d 5 > e q e y r r s s e e < a G ) ~ s ; ; r { U.@X/.Q.5.5.5.0.u.u.u.y.!. X*X!.E.N.Q.;X:X;X;X;X X|..X2XAXHXAX3Xr.r.<XDXZXzXOXE.E.e.;.6.N.|.;XpXhXgXgXNXhX$XC.C.'.C.C.'.q.4.V B s.C.P.Z./.&XpXsX2X=X1XAXGX2Xy..XAXGXFXsX/./.Z.V.p.$.p.f.F.z.p.#.:.1.k.z.h.d./ ^ L L L U ;.,..XZXFXDX;XN.9.e.e.e.y.XXMXHXHXHXHXHXHXHXpXQ.+.U E #.#.#.f.K././.K.z.j.p.p.p.s.s.B.tXDXLXJXdXL.wXrXP.4.:.A.|.=XsXHXGXHX2XE.r.w.,.E.=XE.E.>X1XzXfX/.R x z C l H T H L L M :.Q.zXFXAX2X.X X2X.Xy.y. X1X1X1X=X!.e.>.N o.Z.uXyXV.>.:.+.>.k.k.k.k.V.B.K.wXwXJ.#.v v #.V.Z.M.M.!.;X*X!.M. X#XV.k./.|.e..X2X2X&Xm._ F Y ( ( Y Z Z L h L p.@XjXSXfX&XQ.A.8.8.m.M.V.Q.|.2XZXsX&XA.:.b c V 3.OXfXxX;XM._.fXvXyXP.J.L.L.h.I z F h.J.a.<.P U +.+.1.l.OXuXl.7.7.l.k.1.#.1.w.E.3X5XMX5XMXZXsX&XB.1.L l x S R i.f.s.p.1.p.p.z.V.P.P.k.+.+.+.Q.oX|.E. X1XAXAXzXXX~. X XR.R.E.Q.Q.+XpXgXgX;XoXm.3.:.B B 4.4.4.3.P.#X%XpXSXvXuXyX#Xl.k.W.l.@.1.3.k./././.Q.E.M.W.!.;XxXFXKXJXvXfXOXM.,.,.8.E.+X1XzX=X.X.Xr.6.6.M.Q.%XgXSXdXs.j > - @ @ : 0 u f s A A G G ~ ~ ~ G f e , : : : : 8 : - : 2 w x Y h.z.J.K.).).).P.P.K.B.k.p.<.#.:.:.<.s.m.B.C.C.].rXpXdXrX@XP.m.3.U N B +.%.1.k.Z.OX;XOXM.>.>.>.@.",
"fX;X|.N.N.N.m.k.:.+.U :.k.V.V.k.B.P.rXhXgXpX<X,X'.q.I j y y y q y y e 8 : # @ @ @ , a d s p 4 4 C F F C z t z C r r C C A ! ! H 3 3 z f.).)././.6.5.5.0.0.u.~.XXXX X X!.!.OX;X;X;XOX|.Q.N.A.N..X1XHXGXZX.X|.<XSXZXzXOXE.E.e.t.6.e.|.=X<XpXhXBXJXLXBX$X'.N.N.'.|.m.3.:.U <.s.s.2.m.Z.&X<X+X+X=X1XHX2X.X.X1XHXGXGX;X(.V.V.V.x.k.f.p.p.1.1.>.1.2.s.S.S.D.d./ L I _ ] ,..X1XHXFXaXQ.9.e.e.e.r.4X3XAXHXHXGXGXGXZX+Xk.E E E E #.i.z._.K.V.k.k.p.j.B.P.P.P.@XrXjXvXtXB.a.K.oXv._ 4.Z.=XsXAXHXHXzX.Xr.r.M.,.E.=XE. X1XzXaX%Xk.M l C Z l H T T L L V >. X1XFXzX>X X X2X.Xy.y. X1X1X1X>X!.E.>.b b k.fXcXyX/.M.3.8.V.Z.V.k.B.K.tXjXuXF.P c v #.K.K.V.M.!.:X=X!.N.Q.#XV.k./.|.e..X1X2X&Xm._ F ^ ( ( ^ Z Z Z x L #.B.rXjXvXhXOXN.8.6.8.w.N.Q.N.,XsXsXaX;XN.B b V >.E.=X;X+XE.uXvXSXyXK.J.K.Y.G.Y z F a.b.h.2.U P %.%.%.7.(.aX!.l.7.k.k.3.1.3.6.r.+X1X1XMXzXzXzX+Xm.<.L l Z R h.z.K.z.1.U P P s.B././.k.:.1.m.OXOXOXE.+XzXAXAX1X+X X XE.R.E.OXQ.oX;XfXgXhX&XN.3.<.:.B B :.3.C.Z.pXgXgXgXSXxXpX#X/.k.8.M.8.+.@.p.B./././.Q.E.!.!.*X;X;XyXfXfXpXxX<X XM.8.6.N.+XaXxX1X|..Xr.6.w.m.Z.#XdXSXjXL.K q - @ > a f f f s C C A A H A H H G G s 9 : # # : - - > 2 2 3 l L E i.S.U.U.@X@X).).K.K.K.V.s.<.U :.1.k.B.Z.C.C.P.$XrXrXrXrX@XZ.k.<.U B N B 3.V.OX;X-XE.0.8.>.o.",
"@X/.P./.Z.s.U V B >.8.8.3.8.m.N.rXdXjXBXhX$X'.v._ m w q y s s d e < : - @ @ @ + $ u d f s r l z L I I L x l z x x L Y F F ^ { / x x E B.)._./.(.9.5.5.0.9.R.!.*X*XXX X X=X:X;X-X#X(.Q.Q.Q.Q.|.+X3XAXGXAX<X+X<XxXSXxXOXE.E.6.t.0.y. X2XsX,X&XpXBXDXBXNXhX,X'.w.4.N.Z.V.s.:.P :.1.s.m.Z.|.|.'..X.X2X2X2X1XzXAXGXIXxX=XN.V./.Q.k.3.#.#.$.3.3.3.s.z.J.F.S.S.*.Y L B V ,..X2XHXGXxXQ.M.e.e.e.r.r..XMXAXHXGXGXFXfXZ.<.E P P P #.s.K.).V.z.k.k.z.V._.uXdXdX@XB.h.B.h.<.a.s.2.B B ,.&XsXAXHXHXZX+XN.r.w.N.N.Q. X X=X1XsXOXV.+.k l C A r T [ T L I B ,. X1XAX5X=X~.~.=X.X~.y. X1X1X1X>X!.E.>.b b 3.yXSXDXgX%XN.k.N.Z.Z.B.K.#XjXvXuXf.S c v #.z.V.l.M. X1X=X!.N./.#XV.k./.E.6.y.3X2X.Xw.U x T D.d.( Z l x S L E <.K.dXSXxX%XQ.e.8.8.8.M.N.N.&X<XsXxXgX+X8.N o.>.8.E.+X=X:XcXvXfX/.p.p.p.g.G.I F T T a.n.a.#.U U +.+.7.W.-X*XW.l.7.k.k.s.s.,.e.|.=X1X1XzXzXzX|.3.+.M v L i.s.z.B.z.p.<.+.U 1.k.Z./.V.k.V.oX#XOXOX+X1XzXzX5X=X=XXX XR.9.E.OXOX%XpXfXhX+XZ.3.:.:.:.:.:.3.C.oXpXBXDXBXhXsXsXpX&XZ.8.3.m.3.+.+.s.B././.Q.W.!.(.*X:X:XOX/./.#X#X1X<X=X XN.e.E.=XsXAXsX X|.N.w.e.k.V./.yXvXSXwX` w > : y K G s t y r l z C Z Z Z H T ! G s 0 : # @ - ; 2 4 2 2 4 6 x Y d.h.L.U.@X).).).).wX).V.p.1.<.U U <.s.B.C.B.K.oXoX%XdXpX#X#XZ.3.U b b +.V./.OX*XQ.M.8.7.>.",
"K.K.J.J.f.U N N >.3.w.w.w.A. X<XjXjXjXdX[.v._ I j w q q p d p 5 1 - - - , , , # u u s s C Z L L U R ` U x k x L L R R L I i.g.i.x P f.^.#X#X/.Q.9.5.5.9.R.R.!.!.XX=X=X=X;X:X;XOX/.Q.Q./.Q.Z.oX%X.X2XAXAXsXaXxXvXSXxXOXE.E.6.t.0.y.XX1XsX,XA.v.n.$XVXDXDXNX,X'.w.C.Z.Z.B.s.1.1.3.<.:.,.w.r.r.r.r..X3X1XzXzXAXHXGXDX1XQ.Q.(.W.3.+.N N P 1.3.3.k.V.Y.Y.Y.S./ L L B ] ,..X1XHXKXxXOXE.e.e.r.6.6.4X2XAXHXHXFXxXoX3.+.U P L P <.z.K.^.x.j.1.p.j.k.K.@XdXdX).<.M L R R ` N k V 4.N.<XAXHXHXAX+XN.N.e.8.N.OXQ.E.=XcXaX1XQ.1.v k Z A C A ^ { T I P +.8.=X1XAX5XXX~.~.=X.X~.y. X1X5X1X>X!.M.>.b b o.Z.vXKXKXDXgX;X%X%X#X#XfXDXLXvXU.P c x P *.z.z.k.M.(.1X=X!.N.Q.OXV.s./.E.6.y.3X3X.X3.I j T D.D./ Z l h Y E L L i.#XvXSX%XOXQ.N.w.8.8.w.A.|.+XhXgXgX;X/.m.>.;.,.e.XX5XAXcXuX(.j.+.U U I i.T { { F T b.n.<.U P +.1.>.l.W.-X*XW.7.3.B.B.s.>.,.e..X=X1XZXAX1XA.;.+.U P E p.s.k.B.B.B.k.1.<.+.+.1.m./.oX%XpX;XOX;XsXzXzX1X2XXX=X=XE.e.e.N.Q.+X<XfXfX%XZ.3.,.:.:.4.v.B.oXrXpXBXBXVX,X'.'.&X<X|.N.3.3.A.3.;.:.p.z.^.W.W.E.!.OX;X:X;X(.V.Z././.OX+X=X=X XE.|.=XsXHXxX+X|.Q.e.e.k.Z./.%XjXSXiXB.x w q D K D t t w w 3 w l z Z Y I T T K D y 8 0 - - ; > 4 2 2 4 3 3 l Z Y { S.L.U.U.).@XtX_.^.B.B.z.s.<.U U <.2.s.B.P.Z.P.rXpXrXdX#XP.k.+.V B 8.Q.Q.OXOXQ.M.0.8.",
"Y.F.f.#.v b +.V.m.3.,.6.|.2XZXZXDXjXiXL.a.n j w w y e e p u 5 1 1 - - < p d d p s a r r z L P R U <.<.U M v N U U <.R L U p.h.i.b +.V._.#X#X/.W.9.5.5.9.E.E.R.E. X=X5X1X:X;XOXQ.M.V.Z.Z.V.m.Z.$X&X2XzXsXaXxXDXGXSXzX XE.E.6.6.6.y..X2XsX&X2.m w n.eXBXJXDXNXmX2X|.m.3.m./.&XV.1.U B B :.w.w.A.A.r.|.;X1XaXzXAXFXFXzX;XOX(.M.>.V c c b %.>.1.k.K.).U.J.h.R F n B ] r.3XZXGXGXZX XE.M.e.r.r.t.4X2XAXAXAXZX;Xm.+.P E P v P p.V.K.B.p.+.%.%.N N P #.K.@X@Xp.M M U R M h h V A.+XsXAXAXHX1X|.M.Q.V.8.N.=XE.e.:XxX1X;XM.U c x L A A A ^ } { I U :.M.;XcXFX5X>X~.~.>X X~.y. X1X5X1X>X X9.>.N b b +.uXKXPXPXPXPXKXDXSXvXKXIXIXjXf.6 6 c p.z.B.V.k.M.OX:X=X!.M.Q.OXm.s./.E.e.E.2X2X.Xq.V h T D.D./ C w w E R L x U P.gXSX%X+X+XQ.M.,.,.,.w.A.&XhXgXfXpX;XOXe.;.;.e.=XzXFXbX(.k.+.N N L L I T a.{ z I G.J.#.P N +.>.@.>.5.*X-X(.7.3.K.K.s.>.,.w.E.+X1XAXAX<Xw.B +.#.U #.f.z.m.V.V.V.B.k.1.V b V 3.oXpXsXgX;X=X<XAXAXzX2X=X XXX+XE.e.E.E.Q.;XpXgXpXoXm.:.:.4.4.3.C.$XdXjXBXVXhXeXC._ ] q.%X'.N.,.3.A.3.:.:.p.z.Z.Z.l.M.E.OX*X;X*XQ.V.V.Z.Z.Q. X=X<X=X X X=X1XHXZX;XOXQ.e.w.m.N./.#XgXDXgXP.M j z F F y q y l w 3 3 h x P #.R I F F D D t y : - - ; ; ; 4 4 4 3 3 3 w F { g.L.P.).@X)._././.Z./.).B.<.M k n a.L.P.B.B.@XrXrXrX#X#X#XV.+.N +.Q.Q.(.;XOXM.9.M.",
"*.E E #.p.s.s.m.m.N.OX<XgXNXgXhXeX].a.I n z t y t s e 9 : - - - > 4 s H ^ ^ ^ J T T F h h L i.h.s.k.s.3.3.1.1.:.+.+.B +.k./.V.1.b @.V.#XyX;X/.k.7.8.8.e.M.E.!.!.*X;X;X=X=X X|.Q.N.N.w.B V U b.[.@X$XpXgXxXzXAXHXAXzX Xe.e.8.3.w.r.4XmXNX,X| q @ s ..H.eXhXNXNXNX+X+X|.N.r.q.r.N.m.3.U P <.h.Y.U.P.V.Q.OX#X;XyXfXvXvXfX%XV.8.3.8.V b b b b o.7.M.P.P.K.s.U M U 4.r..X2XAXGXKXHX<X Xw.e.w.6.6.r.1XAXAXzX1XQ.>.B +.#.L v E h.V.B.p.<.U P U U P U U z.P.K.J.<.<.dX@XB.<.:.N.<XsXAXHXHXAX XM.Q.V.j.K.R.R. X1XxXzXOXV.+.P M S Z r 3 l / { R L x U B.#XxXFXcX>X~.~.>XXX~.y. X1X1X1X=XE.V.3.+.N c k J.DXDXKXPXPXPXPXPXIXLXBXP.<.k h x L p.z.B.k.k.M. X:X*X!.E. XOXN.k.#X!.R. X1X1X X3.V 3 Z / ( F w 3 w x L E R U p.@XjXgXhX%X|.A.3.4.,.Z.m.Z.rXhX%X<XgX;XOXA.>.e.;XxXDX;XQ.k.k.m.<.N n n n I I n R h.f.R v v +.%.V @.e. XaX;Xl.k.V.z.k.1.>.6.E. X=XsXGXZX|.:.:.+.R i.z.P./.Z.Z.N.8.o.b k b V ,.OXsXsX;X X=XsXAXAXzX=X X X XE.y.R.E. X=XpXSXSX%XA.3.s.v.3.C.[.$XhXBXhXiXkXH.' m j m m.fXOXN.8.k.Z.3.+.1.p.k.V.V.W.(.OXOXOXE.M.8.3.3.2.3.N.E.Q.OX;X>X*X*XaXxXZXsX<X&XN.q.,.N.|.Q.;XSXvX$XU M x L L z w z Z z l h x v U #.<.+.U U R I K F t w 2 2 > > > < e e e q q y x F R s.V././././././././.P.K.h.<.I I { g.G.J.L.P.P.@X$X#X+X/.N.8.8.5.R.;X:X*X!.E.9.",
"S S E f.z.m.V.Z.&X,XsXZXSXgXrX@Xn.` K z t y y e a p e < : - : : s C H ^ { } { { d.d.i.v c L h.P.P.N.N.N.N.m.3.>.+.+.>.k.(.-X/.8.V 5.Q.-XyX-XW.k.7.7.8.9.M.E.!. X;X#XOX|.E.E.E..XN.r.4.V I ` h.J.J.P.%XgXZXAXzXAXAX5X Xe.e.8.3.w.r.4X2XNXiX| e @ # u ~ | }.,XNXZXAXNX2X.XN.r.w.w.C.m.s.<./ d.Y.U.K.z.k.V././.yXfXvXxXfXyXoXZ.V.V.9.0.O.V b V >.8././.V.<.V M <.Z..X2XAXAXHXGXHXsX Xw.e.w.6.e.e.1XAXAXzX1XN.+.B #.P v P #.z.B.1.U <.R U U P P #.p.s.J.K.@XB.B.jXjX/.Z.Z.%XsXAXHXGXAX1XE.N.W.z.z./.!. X=XzXxXaX/.k.U L v Z z 6 4 r T I L x x U B.@XxXFXcX>X~.~.6XXX~.y.!.1X1X1X;XQ.M.1.U N k c i.@XgXSXJXLXIXPXIXLXhX@Xs.U M M U ` p.z.B.m.8.M. X;X*X!.E. XOXm.k.+XOXE.=XzX1X X3.b 3 h Z F z w q w x L E #.U <.V.rXgXhX,X|.A.q.q.q.V.B.Z.$X,X,XpXNX<X+XN.8.e.OXcXxX#XQ.V.Z.V.2.U M j j n n x I a.i.#.P N @.@.O.;.e. X1X;XQ.V.V.z.x.3.>.8.N.Q. X1XHXKXgXoXs.<.P <.B.%X%XoXm.>.B b h k V ,.N.+X1X<X X.X=XsXAXAX1X=X X XE.y.y.E. XXX*XaXgXhXoXm.q.v.C.].iXhXVXBXVXiX{.| G y 2 2 k m.fX(.M.7.k.Z.7.+.1.p.k.V.V.Z.Q.(.Q.E.N.M.3.:.B B U +.>.k.Q.-X:XaX:XaXzXAXZXsX+X.Xr.,.r.N.E.;XSXxX;Xk.B v U E n x L Z C z x x M U +.1.1.<.:.<.2.i.a.F n z y 2 : : > < e e e q q y w n U p.m.V.V.Q.OX/./././.P.J.h.i.Y T { } a.h.J.P././.OX#X;X*X XE.9.R.*X;X;X*XE.5.",
"#.p.z.K.Z.Z.oX%XgXgXgXgXdXoXv.` m j w q q q e e e < : : - : > e ^ ^ { } d.d.d.{ i.S.h.R x P J.rX%X&X+X+X+XoXQ.V.V.Q.OX;XaXuXQ.>.o.8.OX;X;XOXV.k.1.7.8.8.M.E. X*XOXOX!.E.E.N.r.r.r.3.:.:.v.L.J.a.B.C.oXpXzXzXzXzXAXzX Xe.e.8.3.M.4X4X2XNXiX .s @ . @ : e K n.{.hXNXNXNXgX2X+X'.w.m.Z.P.K.h.i.R R V.k.k.V.V.Z./.#XyXyXuXyX;X;X#X-X>X*X!.9.5.>.5.8.Q./.V.<.V V m.%X=XAXHXAXZXGXGXZX+Xw.e.w.w.e.e.=XzXzXzX1XN.+.+.$.v P E p.z.z.1.+.R P N N M P <.B.B.K.P.@XV.B.dXdXZ.oX+XsXzXAXAXHX1X.XN.E.M.k.V._.!.XX>X5XzX=XM.:.B N v Z l 3 4 4 Y F l h k U m.oXxXFXcX>X~.~.>XXX~.y. X1X1X1X;XQ./.8.+.P M v P h.m.m.C.C.P.$XrX$XjXjXiXrX@X[.L.B.h.B.V.B.k.M. X;XXXE.N.|.OXV.k.oX(.R. X1X1X|.3.k 4 3 3 w w w w w k v E #.+.+.s.Q.hXhXpX+X'.r.w.r.m.B.V.Z.&XpXgXZXsX<X|.M.M. X;XaX;X;X#X+XV.:.m j k w j n n I g.f.p.%.+.1.1.o.,.e.=X1X1XOX/.x.z.K.k.8.8.M.M.N.;XZXIXGXsXP.:.N <./.#X+XQ.,.V V V V o.8.E.+X=X=X=X+X=X1XzXZXsX<XXX+X.XE.e.y.~.XX>X=XxXsX%XC.q.m.].].iXjXBXBXVXqXH.| a : @ = ; k B.fXQ.M.7.8.V.3.+.3.s.k.l.M.V.Q.Q.E.8.M.M.3.B V V V N B @.k.Q.OX-X=X=XaXZXZXNX2X.X'.r.r.e.E.;XxXxXfX/.+.v R i.L L / Y T R E P U <.1.k.B.B.m.p.a.a.a.` ` T D y 8 < e < 9 9 e > > > > w j L U 1.k.Z._./././.).).U.L.b.i.} { R <.p.B.P.B.V.V.Q.OXOXOXOX!.!.!.*XaXaX!.5.",
"V.K.K.P.oX&XpXgXNXgXrX$XC.` n j w q q q e e e e > : : : > e f J { { } d.{ / T Y L ` i.R M P z.@XgXsXsXfXpX;XyXaXcXvXFXFXvX;Xl.o.>.N.-XuX-X(.V.k.7.7.8.8.M.E. X*XE.!.OX X|.r.6.;.,.,.3.C.@XrXU.s.Z.m.N.&X<X1XzXAXAXzX Xe.l.k.k.N.4X.X<XNXhXG.s - @ @ @ - 8 m ' n.[.iXBXDXJXNX+XA.w.C.oXoXZ.k.<.+.<.:.3.k.V.V.Z././.oX#XyXaXfXfXaX1XbXbX:XOXE.e.8.m.Z.N.2.B U C.%X2XHXHX2X2XSXGXHX<Xe.e.e.e.e.w. X1XzXAX1XQ.1.+.1.+.E E #.p.z.k.k.N M M M v M <.B.K.@X@XB.s.B.$XoXA.E.+X1XZXAXAXZX+XN.N.M.>.8./.Q.~.XX1X5X1X X8.B V M M S Z l 4 3 F l 3 3 k +.B.oXxXFXcX>X~.~.>XXXy.y. X1XcX1X;XQ.OXM.<.U L x S R s.v.2.B m M <.B.jXDXLXLXJXdX[.h.h.B.K.V.l.M. X;X=XE.M.|.OXB.k.oXQ.e.E.1X1X X8.V 3 4 4 w Z F n j x v E +.U U 1.m.%X<XsX<X XA.r.e.8.m.V.Z.oX<XNXZXZXsX=XQ.E.E.OX*XaXfXaX%Xm.B k j m w j n x L g.J.z.p.$.3.8.>.8.E.=X1X;X;X#Xx.j.^.V.k.3.8.8.M.&XaXFXFXZX&X<.V <.$XOX|.8.o.V o.6.w. X+X=X=X=X2X1XzX1XZXZXzX<X+X X X XE.y.y. XXX>X2XzX<X|.A.m.C.$XiXVXBXBXkX{.| D y , @ . X > n C.fXQ.M.1.8.V.1.+.3.s.k.k.M.V.Q.Q.Q.8.8.8.3.<.U U U B o.%.1.8.M.E.!. X=X1XsX2X2X3X3X.Xr.6.E.=XaXxXxX-X>.b #.p.R L / T / / R R #.p.z.B.P.oXP.h.i.i.i.{ } | ^ G s f G a a e 9 > > > 2 2 2 w z M R s.V.P./.).@X@XU.L.G.J.B.f.i.<.<.s.s.k.k.8.8.M.N.Q.OX*X*X!.*XbXcX*XR.",
"M.V.Z.oX%XgXSXDXhX,X}.a.' n j y q q y e e 9 e < e < > > e s ! | { i.d.} R L F Z h x x M M L #.s.fXSXFXFXDXvXSXDXKXIXPXKXcXW.>.+.7.E.;X;X-X/.M.8.8.8.8.9.M.E. X X!.!.!.E.E.w.,.;.,.8.m.C.$XrX@XC.C.A.A.|.=X1XzXAXAXzXOXM.M.k.k.N..X.X2XNXhXL.D > : @ @ - > 8 y D | G.eXBXJXDXhX&X+X|.A.w.A.Z.oX+XN N B :.1.8.M.Z.V.Z./.;XaXxXxXxX:X1XcXcX:XOXQ.M.N.Q.N.3.B 4.].pXsXAXZX+X.XNXGXGX1XN.N.e.M.M.8.E.=XzXAXzXOXM.3.3.<.+.U #.p.z.B.z.L L L N M M P <.B.$X/.:.2.%XpX%XN..X2XsXAXHXZX<XE.M.E.e.;.e.OXe..X3X5X5X2XE.,.B b M M L Z Z Z l F w 4 3 x <.V.#XgXFXcX=X X.X>X Xy.y. X6XaX1X;XOX/.V.k.p.#.v x x B.P.P.2.k w M s.P.dXJXJXJXkX[.B.h.B.K.V.M.M. X=X=XE.M.Q.OXV.k.oX!.R. X1X1X=XN.:.6 3 l F { a.` I P P P U N V o.3.N.+XsXsX2X.Xr.r.3.m.m.m.'.,XsXNXZXsX2X+XE.E.E. XaXxXxX;Xm.:._ _ _ M L L z L h.U.K.z.3.7.8.8.E.OX=X=X*X;XyXK.k.^./.k.3.1.8.M.Q.OXpXgXNX%X3.B 2./.aX+Xe.o.O.6.E. X1X1X:X2X1X1XAXHXAXSXAXsX=X|..X.Xr.y..X.X.XXX2X5X1X+XE.N.|.%XpXhXBXBXkX{.| s 8 , , + . @ 2 I L.pXV.k.1.8.M.1.+.3.s.k.k.M.W.(.(.E.0.>.>.1.s.m.B.B.#.+.+.%.@.7.l.E.E. X3X=X2X2X2X2X3X.Xy. XXX>XcXAX:X7.N 1.z.i.R / / / d.i.i.h.K./.@X@X@XB.i.R ` a.} g.g. .[ ! ....G d e > : > q e > 2 2 3 l x U R s.B.P.@X@X[.U.L.J.B.z.s.1.:.U B 1.k.M.M.k.8.N.Q.*XOX!.(.;XbX:XOX",
"N.|.%XpXZXSXNXpX].n.' n t y y t q 8 9 8 > : : : p e < 2 e s J [ } i.d.{ I L L L x h h h x L P R P.pXFXKXKXKXKXKXPXPXPXDX(.@.N O.M.!.;X;XOXQ.l.7.8.8.9.M.E.E..X X XE.e.6.6.6.6.8.w.A.m.B.C.oX$X$Xm.w.N. X=X2X1X5XzXcX=XN.M.k.z.Z.E..X2XZXhXL.K q - X X - : : : q f K | {.iXVXBXSXhX,X'.N.N.E.E.E.N.8.>.+.o.o.1.k.k.V./.#XyXfXxXxXcXzXcXzXaX<X;X;X+X&XN.:.;.A.,XNXZXNX<X.X.X1XHXKXzX|.E.N.M.e.8.E.=X5XAXAX1XQ.M.8.1.+.U 1.V.P.B.p.s.i.<.<.R P P <.B.oXZ.B m.dXpX+X3X3XMXAXHXGXgXQ.N.M.M.6.6.E..Xy.3X3X2X3X.X,.o.V b N R R { d./ Y I j 3 h P 1.Z.%XsXFXcX>X X~.>X.Xy.y. X6XcX1X:XOX#XOX@X#X).z.#.U <.C.@XZ.I w j P a.P.rXrXwX@XL.h.p.B.K.V.M.M. X=X=XE.M.Q.OXV.k./.OXE. X1X1X=XN.:.x L ^ S.I.[.L.b.s.p.<.+.N V V B 8.|.<XzXsX+XE.A.w.m.m.A.'.&X<X2XZXsX1X<X Xe.R.E.cXDXFXgXoXv.s.v.C.b.b.a.R h.wXrX).x.j.k.l.Q.OX;X=XOXQ.OXuX_.x.K.P.V.k.3.8.m.N.Z.OX<XsX<XZ.3.3.m.aX;XE.8.e. X:X1X1X2X2X5XzXzXAXAXFXHXZX1X+XE.E.E.r.y..X.X.XXX=X5X2X3X+XpXNXSXBXBXkX0XD.J e : - : @ + . @ q T L.rXZ.k.1.8.M.1.%.k.k.k.k.M.W.(.(.Q.7.>.+.1.m.P.P.K.V.B.s.1.+.o.>.,.e.E. X.X3X2X2X2X3X3XXXXXXX=XcXAXaXM.+.3.z.z.i.*.h.S.Y.U.wXtXdXjXDXjX@Xs.M k L R d.g.D. .} [ [ ..a 9 - @ @ - : > < > > 2 4 w z x L R h.P.[.wXwXwXV.V.V.V.k.3.+.B V :.k.N.M.8.8.8.E.W.W.W.(.;X:X;X",
"=XsXZXZXNX<X].v.] K z w q q q e 8 8 > , : : < e s s r r r C T { g.a.d.E L I i.p.i.L h k L <.h.J.Z.%XgXDXKXKXKXIXPXKXxXOX>.V N >.Q.OX-XOX(.W.k.>.7.8.M.E.E. X XXX XE.6.;.;.6.e.N.N.|.oXoXoXoX$XoXA.r.N..X+XXX=X5XzXcX;XQ.Z.k.z.Z.N. X1XZXgXP.T t : X . - : - @ , < e f ! n.0XkXBXhXpX2X2X3X.Xr.t.=XQ.m.3.,.o.:.>.3.m.N.oXoX#XyXaXzXzXxXAXxXxXxXZXaX<XN.,.w.%XZXSXDX2X|.'..X=XAXGXAX.X|.N.e.w.8.Q.=X5XAXxXaX=XQ.k.1.U N s.#XdX).s.J.B.h.h.s.<.<.s.C.m.m.:.&XgXoX+X3XMXMXAXAXDX;X3.V.m.6.6.E.y.4XXX3X3X2XXXr.;.;.;.3.B.K.P.Y.U.Y.h.<.M k N :.2.Z.%XaXFXcX=X X~.XX~.~.u. X6XcXcX:XOX#XOX@XyXjXdXwXJ.s.C.$XrXC.U M M P a.J.J.P.U.J.i.p.h.V.V.M.M. X=X=XE.e.Q.+XZ.k./.!.y. X1X2X+XN.:.U d.Y.0XkXiXeX@X@X/.V.k.1.o.o.o.,.M.=XzXzX1X=X XZ.m.8.A.N.'..X2XAXNXZX1X Xe.9.R.aXFXKXFXhX].m.s.].].[.L.U.kXJXjXK.x.k.l.W.OX=X1X;XOXN./.fXuX/.V.V.V.V.k.8.k.N.N.oX&X%X,X&X|.A.,.=X=XOX X=X1XcXzX1X1X5XzXAX5X5XzXFXSXzX;X XE.y.r.r.r..X.X.X3X3X5X1X1XsXDXGXSXhXiXG.[ s 8 - X @ $ + + . @ e [ J.@XV.l.7.8.V.1.+.k.m.m.m.m.V.Q.Q.M.>.>.>.8.B.Z.K.P.@X@XP.z.1.o.O.O.,.6.r.r..X.X3X3X3X2X2X3XXX=XcXvXcX!.7.$.k.z.z.i.h.b.Y.eXjXJXJXJXJXjXU.R h 3 w x / [ [ [ ! G G G 8 , - - - : : : e 9 9 > 2 2 2 2 w x R a.G.U.wXrX/././././.V.k.1.o.+.:.1.3.3.8.8.8.l.R.W.Q.OX-X-X",
"<XNXZXpX&XC.q.] m j y y y e e 9 9 9 8 , < 9 s G ~ H H F F / g.G.h.i.R L M U h.U.@Xi.M M <.J.rXjXfXhXpXpXgXSXDXDXDXpXN.>.V V 7.Q.OX=X*XOXQ.V.8.@.>.8.M.E. X X=X=Xy.e.9.6.6.e.N.Q./.%XhXhXhXrX$XC.N.r.r.r.E..X=XzXzXxX;XQ.W.z.z.Z.M.!.1XZXgX].` z q - @ : , @ @ $ u u a s G [ n.L.hXhXNXNX2X3X3X3Xe.w.w.M.w.,.>.>.>.8.N.V.V.Z.oX#X;X1XxXAXHXAXZXZXsX<X|.A.|.NXDXSXDX+Xr.N.|..X1XHXAX+X XE.e.8.8. X=X1XzXzX1X;XQ.k.1.B V s.dXDXdX).K.B.s.B.B.m.B.Z.m.:.:.A.ZXDX|.<X3XMXAXAXAXSX%X1.Q.8.o.e.3Xy.r.2XMXMXMX3Xy.w.w.A.%XpXdXdXiXtXwXJ.s.U V U <.3.N.%XaXHXzX=X X~.XX~.~.u. X6XcXcX:XOXW.k.1.V.tXjXkXwXB.B.].%X@Xs.I m ` b.[.iXjXJXjXwXi.s.B.B.l.M. X=X=XE.e.Q.+XZ.k./.E.y. X1X5X2X|.2.<.h.7XkXkXjXhXdXpX%X@X/.V.8.1.,.>.w.OXaXzXzX1X;XOXm.3.r.A.r..X2XAXAXAX1X Xe.6.e.!.xXKXKXSX%X].b.b.L.[.P.iXLXLXjXV.k.k.V./.#X;X1X;XOXM.V.fXvX#XV.s.Z./.V.8.3.m.Q.Q.Q.|.+X<X+XN.,. X:XaX1X1X1X5X5XzX5XzXAXzX1X5XAXDXZXaX=X XE.E.r.r.r.y..XXX3X3X2X1X1XNXDXDXiXL.g.J t : - @ X # 5 % $ @ : s } L.@XV.l.7.k.V.1.+.k.V.N.m.k.M.W.M.0.>.8.k.B.V.B.J.B.P.U.U.K.k.1.:.o.V ;.6.r.r..X.X.X3XMXAX1XXX>XzXAXcX(.7.%.1.x.z.p.L I i.U.dXSXSXjXdXwXb.I h 3 w j F C D D C s a e e e e s f f s e 9 u 9 9 9 < > > 2 w Z I } b.U.wXyX#X/./.Q.W.V.m.k.:.V V +.3.m.m.8.l.M.W.!.OX*XOX",
"2X<X,X&Xv.] j w w w y y q 8 > : , 8 9 8 e G ! ! ! ^ T / d.b.h.s.B.h.L h L <.J.wXJ.h.p.B.U.rXjXJXDXgXrX$X$X%X%X%X/.8.B V o.w.|.OXaX;X;X*XQ.0.@.@.l.l.M.E. X*X X.XE.r.6.6.e.N.oX#XrXdXSXSXgXiX&XC.+Xw.;.r.|..X.X=XcXxXxXyX/.z.z.V.E.!.:XgXgX@X` z > : : 9 , . . + $ , u 9 9 a F ' ].&X<XNXAXMXMX2X.XN.N.|.Z.w.,.,.;.,.3.3.3.m.V.Q.|.+X1XsXxXZXDXFXZX<X|.&XsXHXDXZXpX&X'.'.r.r.2XGXAXsX|.E.E.N.M.Q. X1XzXzX1X<XOXN.k.B b <.tXDXDXdX@XJ.s.s.K./.Z.s.:.3.'.,XsXsXpX+XMXMXAXHXzXOXZ.Z.m.k.e.E.y.y.4X3XMXMXMX3X.X.X+XhXDXDXDXjXjXjXdX@XB.m.<.3.k.3.8.|.sXHXzX=X X.XXX~.~.u. X1XzXcX1XOXM.o.k P z.).tXdXrXB.s.P.rX@XL.B.U.J.wXBXJXjXjXtXi.B.K.Z.M.M. X:X=X Xw.M.OXm.3.oX!.6..X1X5XsXOXZ.B.U.wXkXkXkXhXhXpXrX%XrXpX%XQ.w.3.8.Q.=XzXZXZXxX;XoXA.,.,.r..X.XNXAXHXAX=XE.6.O.M.;XFXIXKXNX%X$X].L.[.kXLXPXJXjXk.7.k./.#X;XuXaX;X/.8.V.fXuX/.#XZ.1.V.#Xk.+.k.V.N.Q.+X%X&X|.'.|.1X1X1XzXzXAXzXzXzX1X1X1X=X2XAXzXzXZX=XQ. X|.r.r.|.r.r..X3X3X3X1XsXNXZXhX$Xv.I m q > - X X 1 5 5 i % , 9 A ^ J.@XV.l.8.k.V.7.+.3.3.V.M.M.Q.M.>.5.8.8.l./.P.B.B.[.L.[.wXP.B.B.k.>.V V O.;.6.r.E..X3X3X2X1X>X2XzXDXcX:Xl.O.%.k.Z.B.<.U L ` J.[.[.U.h.i.I n x n x j F H F z D G G t G G G ! ! [ ! G ~ f u u 9 9 9 > e q w r Z T h.J.#X-XyX;X/.Z.V.V.k.k.3.:.U U <.3.1.8.M.Q.(./.Q.V.",
",X&XA.q.] m w q q q q 8 8 > > > > e s s G ! ( ^ ^ ^ T / i.B.J.B.z.B.U k P s.J.U.B.B.J.wXrXrXtXdXpXrX#X$X$XP.N.8.V V o.8. X1XsXzXaX1X;X=XE.7.@.>.M.9.e.E.=X2XXX Xy.r.w.e.N.oXrXdXdXjXjXBXBXBXiX'.&Xr.,.w.r.E.!.*XaXzXxXaX#XZ.V.V.W.!.;XxXgX@X2.z > - > a a , @ + + $ , , 9 e s D I 2.'.+X1XAXAXAXAX2XN.w.,.w.'.+X8.;.V B w.Z.Z.m.w.N.+X<XsXgXZXZXDXZX2X<XZXDXSXsXZ.|.A.,.,.r.2XAXAXsX XQ.OXQ.V.Q. X=XzXzXaX<XOXE.N.:.b +./.jXDXvXwX@XP.P.P.V.s.:.4.A.+XpXpX<X2X2XAXMXHXAX2XZ.m.V.3.8.E. X.X4X3XMX2XmXmXmXNXNXZXSXDXDXjXjXBXDXjXrX$XoXm.3.m.3.3.Q.sXHXzX=X XE.XX~.y.u.~.5XcXzX1X XW.+.k c U s.L.U.@XC.s.s.].dXjXjXdXtXwX[.U.J.i.R i.s.K.V.M.N.OX:X=X Xw.M.OXm.3.oX!.6..X2X5X1XOXZ.B.U.tXkXjXkXhXhXpXrX%XrXpX%XoXN.N.N.Q.=XaXxXxXxXsX<X|.w.w.'..X.X2XNXAXAX1X+Xe.@.0.E.xXKXKXKXDXDXBXjXVXJXPXPXBXwX+.1.l./.#XyXyXuXOXQ.k.l./.OX/.#XQ.k.V.oXV.1.1.k.m.N.oX&X&X&X+X+X;X1XcXxXZXAXAXAXzX5XzX=Xe.y.2XAXzXaXOXQ.|.E.w.e.E.N.E.+X2X2X2X1XsXhX$XC.2.n w q ; - @ X @ , u u i , , < C ^ h.).V.l.8.l.V.8.+.3.3.N.M.M.W.M.>.6.8.k.V./.K.B.J.U.[.eXeX[.P.K.m.8.8.>.O.V V ;.r.|..X.X=X=X=X=X1XcXvXxX(.@.b $.V./.s.U k w w h x n x x n R i.i.R L d.g.g.g.n.H.H.| | | [ [ [ }  . ...~ ~ f d a 9 < > > 2 q w Z I <.V./.#X#X@X/././.k.k.m.k.2.:.U B k.8.7.>.8.l.Q.(.",
"A.2.I j w w w q q q q > > > > q q s H ! [ } } ^ H Z Z L R i.B.V.V./.s.N <.K.P.K.s.B.rXjXjXtX[.P.B.v.s.2.2.:.B b V ;.M.;XxXZXZXzX1X1X1X=XE.5.@.>.N.9.e. X1X1XXXy.r.r.r.Z.#XrXdXdXkXiXwXiXBXJXVX&X'.r.r.w.w.r.E. X=XaXxXxXaXOXV.M.E.!.;XxXjXwXi.C ; - > f ~ a , $ + + @ # < 9 e q q j I q.|.<XAXHXGXAX2X.X'.A.r.N.w.w.3.:.B :.:.q.N.N.N.N.|.%XsXZXZXZXZXZXSXSXNXpXm.|.Z.4.;..XZXZXHXZX+X|.OXoXV.V.E.=XsXzXzX1X+XE.N.>.V N s.tXJXLXjXSXSXjXpX@XoXZ.,XgXSXsX.X|.=XAXAXHXHX2X|.r.m.m.>.M. X+XXX3X5XMXMXmXmXAXDXDXSXgX$X$XoX$XgXDXDXNXgXpXoXN.M.,.8.|.1XAX5X=X.XE.XXy.y.0.~.5XcXcX1X XQ.3.k 3 h U p.h.U.[.s.M U @XjXjXrXjXtXJ.U.U.f.p.#.p.z.B.M.E.OX;X=X Xe.M.OXN.3.oX X0..X2X5X1X XZ.P.wXtXkXeX0X{.C.].].].@X%XrXrX%X#X+X#X;XaXgXxXxXxXfX%XZ.N.|.&X.X+X2XzXZXzX1XE.5.O.>.N.fXKXPXPXPXPXPXIXIXIXJX[.<.b 1.W.OX#XyXyX#X/.Q.V.k.>.k.OX;X/.N.k.V./.k.+.1.V.Z.Z.|.&X%X<XsX1XzXZXAXAXZXxXzX1X XE.r.y.XXAXAXzXOXE.E.M.e.M.M.N.N.|.;X<X<X<X,XiX].a.n w > ; - = - - - < p d p u , - < C R h.P.l.l.8.l.W.8.+.1.3.M.M.M.E.e.5.6.8.M.Q.Z.V.K.P.P.[.eXeXeX@XU.V.k.k.k.1.>.@.o.@.;.6.e.|.+X;X;X;X:XxXvXaXl.O.B 1.m.B.m.2.M h w j F w l T L.rX@Xh.i.i.h.Y.Y.I.H.n.| | |  . .D.D.D. .....! ~ ~ f a e < < > > 2 w r x R 1.B.).#X@X@X/.Z.Z.Z.Z.B.s.<.U o.+.>.7.8.l.M.M.",
"' m w q q w y e y q 2 > > q y t D J { | } } / Y Z l h h k P 1.V./.%XZ.<.k.$X@XB.<.K.dXjXjXwXB.a.U M k h h k V V A.|.<XgXxXsX1X1X1X1X1XOXM.>.>.>.M.M.E. X1X1XXXy.r.r.|.%XpXtXtXwX7Xg.{ b.kXJXBX$XA.'.N.w.,.w.E.E.OX:XxXxXfX#XN.m.M.!.;XxXvXtXf.F 2 - ; d ~ G a u # # # # # : > > y w w j B A.<XDXGXGXHXAXNX.Xq.;.w.|.+XC.:.b :.m.Z.m.m.3.m.|.<XsXpXsXgXZXZXZX2X+X'.&XN.,.w.2XAXAXHXAX+X|.%X#XZ.V.E. X1XzXzX1X=X XQ.8.B b U P.DXPXUXUXUXPXKXKXKXKXKXGXSX+Xr.r.=XAXAXHXAX3XN.M.m.k.8.Q.OX+X3X5XMXMXMXmXmXNXZXgXpX&Xm.s.s.C.%XgXSXZXZXsX%X|.N.w.w. X1XAX5X=X.XE.3Xy.y.0.~.5XcXcX1XQ.Q.k.N 6 h U h.B.U.@XB.k h U B.L.rXJXjXwXkXtXh.i.R <.s.m.M.E.OX;X=X Xe.M.OXN.3.oX X0.XX1X2X2X|.Z.).wXwX0XI.L.v.2.n.n.C.C.P.oX$XrX%X%X%X%XyXaXaXfXyX;X&X|.'.&X&X&X+X2XZXAXAXzXOXM.V b O.M.fXGXIXPXPXPXIXLXBX[.` h b 8.OX#X#XyXyXOXW.W./.8.b +.#X;XOX|.8.8.OXZ.:.1.Z.Z.Z.Z.&X,XpXsXZXDXFXDXZXaX<X=XE.6.,.r.+XAXHXAXsXQ.E.|.w.8.N.M.N.Q.%XpXpX%XZ.C.b.{ z 2 - - - - @ - > 9 a f W f < - ; r F R z.Z.l.l.8.M.Q.k.+.1.3.m.m.w.N.9.5.0.8.V./.V.B.P.U.U.{.[.0X0X[.U./.K.z.V.V.V.k.>.N b B :.m.+X;X;X;XOX:XcXxX;XM.>.o.V m.P.].L.a.F z z T T g.tXjXtXJ.h.f.J.L.L.G.| K z m ' n.H.H.H.} ! H G G G f f f d p p e 2 2 2 w w h M <.B.U.wX@XP.@XP.B.B.B.B.m.k.N %.>.8.l.k.8.7.",
"t q > > q e 4 4 2 2 2 2 q t m F T { a.i.{ / Y Z Z h 3 3 6 k <.V.OXaX#Xk.V.#X/.k.s.K.rXtX@Xb.` L n j 3 3 h U m.].%XpXZXZXsX2X<X1X1X1X;XE.0.>.>.>.9.M. X=X2X=X.XE.|..X,XpXdXeXI.S.^ t 2 F {.BXBXpX'.'.'.r.,.w.E.E.OX;XcXxXaX;XQ.e.e.|.;XvXvXtXS.^ r ; ; a G G f f a a u , @ X - > s q 2 2 w I C.pXDXHXHXHXAXAX2X+X'.A.A.N.Z.Z.m.3.<.2.m.Z.P.oXoX'.%X%X<XsXZXgX+XN.%XZ.3.,.N.+X1XZXAXAX=X|.#X#XZ.M.M.!.=XzXzX1X=X=X|.M.:.b b p.tXJXLXLXKXIXIXKXLXGXZXpX|.q.,..XNXGXHXAX2X.XN.A.w.3.e.E. X.X3XMXMX5X2X,X,X+X%XoXP.B.B.B.B.C.C.oX,XsXZXxX<X+X|.w.w. X1XAX5X=X.Xy.3X4X0.6.~.5XcXcX:XQ.V.m.+.k k #.J.P.U.@XP.2.k h L p.P.JXjXwXtXwXi.R U <.s.m.N.E.=X;X=X Xe.N.OXm.3.oX X6.XX2X2X2X|.C.P.U.U.Y.L.L.C.n.L.L.L.n.v.v.b.C.Z.P.P./.oX@X#X#X@X#X#XoX|.&X&X&X|.<XZXSXZXxX:X*X,.O.V o.A.oX%XiXBXBXhX$XB._ k h +.V.;X-X-XuXyX_.Z.W./.8.b o.OX;X;X+X8.,././.k.m.B.B.B.P.&X<XsXsXDXFXFXSXsX+X|.Q.w.w.E.+X+X1XZXZX<XM.N.E.8.w.Q.N.N.&XpXdX%XZ.<.I D t > - - - - - - > e s A G G s 1 ; 2 l L i.V./.l.l.8.M.Q.k.+.1.8.M.m.8.N.M.0.9.M.Q.W.m.B.U.@XU.b.n.G.L.U.U.).).tX_.^.x.j.1.1.1.B U <.m./.#X#X-X-XuXcXxXaX+X8.B B :.v.L.L.G.b.n.H.g.G.0XiXwXU.P.J.h.i.U n j w w n { G.I.Y.g.Y r y e e e p p d f d s p e 2 2 w w w l z Y i.J.U.@XeX].B.k.m.V.V.N.k.7.+.B %.+.7.k.",
"q q > q e < 4 ; ; ; 2 3 z F T ` i.s.a.<.R E S c x h 6 6 6 h N k.;XvXxX%XyXyXP.s.s.K.@XK.i.L x j h h k M <.P.pXgXgXZXSXZX<X+X+X=X1X1X*XM.>.;.>.5.0.E.OX=XXX.XXXXX+X,X<XiXeXY.} H 4 ; = q | iXVXVX&X|.N.r.w.w.M.Q.OX*X:XaXaX;X|.N.r..X<XxXjXtXF.( A 4 > a D D D f X.X.W a : X @ : e e 2 q r z ` C.DXHXHXGXGXGXGXAX+XN.w.A.&X%XZ.2.<.<.2.s.m.C.Z.Z.&X&X%X<XsXpX+XM.%Xm.:.w.'..X3X1XAXAX<X|.OX#XZ.V.M.E.+X1X1X1X2X2X.XQ.8.B k M p.U.jXSXJXKXIXKXFXZX&XN.w.r..X<XAXHXHXZX+X|.N.r.8.,.M.r.E.XX5XAXMX3X.X|.'.A.m.v.p.a.s.s.B.B.A.A.&X<XZXZXsX<X+Xr.e. XzXHXzXXX.Xy.3Xy.y.0.~.5XcXcX:XQ.M.M.1.N M #.J.U.wX[.[.J.U h k <.L.kXtXJ.J.G.i.R U <.k.B.N.E.*X:X=X Xe.N.OXB.2.oX X6.XX2X3X2XE.Z.P.P.Y.G.n.n.a.a.n.n.n.g.a.a.a.s.s.B.B.V.K.Z.P././.#X#XoXoXoX|.'.Z.+XsXsXxXxXxXcXOXM.,.,.>.4._ _ 2.2.2.I j h j m k./.yXyXyXuXyX_.Z.Z.W.8.N >./.;X<X=XN.8.N./.P.P.3.s.B.P.$XpXgXZXSXSXNXhX%X|.N.N.N.3.r.|.<XZXZX<X|.M.M.M.w.N.Q.Z.Z.%XdXrXP.<.x w > : - - - : : : < e s s D G G s 2 2 3 Z #.j.V.(.l.l.9.M.Q.k.#.2.8.N.w.w.N.M.9.M.W.V.V.B.K.U.U.J.' K ' { b.L.).tXtX9X^.K.x.x.F.K.i.` P P <.m./.#X#X#X;XsXSXZX<X|.:.B B ` n.{.eXkXH.G.g.G.I.wXtXdXU.h.P h 3 w j n C.].[.J.d.T z 3 2 2 2 > : < p a f d a e < 2 4 q r y 2 2 z I h.U.[.[.P.P././.Z.V./.V.1.B N N +.1.",
"e e e e e p 4 4 4 4 r Z L R <.<.<.2.1.<.R R P v c c c v c c b >.;XSXDXSXxX;Xm.:.2.B.K.s.L k k k k L <.K.%XdXjXSXgXNXgX<X|.|.|. X1X=X X0.@.>.5.6.8.E.OX=XXXXX3X2X<X,X&XL.h.T C 4 ; - X - m n.iXVXhX&XA.M.M.w.9.N.Q.OX;XaXzX1X+X.Xr..X<XgXjXtXY.D.) A r D K g g g K X.X.~ d u , < < < e s C r C ` sXAXGXGXIXGXHXNX2X<X+X|.C.A.Z.Z.P.B.<.U _ 2.B.Z.Z.|.&X+X;X;X&X|.P.m.m.|.&X.X3XZXAXAX1XQ.oX/.^.Q.e.M. X<X1X2X1X1X+XOXN.1.N v v P R <.s.P.oXoXZ.w.|.&X+X<X2XmXAXAXGXpX|.N.r.,.,.r.r.e..X1XAXAX1X=X'.A.q.3.2.<.2.` R R <.3.q.w..X=XsXZXZXzXsX.XE.=XAXGXAX3X.Xy.3X4Xy.0.~.1XcXcX;XQ.M.k.1.+.L E h.@XeXP.L.B.i.L L i.iXdXtXf.I L L x P <.B.V.M.E.OX:X>X XM.E.+XB.2.oX X0.XX3X3X=XN.Z.K.J.h.i.` I V m K K ' ` { a.a.a.a.s.B.B.B.B.V.K.P./.oXP.Z.Z.'.N.N.|.OX+X;XaXcXcX1X=X XQ.A.4._ ] B V k j w j I _ Z.OX;XaXfXuX-X#XV.V.k.7.k.k.M.OX2X=X+XN.8.V.oX/.1.s.B.V.P.%XhXSXgXhX%XoX'.C.A.A.A.;.;.N.sXDXNX|.8.E.M.8.M.Q.Q.Z.#XdXdX@Xp.L 6 ; - - - : : < 9 e s s C C D G D C 4 3 l P p.k.W.!.R.M.9.M.Z.s.<.s.m.N.e.w.E.M.M.E.Q.M.k.V.).U.h.{ w 8 q j T i.S.U.^.).9XtXtX9X).Y.J.a.R L L #.k.Z./.Q.|.;XzXZXZXZXpX'.<.V n K T ' | n.d.{ g.0XdXjXjXtXK.s.2.s.C.$XiXiX[.i.L x l h w w w q < 9 p p d d d s e 2 > > 2 < 2 > 2 r F ` h.J.@X%X%XoXZ.V.V.V.M.k.1.+.B V ",
"e e p p p d A G A A Y ^ / <.<.<.:.1.1.<.<.#.E P v v E $.%.v N 1./.gXDXDXvXOX:.V 1.m.V.1.V V N N :.v.&XhXjXSXgXgXsXpX+XQ.A.A.|.+X1X=XE.,.O.>.5.5.0.R. XXXXX3X2XZX,X].n.` F y > - - - @ - q ' {.hXSX&Xm.A.N.8.8.l.Q.!.;XzXAXzX<XXXr..X<XsXfXrXY.D.( A A J J g q 8 a f X.....~ a 9 < : p s d 4 r J +X2XAXHXGXGXAX2XAXAX2X|.w.q.Z.%X$XP.s.<.<.<.2.2.3.C.oX&X+X+X%X%Xm.Z.&X%X+X.X,XNXZXAX1X|.|./././.e.r.E.=X2X=X2X5X+X+X XN.1.N x c P U <.2.m.A.Z.|..X2XZXAXAXZXMXAXDX%XA.A.8.;.6..Xr.y.+XAXAX5XXX XA.q.4.2.s.h.s.a.2._ :.3.q.w.N..X<XzXZXZXZX=X X1XAXGXAX3X.Xy..Xy.y.0.~.1XcXcX:XQ.l.8.1.#.P P z.tX@XB.p.p.h.b.J.P.J.B.h.R x L R R E p.V.Z.M.N. X:X=X Xe.E.OXB.2.oX|.9. X2X=X=XN.N.m.p.i.` T I m j z m m K ' ' ` ` ` i.a.a.i.p.h.B.B.K.P.Z.C.C.Z.Z.Z.Z.N.V.oX;XuX;X;X;X<X<X+XZ.C.C.v.4.V m n _ a.m././.;XfXvXuX#X#XZ.V.1.1.Q.N.8. X=X=X<X X,.m.#XP.s.k.B.B.Z.oXpXgXsX,XoXC.B.B.C.m.4.] q.&X2XsX,XA.;.Q.M.,.N.|.Z.P.rXdXdXU.R z 3 ; - - , , < 9 s f G G G G G K H C l h x E p.l.W.!.R.M.9.l.V.k.<.s.m.N.M.e.E.E.M.Q.Q.k.s.P.wXP.i.L - X X : r F / S.Y.U.9XtXtX9X9X).J.B.h.<.U U +.1.M.M.Q.OX%X<XsXZXZX,XC.2.` ' I I T } { L R P.tXtXjXfXyXyXrX%XpXBXhXrXL.U h w h h h h z z t r p s a f G G s e : - - : e e e q w w I i.B.@XoX/.N.V.m.V.V.V.m.3.>.+.",
"0 , , u d ) ( ( ( ( d.d.i.i.` :.1.>.>.8.8.3.>.+.P P #.s.p.P M +.P.dXSXfX/.3.o.b N +.>.o.O.@.8.N.|.=XzXAXAXZXsXaX|.Z.m.3.3.m.oX+X<X*XE.5.O.O.5.T.0.~.>X>XXXXX3X2X{.n.] y : @ @ @ # . @ : > q g.kXhXhXrXZ.m.N.M.>.9.R. X:XcXcXzX1X3X4XXX1XaX%XK.i.L Z Z / } H y 2 > e G [  .[ G s > < < p d f f G ' &XHXHXAXAXmX3XHXAXNX2X&XC.C.C.oX%XpXrXP.<.n j _ v.P.C.Z.Q.+XOXo.N.;X+X|.&X,XmXNXmX,X|.E.Q.E.Q.w.r.|.+XXX3X2X5X>XXX*X;XOXk.U P :.<.3.Z.|.+XsXAXGXHXAX1X5XAXAXAXgXoXm.N.q.] ,.=Xr..XzXAXzX=X|.r.:.#.U U U i.B.@X$X].v.:.4.3.M.|.&X<XZXDXAXsXsXZXHXGXAXXX.XE.E..Xy.e.E.=XcXcX;X(.(.7.N b %.j._.uX).z.U P s.@X[.B.R x 3 h S *.F.K.c.z.K.W.V.N. X=X=X Xe.A.OXm.2.P.oXN.OXaX<XOXN.8.k.3.#.L n L ` g.[ ' g y w j m n n T { d.d.d.D.H.b.h.a.i.i.s.B.P.@XZ.V.Z././.Z.N./.+X<XgXDXDXDXBX,X&X}.n.n.C.].{.%XyXuXfXvXfX#XV.P.B.3.8.A.N.|.|. X=X+XOXoXm.s.P.v.v.B.P.P.].%X<Xw.'.$XrXwXB.U k V q..X2XsX<X&Xm.k.M.M.3.8.Q.+XoXpXdXwXi.H A d 1 1 - > < d A ~ ! ! G s s G J ! Y z z S R 3.k.W.!.E.M.9.E.Q.7.+.k.k.N.Q.E.R.R.R.M.3.C.P.L.L.G.Y 2 - @ X . X > C ! D.Y.7X9XtXyX_././.oXoXP.k.+.N b B +.3.N.|.|.<XZXgXSXSXgXrX].a.M j k I i.p.<.s.).uXvXJXLXLXLXDXdX@XJ.<.n h h h c h k x L I T F y s s G ~ ~ s > X . : a s s 8 : ; w j L i.B./.oX/.V.m.N.Z.P.P.Z.B.",
", # - , d ~ ( ( ( ( d.d.d.<.<.<.:.6.w.M.N.N.k.1.1.<.1.p.#.P U p.P.yXjXuX/.8.+.b V o.5.6.9.R.*X>X1X5XAXAXzX<X+X|.Z.Z.m.3.:.<.Z.%X;X Xe.5.O.&.0.T.u.~.XXXXXXXX.X'.2.K t 8 : # + + O   . : > q T [.kXjXdXoXZ.V.M.6.e.M.E.XX:XcXaX1X3X.X3XZXsX%XZ.i.L z z T } T C w 2 w C T } } ^ H e e e p d W ~ ~ I A.NXHXAXmX3X4X3X3X2XmX2X,X&XoXoXoXoXoXP.b.a.2.I _ s.B./.#X+XQ.8.Q.OX|.+XsXNXNXmXNX2X&XE.E.E.E.r.r.N..X.X3X3X5X5X>X=X;X;X/.K.V.oXoX%XhXgXsXsXZXAXAXMX5XMXAXAXAX&XP.Z.m.3.,.w.|..X=XZXsX=X|.w.;.k.z.K.P.P.Z.Z.C.C.A.q.3.,.3.w.r.|.|.+XsXAXAXAXAXAXHXAX=Xy.y..XE.y.e.E.=XcX1X>X*X!.l.@.1.j.x.K./.K.K.P.@XtXdXwXb.L l 6 L F.9XtXtXF.F.^.W.V.N. X=X+X.Xr.M.&XV.2.P./.N.oXaX;XOXM.>.3.>.+.P U ` d.n.H.| ' K K K I I L L F F H T ( } | g.a.h.b.b.z.z.z.s.z.K./.P.Z.Z.Z.oX%XhXgXgXNXBXhXVXVXVXhXiXhXhX,XpXfXvXvXfX).z.V.V.m.8.w.e..X=X=X1X;X+X&Xm.2.B.P.B.s.m.P.&XOX|.|.'.C.B.b.h.a.2.A.&X2XmX2X+XZ.k.B.m.k.k.M.N.oX%XpXrXL./ A s p 5 ; ; 4 a A H ! H G s r r C ! ( ^ z x v #.k.l.Q.OXR.R.9.E.!.j.+.k.l.N.W.R.R.R.R.M.q.C.{.G.G.d.Z 2 - : @ @ X - < < A ( h.K./.#X-XOX|.oXQ./.Z.m.s.1.V V :.8.M.N.&X<XfXjXSXgXdXpX$XZ.s.P M U <.<.s.B.#X;XyXuXfXfXrX/.K.z.<.L x k k x N P U U <.i.R L x z C G ~ G e : @ : , 9 9 e > > 2 w j n <.h.K.P./.P.P.P.P.Z.B.k.",
"@ @ @ @ < d )  . .} } / T I R U 3.Q.+X/./.@XoXV.B.z.z.k.p.+.<.z./.#XuX#XZ.1.o.V N >.R.!.*X:XcXcXAXZXzX1X=X|.N.w.A.w.,.;.;.3.N.&X+XE.0.O.&.&.0.u.T.~.`. X X|.w.;.j q : : : # +       . : 8 q D a.iXhXjXrXoXN.M.8.e.e.e.E.OX:XaXzX3X3X2XAXsX%XP.s.U z l Y } { H Z l l z F { d.| [ D s e p d W ) ) n 4.&XAXHXAX3X4Xr.4X.X<XsXNXgXgX&XoXZ.Z.C.].].].` _ :.3.Z.oXQ.8.OXQ.N.C.<XDXDXNX,XmXNX+X|.N.E.E.N.r.A..XXX3X>X2X5X2X>X1XaXpXfXjXSXgXBXDXGXAXZX1X1X1X5X5XAXAXAXsXm.P.P.m.3.A.N.r.3X2XzX2X.Xr.6.;.M./.#X%X#XoXZ.A.w.w.w.q.3.,.,.,.Z.N.N.+XsXZXAXHXAXAXAX1Xr.E..Xr.y.r.E.=X1X1X>X>X!.l.l.x.^.^.K.K.).#XyXdXdXdX@XJ.E v S i.tXjXjXfX^.^.^.^.W.M.E.=X X Xr.M.+XV.3./.Z.A.oXaX;X|.M.>.:.+.+._ 2.a.g.n.H.G.b.g.i.` R R E L Z z Z H H H K I ` { i.a.p.p.p.s.B.P.K.B.B.B.B.Z.&X$XoX$XrXhXhXBXJXJXBXVXBXBXgXgXgXvXvXdX/.z.B.Z.Z.m.,.w.|.sX<XpX;X+X&XB.2.v.oXC.s.3.Z.%XOXw.'.r.q.2.i.s.B.Z.,XNXAXAX2X|.m.s.V.k.k.V.N.N.Q.pXpXP.i.Y C p 5 p ; 4 C H ^ ^ ^ H C r 2 r H [ } / z h v 1.m.l.W.*XR.R.9.E.!.k.@.j.l.E.E.R.R.R.E.N.m.L.{.n.| T r ; : , < , - - X X ; r Y #.k./.-X-XOXoXoXoX+XoXZ.N.:.B B o.:.,.m.Z.%XpXgXgXgXgXgXdXrXV.<.U P P <.k.#X/.^.Z././.V.1.k.s.p.U N M L U +.+.+.+.<.p.a.{ F x t C H ! G p 9 : @ @ > e e q 2 2 2 w z I i.B.@XoXoXoX/.P.B.h.",
"@ @ @ @ - < A ( ( ( Y F z x x n B.pXjXpX@XpXdXdX#X@X/.P.z.1.s.V.oX#X#XQ.8.o.o.o.>.M.*X:X1XcXcXzXsX<X+X X|.N.w.,.,.;.V o.8.Q.+X+XOXM.>.O.&.5.0.0.R.!.!.!.E.w.B j q > : : # + .   . . + , 8 q z I [.iXBXhX%XQ.M.e.9.0.0.e.!.;XaXzX2X3XAXAXsX%XoXB.R x l Y g.g.{ T L x z n R a.| | T G a p p Q ) ( n B A.sXHXAX2X3Xr.r.q.w.'.<XSXDXfXpX&XoXoX].].].].C.v.3.2.8.3.3.;XoXA.C.pXDXNX&X'.2XNX2X|.r.M.E.Q.A.e.|.+X3X3X2X5X1X1X1XsXvXDXDXDXSXgXSXSXZXsXsX2X2XAXAXAXAX2X Xm.Z.B.3.w.Z.E.r.=X2XsX1X+X.XE.r.N.Q.Q.|.|.'.'.'.'.'.A.w.,.,.,.,.A.A.N.&X<XsXZXHXFXAXHXAX.X X2Xy.r.r.E.=X5X1X:X>X(.W.x.V.^._.#X#XfXyX@XB.h.h.J.L.J.B.h.S.Y.9XtXdXtX9X_._.Q.N.E. X X Xe.M.+XV.3./.Z.A.&XsX<X XM.,.o.+.:.<.i.f.S.G.L.Y.Y.J.h.i.#.#.R R R R ^ ^ ^ H m m j j x L E #.z.z.J.L.J.h.h.b.C.C.P.C.C.C.@XrXiXiXhXhXhXiXhXgXSXZXgXgXfXyX@XK.V.P.Z.m.3.w.&XsXpX%XZ.Z.$X].v.s.P.P.m.3.N.+X|.6.,.4.q.m.B.J.C.Z.<XAXAXmX.XA.A.m.V.k.m.V.Q.Q.+XpXyXB.E Y A p < p 4 z T } d.{ T F z r r C ( d.d.{ Z c v p.V.l.E.*X!.R.9.E./.k.+.j.M.E.E.R.R.W.W.V.C.{.L. .J C 4 = - : < u < , 1 - - ; 3 x R x._.OX=X+X;X;X;X+XQ.N.N.8.:.B B o.>.3.Z.oX%XpXpXdXgXgXgXdXrXK.:.V P s.@X/.Z.V.Z.V.k.<.k.z.k.<.U U #.1.+.>.1.1.s.B.B.f.{ F z z H ^ ! G 9 : - - : 8 e e 2 q 2 2 3 z L R B.J.P.@X@X@XP.J.",
"9 9 9 : - - < s r l l w w w j j a.kXLXJXDXJXLXLXSXdX#XP.k.s.z.Z.#X+X/.m.:.B o.,.Q.=XaXzXzXcX1X;X+X&XZ.A.A.w.,.;.,.;.;.6.E.OX=X;XOXM.;.O.&.0.0.0.R.(.OXQ.s.B j q : > 8 : @ + . . # # # : > q t F b.@XhXhX;X|.M.e.6.5.6.9.E.-XaXaX2X2XAXAX1X+X&XB.<.x z T S.G.d.{ E M x n R i.a.} { J s 4 p d ) ( I B 3.+XZXDXAXAX.Xr.;.V ;.A.pXSXSXZXZXgXpX$X].C.$X&X].A.3.>.3.N.oX|.Z.oXhXNX,XA.q.&XNX2X|.N.M.E.N.m.w.N. X=X=X=X2X1X1X1XsXxXvXjXhXhXgXNXsX2X2X2X3X2XAXHXAX5X Xw.oXB.2.3.A.N.|.'.=X2X2X3X.X X X.XE.|.|.|.|.&X+X<X<X+X'.r.,.,.6.w.,.r.|.&X|.&X1XAXHXAXHXAX+X=X1X.Xr.r..X2XzXcX>X*X(.!.W.W./.#XrXrXrX/.s.L k x ` b.[.eXwXL.p.p.K.uXuXuXyX_.Q.E.E. X X Xe.M.+XV.3./.Z.r.|.sX<X|.w.;.V +.1.s.h.B.Y.0XY.U.U.U.K.z.f.f.f.h.h.f.d.} ( / K n j w w z n L i.` ` i.g.g.g.n.L.C.C.b.C.C.].].].oX@X$XrXrXiXrXpXpXpXhXdXpX@XP.P.K.B.m.m.Z.&X%XrXP.<.<.[.eXL.b.b.P.Z.3.3.M.M.,.;.4.m.C.Z.K.P.|.=X1XMX3XE.e.N.N.3.m.V.N.Q.OX;X%X%Xs.L Y A < < e w x { g.g.{ F x l r l Y D.S.D./ L x N 3.m.8.M. X!.E.9.W.(.k.@.8.M.E.!.R.R.W.W.V.L.L.H.| G e 1 - . @ : , < 5 5 5 < ; ; 3 v k._.OXOX=X<XsX<X+X|.N.oXN.m.>.:.:.:.+.:.3.Z.&X%XpXpXgXgXSXSXdXZ.:.U :.1.1.s.k.k.p.<.U m.V.Z.V.3.+.U +.+.1.k.V.Z./.P.J.h.R x z H ^ ^ H e e 9 8 8 q q e 2 q y w 2 2 w r L R h.U.wXwXwX@X",
"W W ~ s < ; ; 4 ; 2 3 l z n n n T 0XLXPXPXUXUXUXJXjXP.2.1.k.Z.oXOXQ.N.8.>.,.8.E.;XaXxXzXaX1X=XOXoX'.m.3.4.4._ B ,.e.E.E.E.E. X=X!.e.O.O.&.0.0.0.R.(.#XZ.<.n w q : : : @ . . + 0 i i , @ @ > t m ` m.$XhXpX+XE.e.6.6.6.8.W.OX;X;X1X2XAXAX<X+X&Xm.<.M x / G.Y.G.S.` U N N U 2.a.h.a.T C r p d ) ) I B :.A.,XZXDXAX<X|.q.] V :.Z.%XgXZXDXDXSXsX,X&XA.'.&XoXC.m.Z.%XZ.oX%XiXNXhX}.] _ '.pXpX+XN.N.E.N.k.8.N. XXXXXXX1X1XsXsXsXgXhXrX$X%XsXNXsX+X.X.X+X2XAXAXAX2XE.8.oXs.<.m.N.A.E.+X2X1X5X=X XE.E.E.=X=X<X<X<X<X2XpXpX,X&X'.A.e.e.e.:.q.N.|.N.N.+XZXZXAXHXAX1X1X1X.Xr.r.E.2XzXzX>X!.!.(.(._._.#X#X/.k.1.U N k k M U h.@XrXP.p.i.K.tXfXuX-X_./.W.E. XOX Xe.M.+XV.3./.N.w.|.<X+XN.8.;.V +.3.B.P.U.wXtXY.Y.Y.Y.Y.U.K.K.J.J.S.h.d.} } g.| ` ' I F F n x x j l F T | g.n.b.n.n.n.L.L.L.L.B.C.P.@XeXeX@X].C.'.%XpXgXpX$XP.@XK.m.m.Z.@X%XrX$Xn.j j b.eX[.L.g.P.].B.1.>.6.,.e.A.m.m.B.].%XsX1X1X2X.Xr.e.N.N.3.N.V.N.Q.;X;XoX/.i.L F C < < r z L 2.a.i.R L z h l L } S.Y.D./ P P U 3.k.M.E.!.!.R.9.W.OXl.+.3.M.E.!.R.R.W.Z.B.G.H. .X.s < - - @ @ @ @ # 1 , < < ; = ; x z.#XyX+X+X<X1X1X2X=X+XZ.Q.Q.V.m.3.:.B V B ,.Z.&X%XpXgXgXgXgXgXdX$Xs.U k k M P P M V V 3.V.@X#X/.k.o.N 1.k./._.#X#X@XP.J.i.L x F T T J s s s s t e e e > 2 e r e > ; ; 3 x E g.Y.U.[.wX",
"X.......~ C r r w z Y { i.{ ` ` F g.0XBXLXLXLXLXdX/.1.B <.V.OX%XQ.w.,.8.N.E.OX;X1XsXsX1X=XOX XN.C.n.2._ B B 4.,.w.N.E. X~.~. X*XE.0.O.O.5.9.9.9./.#X#XL.` m y q 8 > - .   + i W W W u @ X : t F I :.Z.<XsX1X Xe.e.9.6.8.M.Q.#X+X2X2X5X1X=X+X&Xv.<.M x R G.I.7X7Xv.2.:.B B :.s.b.g./ F r r d ) ~ E +.:.4.Z.pXZXSXsX,X|.q._ B 2.Z.oX%XpXSXGXDXZXsX|.'.|.&X&X|.&X%XZ.%XhXhXVX$X` q m n.$XpX+XE.E.N.V.m.M.Q.OX X+XXX1XsXZXzXxXgXpX%XoX&X%X<X<X&X|.|.3XsXAXZX2X.XN.w.m.s.3.N.N.A.|.<X1X5XzX2XXX.X X X1XsXsXpX<X%XoX].&X&X%X%X+X|.N.M.3.,.,.w.A.N.&X,XsXAXAXAXzXsX1X+Xr.r.y.=XzXcX>X!.~.(.(._./.#X/.Z.$.U P U U N n M U s.J.h.i.s._.uXuXyX#X_.Q.Q.!.*X=XOXe.M.OXV.3.Z.Z.w.'.,X+XA.8.;.B :.s.K.@XtXwX7Xd.} / { h.J.J.J.Y.J.S.S.H.H.H.H.D.n.n.g.a.{ I I z z z F F H J [ K ' { a.n.n.b.b.b.B.L.P.P.P.K.K.C.'.&XpXpXrX$X].$XK.s.s.P.rXdXdX[.| 2 ; T [.0X[.b.L.@X/.V.m.e.M.|.|.&X&X&X%XaXxXzX1XXXE.r.N.M.e.M.m.N.Q.%X;X+XZ.B.<.L l r < p C x B <.s.i.` U L L Y d.S.Y.S.d.^ P #.<.1.8.E.OX X XE.9.Q.OXM.1.3.M.E.!.~.R.W.Z.B.G. ...f a < , , : : # @ + @ @ - - 1 ; 2 x h.tXgXZX2X.X.X=X1X1X=XOX+X%XQ.m.k.3.<.B V V ;.3.N.&XpX<XpXhXgXSXgX%XB.U M k k x k k v :.k.OXyXuXOXV.8.W.OXyXyXaXdXyX#XK.p.E F L I I J D D t y t t y e > > 2 e e < > ; 2 3 l F T i.G.Y.",
"~ .. . . .} Y H { h.Y.[.U.G.a.` D z F | I.eXwX[.s.+.V V 8.OX;X;XM.,.;.e.+XaXsXzX1X1X1X+X|.E.M.w.s.2._ I V _ 3.N.Q.e.6.y.*X6X>X XM.6.@.O.5.9.T.l.(.rXtXJ.{ F t y s e @ .   # a ~ ~ ~ d - X : C F n U m.%XxXsX Xy.E.e.6.>.8.M./.oX2X3X2X1X=X+XoX3.<.M x E h.I.0XtXP.V.3.B V U 2.B.a.{ F C A A A H E <.<.+.3.%XZXZXNXsX,XA.:.B 3.m.m.A.|.pXHXGXDXZXNX,X'.'.&XoXoX&X&X<XgXBXhX{.m o w ` $X,X+X|.E.N.Q.Z./.+X+X+X+X+XsXZXZXZXZXZXsX%X&XZ.C.'.|.|.|.|.1XAXAX1X XN.e.w.B 2.Z.Z.A.A.|.2X2XzXZXzX1X1XsXsXsXhXpX%X].b.a.2.b.P.rXgXgXyXQ.8.N.,.] ;.w.N.N.'.<XAXAXAXAXAX1X=X.Xr.r.XXzXcX>X!.~.!.!.W.W./.)./.k.#.P U U P N L P ` <.U #.z.#XyXyX#X_./.Q.E. X=X=XOXM.M.OXM.3.Q.|.r.'.,X+XN.w.;.:.:.s.K.tXtXI.g.H C r r H { d.d.g.g.G.7XqXqXqX8XH.n.n.n.g.d.a.i.R { { [ F y e t q j I { { { a.h.L.L.P.B.h.h.J.P.pX,X%X%X%X%X$X$X%XP.s.s.U.dXjXjX[.| > X D H.0X0XL.L.U.rX%X+XoXOXN.+XpXgXsXsX1X1XzX1X.Xr.e.E.M.8.E.w.m.OX<X+XN.m.s.R x 3 2 4 s H L :.s.m.s.<.<.<.i.h.J.Y.Y.S.*.E P <.3.>.8.!.=X*X XE.9.Q.OXV.<.3.M.E.!.~.W.W.K.J.n.| ~ f u , , , 9 0 , # + X X - - < e w x p.rXvXKXZX|.r..X2X3X.XsXsX;XN.3.s.m.B.,.V k k V ;.m.|.&X<XgXSXSXSXjXgX@Xh.I M M M V N +.3.Q.;XxXxXcXaX;XfXvXvXvXvXjXfXK.s.R L L I I I H z 2 2 w t y q > > > < e p p e 4 4 3 w l F { S.",
"e e C [ } { R / g.L.[.L.a.R I F t t D F F F L n k k B 3.Q.;XOXN.e.OX1X1X=X<X1XsX<X+X|.N.M.w.6.,.I ' 2.a.a.3.m.N.|. X;X:XXXXX>X X0.8.>.O.>.9.W.W.-XrX@XL.{ H D f p < : @ . 9 ~ ....~ s e : - q D L I <.Z.<X1X=X.X Xe.8.8.0.k.Z.OX=X=X1X1X1X+XQ.A.2.V x U i.h.7XjXdX%XZ.<.B :.2.s.h.g.{ Y ^ ( ) A L 1.k.<.<.V.pXSXSXgX+XQ.Q.>.U Z.m.m.m.Q.%XsXZXSXHXZX,X&X&X&X].C.,XhXNXhX{.' 2 X 2 T P.rX+X|.e.8.M.k.V./.OXoX+X<XsXpX<X,X+X%X%X<XoX'.C.A.,.;.4.q..XHXAX.XA.N.N.|.B s.].oXC.'.+X<XZXsXsXsXsXfX;X#XP.B.s.2.I F z w z E P.kXjXdX#X/.m.q.3.,.w.N.N.w.'.2XDXHXAXZX1X+XXXy.r.XX5XzX>X*XR.R.W.W.Z.V.V.V.k.1.U M k k x I U ` R I <.P.rXrXV.V.W.Q.E.M.!.;X*X!.M.Q.(.M.j.W.N.w.+X<X+X|.8.8.1.2.h.P.0XY.{ D e - X - > e t D D J |  .8X8XqXqX8XH.H.n.n.n.b.b.g.b.n.| T J ^ | K K K n m m F I a.s.h.J.K.P.P.P.oXoX].].oX$XrXdXK.B.B.B.B.wXdXtXn.z - - > s D.eXeXG.{ s.P.oXZ.m.%XpXxXSXZXsX2X1X1X=XE.e.w.6.6.w.M.w.N.OX;X+XV.3.#.L x w ; X < J U 3.m.m.1.P U i.B.U.9XU.Y.F.=.S E P +.8.W.E. X=XXXE.e.Q.OXV.1.k.N.R.!.!.*X_.K.f.{ [ ~ f , @ 1 u d f f u : # @ @ < p s z x i.).fXDXZX.Xr.r..X.X.X1XzXsX+XV.V.B.s.w.q.,.;.V V B :.C.N.Z.%XgXSXgXdXdXkXrXB.<.<.+.V U :.8.W.;XxXFXKXKXKXKXKXKXIXJXfXB.s.<.h.J.B.i.` F F x D F J J J G C s a s p e < e 2 2 2 4 w l F ",
": : 2 C T R { i.L.U.@XJ.i.I n x y y w w w w h h V :.m.Q.%X;X;XOX+X1XzXzXzXzX1X=X|.Q.N.M.w.,.;.B I ' a.b.B.C.oX%X;X;X1X:X*XXXXX~.8.1.>.@.5.9.E.Q.-X#X).J.{ H G G s < : - - p ! .. .! G s q > 2 z L L +.V.;X1X1X=X Xy.6.6.8.8.V.oX X=X1X1X<X XQ.N.k.U x L R f.0XkXdXdXyX/.m.s.s.s.n.h.d.{ }  .} ^ Y i.s.<.+.k.rXSXSXgX+XN.N.8.3.m.V.m.A.A.|.=XsXNXAXNXNXNXNX,X].}.iXhXBXiXn.z - X 2 L L.rX%XE.e.e.W.V.V./.OX+X%XpXpX,X&XZ.N.A.A.A.m.q.q.q.,.4.w.|.<XAXZX|.A.r.,.3.3.m.Z.N.N.&X<XsXNXsX<X%X$XoXC.v.` T F z w 2 ; = ; l d.7XdXdXdX#XoXm.3.w.A.w.q.A.A.+XsXZXZXAXzX2XXX4XE.=XzXzX>X XR.R.l.M.V.W.Z.Z.x.p.U M c h j M U <.2.<.s./.rX#XV.M.M.W.W.W.!.=X-X!.R.W.(.M.j.W.N.6.OX;XOX|.8.3.s.B.J.Y.Y. .D 9 @ .   . @ : : 8 e a f ~ .. . . .8X8XI.H.H.n.n.b.G.G.b.| [ | D.I.{ ' I I I T ` ` I R 2.p.B.B.J.J.m.Z.].oXoX%XhXgXP.Z.P.P.J.@XtXwXg.t X X - e | 0XkXH.} a.L.@X@X$XrXjXDXZXsX1XsX1X2X XE.e.8.,.6.w.e.M.|.=X;XOXm.1.U M x z 4 > e H s.m.V.m.<.U #.p.P.).).Y.F.F.d.E P +.7.l.M.E. X*XXXE.e.Q.OXB.<.k.M.R.!.!.*X(.K.p.^ ! f a , @ - u f G f p , , , - < a C C F R P.rXZXAX=Xr.r.r.6.r.XX2XsX<X%XoXZ.m.w.w.w.w.,.:.B V ;.3.N.oX$X%XrXpXjXjXjXrX@XP.m.:.+.+.:.8.Q.aXDXKXKXPXPXPXPXKXfXK.U +.p.).rX@XJ.h.g.d.} { { { }  .} [ ! ~ G A s e e 4 2 2 2 2 2 q ",
"2 > 2 w n R p.B.K.P.K.h.<.R U L I I F n n I U _ Z.$XpXpXpXaXsXzXsXsXaX1XaXaX+X|.N.A.8.,.>.4.o.B ` a.v.b.C.@XpXgXgX;X;X:X*XXXXXR.7.>.>.7.7.0.R.-X-X#XP.h./ H ~ ~ A < < e e s !  .D.} ^ H z w 2 w L L U k.OX1X1X1X.Xy.r.6.8.8.N.Q.E.XX1X1X2X X|.|.m.:.N x L d.U.tXtXfXvXfXrX@XZ.B.b.b.h.d.} g.D.} R <.<.<.+.1.oXgXSXgX%XZ.3.N.N.3.B.Z.m.3.w. X1XsX2X<XsXDXDXhXiXiXhXNXhX{.I > = X 2 x h.rXyXE.e.R.(.V.M.V./.oX%X%X%X&XoX].C.v.:.V _ ] 4.,.q.'.+XNXAXSX<X|.|.M.>.:.Z.N.A.M.|.<XpXpXrX$XC.s.i.R L n z r 2 ; ; = = X o 4 A } U.kXjXdXrXA.q.m.w.4.4.w.A.|.+XpXZXDXAXzXXX.XXX2XzXzX>X XR.9.8.l.W./././.K.f.P v c h h k P ` <.s.Z.%XyX#Xl.8.8.N.E.Q.OX*X-X(.W.W.(.x.j.W.N.6.OX;XOX|.8.3.m.B.L.G.| G > @       O + O + + # # # 0 u f X.X. . .H.H.H.H.L.G.B.b.n.a.a.D.I.0Xg.{ ` a.b.L.b.n.R I L L I ` p.b.a.B.P.].].$XpXBXP.P.@X@XU.@XrX0X| t - @ : e ! H.kX8Xg.d.J.[.rXkXkXSXSX,X+X2XZX2X XQ.M.m.8.,.8.e.w.Q.=X;XOXN.3.<.M M L Y F C G T B.V.Z.m.1.<.z.K.tXwX).K.z.f.i.#.P 3.N.N.R.!.XXXXXXE.e.Q.OXB.<.s.M.R.R.~.^.^.z.i.T G s 9 : @ : p ! ! G a 9 9 9 < < s H F F R B.%XzXAXsX.Xr.t.;.;..X.X=X1XsX;X#XoXZ.N.A.A.A.3.:.V b B <.s.B.P.$XrXpXjXjXfXdXpX@Xm.3.:.B o.>.Q.uXvXFXKXPXIXLXvX/.#.h v i.@XdXdXrXwXwX0XU.L.G.G.Y.I.H.H.D.} ( ! A C r e 2 2 2 ; ; : ",
"T F x n P i.z.Z.P.P.V.z.B.K.U.U.B.J.J.J.B.C.P.P.hXgXZXaX;X<XzXZXzX1X+X XOXOX|.Z.N.w.:.B B B :.3.b.C.L.C.].rXgXgXpXOXOX=X*X*X!.R.>.+.>.k.9.7.R.:X-X#XK.h./ Y ^ ^ G < 4 s e e ! D.I.H.g.{ T x w 3 L S P z.#X1X1X5XXX4Xr.r.w.8.m.N.E..X=X1X1X=X+X|.m.8.U k x R h.S.P.tXfXjXjXhXrXP.b.b.a.T H J ( } i.R U <.<.<.B.%XgXgXgXQ.3.Z.|.:.s.V.V.8.w.OXsXzX.XA.N.<XBXVXVXBXVXVXiXn.z : - - ; r i.rXyXE.e.E.*XQ.M.l.V.Z.oXoXm.v.s.v.v.s.<.U _ 4.,.q.'.&XNXAXSX2X'.N.Z.A.3.3.oXQ.M.Z.%XsXpXoXv.` I z y q 2 > > > : < < 5 < < o > r C g.eXjXjXpX].A.m.3.4.4.q.N.|.+X<XsXZXZXZX2X2X5X5XzX5X>X Xu.5.5.8.W.#X#X_./.z.+.P U U N N N B :.m.%XfXuX/.>.8.M.Q.(.OX*X*X-X(.M.W._.T.0.W.E.8.OXuX-XOXm.k.b.J.G.| G e : @ O O O O O   . + + + . + + & i Q a a G [ n.L.{.{.C.C.L.L.L.L.Y.I.L.b.b.B.L.].L.n.h.a.2._ I I I U ` <.s.s.2.v.C.oXB.B.P.@X[.wX@XJ.^ t ; - : > s ..8XH.D.H.I.tXkXjXkXtXP.m.|.2XNX2X|.A.k.k.k.m.w.M.r. X1X<XE.8.:.+.P L L / [ ^ ^ | h.V.P.K.B.K.@XdXdXtX).K.f.i.*.R +.M.!.E.!.>X>XXXXXE.e.Q.oXB.<.s.M.R.R.R.W.W.j.*.F s e > - - < s [ [ J f s a p e > r H Y L R B.%XxXHXHX1X.Xt.;.;..Xr.r.+X<X;XyXpX%X&XN.m.m.3.3.4.B V V B s.C.oXoXoX%XyXdXjXvXfX%XoXm.:.V V o.k.Z.%XfXvXfXuX@Xz.+.b x P s.U.wXwXrXwX0XI.Y.Y.Y.Y.G.G.G.D.g.} / ^ ^ G s a r e > ; > ",
"Y.J.f.p.s.B././.#X_./.V./.tXjXjXSXDXJXJXDXDXSXSXpXfXsX<X;X<XaXaXaX;X+X XE.N.M.m.w.3.:.B B :.3.B.C.].$XiXdXgXhX%XN.3.M.OX*X*X!.e.:.+.1.M.l.9.~.bX*X(.V.z.*.R ^ ^ A r s A 4 2 F g.I.I.Y.G.g./ F l S Z P K.yXaX1X5X3X.Xy.r.r.6.w.M.E. X X=X1X1X=X+XA.A.2.N x L E L i.z.).tXjXjXdX$XJ.a.I w 2 q C T i.U P #.s.p.s.m.pXgXSX;Xw.N.|.;.2.B.V.m.M. X1XsX|.4.V 4.C.iXVXLXNXhX{.` t : - - ; 4 / @XyX XE.~.*X!.N.k.m.m.C.B.2._ n m I ` v.C.C.C.'.'.&X,XsXNXsX'.q.w.q.3.8.N.E.Q.Q.+XsXgXoX2.j w 2 : : - : : : < < p d d p 5 1 < 4 r F J.rXiXiXiX&XA.3.q.q.4.A.N.|.+X+X<XsXAXAXAXAXzX5X1X>X X9.5.@.1.W.-XyXyX#XB.i.p.B.B.s.<._ U <.Z.dXvXyXV.o.8. X*XOXOX-X:X:X(.W.W.(.T.7.W.W.8.-XaX;XOXk.k.b.h.| J a , $ $ O O O O O O O + + + . + + # # , # @ : y ' L.[.$X$X$X@XoX@X@X[.U.@X@X@X].L.b.a.2.b.C.P.].L.a.` I R I n n n I U _ A.v.B.P.].@XL.{ D q : - - - : e ! ..D.8XqXeXkXkXS.Y M q.+XmX2X+X'.m.2.s.V.Z.N.M.N.+X1X=Xe.>.:.U #.U I T T ^ [ | p.K.tXrXrXdXjXjXtXtXU.J.i.R E U k.Q.OXOX:XzX5XXXXXE.e.Q.@XB.<.s.M.M.E.R.T.c.p.E Z r 2 > > 2 r H [ [ [ K s s p e < r F I U U s.oXgXGXGXzX.Xr.t.r.4Xr.r..X<X<XpXgXgXpX&XZ.m.m.m.B.2.U M M U 2.s.k./.oX#XyXfXvXSXgXyXoXk.+.V V V B <.s.V.P./.@XP.J.i.L x L <.f.h.B.G.b.h.G.L.J.g.{ i.d.d.d.d.d.d.d.^ J G s r > > > ",
"9XU.P.K.K._.#X#X_./.k.1.1.z.K.P./.#X%X#XoXZ.V.Z.+X;XaXsXsXsX<X+X+XOX X XN.8.:.:.:.:.3.2.s.s.B.C.C.$XhXjXjXgXoX3.V b ,.OX-XOXE.0.+.+.3.l.l.9.!.:X!.!.x.p.#.E Y Y A r A A r 3 F / Y.U.wXU.U.b.i.R Y Z E K.uXaX1X5X2X3X.X4Xr.w.3.w.Q.E.E.XX1X5X1X=XN.Z.m.U M M x l R i.h.L.tXiXrX[.b.` z 2 - - q x p.#.U #.s.s.1.:.#XfXSXaX|.Q.N.,.k.B.V.V.M.N. X=X+X,.k w k ` {.iXhX&Xn.I y ; - - ; 4 T P.%XOX~.~.R.E.e.8.>.3.2.2.v.v.v.s.s.n.b.B.C.].&X,XpXNXZXZX2XN.w.w.,.4.N.Q.N.E.+XaXgX,Xv.m > ; - : : , 0 u u u p p d d u 5 5 < 2 2 j I s.C.iXNXhX].A.C.A.4.,.q.A.N.'.|.+XsXAXAXAX5X5X1X>X Xu.5.O.o.l.#XfXfXrXK.s.z.P.P.B.s.m.s.m.$XgXvX%Xm.6.E.:X1X-X*X-XuXuX(.W.W.!.l.7.W.W.9.-XfX;X#Xz.k.h.} J s 0 $ $ % O O O O O O   O + + + @ @ @ @ @ + + . : D a.].$XpX%XoXZ.Z.P.P.P.@X@XrXeX[.L.L.L.].].L.L.C.L.b.n.h.i.R R ` <.2.:.oXC.C.].$XeXL.T x y 2 > - - - : G ..H.8X8XD.| ^ 3 ; h C.ZXNX3X'.'.m.s.z.P.P.Z.N..X3X2XE.,.o.+.U <.R L F C D H T f.).dXjXjXjXjXdX).P.B.p.R P U <./.OX;X1XcXAXzXXXXXE.M.N.@XB.<.s.M.E.R.T.l.c.$.E z r 2 q y z Y / { | | K C s r e s C F R R U 1.V.pXDXFXzX3Xr.r.r.r.r.4X3X1XsXaXpXfXhXrX%XoXC.Z.B.s.s.<.P V V B +.M.N.Q.oX%XpXfXgXpX%X/.m.<.B V b k M #.B.).rXrXrXa.L h k U <.<.<.i.i.f.b.J.b.i.E L E R R R R R / [ ! ! G s 8 - - ",
").).).)._.yXuX;XQ.M.@.b c c v N +.:.1.1.>.8.M.Q.%XpXgXgXsX<X+X|.Q.M.e.w.8.;.B B :.2.m.B.Z.P.[.@X$XiXpXrX$XZ.:.k 6 6 o.OX;XOXN.>.+.<.3.k.M.R.*X>X`.R.k.#.E L S Y A A H Y Z Z Y L i.J.U.U.U.J.h.i./ S E ^.uXaX1X5X5X3X.X4Xr.w.q.w.M.R.E. X=X1X1X1XOX&XZ.2.U M x z d.S.J.h.h.b.J.J.n.' z w > : q z i.1.1.<.<.1.1.+.Z.%XpXsX1X.XN.Q.V.z.z.V.V.w.M. XsX|._ 2 : w ] | v.q.] z q - - - - r T J.#X*XXX~.0.E.E.8.3.2.3.2.L.[.eXiXeX[.P.J.$XiXhXNXZXDXDXZX<Xr.A.A.3.v.oXoXe. X<XsX<XZ.U q ; : > 8 9 u i i i u u 5 u u 5 , , : > w w w k 4.&XiXhXiX&X].C.w.4.4.,.w.A.A.|.=XZXAXAXMX5X5X>X X~.5.O.V >.(.xXFXfXtX).P.K.J.C.C.].].$XhXSXgX%XQ. X1XxXaX-X-X-XuXuX*XW.T.!.l.7.T.W.0.-XbX-X_.k.s.i.T t 9 , % % $ O O O % % O O . . . X @ @ @ @ @ @ + @ @ q K b.oXgX%XQ.m.k.k.k.1.B.P.$X%X%X$XeXiX$X].C.n.n.C.].eX[.I.Y.L.L.C.C.m.$X].].$X@X$XL.` F z q > : - : < f !  ...! G e - = 4 ` rXNX2X.Xr.A.m.B.J.K.K.Z.|.+X2X+X6.o.o.+.+.p.i.L z w q t x i.U.jXjXjXdXtXU.h.i.R U L L <.B.#X;XaXxXAXzX5X>XXXE.M.N.@XB.<.s.N.E.R.T.j.j.$.P x w w t D T { a.a.n.| K t e t s D C Z I R U <.m.%XZXAXzX2X.Xr.r.r.4X.X3X2XsX<XOXoX$X%XrXpX%X/.V.B.B.s.i.U L N B o.,.9.Q.Q.oX%XpXyXyXrX$XZ.s._ I k k M <.J.@XrXrXB.` M x L L U R I i.f.h.f.i.<.R U R R P L v v L T J ! ! G e : - ",
").)._./.#XuXfXuX_.W.7.b 6 6 b b c k b V o.M.+XgXpXsXsX<X&X|.|.Z.|.m.:.o.o.o.:.3.3.k.m.Z.P.$XiXdXjXgXeXB.<.U k 4 4 3 :.%XpX&XB.<.U <.k.k.M.E.*X*X!.R.7.%.v v S S C C Y ^ R / / x L p.K.P.J.J.h.f.*.E *.^.uXaX1XzX5X3XXX.Xr.6.6.w.e.M.E.|. X2X1XsX;X&XQ.m.<.L v L S.U.U.h.` R ` { a.I n z w w w j <.k.k.#.+.<.1.#.V./.oXaXAX=XE.;X/.z.k.Z.N.w.M.+XsX<Xv.w = - q y m m m w > - - 1 1 r ^ h.oX;X=X~.y..X=X XN.N.P.C.C.L.L.L.L.[.tXjXBXDXGXGXDXDXNX<X&Xq.w.A.3.A.oXZ.e. X1XsX%Xv.n > > > 9 u u i i i 5 , @ + + @ @ # @ @ > t w 2 w ] C.].rXhXiXoX].].v.4.:.q.A.A.Z..X2XMXAXAXAXzX1X X X0.b b o./.vXKXJXDXjXrXP.C.P.$XoX%XhXSXSXgX;X+XsXZXZXaX;X;XyXyXyX(.x.W.^.l.7.W.W.0.-XaX-X/.s.i.T C > : 0 i % $ O O O % i % + .   . . . X . . . + @ @ @ : z a.].NXpX+XQ.N.3.B b B.Z.P.@X@X@X$X$X@X$X$XeXeX[.{.I.I.7X0XI.L.B.v.v.].C.C.].C.P.B.` C t 4 ; - - : 9 , a f d a e : - 4 T [.iX<X&X'.A.m.B.J.P.B.m.N.|.2X2X|.,.N +.<.+.s.i.U j 2 2 q r R L.dXkXdXtXU.f.R L v v v N s.oX;X:XcXAXAX5X>X>XXXE.M.Z.@XB.<.s.N.E.R.T.0.&.@.P Z l y z J ` a.h.n.b.n.K y q s D F l z L <.:.1.m.&XsXAXZX1X3Xr.r.r.4X3X.X3X1X=X|.m.m.V.$XpXdXrXP.K.B.s.h.B.B.1.B b o.8.Q.Q.Q.+X;XpXpXdXdX%XZ.s.<.N k h k R h.K.U.dXU.i.L x h k x k U i.i.U M M U z.z.h.<.E v v x x D J [ ! f e > ",
"W.(.-XyXuXfXuXyXV.k.+.N b b b V V V V :.M.&XaXxXsX<X&X&X&X|.A.3.m.2.U V o.>.9.9.M.M.Q.oX%XpXhXhXhX@Xi.Y Z 3 2 ; 2 n b.eXeX[.b.` _ <.3.m.N.Q.*XaXOXQ.7.N N %.%.S Z H / S.Y.Y.h.i.#.R #.s.z.z.p.=.*.S S K.fXaXxXzX2X2X2XXX Xr.e.M.6.M.N.N.|.=X1X2XZX=X|.Q.V.1.#.f.U.9XJ.R L j j I I ` 2.I j j M P m.B.m.p.#.#.<.s.p.V.OX;XaX5X2X+XQ._.k.6.Q.E.M.Q.pXgXiXa.q - - ; w q q q > - 1 p p p C i.P.;X;X=X.X.XXX.X'.oX$X$X$X{.L.{.eXiXhXSXNXDXHXAXDXDXNX+XN.|.q.4.'.|.r.E. XaXZXpXB.U j 2 s e 9 0 , $ % i # + + + + # , , @ : 8 e e t z x I 2.[.iXdXiX@XU.B.s.:.:.,.A.|.|. X2XZX1XzXHXzX X=XM.O.b N k.fXKXPXKXDXjXdXrX%XrXfXDXKXDXNXgXsXsXSXsXpXpX,XoXoX$X@X@Xm.k._.V.7.W.W.8.W.fXyXJ.` K K t 8 0 u i $     O % i Q i 5 $ . X @ @ @ @ . . . + # , > q T b.iXjXgX%XZ.q.B k B s.B.B.B.oX%X%X%X$X$X@X[.[.0XtXkXkXkXtXwXU.P.P.P.B.Z.oX@XB.i.` H z 4 2 2 < 9 p < 9 9 < : - - - n v.rXdX$X'.C.].B.:.Z.#Xw.w.=X=X1X+XN.1.E E *.s.Z.m.4.V h w l l L h.J.J.Y.J.h.h.h.#.L b b 1.oX;X1X5XAXAXcX1X>X=X XE.N.Q./.k.<.s.V.E.E.R.9.&.O.N x F H H ^ b.L.L.L.b.{ F z C H H F r h L R +.1.M.+X<XZXAXzX=X.Xr.r..X3X.XXXMX1X+Xm.k M B.P.wXiXwXwX@XU.B.V.P.M.>.V o.>.>.1.8.Z.+XoX%XpXfXfXyX@XP.s.<.V k k P s.B.rX@XV.+.c 6 v #.<.<.N b V #.1.#.z.k.p.#.E P v h 3 C H ! ^ ( G e ",
"W.(.uXcXxXxXyXOXk.3.+.%.P +.1.1.8.w.N.&X<XpXpX<X%X&XZ.A.w.r.A.m.U U +.:.>.5.9.9.~.!.*XaXgXgXdXiXB.` x w 4 ; = = q T L.eXeX{.n.{ U 3.m.m.N.Q.;XaX(.W.7.+.+.#.%.S Y ( F.9XtXtXwXU.f.<.#.#.p.f.p.f.E S 7 F.fXbXxX5X2X5X5X2XXXE.M.M.8.w.A.A.|.+X1X1XAX<X+XOX/.k.k.V.P.K.i.x h w 2 w I 2.s.2.P P <.1./.oXP.s.U P #.h.f.z./.OX1X5X2X XOXOXE.8.M.A.A.A.%XhXjXL.F > ; 2 q q 2 e e < p d p p C { K.OX+X.Xy.y.r.r.w.C.].[.kXiXeXiXiXhXgXNX&X,XmXNXNXNX,X'.N.A.,.w.|..X'.N.1XxXxX+X2.n w q e < # @ + + + $ + + + # i u u u 9 , : > e s G D j I h.wXkXjXtXwXP.B.s.<.>.8.N.E..X+X1XzXAXAXzX;X%XQ.3.B N +.#XDXPXPXPXIXLXDXFXFXKXPXPXFX<X+X<XNXDXNX<X<X&X}.].$X@X@Xm.k./.V.7.Q.W.8.Q.fXrXB.' D t e 8 0 0 0 # + + % u Q W Q u , @ # : , $ @ @ + . . @ : : q F a.eXhXjXhX%X'.4.k M <.s.m.V.oX;XpXyX@XP.L.L.U.0X0XkXkXkXkXtXtXwX#X#X/./.@X@XJ.a.{ T C r e e e 9 p < , : : : : > > ' C.%XrX$X].P.B.m.2.V.|.M.N.2X2X+XQ.m.p.E S *.B.$XoXA.;.M x Z Z L ` R L E E *.J.U.B.#.v +.V.;XsX1X5XAXAX5X>XXX~.~.E.N.V./.s.<.s.M.N.R.R.9.&.o.P E / } | g.Y.[.].L.h.` I T T ( ^ Z z x L R #.1.k.A.+XAXFXAX<X.XN.r..XXX.X3XMXAX2X:.3 3 I a.I.kXkXtXeXwXP./.oXQ.8.>.>.:.o.B :.8.N./.oX%XyXpXfXfXdX#XP.s.:.N B <.s.k.V.V.1.N b +.x./.V.:.b b +.z.K.f.s.1.+.P M v h 3 s A G ! ( ~ s ",
"(.:XxXvXxXaXOXV.7.@.+.+.1.V./.#X#X%X;XpXfXpX%X+XZ.Q.Q.N.w.;.;.B B :.3.k.k.e.R.!.*X-XaXgXfXrXL.a.n j 2 ; ; = = = z | [.iX[.L.g.` V 3.N.m.w.Q.;X:XQ.l.7.7.j.$.#.P / d.Y.9XtXtX@XP.z.s.i.<.p.f.p.p.S 6 6 z.fXzXzX=X3X2X5X5X=X XE.M.w.8.w.A.E. X=XsXzX1X1X<XOXW.V._.@XP.<.x h w 2 w I n.P.L.h.s.B.P.%XrX%XV.#.v P #.p.j.m./.;XzX1XXX;XOXE.E.w.w.N.A.Z.rXBXdXg.z 2 r w q 2 q p p d Q d s A { K.+XOX X.X.X.X'.|.%XiXiXjXjXjXhXhXhX,X].A.'.,XsXNXpX&X'.Z.,.4.'.&X.X.XN.zXxXaXZ.U k w e e - . . .     . + + , a W ~ ~ W a > X X - e s D w j I h.tXkXkXdXwXU.J.s.1.,.8.r.E.E. XsXZXxXxXZXaXpX#XM.o.N k.yXDXKXPXPXIXIXPXKXPXKXFXZX<X<XsXDXDXsX,X&X'.v.C.[.eX$XB.k./.l.7.W.W.8./.fXrXB.I t q 8 9 9 , # # $ # , i W ) ~ d < - - : , , , # $ + + @ - : q z I L.iXDXSXhX&Xv._ M I <.m.Z.oX%XfXyX/.s.R R { d.g.qXqXkXkXkXdXdXdXtX@X@X@X[.b.{ T H C s s s a p a e 9 > : : > e t b.$XpXrX$X@XK.s.B.B.V.N.N..X2X=XN.w.s.p.Y Z d.).hX<X'.q.<.R / Y ` R n h w 3 l i.).@Xs.+.V.yXaXzXAXAXAXAX5X1XXX~.~.E.M.V.P.s.<.s.m.M.E.R.u.0.@.+.i.g.H.H.I.[.@X@XB.a.` i.H.Y.S.} Y F L L U <.3.8.8.+XSXGXAX<X X.Xr..X.X.X3XAXHXAX2.6 ; 3 z ^ H.I.0XeXeXeX@X@X/.V.N.8.>.o.B B +.:.8.m.V.oX%XpXfXgXfXpX%XK.s.<.<.1.3.B.Z.k.+.B 3.V.%X/.1.b c B z./.K.V.k.#.P v c h l C s s H [ ! C ",
";XaXcXcXuX-XQ.M.1.@.+.>.M.#XfXvXhXpX%X%X%X&X+X&XN.N.A.r.,.;.V V 3.8.w.m.M.E.*X:X:XuXpXrX@Xh.F y w q > : 1 - - ; F b.iXiX[.b.i.R I m.Z.m.m.OXaX;XQ.9.1.k.k.1.#.#.*.d.f.S.J.J.h.p.1.s.z.J.K.z.f.#.c 6 6 z.cXcX5X.X3X3X5X5X1XOXQ.N.w.,.,.e.N.E.+XsX1XsXzXsX;XQ.W./.rXwXh.I n j h n ` L.eXeX@X@XrXyX%XdXfX@X<.x c v p.1.k.V.;XzX1X=X;XE.Q.|.w.r.|.N.Z.%XBXDXeX` z z F j 2 2 e d d f d d C R B.oXOX X.X.X=X<XNXBXVXkX0XiXkXiX[.L.2.k q.'.<XZXZX<XoX'.N.;.q.&X|.&X+X XcX1XOXk.P x w y > - . X # # $ @ : : a G .. .....f e X o X : s D F k k L f.U.dXkXdXrX@XB.3.:.>.,.N.M.E.OX;XaXZXFXxXSXxX%X8.B o.3.pXJXPXUXUXUXUXPXDXpXoX%XgXZXZXSXZX<XoXC.v.2.C.$XrXrXB.k./.k.@.l.M.8.Q.fXrXB.T w 8 8 9 8 , : , , , < p ~ ! ! G s : > e p d a a i , , : > 8 q w z 2.$XDXDXhX&X'.C.:.U :.m.Z.Z.+XpXyX/.<.n w w j C }  .H.7X0XtXdXkXiXrXrXrXwXY.{ T D C A G G f s s f f s q 2 q F ' ].hXBXrX@XoXZ.2.K.oXN.A.|.=X+X Xr.3.1.#.L Z f.tXDXgX%XC.L.L.G.d.i.I j h h 2 3 U s.#XZ.k.aXvX1X1XHXAXzX5X1X>XXX X!.E.M.V.P.s.<.s.k.M.E.R.9.0.$.+.*.d.H.I.I.Y.P.K.a.i.a.L.tXtX0XY.} { R L P :.1.>.w.+XZXDXzX=X+X+Xr..X XXX2XAXHXAXZ.n ; = ; q D [ H.0XtXeXeX@X/.Z.V.m.8.3.>.:.B V B :.8.V.oX#XrXrXdXdXpXrX$XP.V.m.k.V.Z.k.1.+.j.V./.P.k.U b N p.K.).).K.1.P P M M Y H z r D [ ( G ",
"=X:X1X=XOXE.M.e.,.>.8.Q.;XsXxXSXgXpX%X#X+XoXoXoXM.3.o.V V ;.6.M.w.w.w.M.E.=X:XaXfXuX@XJ.i.F q : : # : , - X @ - J L.kXiX].v.<.P <.m.Z.N.Q.aXzX;X!.k.1.7.k.p.$.p.i./ / R R R R U U p.K.U.).K.f.E c c c M.zXzX2X.X.X3X2X1XaX;XOXQ.M.3.,.w.e.r. X1X1XzXxXxXuX/.V.V.#XrXP.i.I j j I a.[.iXiXrXrXdXjXgXBXjX@X<.c h c #.<.1.m.OX1XsX1X;XE. XOXM.M.|.Q.Z.oXdXDXjXL.I x R n w 2 e f ~ ~ A s r F p./.OX+X+X,X<XiXhXkXiX0Xn.H.H.g.' m w 2 4.'.NXZXhX&XN.A.N.,.A.&XN.|.2X2XaX*XV.>.M j w r 2 : : u d f d d y y D J |  . .| G s > - - : p D F n x x Y f.).dXdXdXrXP.k.1.:.>.8.M.Q.Q.OXpXxXxXxXSXSXaXQ.,.V b :.Z.rXjXDXFXSXpX&XA.N.<XSXSXsXpXpX&XN.q.4._ v.].@X@XB.k./.k.@.l.l.8.Q.pXrXL.` z q 8 > : , , , < > > e C H ^ H F C G ~ ~ ~ ) ~ ~ d a p e e q w h I B.pXSXSXhXoXm.s.<.<.s.V.V.oXyXgXyXK.U w ; ; q e s ~ ( g.H.Y.I.tXeXiXtXtXI.d.T s s G ! ~ f s s D H J x w j ` L.$XgXSXpXoXP.B.s.P.oXZ.N.+X<X+XE.3.:.U L l z h.dXKXJXSXBXBXjX0XS.` n j j n j k <.1.#XOXQ.xXDX1X1XHXAX1X X~.E.E.~.E.E.M.V.Z.s.#.s.k.M.R.9.0.0.@.P L Y } D.D.g.p.p.U ` b.0XkXkX0X7XS.g.{ L N U :.:.8.E.1XAXAXsX=X.Xr.r..XXX2X1XAXZXoXR 2 o = - 8 s !  .H.0XwX@XoXoX/.Z.B.m.m.3.:.B B :.1.k.V.Z.oXoXrXrXrXpXgXdXrXoXm.k.8.1.1.k.V.Q.P./.V.3.+.U 3.P.@X@XK.p.+.+.<.p.{ T F z H | g.^ ",
"6XzX5X=XE.6.;.o.6.N.;XxXSXZXsXpXpXyX%X#XoXQ.N.m.>.;.V V o.,.r.N.r.r.N.OX;XaX;X;X/.K.i.T C e > : @ # # # + . - > | [.hXrXZ.m.p.+.s.C.].'.%XxXZXaX*XW.8.8.k.k.k.z.E L z h h k k M P p.B.K.K.K.z.#.b b b E.zXzX2X4X.X.XXX1XzXaX;XOXN.r.8.,.8.e..X=X1XzXZXDXxX;XQ.V.@XdXrXP.h._ I a.L.eXkXiX@X@XdXjXDXDXgXP.#.x h c R <.p.k.N.OXaXsXaXOX X+X|.A.N.N.oXP.$XhXBXtXh.I R I n w q s ~ ) G C l L p./.%X+XsXpX,X{.L.L.H.n.J K D w > - 2 w A.,XSXNX%X'.A.m.A.A.'.|.N.|.2XsXzXOX7.V k l l C e e a ~ ! ) ) ) J I L I ` { { ^ C t q : - ; e s w x F L Y i.L.rXdXdXrX$XP.k.3.:.B k.Q./.oX;X;X%XgXxXZXzX<X|.,.V B U 2.m.Z.Z.s.<.:.m.%XZXSXgXhXpX,X'.m.3.B V _ B.K.P.k.k./.l.>.l.8.8.Q.pXrXP.a.m q > : : 9 e e e r w l z Z L Y Y / / ( [ ( ! ! ) ~ f f f t w w h I _ m.hXJXDX$X4.B.s.<.<.k.V.oX%XgXgXrXB.n 2 ; > - : < d C H T T S.Y.I.I.I.H.| J C G ~ ! ! f a a s H T F k N B.iX%XgXjXrXP.B.B.B.Z.V.N.oX;XpX+XM.>.B M h 3 x i.@XJXKXPXPXIXJXtXG.n.' V m I V B v./.;XOXOXcXxXcXAXGXAX<X.Xe.0.y.E.E.E.M.V.P.s.#.s.k.V.R.9.0.0.@.N h l H ( { R R <.L ` h.I.0X7XI.H.S.g./ U U U :.:.;.e.=XAXHXAX=X|.r.r.N..X=X2X1XZXiXG.w = - - - < e s ^ n.Y.U.@X%XrX$XP.V.V.m.3.3.1.:.B B :.3.V./.$X$X%XdXjXSXgXpX/.V.k.3.8.k.M.V.Z.P.Z.m.<.+.3.Z.#XrX@Xz.#.U #.<.` ` L F ` G.G.g.",
"5XzX1X X6.t.;.;..X=XxXDXZXaX+X|.oX/./.Q.V.k.>.+.o.;.6.8.w.6.6.,.N.|.+X<X<X%XoXV.<.E x 4 : : : : # # # + . . 9 G n.eXhX%XZ.V.l.3.s.B.P.&X;XgXxXxX:X*XW.k.k.Z.Z.B.P F h h h h k k N s.V.K.K.K.z.#.b V V E.zXAX5X.X.Xy.E.+XaXxXfX#XQ.N.r.,.,.r.|. X+X1XxXDXxXaXOXV./.pXjXdXiX[.L.[.iXBXBXrXB.h.P.tXjXdX$XJ.i.L x h L <.s.3.3.N.;XxXaX;X X+X+XN.w.N.oXP.P.rXjXjXwXs.U <.R x y s G ~ G A l F a.Z.oXoX,X$X].n.` ' J K t 8 > : - - j a.,XZXSX,XZ.'.Z.v.m.oX&XN.Q.+X<XzX;XW.+.V x h l C C s G (  .(  .} i.+.P P U U L F r w 2 ; ; > < e 2 j F L I i.J.wXtXtXrXrX#XP.k.1.N <.B././.Z./.+XpXsXsXxXZXzX+Xw.V k h k k h h k :.oXSXDXgXhXpXpX'.A.3.:.I V U s.P./.k.k./.l.>.M.9.0.Q.yX%XP.a.n q q q e s A G H L L L L L P #.*.i.{ / ^ ^ ! ! ! ! ~ G G z w h k V B s.%XDXDX%XB.P.B.<.U 1.V./.oXyXdXdX$Xa.k q 2 - 1 < < e e r y F T T { } | T D t s ~ [ ! G s D D T ` U U 3.OXgXfXpX%XoXm.s.m./.Z.3.N.pX<X;XOX3.:.U k 3 3 Z i.B.tXDXIXIXJXkXwXI.{.{.C.` ` 2.v.%XxX;XOX=XcXxXAXFXAXZX<XE.e.e.E. XE.E.M.V.P.s.<.s.k.V.V.9.0.j.$.S 3 6 A ( / E R <.U ` <.i.i.} } } { T I <.<.:.:.3.,.N.2XHXGXAX=XN.|.r.r.|..X=XsXDXBXeXJ : : @ . - : : e H } h.P.@X#X$XoX/.P.Z.V.B.k.1.+.V V +.3.m.B.P.$XrXdXdXgXgXpXyX#X/.Z.V.k.3.m.V.Z.N.3.+.:.k.#XyXyX/.s.+.E E ` { ` ` a.L.Y.G.",
"3X3X X6.t.6..X+X1XsXAXZX<X+X|.|./.K.V.k.k.3.>.o.o.,.e.M.w.w.e.N..X+X<X<X&Xm.2.<.L x r > - - , # # + O O   + a [ I.iXhX&XN.V.W.V.<.s.C.&X%X;XsXxXcXaXOXM.V././.V.p.i.U M M N N B V s.P./.).).z.P b V o. XAXAXAXXXy.r.w.Q.fXvXfX#XQ.|.A.,.;.w.E.|.E.=XaXZXZXzXOXN.V.rXgXBXDXBXhXVXJXLXJXeXa.U <.h.U.K.L.J.B.i.x 6 x #.s.1.:.k.%XxX<X<X|. X<X|.8.N.|.Q.Z./.dXDXfXP.+.2.s.I w w s A e 4 4 z R s.m.m.2.a.a.I z y > : > - : q 2 > I $XNXDXNX'.q.Z.Z.3.s.%X&XA.|.<X<XaXE.7.%.N P x z C H H ! ( ( ( ( } p.@.+.B P M x k l 3 2 ; 2 e r r w z x n L <.L.rXrXrXrXrXrX$Xm.3.<.+.p.V.V.s.V.yX%X;X<XsXZXAXsX+Xw.B k k k h k <.P.dXDXDXgXhX%X].m.3.4.:.N V U k.#X@Xz.k./.k.@.l.l.8.Q.;X%XP.a.n w w t C H ! [ d.i.p.j.p.$.#.1.f.p.i./ ^ ^ ( ..} ! J J D z w j n V _ B.$XrXrXpXdX@XP.1.B +.m.Z.N.#XpXgXdX].` j q ; < < < < > > > e z C D J [ T D q a G [ [ ! K J T ` <.<.3.M.=XzXxX%XZ.m.8.3.m.&X/.>.Z.gXpX+X/.:.:.U k 3 3 L i.i.h.iXJXjXwXY.Y.0X0XVXiX{.}.].iXDXGX;X X1XzXxXAXAX1X2X+XE.w.6.E. XE.E.M.V./.k.<.s.k.V.V.l.l.l.7.P 3 h A / / R #.s.<.U L n x F F H Y Z L a.v.2.<.w.N..XsXHXHXZX+XE..Xr.r.r.|.+XzXGXBXkXJ > > : @ , , @ - e D T a.P.V./.@X%X#X@XP.V.Z.B.3.:.:.:.:.1.<.m.P.$X$X%XpXgXfXgXgXfX;X/.V.8.k.V.oX#XZ.1.+.:.B.@XyX#XV.s.p.<.<.s.s.i.s.J.L.b.",
"y.e.6.6.E.=X1XzXsX1X=X+X+X|.A.w.V.V.k.1.B N +.3.m.A.N.M.M.N.|.+X<X+X&XZ.m.:.n h 2 2 2 < < , , , # O O O O # f  .0XeX%X|.N.Q././.:.v.C.Z.m.Q.aXDXxXxXzX<X#XoXoX$X@XP.h.2._ :.<.<.+.k./.#XtXwXK.p.V V ;.|.ZXHXAX3X.X6.;.8.oXuXdXyX&XA.r.r.w.,.w.|.e.=XzXzXAXHX1XM.Z.P.iXDXKXKXLXLXPXPXLXiX<.h h k k I b.wX[.f.n w x U p.s.<.<.Z.sXsX+X|..X+X|.N.N.|.Z.N.Z.yXvXvXfXN.m.s.<.F w q r > ; > w L U B V j w w q > : - X 8 > q q q m L.BXDXNX%XC.A.Z.m.3.B./.oXQ.+XsXaXQ.8.o.b N P x l Z Z ^ ( H Z H / / 7.7.@.@.+.%.P M x l w 2 r s s r w l j j n i.@XdXrX%X%XgXDXyXm.3.s.z.#.v +.@X%Xm.Q.|.OX<XZXAXAXAX&XP.3.B k B s.oXDXDXSXpXrX%X$XZ._ 4.4.U V M s./.#XK.p.k.W.M.7.k.9.0.Q.;X%XP.s.I w j n F T d.S.S.z.x.V.Z.Z.V.V.x.k.i.E T / / ^ H G F H F z j k M B 3.Z.&X%XrXhXBX].B.s.<.2.3.m.N./.&XpXdXiX].' w s e : < < > > > q q q y F T F w > q C H J T [ { i.2.2.8.E.=X5XzX;XQ.k.8.8.3.m.Q.m.N.oXfXhXZ.3.3.+.N k h k P 2.p.R R f.G.{ F a.iXVXCXCXVXiXBXKXIXGX<X X=X5XAXAXzX|.&X|.A.N.OX*XE.E.Q.M.V.Z.s.#.p.k.V.V.j.0.T.j.%.6 l Y g.S.p.s.k.k.N 3 3 j x l w w w F a.m.m.m.A.+XZXHXAXAXAX<Xe.=Xe.w.|.OX.X=XSXBXqX| y : - 1 # , , < ; > y F ` h.K.@XrXrX@XP.K.2.B.oXoXm.:.B B :.3.m.m.m.Z.#XpXgXDXFXSXxXyX/.k.k.k.N././.m.U c B k.#XfXdX@XB.p.<.s.s.b.B.B.L.B.",
"6.r.XX1X5X1X1X2X1X=X|.N.A.A.r.w.3.2.<.+.+.:.3.k.m.m.Z.Q.oX&X+X+X|.N.q.4.U m w 2 2 2 < < u u u u # & & & $ 0 f  .0XiXpX%X+XOX_./.@X2._ m.Z.A.|.aXzXZXSXxXpX%X%X%XrXrX@XK.v.2.s.m.3.k.V./.rXuX).z.:.;.,.E.1XAXZX=X|.r.;.o.B.yXjXdX+XE.e.e.w.,.w.Q.e.+X1XzXAXHX5XE.N.m.C.pXLXIXKXLXJXJXjXB.x 4 4 3 h F h.[.[.h.R L L U R i.i.s.B.$X,X+X.X X X|.|.Q.8.N.Q.Q.OXaXxXaX;XQ.k.<.R F t r y q w z L U V k w q 2 > > > : : 8 > > q w ' {.BXNXpX&XZ.m.m.m.B.Z./.Z.Q.%XfX<XE.8.o.b B P x h l Z F F Z F ^ d.*.$.5.7.9.j.7.1.#.R R I Z C C C r l z x x L s.@XgXiXrX$X%XgXfXoX/.B.s.#.U <.B.Z.V.Q.Z.Z.&X<XZXZXAXSXgX%XZ.m.Z.rXgXjXjXdX%XoXP.B.s.3._ U :.#.#.z.rX#X^.j.k.W.l.7.l.9.0.Q.;X%X/.v.U h n L I / d.f.f.k.k.l.V./././.V.k.s.p.i.d./ H C t z F F L I :.3.3.B.oX%X%X%XrXiXK.B.B.s.3.3.k.V.oX&X%XpXiX$Xv.K y < < < e < > e r r r t J ' K z > 2 q t F T } a.s.s.8.N.*X1X5X5X|.Q.M.8.8.N.N.N.N.oX;XfX%Xm.1.:.P M x k M <.v.L.{ F x Z z z n.jXLXIXPXIXIXPXPXPXSX+X|.=X5XAXAX1X&X'.N.A.r.w.M.!.E.E.M.V.Q.s.#.p.p.k.l.0.0.T.7.%.c x Y g.J.z.k.V.3.V h h h z w 2 2 z T h.B.m.Z.&XsXFXGXZX=X=X+X|.w.r.E.E.E.|.<XSXBXeX| t : @ @ # 5 5 < < > 2 j x E <.J.@X@X@X@XoX$XP.m.m.B.Z.m.3.:.:.U :.m.C./.Z.%XyXfXfXxXxXaX#XN.N.m.N./.Z.3.B k V <.V.@X@XV.s.s.s.k.K.@XrX@XB.",
"6. XzXAXAXsX2X<X+X|.N.w.3.,.,.3.B B B :.1.s.m.m.V.Z./.&X;XpX%XoXv.4.I k w w 2 2 > < 9 p p a a a 0 i Q Q u u ~  .}.$XhXgXgXaX#XP.dXv._ 3.Z.r.M.OX<XzXSXDXxXfXpXhXiXdXdX%XP.m.s.m.m.k.s.B.rXjXtXP.M.w.8.N.2XAXAX2X|.N.:.b +.rXvXvXpX.XN.A.r.6.8.e.N.|.=X1XAXHXAX2X|.q.3.C.hXDXJXDXBXjXeXs.M h h k w n g.[.[.b.a.a.R L L R a.h.B.B.|.+X+X&X|.+X+X|.>.N.Q.Q.Q.;XcXcXxX=XM.s.p.` F t D C z n I I m j 2 > > : > 8 9 8 8 > > q I L.iXNXpX&X|.Z.m.s.m.P.#XZ.V./.;XpX%XQ.M.>.o.+.+.N h h x x l l S R i.p.@.0.l.R.W.x.c.p.p.f.d./ Y H C z z x n M U v.%XgXhXpXoXZ.<XgXsXfX@Xz.i.p.<.:.2.Z.Z.N.A.N.|.<XZXDXKXFXSXdXpXgXSXDXjXpX#XoXZ.s.<.:.s.I B s.B.p.z.wX_.^.k.k.Z.k.7.M.l.0.Q.;X%XoXB.` k L R i.d.d.f.i.#.%.+.8.V.Q.W.V.k.k.z.p.R x l w q w n R 2.v.Z.oX&X+X%X%X$XoXP.Z.B.B.B.s.1.:.8.N.N.'.oX%XpXiX].n.t e e e e e < e e e e t F T F z w 2 2 w x T a.b.m.m.N.=XcXzX5X>XM.Q.N.8.N. XE.8.|.<XgX;XP.k.<.U L v n M _ s.L.[.g.Z 2 ; 2 z G.BXLXPXUXUXUXUXPXHX2X|. X1XzXAXzX=X%XC.m.A.3.O.,. XQ.E.N.V./.k.#.p.p.k.l.l.l.T.l.$.v S R h.K.P.W.W.1.N k h h h 2 2 z I g.L.C.C.$XsXAXHXHX2X.X.X|.N.;.|.;X|.N.+XxXSXBXiXn.s : . . . $ 1 u e 2 2 2 w h M R h.P.@X@X%XdX@XB.m.C.oXZ.m.3.:.B B :.3.m.m.Q.Q./.#XaXSXSXxX;X|.m.m.V.Q./.Z.+.N b U k.Z.Z.m.s.s.m.@XjXSXrXB.",
"=X1XzXsX<X=X;X<XZ.N.N.A.3.4.:.B V V :.3.m.Z.Z.C.oXoX%XrXrX@XB.s._ I j w q q q e < 9 p a d f f f f W W W u u G [ a.C.,XNXDXvXuX@X@X[.P.v.3.A.|. X|.=XsXZXSXZXNXgXiXdXhXpX%XC.m.3.m.3.+.1./.tXtX/.Q.N.e.Q.<XAXZXsXOXQ.3.B 1.@XvXDXsX+X|.N.M.8.,.,.E.N.E.2XAXAXAXAX<XN.4.4.A.$XiXhX$X{.P.s.R M v x n I g.L.[.L.b.L.i.I L E a.J.z.s.'.,X2X.X.X+X+X|.8.M.Q.E.E.!.:XxXFX:XQ.m.B.b.` m T J F F I M k w q 2 > > 2 e e e e q q z g.iXjXhX%X|.oX&XZ.2.s.P.@XV.B./.%X#XOXOXOXN.8.k.k.<.L k x x h h c M #.1.5.9.T.W.T.j.$.$.#.i.i.d./ ^ H z j k M U 2.C.%XsXgXpX'.q.|.aXgXxXdXU.B.k.s.U :.s.B.N.A.A.N.|.sXDXFXFXDXDXDXDXDXDXjXrXoXP.B.<.P U U U <.B.B.p.p.x._.^.c.l.V.k.1.N.9.0.Q.;X%X/.B.<.k U i.p.f.h.f.p.+.+.U +.3.k.M.M.k.k.s.U k 3 3 w j n ` s.C.oX%X;XpX;X#XoXP.Z.m.s.B.s.s.<.:.:.m.Q.N.N.Z.&XpXhXiX{.J C r a s s s s > > > q z F n x n j w h L i.b.B.m.N.+XcXAX5X>XXXR.N.M.M.E.Q.Q.w.=XsXgXoXk.3.1.<.L L L U s.B.C.J.S.H 3 2 2 j a.iXLXPXUXUXUXPXHX2X&X|.2XAXAXAXzX;X<X].A.m.:.V >. XQ.E.M.V.Q.k.<.s.k.V.R.T.T.R.l.j.E E / S.@X%XOXQ.1.B b c h l l x } b.I.[.@X$XgXDXHXAX<X.X.X+XN.,.6. X<X|.|.aXSXDXVX0Xn.K 9 X . . . 1 < e e w w 3 w h x U i.B.@XrX$X%XrX$X].A.m.m.m.Z.m.3.B B >.m.N.N.N.oX;XfXxXxXxX<X/.N.N./.%XpXV.1.b c b N :.1.s.B./.fXJXLXfXP.",
"xXzX1X+XoX|.Q.Q.m.m.m.v.3.:.U B _ 4.3.m.m.C.oXoX%XrXpXrXP.s.R I m j w q q y s s p a a f f ~ ~ ~ ~ ~ ~ d < : e D I 2.'.hXDXDXjXdX[.$X@Xm.3.w.Q.Q.E. X+XsXZXDXSXSXgXgXgXgXgX,XoXA.m.:.N U 1.B.K.V.Z.N.N.|.aXSXZXpX+X/.P.@X#XtXdXvXxX2X+X|.M.6.,.,.N.e.y.XX5XAXAXHX1X&Xw.4.B ] v.$XiXiXiXeXU.h.<.U R T { G.L.L.L.L.b.g.{ { a.h.h.p.N.,XNX,X|.+X&X|.OXM.e.!.E.y. XzXcX1XOXQ.Z.B.a.T T T F F F n j w w q 2 q e a s s e t z T U.jXBXrX].Z.Z.oXV.<.+.s.B.s.k./.OXoX#XaXaX;XOX/./.V.s.<.U P M c c c N @.l.T.T.T.7.@.+.%.#.#.*.d.d.g./ Z h j n _ 3.A.&XpXNXsX'.4.w.|.%XpXjXdX@XB.s.2.<.:.3.m.Z.A.w.N.%XZXSXDXJXLXKXJXDXjXdX$XK.B.s.R P U n 2.B.z.<.#.j.x._.^.c.k.V.7.>.M.9.8.Q.;X%XoXZ.2.b U p.z.z.z.f.p.p.s.<.<.:.1.m.Z.V.k.<.V h w j I a.n.L.oX%X%XyXpXpX%XZ.V.m.m.s.s.s.2.<.<.3.8.m.N.N.'.&X%XhXhXiX{.} H r a G ~ ~ ~ a q 2 2 w j n M P M m N <.v.B.Z.N.|.1XzXAX5XXX~.!.8.8.E.E.M.M.Q.aXZXfXV.<.1.s.i.d.R U 2.C.C.v.` { Y A C r w m n.iXBXLXPXLXNX&X'.'.&XZXGXAXsX1X;X&X].C.4.B o.8.Q.Q.E.M.V.Q.k.#.s.m.V.N.R.R.u.l.k.#.#.i.J.rXfX:XOXk.+.V k x L / g.I.[.[.[.iXhXDXGXAX1X.XN.|.|.M.,.|.|.|.OXpXxXDXDX$X}.| [ f 9 , 1 1 1 5 p a r l h h h h k M R s.K.K.%XdXhX$XC.m.A.Z.Z.oXm.4.B B :.3.8.N.Q.OXOXyXaXxXxXgX;X+XoX#X;XyX%XP.3.+.+.3.V.#XfXJXKXIXKXDXdX",
"gXaX;X#X+X/.m.3.k.s.2.:.U U :.<.A.A.A.q.m.C.&XrXrXrXrXP.a.L x j q q q q e s s s d f f ~ ~ ~ [ X.~ ~ W < - - > q m V 3.oXdXjXSXJXBX$XC.C.C.w.,.w.|. X+X<XgXZXSXSXDXSXBXSXSXgX,XoXm.:.V V B U #.#.k.w.N.oXfXZXgX%XoX/.rXvXvXdXtXfXxX1X2X XN.w.8.8.e.e.e. XXX2XMXHXsX<X|.4.V k _ C.jXBXJXJXjXwXB.i.{ T ' a.G.G.b.b.Y.G.g.` { i.h.a.r..X2X2X+X+XOXE.aXE.9.~.~.y.~.5X1X1X:XOX/.L.b.a.' T J K I L x j w y y t C G A A s C T a.eXgXgXrXZ.m.m.Z.B.<.U +.<.#.3.M.Z.Q.#XaXcXaX1X;X;X%X@XP.B.k.1.+.b b N @.T.T.T.l.7.@.%.#.p.i.i.f.Y.Y.g.L j j m _ q.A.+X2XAXsX'.4.;.w.A.OXjXvXdXP.B.B.s.U B 3.m.m.3.w.Z.%XhXgXDXJXJXSXgXrX%XP.B.s.<.R R R I v.B.i.E p.^.9X_.^.c.j.x.8.>.8.8.8.N.%X#XoXZ.2.N <.k.z.f.p.=.#.i.a.<.:.U :.k.N.N.3.U k k M <.B.eXrXpXdXhXpXyX;X+XQ.m.3.2.s.s.s.R U <.m.Z.N.N.N.&X,XpXpXpXiX&X].d.H C C ~ ( [ [ ! G z z z k M B N N U <.m.P.oXoXQ.=XzXAX5X>XXXy.!.7.5.E.E.e.M.=XZXxX;Xk.:.1.p.i.f.d.` s.C.C.2.I Z F ^ ) C w j ] | }.iXiX].A.q.w.|.+XAXGXNX=X+X&Xm.C.v.B B 8.Q.Q.E.Q.M.M.Z.s.+.2.k.m.M.R.u.9.9.8.k.h.B.).pXxX:X!.8.<.U U ` f.Y.tX0X0X0XeXhXSXDXDXsX2X.Xr.w.w.M.|.&XA.A.+XxXSXxXgXv.2.' ' ~ f d W Q Q f G C C k k h h 6 3 h k L U L.P.oX%XrX%X$XoXZ.m.m.m.Z.m.o.b o.:.8.N.V.Q.OXaXpXxXFXFXxX%XoXQ.gXSXDXvXyX#XuXjXJXIXPXPXKXJXvXfX",
";X#XoX/./.Z.k.1.<.<.:.U U <.2.v.A.A.A.'.'.&X&X$X].L.s.` n j h w q q q e s f f f ~ ~ ~ ~ ! [ [ [ ~ ~ G < 1 4 q q j j V 2.C.eXjXLXIXBX@XoX&XN.w.w.A.|.+X2X<XsXZXDXDXDXDXDXSXNXpX%XoXm.:.U U N v v B o.3.N.pXxXgX%X$XoX#XyXdXtXtXdXZXZXsX=XQ.M.m.M.6.w.e.y.4X3X5XAXAXsX+XA._ k V _ ].[.kXkXtXU.h.<.a.{ ' { | { { { i.{ I F F R d.2.,.4X<X2X<X+XOXOX;XOXR.R.~.~.~. X>X6XcX;X&XP.L.n.{ ` ' T T I L n x C C D H G G C G H { G.eXiXhXsX&XZ.V.V.Z.V.z.p.#.#.1.3.k.M.Q.OX=X:XaXaXfXpXpXpX#XoX/.V.8.@.o.@.l.T.T.l.-.@.%.#.#.#.i.f.L.Y.G.d.n j m _ q.N.+XAXAX2X'.;.;.;.,.|.gXvXjX#XK.Z.m.3.:.:.2.s.v.m.m.C.&XpXgXjXgXrX$X@XK.V.s.<.#.<.<.<.a.s.s.i.p.K._.uX_.W.$.7.l.8.>.8.8.5.N.OX+XoXZ.s.+.s.z.p.#.P P P L K I M I U 3.m.8.>.+.U <.B.@XrXjXjXjXhXhX;X%XOXN.m.3.1.<.<.<.<.<.<.h.Z./.Q.Q.oX<XpXpX,X].C.v.2.} T H H ! ! ! ( [ J F F n n N U B +.3.m.P.#X%X%X;X1XzXzX5X>X~.y.R.8.8.E.E.E. X1XxX<XQ.3.1.p.i.R / ^ R <.q.q._ I F ! ( } ^ T { C.{.eXeX{.v.q.A.&X2X2XDXHXsX+X&X|.v.v.4.B :.N.|.E.Q.Q.M.M.Z.3.+.1.k.m.M.R.u.0.9.M.V.P.).rXfXxX=XR.7.<.<.s.P.wXtXkXiXkXiXkXBXDXSXNX+X.XE.N.r.e.Q.=XOX|.+XgXDXxX%XZ.4.] ] K s u Q .. . ...( ! H n x h l h h w w h j <.<.2.m.&X,X,X%XoXN.A.N.'.Z.3.o.o.o.>.8.8.w.Q.OX%XfXDXFXFXxX;X+X;XpXfXgXfXjXvXSXLXKXKXJXjXyX).^.",
"rX).V.k.k.k.B.B.N U <.<.1.s.s.m.q.q.A.&X<XiX&XC.v.2.n j w w w w z t t s D G ~ ~ ! ! [ [ [ ' T T ^ ! A r r z z w w w j M <.J.kXLXPXIXDX$X].+X&XA.,.A.+X<X+X<XNXFXKXKXGXGXSXZXsXsX<XQ.3.1.:.B b k h k B m.rXSXjXhX%X@XV.s.s.P.tXfXgXZXAX2X|.A.N.Z.,.w.E.e.e.XX5XAXFXNX,X'.q.B m m ` v.].eXwXU.K.J.g.a.{ ` T F n K m z w 2 w Y { ` 4.r..XNXsX=X+X=XOX=X Xu.y. X Xy.>X5XcXaX;X$XP.b.a.i.{ { ` R I L Y T J T J H C t J I { L.@X$XpXSXhX%XP.Z.@XrX#XK.s.1.<.+.<.s.m.m.W.OXaXgXsXsXsXgXaX;X=X;XOXM.5.>.l.x.x.c.$.%.P E v P <.f.J.L.Y.h.I k k _ q.N.<XDXAX2X'.;.] V ;.&XpXgXjXpXoXZ.m.B.2.<.<.2.B.Z.B.m.oX%XpXpX%X@XP.P.B.B.s.R R s.p.<.B.2.` h.P.).).)._.x.$.1.l.8.@.5.8.>.M.+XOX/.Z.s.1.k.k.1.N b b c h j j m I :.4.3.3.3.,.A.&XhXBXSXBXjXhXdXrX#XoXZ.8.8.3.1.1.<.<.<.B.B.V.Z.Z.Z.+XfX;XpX<X'.q._ I M { / ^ ^ H C A H H F F I I M P :.:.,.M.Q.+X%X;X<XzXzXzXzX5X2XXXy.5.8.M.E.E. X;XsX1X|.8.1.3.k.p.R Z Z L I ] ] ] I { { }  .D.H.eXBXBXVXiXC.4.4.A.+XZXNXDXHXsX&X|.C.C.v.4._ 3.Z.oXQ.Q.Q.M.M.Z.3.+.1.m.M.W.E.R.R.E.Q./.@XrXrXfXfXOXe.>.>.s.P.rXdXdXkXkXBXBXBXDXDXNX,X'.w.w.E.+X+X+X+X|.<XxXFXFXgXN.:._ I I D > - p ) 8X8XD. .} ^ Y F x x Z z h w 3 3 h k U a.B.].$XrXpX%XoXZ.Z.Z.Z.Q.3.:.+.>.,.3.8.V.+X%XhXSXFXFXSXgXyX%X#X;XfXSXJXJXvXvXuX_.V.k.#.P ",
"Y.Y.Y.J.z.p.#.U <.+.+.:.2.m.V.N.|.|.|.&XoXC.3._ M k w 3 2 w w z F F F F L Y T T / { d.i.a.a.a.a.{ ` R I L I I I I k j m I ` J.rXLXIXIXLXVX$X&X&X'.A.A.|.,XpXNXDXGXGXKXKXGXDXsXsX<X+XN.A.N.A.,.B _ _ 2.].dXBXgXpX%XZ.3.:.3.Z.%XfXgXgXsX2X.X.XN.A.A.3.3.M.E. X3X5XAXDXZX%XC.A.2.V _ v.@XhXdXrX@XU.L.L.b.a.i.i.` ` n z w w z K ` ` ] ,..X2X5X5X2XXX X=XXXM.8.M.E.E.=X1XzXxXaX;X/.K.x.z.f.<.+.U B U n x z z z z z j I ` 2.v.v.'.,XNXNXBXBXhXiX$XP.B.oX].C.<.B U s.P.V.K./.OXOX;X1X2X1X2X2X2X2XXXE.M.Z.V.k.#.P v k x M x c v i.L.P.B.U V V :.3.A.%XSXSXNX|.,.4.3.3.A.$XiXhXhXpXoXm.V.V.2.B P 2.B.B.B.P././.@XwXwXU.J.a.b.n.U U <.s.<.B.i.p.U.wXU.J.K.B.V.+.3.(.l.7.8.l.M.W.(.OXOXoXZ.oX#X@X/.B.s.k.k.s.a.2.4.s.B.'.&X+X+X,X2XNXZXZXNXhXiX$X@X].C.s.2.B.k.1.+.U <.V./.k.B.Z.+XyXyX;XOXOXN.1.B k c k M d.} / Y z l l l Z L L U R <.s.k.W.Q.E. X*X;X1X1XzXxXzXzX6XXX~.y.e.M.E.|..X+X<X1X<X|.3.U U P L Z 6 Z F I ` 2.2.2.a.{ { | n.}.qXiXiXrXB.V b ,.&X<XxXFXZX<XsX%XA.A.$X3.B 4.m.w.M.oXQ.W.M.V./.k.#.f.z./._.(.Q.N.M.k.V.Z.oXrXrXP.3.:.V 8.#XfXfXdXdXhXBXDXDXDXhX+X|.|.oX'.C.C.|.&X&X&XsXDXLXDXpXP.2.R F H Z 4 = = < A (  .H.D.D.( ( ^ Y Y L F Z Z z z l z Z F I d.U.tXdXdXyXrX@XP.Z.m.].Z.m.<.I P <.B.P.P.P.$XpXNXSXZXZXsX&XN.8.3.k.k.k.h.p.i.U M x v ",
"U.J.F.p.i.*.#.<.1.1.3.3.k.M.N.Q.|.|.|.Q.N.3.B V k h h w h x L I E R R R #.i.p.p.h.z.z.B.B.V.V.B.B.B.v.s.s.s.s.s.2.U N P P I <.B.VXJXIXLXDXVXiXpX$X'.A.'.&X,XsXSXGXGXKXKXGXGXDXZXZXsX=X=X=X+X|.A.v.v.C.&XiXVXBXBX%X'.3.,.8.N.+XsXSXSXZX2X3X.X'.r.m.s.f.x.W.E.XX2XAXGXDXpX&X].v._ I 2.C.rXtXtX/.K.B.L.L.L.C.P.P.P.n.a.` I T ` { 2.B ;.t.E.>X5X2XXXXXXX=XE.e.r.N.Q. X=XzXxXxXaX-X_._.^.V.k.3.1.:.<.i.R L L L L L N <.<.4.:.4.3.C.&XhXBXSXDXNXhXiX$XoX&X].C.s.<._ _ f.c.x.Z.Q. XXX3X2X5X5X5X5X1X2X;X#X@XV.p.U N N N U V b b +.k.z.s.o.V B :.3.m.%XgXSXSX$Xv.q.q.3.v.}.&XhXhXpX&XoXZ.V.s.+.U <.s.n.h.z.V.K.P.L.J.b.b.b.n.` I U s.s.p.<.i.J.wX[.s.a.B.B.V.+.3._.l.7.k.8.k.N./.#X;X#XoXrXyXyX%X@X/.oX$X$X$X$X%XrXpXhXgXZXZXZXZXAXNXsXpX%X@XP.B.v.v.s.s.+.<.3.k.k.k.V.Z././.oX+XOX%X;XpX/.m.1.U N v P #.h.S.S.h.*.R R *.i.p.f.z.z.z.K./.OX*X*X*X>X1XcXcXAXAXAXzX6X=X~.E.E.Q. X+X+X+X<X1X+XQ.3.:.<.p.*.*.^ *.d.f.B.L.P.C.C.n.v.n.L.[.eXeXeXC.U k V m.<XxXDXFXxX<X%X&XZ.m.P.2._ 4.A.N.Q.OX(./.V.Z.^.z.#.f.k.V./.(.OXOXQ.m.m.m.m.B.K.B.B.m.3.Q.;XpX<XsXZXSXDXDXSXNX<X&X'.'.A.C.C.'.&X,X2X2XDXHXDXpXZ.<.B M l l l 4 = = ; 3 F ^ d.d.} ^ ^ T F F F F Z x z z w w l r l H d.G.wXtXyXpXyXrX%X&XC.C.B.m.s.2.` ` <.v.P.oX&X,XsXSXZXNX<X+XM.>.B V M M M x k k k k ",
"z.j.$.#.+.@.1.3.8.k.N.W.E.E.E.!.+X+X XE.w.>.B V b V V N U <.s.s.p.p.p.k.z.V.K././.#X#X#X#X#X#X%X%X%X$X&XoXoXoXoXZ.m.m.m.3.:.:.4.].hXJXLXLXBXNXNXhX,X'.C.'.&X<XNXDXGXGXGXGXGXGXHXDXSXZXZXZXNXsX<X&X&X$X,XhXNXDXDX<X|.w.q.r.'.+XZXSXDXZXNX2X3X.Xr.m.s.f.x.R.u.y.XXAXDXDXZXpX,X'.q.V I 2.C.@X/.B.k.m.Z.oX%XyXpXgXSXoX].C.v.2.<.<.:.,.;.;.r.XX5X5X1XXXXX*X XE.w.V.|.E. X1XxXvXxXuX-XyX#X_./.P.Z.Z.Z.K.F.h.p.i.p.s.s.k.s.1.B V V :.3.+X<XZXSXSXSXZXsX%X&X&X&XZ.m.:.V #.$.7.l.E. XXXXX2X2X2X5X5X5XzXzXxXfX#XV.k.7.k.k.k.8.>.+.1.k.M.k.1.:.1.k.m.Z.$XgXDXSX%XC.m.m.v.v.v.&XhXhXpXpX%XoXV.k.<.U R ` a.p.s.z.z.h.p.i.a.g.b.{ I U a.s.s.<.R f.U.wXh.n L i.J.K.R s.).k.3.k.1.3.m.Q.#X%X%X#XyXpXdXdXrXrXyXdXhXgXjXSXSXSXSXSXSXZXZXNXsX2X,X+XoXP.B.s.s.s.s.s.V +.k.V.P.Z.V.B.@X#X%X#X+X+X;XpX+XZ.s.1.s.s.z.B.K.U.9X9XU.K.K.).^.).).).)._.#XyXuX>X-X-X;X:XaXbXcXcXcX1X>X*X~.E.Q.OXOX+X+X+X+X+XQ.M.8.k.z.K.K.F.Y.9X).).#XyXhXhXrX&XZ.C.@XrXiXiX$X2.k k >.OXxXFXFXZXaX+XQ.Z.'.m.3.4.4.3.N.|.OX+XOXOXV.Z./.s.#.p.V.Z./.#XyXpX&XN.,.:.:.<.2.a.s.B.+X<XsXaX1XNXDXGXGXAXNX2X,X|.'.r.q.w.'.|..X<XNXAXHXAX<Xr.] V k k h 6 3 3 3 3 3 3 h x E #./ R E E M M n n x x x x x j l w 3 h x I p.B./.%XpXhXpXpXZ.C.C.C.P.m.<.I I _ v.A.A.'.,XsXNXZXZXsX%XA.;.V k k k k k k k k ",
"%.o.@.>.7.7.7.7.9.E.!.*X X!. XXX=X>X>X XE.e.e.e.M.N.N.Z././.oXoX/././._.#X-X;XyXuXaXaXaXaXaXaXaXgXgXsXfXfXpXpXpX<X%X;X;X+X|.Q.oX].iXBXJXLXDXBXNXNXhX,X%X,X<XsXNXSXDXHXGXGXGXHXDXSXDXDXDXDXSXSXDXNXNXNXNXDXDXGXGX<X|.A.r.N..X,XZXDXDXAXNXmXmX3XN.B.s.s.z.M.9.y.y.1XZXAXDXZXNX,X'.4._ 2.C.@X@XB.3.8.e. X1XzXxXFXGXZXSXxXsX;X+X+X&X+XE.r.E.2XzXzX5XXX X XOX|.M.N.+Xe.E.=XzXvXxXaX-X#X#X#X#X#X#X$X#XwX9X_.^.K.K.K.^././.V.1.o.V o.;.N..X<XsXzXZXzXsX<X+X&XOX%X+XQ.m.1.7.j.M.E. XXXXX3X3X3X3X2X5XzXAXDXxXcX;XOXOX-X;X*X*XOXQ.E.!.OXOX/.Z./.oX&X&X%XhXDXSX%XC.C.C.v.m.A.$XhXpX%XyX%XoXV.B.k.<.R R i.a.p.s.h.h.a.i.a.a.` T ` h.b.s.i.<.h.Y.7XY.F 2 w { J.L.<.h.@Xz.p.s.1.3.k.Z./.oX@X$X@X@X@X@XwXwXrXrXrXrXdXdXdXdXrX%X%X%X%X%X,X+X|.'.B.B.k.s.2.<.<.<.k.m.B.V.P.P./.oXoX%XpXhXpX%X%X%X%XoXZ.P.@X@X@X@X).9XtXtXtXtXtXtX9X9XtX_._._._.-X-X*X_.(.(.(.*X-X:X-X*X!.!.~.R.R.W.Q././.Q.E.Q.Q.M.k.k.k.V.^.^.^.9X9X9X_.#XaXxXxXpX&XN.C.oXrXdXrXP.U k V N.;XxXFXAX<X;X+XN.N.&XA._ 4.v.m.Q.%X;XOXOXOXN.V.Z.s.#.p.K./.#X%XpXfX<X&X|.'.].$X$X$X@X$XsXAXHXAXAXAXAXAXDXAX2X.X4Xr.r.r.r.'..X3X3X2XmXAXmX3X'.;.V V ] B B N N B +.:.+.B M +.1.s.s.2.1.<._ _ U B I I I M U I M k h h h k b B 3.N.&X+X<X<X+X|.'.N.Z.C.v.4.4._ _ 4.q.A.'.A.2XNXAXHXDXsX+X'.m.3.:.:.<.<.:.:.",
"O.O.t.0.u.u.0.0.u.~. X*X X X X*X>X2X1X>X=X=X=X>X1XaXaXaXaXaXaXyXaXaXaXaXaXfXcXcXaXaXaXaXaXcXzXzXxXxXxXxXxXxXzXsXxXsXxXxXzXsXsXgXiXiXhXBXSXDXBXNXhXsXsXsXsXNXNXNXZXZXZXZXZXNXNXNXNXNXSXDXSXZXSXDXBXBXDXGXKXKXGXHX,X|.A.'.'.'.,XNXDXHXAXmX2XNX2XoXZ.z.z.x.V.9.u.~.3X1XAXHXHXZXhX&X'.C.C.@XrX@XK.k.e.y.XX5XzXzXAXGXFXGXGXGXFXHXHXHXAXsX=X2XzXAXzX5X=X X XOXOXQ.N.OXN.E. X1XxXcXuX_././././././.oXoXwXtXtXtX_._._./._._./.V.k.1.1.1.e.E. X X+X=X2X=X;XOXQ.|.;XaX1X;Xl.l.l.W.!. XXX.X>X>X3XXXXX>X6X5XbXbXbX6X:X:X1XbX:XbXcXbX:X:X:X:XyXpXdXdXpXrXdXgXDXBX$Xm.C.C.C.C.C.,XgXhX%X#X#X/./.).P.z.i.U R i.a.a.a.a.a.g.{ ` I ` n.G.b.a.p.z.wX7XS.T 2 o 2 { L.I.{ h.wXB.p.s.k.m.V.V.Z.K.P.K.V.K.K.L.L.P.P.U.P.P.U.@X@X].P.P.P.Z.Z.'.|.'.N.A.3.p.1.<.#.+.<.<.@XP.K.B.K.oX@XtX@X@XrXhXgXhX%X&X%XoXP.$XrXrX@X).K.^._.)._._._._.^.^.^.W.x.x.x.W.^.^.W.T.W.W.W.W.W.T.W.T.l.l.l.l.l.x.x.V.V.M.l.k.k.k.k.l.x.K.K.K.^.^.^.^.(.;XaXzX1XOXM.8.V./.#X@Xs.U B 8.+X1XxXZXxX=X=X+XN.N.|.m._ q.A.C.OXaXaX=X XE.M.M.V.s.:.s.K.oX%X%XrXhXgXgXgXgXNXSXDXBXBXSXHXGXGXGXHXHXAXNXmX2X.X4Xr.q.r.r..X.X3X2XmXmXmXmX.X.X4Xr.r.r.'.N.Q.Q.Q.|.;X;XOX|.Q.|.OX+X+XOX|.|.'.'.N.w.w.q.q.q.3.3.4.:.B V k k V V ,.w.N..X+X=X2X+X+X|.|.'.'.'.'.A.4.4.q.q.r.r.,X2XAXHXGXGXDXSXsX<X=X+X+X+X|.|.",
"t.5.0.0.u.y.y.y.~.!. XXX X X XXX>X>X>X>X=X=X1X1X;X;X;X;X;X;X*XOX:X:X;X;X;X;X;X;X;X;X;X=X=X;X;X<X;X;X<X<X<X<X<X<X<X<X<X<X;X;X<XpXhXiX$X$XiXpXpX$X&X,XpXpXpXpX<X,XpXpXiX,X%X%X%X%X%X,XrX,XrX<XpXpXhXhXNXDXGXGXDXNX,X'.'.'.'.'.,XNXHXHXNX,X,X2XsX,XP.B.z.B.M.9.e.E..X3XmXAXAXNX<X&X&X&X].oXP.B.k.k.~.XX>X5X5X5X5XAXAXHXFXFXHXHXFXHXGXHXAXAXHXHXAX5X1X=X X X XQ.N.N.E.E.!.=XaXaX-X(.V.V.V.M.k.k.s.k.z.F.K.^.K.x.z.c.K.V.V.l.k.7.7.8.8.r.e.w.w.e.N.N.M.e.8.M.E.OXOX/.x.c.l.W.W.!.E.y. X X X~.E.y.~. X~.!.*X*X*X*X*X>X*X:XbXbX:X:X:X:XaXfXgXgXdXpXdXhXSXBX@Xm.C.P.C.C.C.$XhXgX%XP.V.B.).tXwXU.f.R R R { ` ` { g.g.` ' ` g.n.g.a.a.J.7XtXH.( r = o 4 { H.I.{ G.wXY.f.h.K.P.P.Z.B.B.B.B.B.B.B.B.b.b.b.b.L.P.P.U.U.P.P.P.@XoX].C.C.m.q.2.1.1.<.+.+.<.s.B.B.B.B.B.C.P.].@XP.P.K.P.&X$X&X'.Z.B.B.P.U.P.J.J.J.B.K.x.z.z.z.z.j.k.j.j.1.$.$.j.c.c.c.c.c.c.c.c.c.c.j.j.j.j.l.l.j.c.j.k.z.k.k.j.j.k.k.k.k.z.z.x.^.^.^.W.(.aXxXZXAX1X XM.k.M.^./.2.2.m.+XaXxXZXAXzX=X+X+XQ.M.m.3.4.v.C.|.;XsXsX=X XE.9.8.V.3.<.k.P.%XiXrXpXBXDXGXSXNXNXBXBXBXDXGXIXIXIXGXHXAXAXmX3X.X4Xr.q.r.r.4X.X3X2XmXMXMXmX2X3X3X3X3X2XNXNXsXzXzXzXAXAXHXAXAXHXHXHXDXAXAXAXZXNXNX2X2X<X,X,X,X+X+X&X&X|.N.w.w.w.e.N.|..X3X2X2X2X2XmX2X2X,X+X,X&X&X&X'.'.'.&X,X,X2XNXZXHXHXHXHXHXAXAXAXZXsX2X2X",
"0.0.u.y.y. X X X X X X!.!.!.!.!. X XE. X X X X XQ.Q.Q.Q.Q.Q.Q.Q.oX/.Q.Q.Q.Q.Q.Q.|.|.Q.Q.Q.Q.|.|.N.Z.|.&X&X&X&X|.|.|.|.'.N.Z.Z.'.$X&X{.].].].].].'.&X+X&X&X&X&X&X$X&X].].].].].].$X&X].].].&X$X&X{.&X,XiXhXhXhX,X,X'.'.'.'.'.&XNXGXHX2X'.A.&XhXhXoXB.z.B.l.k.M.E.y..X3XmXNXmX2X,X,X&X'.m.<.+.<.k.XXXX6X5X5XXXXX6XzXzXzXAXAXAXAXzXxXxXZXZXAXAXzXzX5X>X XE.E.OXQ.r. XE.E.!.>X:X>X*Xl.l.k.k.3.1.<.<.*.p.f.f.p.*.#.#.p.p.p.1.1.1.p.3.3.3.3.,.:.,.3.,.>.>.1.3.3.3.3.3.z.z.j.k.V.M.8.6.e.e.E.e.8.6.8.e.9.R.R.!.!.E.E.!.!.*X*X*X*X;X;X;XyXdXfXdXdXdXdXgXSXBX$XB.P.].C.C.C.$XgXBXrXp.P R K.).tXU.J.i.{ i.' ' ' ` ' ' ' ' b.b.g.` a.L.I.7XS.( A 4 = o e [ H.7X| G.eXY.h.h.K.K.K.B.h.p.p.s.B.b.h.h.h.g.g.h.J.J.P.U.@X@X@X@X@XP.B.m.s.2.:.U <.1.p.s.s.z.B.K.p.s.b.J.P.P.L.B.B.B.v.v.m.m.C.C.B.v.s.s.s.p.p.h.B.z.z.s.f.1.1.1.1.1.1.1.@.+.+.$.=.=.p.c.c.c.c.c.c.c.j.j.j.j.z.z.z.h.f.s.h.z.s.s.p.s.k.k.k.s.k.z.^.^././.-XcXAXHXFXAX=XM.>.>.k./.B.P.#XpXxXSXDXZX1X=X X|.|.r.:.,.A.A.Z.&XpXsXsX=X XE.w.w.M.3.1.m.oX$XrXiXhXNXSXDXDXNXNXVXVXBXDXLXKXGXGXHXAXAXmX2X.X'.r.r.r.r.'.'..X3XMXAXAXMX2X2XmXAXHXHXHXHXHXHXHXGXGXGXGXGXGXGXIXGXGXGXGXGXGXGXGXHXDXAXSXAXDXDXSXSXSXZXZXNXNXsX1X1X1X1X2X2XMXAXmXAXAXHXAXZXNXNXNXNXNXNX,X,XNXAXmXNXAXAXHXHXHXHXAXHXHXHXHXHXAXAX",
"t.6.y.~.XX=X=X=X;XOX!.Q.Q.Q.Q.Q.N.M.r.M.N.Z.N.A.N.N.V.N.N.N.Z.Z.Z.Z.Z.C.B.C.B.C.m.m.m.m.m.A.A.A.A.C.'.oX&X&XoXoX'.].oXC.C.C.C.C.].&X$X&X].'.].&X&X,X%X|.'.&X&X&X$X$XoX].].oX$X$XiX$X$X].$X$X$X$X{.[.$X&X[.&X,XhXiX].'.].].'.&XNXGXHX2Xw.q.'.hXhX$XZ.B.m.k.8.k.E.y.4X3XMXAXAXZXZXpX,X|.3.B V <.N.XX>X5XzX5X.Xy. XXX X~. X X XE.N.Z.|.&X=X=X=X2X1X5X>XE.e.Q.+X Xw. XE.e.E.=X1X:X*X9.8.8.k.3.2.<.i.i.d.h.f.i.i.i.p.p.p.i.i.i.p.h.B.s.v.v.2.4.2.2.2.2.2.2.<.<.<.2.i.h.f.f.h.z.z.s.1.3.m.N.N.k.3.3.k.M.V.W.Q.V.V.V.V.Q./.(././.#X-X#X#XrXdXdXdXdXjXjXSXBXeXL.[.].C.b.].$XgXDXrXU h h f.Y.7X0XY.G.h.b.' ' ' ' ' ' ' a.G.n.{ ` G.tX0XH.) A 4 4 = = r ..H.8X| H.eXY.g.b.B.B.B.s.s.<.i.i.h.s.a.a.a.a.a.i.f.h.L.U.@X@XU.U.B.s.i.<.U U P N N #.z.K.K.z.s.1.B.B.P.@X@X@XP.L.B.B.C.B.v.v.m.C.C.v.s.a.i.i.a.b.B.B.s.s.2.<.<.<.1.1.1.1.:.+.$.<.#.*.=.f.c.c.f.h.z.z.z.f.f.f.f.h.S.h.d.g.f.h.p.a.i.p.h.h.s.s.s.B.z.V.V.V.OXaXAXAXAXzX=X6.V V >.V.P.&X%X+X<XxXxX1X=X=XE.N.|.r.;.q.oX'.Z.+XsXzXaX2XOXE.e.w.M.3.>.m.P.].].].&X,X,X&X,X,X$X$X$X&X,XhXDXDXDXSXZXNX,X|.&X'.q.q.r.'.&X.X.X2XAXHXAXmX2X2XAXHXGXGXGXGXKXGXGXKXIXIXGXGXGXIXIXKXGXGXGXGXGXIXGXGXGXGXGXGXGXKXGXGXGXFXGXGXGXGXHXHXHXHXAXAXAXAXAXHXHXGXGXGXHXHXGXDXDXHXHXGXHXHXAXHXHXHXGXGXGXGXHXHXGXGXGXHXHXHX",
"w.E. X+XOX|.|.oX+XoXZ.B.B.B.B.m.m.m.m.m.m.m.m.v.s.s.v.m.B.B.B.B.v.v.v.b.b.b.B.C.v.v.v.v.v.v.A.v.n.b.b.n.n.n.n.n.n.b.b.n.C.C.C.C.C.C.'.oXoXoX'.C.&X'.N.C.'.|.'.'.].].].].].].].'.].'.C.C.C.C.].].].].].{.{.].].].[.[.].C.].].[.hXGXGX,X] V 2.$XhXiX].B.B.k.3.k.Q.r.r..X3XmXAXAXHXNX,XZ.3.+.B k.;XzX2X1XzX2Xe.6.e.r.e.N.E.N.N.N.Z.'.C.C.|.OX+X2X1X1X1X=XE.E.+X Xe.M.M.M.e.!.1X6X=X X XE.V.Z.P.P.U.Y.I.I.Y.Y.G.Y.L.G.J.L.L.L.L.L.G.L.L.G.b.n.n.g.g.g.g.g.g.n.G.G.S.g.D.S.G.Y.Y.b.h.b.B.L.L.B.b.b.J.B.B.B.V.K.K.B.z.V.P.P.K.P.).).P.P.P.P.].@X$XeXeXrXeX[.].P.L.b.v.B.oXjXDXtXL 3 ; l { Y.7XI.Y.G.g.| n.| K m ' a.n.n.g.g.G.7XI.D.^ A 4 = = = - s  .D.H.| H.0XI.G.i.<.<.<.U U U U U R ` ` T I { h.Y.J.L.K.U.K.J.B.h.p.i.R U R R U U #.p.z.V.z.z.s.s.K.J.B.s.a.a.a.a.a.s.s.s.3.2.4.:.<.4.2.s.a.i.i.<.a.2.2.` _ _ ` <.2.<.2.<._ U U R *./ / / / *.d.d.h.d.i.d.d.i./ R { { { / T T T T T T ` a.a.2.2.2.s.3.q.A.&X<XNXAXAXNX<X|.4.V :.&XyXyX+X;XFXZX:X1X=XE.e.E.Q.M.8.w.C.'.&X<XsXsX1X;X XE.e.M.M.8.3.2.b.b.n.C.v.A.v.q.'.'.'.'.A.'.$XhXhXSXDXDXgX%XoX'.'.'.A.A.'.|.&X&X2XZXGXDX<X|.&X<XgXhXpXpXhXhXhXhXNXNXNXNXNXNXNXNXNXNXsX2X2XNXNXNXNXNXNXNXNXNXNXNXgXNXNXNXBXBXBXNXZXZXZXMXMXMXMXMXMXmXmXmXNXNXAXDXDXBXBXNXNXNXAXHXHXHXHXHXHXHXHXHXAXAXHXHXHXHXHXHX",
"N.|.+X+X&XZ.Z.C.B.m.v.v.b.b.b.b.v.v.v.v.b.v.v.v.a.a.s.v.v.v.v.b.a.a.g.n.n.n.n.n.n.n.n.n.n.n.v.n.n.n.n.v.n.n.n.n.n.n.n.n.L.L.L.C.m.m.Z.C.Z.Z.C.C.'.A.m.A.N.'.'.A.A.C.C.C.C.C.A.A.m.m.v.v.v.v.m.C.L.G.L.L.L.L.L.C.C.].C.C.{.{.$XhXDXGX<XV w n b.iXhX$XC.C.m.1.3.M.6.r.4X3X2XAXAXHXNX+XZ.m.m.m./.pXxXsXsX<X|.w.,.,.] :.3.q.m.A.C.'.oXC.C.|.|. X=X2X=X1X1XXX XOXOXQ.8.e.e.e.~.=X1X1XzXzX1X;X%XrXtXdXjXkXkXeX0X0X0X0X0X0X0XqX0X0X0X[.L.I.I.{.I.I.H.H.H.I.I.I.8X7X8X7XH.8X8X8XI.I.I.Y.Y.L.Y.H.H.H.G.H.G.G.J.J.L.L.J.G.J.Y.L.J.J.Y.Y.b.p.s.s.s.s.b.s.s.b.B.L.L.L.B.b.b.B./.dXjXwXY 2 = 2 Z d.H.I.I.H.g.n.n.| ' { n.n.n.g.g.n.H.7XH.[ A p 1 = = = - s ..8X7X| H.0X[.G.` M M M M M M M n j k n n L R g.J.tX).U.J.f.i.i.<.R <.i.R M L <.h.z.k.1.+.+.1.B.).B.h.<.U L M M M ` <.<.<.<._ U B B U U ` ` R R R ` ` ' _ I I U _ U U U U U P P U / ^ T T ^ / / / / / / T I T L I F F F D D D D D D D K I I K I K n I _ q.'.&XmXAXAXNXNX+Xw.;.3.&XpXfXpXxXGXAX1X1X XE.R.e.e.w.w.m.m.].pXgXfX<X;X=XOXE.E.Q.E.w.:._ <.` ` ' ' _ ] ] q.4.4.] ] q.'.,XgXSXSXBXpXoXP.C.v.C.|.|.N.N.&XpXDXFXFXsX|.m.m.C.oX].C.C.'.].'.}.A.'.'.'.'.'.].].A.A.A.q.q.q.A.A.A.A.C.C.C.C.C.C.@X@X@X@X@X@X@XoX|.|.|..X.X3X3X3X3X,X,X,X,X,X<XpXhXVXhXhXNXNXNXNXNXNXNXNXNXNXNXNXNXAXAXAXAXAXAXAX",
"oX&X+XoXB.3.:._ U I I I ` ` ' ' ' ' ' ' ' ' ' ' ' ' ` ` ` ` ` U ` ` ` ` ` ' ` ' ` ` ` ` ` ` 2.` ` ' { { { | a.a.{ ` { | n.n.n.a.<.<.,.3.3.3.q.q.w.q.,.3.q.q.q.q.3.s.v.v.v.m.m.m.v.s.3.3.3.3.3.v.v.n.n.n.h.s.s.a.n.n.n.}.{.{.[.hXDXGXhXI 2 q { eXBXiX&X|.Z.3.1.8.6.r.r..X3XNXAXDXZX,X|.&X+X;X;XaXxXZXsX&XZ.m.3._ V V I _ _ _ ` 2.q.4.4.3.3.,.6.r.~.=XzX=XOX XOXOX8.8.9.M.E.~.XX5X=XXXE.8.3.p.p.h.n. .| | | | | | | | | | | | { [ [ |  . . . .| [ [ [ [ [ } [ [ [ ..} ..} [ ( [ | [ ' J J J J J J J H H J T T T T / | { ^ T ^ T L R R R R ` <.` R ` a.b.b.n.a.a.s.B.P.rXdXwXY 2 = o 2 G } H.I.I.G.G.n.g.b.G.b.v.n.n.n.H.H.H.} s < 1 = 1 < 1 - s ..8X0X| G.eXeX[.B.<.<.<.:.<.<.<.i.p.b.B.B.B.J.L.U.P.J.h.a.i.<.<.<.<.R U E <.a.p.p.z.z.s.s.f.z.J.K.B.h.<.U M n M M U U U U U U B I M V I U R R R E I I I I I I I I I I I L L L M F F H F H Y T Y F F F L F x x x F D D D D D D D D F D K m m m m m j m ] _ q.'.,XNXNXNXNXsX|.m.A.&X%XfXxXSXFXcX=XXX X Xy.6.,.6.M.N.v.$XjXBX<X|.E. X XE.E.|.E.m.:.B 2.` ` ' _ _ _ ] q.4.] ] 4.'.pXBXBXBXjXpX$XC.B.B.v.C.&X&XQ.oXpXxXDXZXpXZ.3.<.2.s.s.s.a.2.2.a.2.2.2.q.v.v.C.'.'.'.].].].].'.}.}.'.C.C.C.].].].].].@X[.[.[.[.[.].].C.Z.'.|.&X3X,X,X&X'.'.'.'.'.'.].{.{.&X$X$X,X,X,X,X,X,X&X&X|.|.|.&X&X.X.X.X.X.X.X",
"oXoXoXZ.m.<.U U _ _ ` ` ` ` ' ' ' ' ' ' ' ' ` ` ` ` 2.2.2.<.` ` a.a.g.a.a.a.2.2.2.2.2.2.2.2.2.a.a.a.a.n.v.n.n.n.v.n.a.n.n.n.a.2.2.1.3.3.3.3.3.q.w.q.3.q.q.q.q.q.q.q.m.m.B.C.Z.C.m.m.m.v.m.m.m.B.v.b.b.b.b.v.s.s.b.C.C.}.{.{.{.iXDXLXhX' ; - F L.jXiX,X&XC.m.s.8.e.e.r..X3X2XZXZXDXsX<XpXsXsXaXpXgXZXpX'.C.].m.B I _ ' _ ] ] ' ] ] B V B B V V ;.e. X1X=XOXQ.E.Q.V.k.8.M.y.y.y.3X>X.Xe.,.N M L I H F D D K J J K J J J J J J J K J ! [ [ [ [ ! ! H ! ! ~ ~ G G G ~ ~ ! ! G G ~ ! J D s s C D D D C C C D F F F F J T T H H H H C L L L I U R U I I R ` a.a.a.g.a.B.P.tXdX7X^ 2 o o = > A | H.7X0XI.G.g.b.b.a.2.v.C.G.H.H.} G e - 1 - < p < > G  .H.0Xg.J.eX@X@XK.m.m.k.k.m.m.B.B.P.@X@X@XU.J.B.B.i.i.i.i.i.<.R U R E R i.B.B.p.<.<.s.B.P.P.K.z.p.p.<.R P L P U R U U U U U U B B V N P U R E R E I I U U I I I I R R U I L L L L Y Y Y Y T T Y Z L I T I F n L T F D F F K J J J J K K m m m m K K ] ] _ q.'.,X,XNXNXNXNX<X&X].oXoXyXxXSXZX1X X~.~.~.e.;.;.w.A.M.B.rXSXgXZ.3.8.E.OX X|. XoXN.m.v.s.n.n.n.v.A.q.q.r.q.,.q.'.,XNXDXjXhXiX@XZ.B.B.V.oXZ.Z.&XaXxXxXxXsX#XM.:.+.:.<.i.i.i.2.2.2.2.2.2.n.v.n.v.C.C.C.C.{.{.{.{.}.C.C.n.C.n.C.n.C.n.n.n.b.b.b.b.b.n.n.v.v.v.v.q.w.A.A.A.A.A.A.v.v.v.v.n.n.n.C.}.].'.C.A.A.A.w.q.q.q.q.q.w.w.w.w.w.w.q.q.",
"/./.oXoX/.Q.Z.Z.Z.P.P.].P.L.C.L.C.C.C.L.L.L.].].].].].].].P.C.Z.P.L.P.L.C.L.Z.C.C.C.C.C.C.'.'.'.P.P.].].@X@X@X@XoX].].].].P.C.C././.Q.Z.Z.Z.|.|.'.C.N.A.A.A.A.w.A.A.Z.Z.oX|.oXoXoX'.Z.Z.Z.Z.Z.'.C.P.].].P.C.C.C.'.'.'.'.].'.].pXBXDXiX' > = 2 ' iXpX<X&XZ.N.m.k.e.e.e.E.+X<XNXSXSXZXZXZXxXsXaXaXgXhX$XC.C.].v.B 2.a.n.n.n.n.n.n.` ' _ 4.4.;.;.,.e.E.=X=XOXE.Q.N./.k.6.e.y.y.y.4X5X=X XN.3.1.i.g.d.g.g.| | [ | | } | | | | g.g.| | | | | [ | [ [ [ | [ | [ ^ ^ ! ! ^ ^ ! G G ! [ ^ J G D H K K H H H H H H H T T H T T H H H H F F n n M L I L L n n n I { n.G.G.L.P.wXiX0X} 4 X - X X > G | H.0XI.G.h.h.<.U <.B.].L.n.[ G e < : : - < e 9 8 G H.I.0XG.L.P.m.B.k.3.3.1.1.1.1.3.s.B.B.K.K.B.B.s.s.i.<.<.R R I M n M i.J.B.i.R <.f.p.p.h.h.h.h.p.i.P P P P E R #.#.#.<.#.<.:.+.+.U U U +.R #.R #.R ` <.<.<.<.R R #.i.#.#.#.#.*.#.R *./ *.d.d.i./ R *.i.f.i.#.R #.i.` { { a.d.g.g.g.g.d.} { ` ` 2.2.n.2.' ] q.'.&X&XAXNXNXNXhXhX,XoX&XpXSXDXzX;XXX~.~.E.6.;.6.e.N.w.@XkXBXrX1.V ,.Q.;XOXOXE.Q.oXoXoX{.{.[.$X,X,X,X,X,X+X,X2XNXZXNXsXpXrXoXZ.m.m.N.Q.+XQ.Q.+XxXDXZXaXaXOX8.:.+.<.<.<.i.2.` ` 2.a.a.2.2.2.2.2.a.2.2.2.2.2.2.2.` ' ] ] ` ` ` ' ' ] ] ] ' ' ' ' ` ' ` ` ` ` ` _ _ _ _ _ 2.` _ _ ' ' ' ' ` ` 2.a.v.v.3.4.4.:.:.:.:.<.<.<.s.v.v.v.v.3.2.2.",
"(.(.(./.Q.Q.Q.Z.Z.Z.oXoX].].].].].].].].].].oXoX].oXoX|.|.|.Q.Q.Z.Z.Z.Z.Q.Z.Z.Z.Q.'.|.|.|.|.|.|.oXoXoXoXoX&X&X$XoXoX/.oX&X&XoXoX#X+XoXoXoXoX&X&XoX|.|.'.'.A.A.A.Z.'.oX&X&X&X&X&X&X&X&X&X&X&X&X&X|.|.&X&X&X|.'.'.'.|.'.'.&X'.&XNXBXBXiX| t = ; m ].,XsX,X|.N.B.k.8.8.w.N.&X<XgXZXgXZXZXZXsX1X1XzXNX,XC.A.C.A.4._ v.n.].].C.L.b.n.n.a.v.A.A.w.w.e.E. X=X=X=X XQ.N./.l.7.8.y.y.y.4XXX3X=X XZ.B.J.J.h.G.H.G.g.g.G.H.H.H.G.G.H.Y.Y.Y.H.H.n.D.g.D.n.D.D.D.H.H.D.D.D.D.} | } } [ [ |  .g.| | | | } | | { | } | } } d.g.g.D.D.g.g.S.D.g.i.i.` R ` ` ` R ` ` T ` g.G.L.L.B.P.wXiX0X .a - < @ . @ 9 G | H.Y.L.J.p.<.U 1.B.P.b.' D e 9 0 0 , : , 9 e 8 D  .I.eX[.@X$XV././.Q.Q.Z.V.V.V.B.m.V.V.K.K.B.B.s.a.i.<.U L L L U R <.i.p.i.R R i.f.h.h.f.h.h.h.p.p.#.<.i.p.p.p.p.p.z.z.z.z.k.k.k.k.k.k.z.h.h.h.f.f.s.s.k.s.p.p.p.f.=.=.=.=.f.c.c.f.=.*.=.*.i.i.i.i.i.p.p.i.#.#.#.<.<.a.i.a.a.g.h.g.d.d.i.a.a.a.s.v.n.n.` ] 4.'.&X'.NXAXZXNXNXSXhX%X%XpXSXZX;XXX*X~.y.y.6.t.w.E.E.N.dXjXdXC.V k >.+X;XOXQ.N.N.Z.oXoX].{.[.iXiX<X<X,X,X2XNXSXDXSXsX<X&XoXN.A.m.M.Q. X XOX;X1XzXcXcXzX;X XM.k.m.B.B.b.p.a.a.a.n.n.v.v.v.v.v.v.v.v.n.v.v.v.v.v.a.4.2.4.2.2.2._ ' ' ] ] ' ' ' ' ' ' ` ` ` ` ` ` ` ` ` ` ` ' ` ' ' ' ' ' T R ` 2.a.s.<.:.:.:.<.<.<.1.s.p.b.n.b.v.v.s.a.a.",
"*X`.(.!.E.W.N.N.N.N.Z.Z.C.C.C.Z.'.'.N.N.N.N.Z.Z.N.N.E.E.E.E.E.E.E.N.E.Q.E.Q.E.Q.E.E.E..X|.|.|..XE.Q.E.E.Q.Q.Q.|.Q.E.E.|.OXOXOXoXOXOXoX+X&X&X&X&X&X&X&XoX'.'.'.N.|.&X&X+X+X+X&X&X;X;X%X%X%X+X+X+X|..X.X+X+X&X|..X|.&X'.'.&X.X,XNXNXBXeXD.G - - w ' '.NX2X&X|.Z.m.8.8.8.N.Q.%XpXsXsXZXZXsX<X2X1XzXgXoXA.A.m.4.4.A.A.'.&X&X$X].C.C.{.].].&XoX'.Q.|. X=X1X1X=X XE.Q.Q.W.M.8.e.y.4X4XXX3X1X<X#X/.K.Y.S.S.G.Y.Y.I.7X7X7X7X7X7X7X7X7X7X0X[.[.I.I.[.7X7XI.I.7X7XI.I.I.Y.Y.G.G.G.G.G.G.G.Y.Y.I.Y.L.L.L.L.G.H.Y.Y.Y.Y.I.0XeXeXtXtXeXtXtXwXY.Y.b.h.h.h.b.h.L.H.G.G.G.G.G.G.B.P.eXtX0X .f : , @ . @ : q f ^ S.J.J.h.1.1.s.m.v.` m q 8 < 0 0 0 : , a a e D | L.eX[.rXpX;XaXaXcXcXcXaXaXyX#X#XZ.V.B.k.s.<.:.U U U P P U <.s.s.J.i.I U i.B.h.i.f.h.b.J.L.J.z.p.J.z.z.z.z.z.x.x.K.K.K.K.Z.V.Z.V.Z.V.V.K.F.F.F.F.z.z.z.z.p.p.c.z.-.-.=.-.c.F.c.f.=.=.=.#.%.#.=.j.=.=.$.$.#.+.+.+.V V N L P L E Y Y L P U U _ <.:.v.n.v._ 4.A.'.'.2XAXHXSXxXZXgX%XfXaXxXaXE.E. Xy.y.6.t.6.r.E.|.&XdXkXwX<.6 6 >.%XOXOXOXQ.V./.oXP.L.L.L.].].].&X+X&X&X+X<X<X=X.X|.|.Z.M.w.r.N. X X X=XzXzXzX5X5X5X X XE.Q.oX#X#X@XP.L.C.C.}.'.'.}.oX&X&XoX&XoX].].Z.C.Z.A.m.m.m.v.v.n.v.q.q.q.2.| ` ' ` ' ` ' ' ' ` ` ` ` ` ` ` | n.n.n.L.H.n.n.n.g.d.i.a.h.h.s.s.s.s.s.s.z.B.K.J.J.G.G.b.b.n.g.g.",
"-X-X-X-X-X;X;X;X;X;X;X;X%X&X%X%X%X+X+X+X+X+X+X+X+X=X=X=X=X=X=X*XOX+X+X=X=X=X;X=X=X=X=X=X=X=X=X=X=X=X=X=X=X=X=X=X;X;X;X;X;X;X;X+X%XrXrXpXpXpXpXpX,X,X,X,X,X$X&X&X%X%X%X<X;X;X+X+X<X<X<X<X;X%X%X%X+X+X=X<X<X=X+X,X&X&X'.'.&X&X&XNXVXVXqXD.A X X y j A.NXNX,X+XoXN.k.k.m.N.N.oX+X;XZXSXZX1X=X=X2XsXzXQ.w.Z.r.B 3.pXN.oXpXgXNXgXgXhXiXiXpXhXsX<X;X;X;X1XaX1X=XE.E.OXQ.OXE.9.0.y.4Xy..XXX1X1X#XK.z.h.b.h.g.g.S.G.S.h.S.S.S.S.S.S.S.S.f.h.h.b.B.B.b.h.f.h.h.h.h.h.f.f.a.<.2.i.i.i.i.i.i.f.h.h.s.a.a.s.a.g.h.h.a.h.b.Y.J.Y.Y.Y.Y.Y.Y.J.Y.b.f.a.p.h.b.b.n.b.L.G.b.g.b.b.B.P.eXtX0X .d < @ . . @ - : 8 t { S.S.h.h.B.z.s.<.L t q > 9 0 , 9 : 9 g f t D | L.eX].%XfX;XaXuXxXxXxXcXaX;XOX/.Q.V.B.k.k.3.1.<.P U +.<.i.s.p.p.p.i.i.i.h.J.J.G.h.g.d.g.h.G.Y.J.J.h.h.f.f.h.z.z.z.z.B.B.z.B.B.B.B.B.z.z.z.z.F.S.x.x.z.j.p.p.c.F.c.-.-.-.c.c.-.=.p.p.p.#.#.#.j.V.k.j.p.1.p.1.1.+.3.3.p.p.p.p.p.p.f.f.f.z.z.V.V.Z.2.C.C.3.4.q.N.N.|.ZXGXAXsXsXaX%XxXaXxX;X9.R. XR.0.t.t.6.r.r..XsXiXeXL.n ; 3 :.%X%XpXpX%X%X%X%X$XBXjXhXiXhXNXZXAXAXAXNX2X3X.X.X|.|.N.e.e.r.E. XXX=X1XzXAXAXAX1X=X+X+X+X+X%X%X%X%X$X@XoX].].&X].'.|.|.&X&X&X&XoXoX&XoX|.Z.N.N.N.C.'.'.'.'.}.'.}.'.'.}.}.}.C.C.A.n.b.b.n.n.b.n.n.n.n.C.}.{.{.}.L.G.K.J.h.B.J.K.V.B.B.B.B.V.V.P./.U.L.L.L.L.G.G.b.b.",
"dXdXdXdXdXdXfXfXfXaXpXyX%X;X;X;X1X1X1X1X<X1X1X1X1X1X1X1X1X1X:X:X1X:X:X:X:X:X:X:X:X:X:X;X;X;X;X;X<X<X<X;X:X:X:X:X:X:X;X;X=X=X%X%XiXiXiXiXiXiXiXiXiXiXiXiXiXiXdXdXdXdXpXyX;X=X=X=X=X=X<XfXhXpXpXdXpXgXxX;XoXZ.oX$X%XoX].[.{.].].{.eXqX0X .A > ; ; 2 2.eXhXgXsX=Xe.w.m.3.w.oXN.M.<XSXZXFXAX=X2XzX=X!.E.E.R.8.,.M.;XE.;XxXFXKXGXDXSXZXZXZXxXzXaXaX;XaXaXaXaX1X;XOX XN.OX Xe.6.e.y.0.E.|.;XgXdXP.s.s.a.{ ` a.g.g.d.i.i.i.i.i.i.i.i.i.p.f.s.p.p.i.<.#.i.i.i.p.p.p.p.p.+.+.+.<.<.<.#.#.#.<.<.<.<.:.+.+.:.<.2.s.s.s.<.<.i.i.i.f.d.*.*.d.f.f.f.h.h.h.s.v.v.v.s.n.G.J.G.h.L.U.wXeX0X .d : @ + + + # : : > F T d.h.S.F.h.d.S l 4 : : > 9 9 9 9 a G G t D T g.b.K.oX#X#X;XuX-XaXcXaXuX;X-XOXOXV.7.1.8.k.k.1.+.B B <.B.K.h.<.R d.G.Y.I.Y.S.S.D.} } } } g. .} d.d.d.d.d.i.d.d.i.a.f.f.f.f.f.g.i.i.d.i.i.d.f.h.p.p.i.i.d.i.d.d.d.h.h.f.=.$.j.j.z.h.h.h.s.s.k.k.B.V.V.V.B.k.z.z.z.c.c.z.F.F.F.F.F.F.Y.K./.).)./.V.Z././.k.1.k.OXW.-XxXFXSXaX=XXXAXxX:X!.W.W.W.W.6.6.6.r.r.'.,XNXhX@X_ 2 = 2 ' L.[.iXhXVXhXhXhXhXDXJXDXDXDXGXGXIXIXHXMXmX3X4Xr.r.4Xr.6.r.y.y..XXX5X2X5XAXHXDXsX,X,X&X&X&X&X&X<XpXpXpX<X,X%X+X&X&X+X+X+XOXOXOXOXOX|.|. X X X X X|.+X+X+X+X+X%X%X%X<X<X<X<X;X%X%X+X&X&X&X&XoXoX|.|.+X%X%X%X%X%X%X%XrXyXrX#X#X#X#X$XoXoX&X%X%X&X&XoX{.{.{.{.{.{.L.C.",
"U.I.U.U.U.U.P.U.#X@X)./.P.Z.Z.Z.Q.Q.Q.Z.Q.Z.Q.Z.Q.Z.Q.Z.Q.N.N.N.N.N.N.N.N.N.N.N.N.N.N.N.Z.Z.N.N.N.A.Z.Z.N.N.Q.Q.Q.N.V.N.m.m.m.C.L.L.L.L.G.L.L.G.L.L.L.L.L.L.P.U.rXrXuXyX;X=X=X=XXXE.Q.oX#X%XrXrXpXfXdX%X@XP.B.v.B.b.G.L.G.b.n.H.I.H.D.[ s e e r 2 F J.dXSXxX=XE.N.M.8.w.Q.N.Q.;XZXFXFXAX1X1X1XXX9.R.R.9.5.6.E.Q.OXaXSXFXFXSXxXgX<X<X<XpXpXpXyXuXfXaXpXaXaXaX;X XE. X XN.9.e.R.M.Q.Q.;XgXdXoXm.2.2.` a.n.g.| { a.g.a.a.a.a.a.2.i.p.f.h.h.h.h.h.h.z.z.z.z.z.z.z.z.V.V.V.Z.Z.Z.K.K.z.z.V.V.V.M.m.m.N.m.m.m.m.B.B.B.P.K.K.K.Y.Y.Y.7XK.L.J.J.J.B.B.B.P.P.P.[.@X@X[.U.J.L.7X0X0X .~ u @ + + @ # , 0 8 t F ( d.D.D.*.^ C r r 2 > > 9 9 s a s K D t z F x k k k b B >.8.!.*X-XOX!.Q.Q.Q.l.M.l.8.+.o.o.+.<.3.k.s.s.i.a.f.S.G.H.H.D.} ( ^ G G A G G H H H H H H H H H F F H T T T T T T T T T T T T T ^ { { / / / ^ T ^ H ^ ^ R R #.p.V.).@XJ.b.B.B.s.3.3.V.B.V.K.@XU.B.h.*.=.=.=.=.=.=.=.f.f.F.F.F.K.@XrX%X+XOX/.V.j.l./.W.#XbXAXxX1X=XXXzXcX>XQ.W.W.W.l.6.,.6.r.'.'.$XhXhXP.M ; = ; K H.{.0XiXiXiXiX,XiXNXBXNXNXZXDXHXAX2X2X3X3X.X.Xr.6.;.;.t.r.y.4XXX3X5X5X1XNXZXNXNXiXNXhXhXhXhXNXNXNXNXNXZXNXZXxXxXxXxXxXxXxXxXxXxXxXxXxXxXxXxXxXxXxXZXZXZXZXZXZXZXZXxXxXxXxXzXzXsXsXsXsXsXsXsXsXsXsXsXsXsXsXsXsXsXgXfXbXfXfXdXpXpXpX,X<X<X<X<X<X,X,XiXiXiXiXiXiXiXiX",
"{ { { R R R R R <.` R U U U U U R R U U U I U I P I P I I I I I I I I I I I I I I I I I I I I I n n I I I U U U U P I I I I I I K J K K K K K K I I I K I T T R P.@XyXpX;XOXE.E.E.8.,.3.m.Z.P.@XyXyXrX#X@XK.i.n j x F Y F D D J G G D s e e s s r r R wXSXZX;XOX|.N.M.A.w.N.OX&XZXGXFXzX1X1X=X~.t.0.u.5.5.M.E.Q.OX;XfXpX%XP.Z.C.C.Z.Z.].oX@X@X@XrX#X$X%XuXpX;X+X|. X XE.M.e.M.E.M.Q.OXpXdXrXC.2._ ` g.g.| ' [ } d.d.d.d.a.a.a.a.f.f.f.f.f.f.h.h.h.h.h.h.b.b.b.B.B.B.B.B.B.B.J.J.J.K.P././.oXoXoX&XoXZ.Z.Z.P./.)./.K.K.K.F.F.Y.7X).).).).@X/.P.P.C.C.B.L.L.L.Y.J.h.G.Y.I.H. .~ d # @ @ @ # , 0 < 8 t H ^ ( ( Y C r 4 r e e 9 9 9 s a s G K D z x j w 2 3 6 b +.8.Q.(.(.W.M.M.M.N.8.8.3.:.B V B +.2.v.B.v.<.2.g.Y.G.H.D.[ G s p p < < : > < e e e e e e e e q q q q q q y y y y y t t t y y t s D D D D C s s t r t t w z U z.rXjXrXP.B.B.B.1.+.:.B.m.B.@XiXeXG.` Z S Z S S S S S Y Y E E E i.U.pXgX%XoXQ.Z.V.l.V.V.(.:XcXzXzX1X=X5X6X*XW.l.l.j.7.,.t.w.r.|.&X,XhXkXg.w - X - t [ | | | a.a.a.a.a.2.2.2.v.&XpXzXsX2X1X3XE.r.r.r.;.;.,.r.4X.X.X3XMX5X1X<X+X&X[.$X$X{.{.[.$X$X,X$XiXiXiXpXpXdXdXfXfXhXhXhXgXgXgXgXgXgXgXgXgXgXgXgXgXNXNXgXgXgXgXgXgXSXSXSXSXSXNXNXxXgXxXxXxXxXxXxXxXxXxXvXvXvXvXvXvXvXvXvXvXgXgXgXhXNXhXhXhXhXsXsXNXNXVXVXVXVXNXNXNX",
"z z z t r w y w w w w w w w w t y y y y y q q q q q q q q 2 2 2 q q q q q q q q y y y q q q q q q q q q y y y y w w w y q q q y y y q q q q q q q q q q q q w w i.J.rXpX;XOXM.e.M.6.o.o.:.2.v.B.@X$X#XrXwXP.R h ; ; ; ; ; ; > q > : : > e p a e s z L J.pXgXfX;XOXN.N.A.,.N.;XOXsXGXAX1X5X1X Xy.0.u.9.9.9.E.Q.oX#X%XoXB._ n n n I I ` ` a.a.h.h.b.h.h.B.B.K.oX%XOX|.E.E.E.R.M.M.8.Q.OX%XfXgX$X2.n F K T I F H T ^ ^ [ [ [ ' ' ' { { / ^ R T T T / ^ / ^ / ^ / R { ` { { i.i.g.g.i.i.i.s.B.P.@X$X&XoXoXZ.Z.Z.P./.P.V.z.z.f.f.F.K.K.U.@XwXwX@XoXP.P.C.v.a.i.i.i.i.{ { { } } ! ~ d , # # # , , 0 , 9 a s D G G C r 2 4 4 e e 9 e a s a t H ^ T F n w 3 3 3 b :.k.V.Q.Q.Q.V.M.M.M.8.k.:.V V :.3.s.2.2.2.` 2.b.L.Y.H.} [ H s < - - @ @ @ @ @ - : : : - - - - - - - - : : : 0 8 8 8 8 8 0 0 0 0 8 8 8 > 8 > > > 8 8 8 > - ; w ` ].dXjX%XC.k.B.k.o.V :.k.m.P.rXkXeXa.z 4 4 4 4 4 4 4 4 4 4 3 3 3 x h.eXgX%XZ.Z.Z.Z.M.k.V.Q.*X1XzXAX5X2X>X=X!.W.l.7.7.@.>.t.r.|.+X<XiXiX0X^ ; - - - : s a a q q q q q w > ; 2 h 3.$XpX<XsXaXOXw.,.8.,.:.N.N.'..X.X3X1XZX<X|.A._ ' ' | | n.n.L.}.}.}.L.L.{.{.].].].[.[.@X].].].@X@X$X$X$X$X$XeXrXrXrXrXrXiXiXrXrXrXrXeX$XrXrXrXrXrXrXrXrXyXuXuXpXdXdXdXfXyXyXuXpXpXuXyXyXdXdXdXpXdXpXiXiXiXpXiX<XpXpXsXNXNXNXDXDXNXNXNXNX",
"> > > > > : ; ; : : : : > > > 9 , , < 9 9 < , , : : : : : : : : , , , , : : : : 9 9 0 0 , , , , 0 8 , > > : : : : : : > , , , , , : : : : : : : - - - - - ; ; ; Z i.P.yXuX#XQ.N.N.8.,.:.+.+.<.s.s.K.wXtXtXwXb.T w ; = = = ; ; > - - : e s s e > r D Y ` K.dXvXsX&XN.N.A.,.N.;X X<XDXzX=X1X2XE.y.~.0.0.R.E.N.Q.yXdXeXL.R w 2 2 q q y y y t C C F F Z F F n I s.$X%XQ.M.E.OXQ.M.8.8.N.Q.oXhXSXpXB.n w 2 2 w y y r t t s s t t g g C C z t t t t t r y r t r y r y t t y y t C C D C z z x I a.L.].&X&X&XoX/.Z.B.k.s.1.+.%.P P %.=.z.J.).tXrX#X@X].oXB.<.M h w w w l l r t C f d d , , , , , 0 , , 9 a a a a s a e > > > > < e s f s t t D ^ T T F j k M <.m.P./.oXN.M.k.8.k.m.8.:.2.:.B U s.B.C.B.s.2.` a.H.[.H.D.G f 9 : @ . . . + + @ @ # # # , # @ @ @ @ @ - : # # # & 0 0 0 0 & & # # # & 0 0 : # # # # : 0 0 : @ - j n.iXdXpXP.m.k.m.1.V B 3.3.V.rXkXiXH.F 2 - - - - < < : 1 ; ; ; ; ; 2 T L.hX,X'.C.Z.Z.M.8.9.E.!.=X1X5X5X3XXX XE.V.l.7.$.@.>.6.r.&X<XhXiX0XD.s - - < - @ , < , - - - - - - = ; 3 x B.rXpX%XyX/.N.m.k.3.m.N.A.A.N.|.%X<X,X&XA.2.m q q y g g g g m K K K D D K T I I I I I I I I I T ' ` ` ` ` ` ` ` ` { { { { { a.a.a.a.a.a.g.g.g.g.g.a.a.a.h.z.z.z.B.B.J.J.B.J.J.J.J.J.J.B.C.C.n.C.C.C.}.}.C.A.v.v.C.'.oX&X,XhXNXNXNXNX2X+X",
"- - - - - - - - : : : : : @ @ @ , , 0 u i i 0 0 , , , % % % % % # # # # # # # # 0 0 0 0 # # # # 0 0 0 , , , : - : , , , , # $ # : : : : : : : : - - - - - - - ; 3 x p.@XyXpX;X;X|.N.N.m.3.<.<.2.<.v.[.rXdXkXiX0X{ C 2 ; ; > > > ; : 8 y s s e - e G H F i.rXSXSX;X|.N.A.8.A. X+X;X1X1X1X2X Xe.y.~.0.5.E.E.9.Z.pXhXeXg.F 2 - : > : : # : : : : : : ; 2 2 2 2 I P.&XQ.M.E.OXOXQ.8.l.N.N.Q.;XSXfXoXI w = = ; 2 > ; : : : > : 0 0 > > : : : > > q e > > > > > > : : : : : : : : : : > > ; > w F { n.].oX#X%X&XZ.m.s.+.P N v b c c v p.z.K.@X@X#X$X@XoXB.<.k 2 = = = = = = ; 2 a d f < < u u p u 9 , 9 u a u 9 a e e > : - - < a f G D C C F ^ { R I <.s.B./.#X#X@X/.m.m.8.3.3.m.3.:.U <.s.B.b.v.B.B.b.b.b.b.g.| [ [ s u , + . . . . + + + + + + # # # # # @ # # : , # # & & & & & & & & & & & & & & 0 0 # # # 0 0 8 0 > y ' [.hXiX].m.M.M.8.>.o.3.Z.m.@XkXkX0X| y : : $ $ , , , , , < : ; > ; > K b.iX,X$X&X'.Z.m.6.6.e.E.~.XX2X=X.X XE.R.M.l.7.1.>.,.w.r.&XpXhX$XH.~ 5 - 5 p , @ @ 9 , : - - - ; ; ; l R L.tXjXdX@X/.k.k.V.V.k.s.B.3.w.'.%XhXpX].v.] j > @ : 8 8 8 @ @ @ @ - - - - > > > > > ; ; ; > > > > > 8 q 8 > 8 2 8 q q q q q q q q y y y y D g D D D D D D C z Z x Z Z Z Z Y I Y I I Y Y L m m m m K ] ] ] m m m m V I _ <.m.&X<X<X<X<X+X|.",
"- - - : : > , < , , , $ # @ + + $ % % & i i i & % % % % % % % % $ # # # # # # # # # # $ $ $ # # # # # , $ , # # : , , , $ # @ + # # # # $ , , , , , - - - - 1 1 ; 3 x i.P.rXpXfX%X+X+X+XoXm.2.<.4.3.m.C.$XdXjXjX0Xg.H l r 4 > > : > q y s s e : e C F F R P.dXSXgX;XQ.A.N.e.N.+X1X+X=X1X+XM.e.R.u.0.0.R.E.M.Z.rXeXL.' y > - - # # + + + + + @ @ @ X - ; - ; m h.Z.|.Q.Q.OX-X(.l.M.l.8.N.%XgXgXrXa.z ; = > 2 > - - - : : : : : : : : : : : : 8 9 > > > > > , , , 9 9 9 9 9 9 9 9 - - - - > y D I s.m.P.$X%XoXZ.V.V.k.k.j.1.+.%.#.1.p.z.B.P./.@X@XrX%X@XB.` k w 2 ; = = ; < s G ~ p p d d f a u , # 0 u u u u e 9 > - - - e s G G H J T ^ d.h.b.h.b.B.K.K.B.m.k.3.s.m.m.3.<.3.3.s.2.s.B.B.b.b.b.J.L.I.H. .' s a a 9 , + .   O       O O O O + + + $ # + + + # # # # & & & & & $ $ & & & & & & & & # & 0 0 0 8 8 8 q g | {.hXhX$XA.N.Q.N.6.@.>.N./.P.rXdXeXg.D > : # $ $ $ $ $ $ $ , : : 8 > > g | {.,XhX,X'.N.M.w.;.e.E.E. XXXXXy.E.M.l.l.l.7.7.8.e.e.N.&XiXiXL.| p < 1 5 u u , # , , 0 , : > 8 q l R Y.tXjXjXyX/.V.m.k.k.m.k.s.s.B.].%XiXiX$Xn.I w 8 : @ # 0 0 0 : : : @ - : : > 9 9 < > > > > : 8 8 8 8 8 8 8 8 8 8 8 8 8 8 e e 9 8 e 8 e 8 e 8 8 8 8 8 9 8 e e s t s t r t r r r r r r r y r y q q 8 8 8 8 8 q 8 8 > > > q w j V 3.Z.Z.'.&X|.N.",
": : > 9 9 9 u u 0 0 u 0 5 % % % O O $ % % % % % % % % % % $ $ $ + + + + + + + + # # # # + + + + # # # # # - - - - - : : # @ + + @ @ @ # # , , , , , 1 1 1 1 1 1 ; ; 3 x p.].rXpXpX%X%XpXpXoX3.:.q.3.4.4.C.rXhXjXkX0Xb.T C q 2 2 q q y g D G s s s s C H / h.wXjXZXaX|.N.|.r.w.=X1X X=XzX X8.e.R.5.0.u.R.M.N.oX@X[.n.J y 8 : # @ $ + + O + . + + # @ @ - - ; t { B.&X%XQ./.-XOXN.M.8.7.m.OXhXsXpXP.` l 2 y y e : > > < 0 0 0 0 9 9 9 , , , , 9 9 9 9 9 9 9 9 9 9 , # 0 0 , , $ # - @ @ - : 8 y t n U s.P.$X$X$XoX/././.W.l.1.1.1.1.<.1.p.k.V./.@X/.@XrXrXP.2.M j 3 2 2 2 r G ! ! p d d ~ ~ f p , + # 0 i u a 9 0 : @ X - e G H G ^ ^ { d.G.I.wXwX@X@XP.C.s.2.2.2.4.q.m.:.B U 3.v.[.B.a.a.b.L.L.H.I.H.| [ G a , @ @ +     O O O O   O O O + O O + + + + + + + @ # + $ $ $ + + + + + + + + + + + + + @ , 0 u e 8 8 y ' }.hXVXiXoXm.Q. XE.,.@.8.Q./.$XrXeXY.J q - # + + $ $ $ $ $ # $ @ : 9 > : y K n.&XhX,X'.N.N.M.;.e.~.E..XXX.Xy.E.M.l.l.l.7.8.M.M.N.N.&X,XiXG.J 1 , 1 5 u u 0 , # , 9 8 8 8 y D } L.rXdXdXrXoXV.k.M.k.>.1.V.P.B.%XiXdXiX[.b.' t 8 8 : # # # 0 0 0 , # @ @ @ : , < < < < < : : : 8 0 , , , : : : : : : 0 8 0 9 0 , , : : : : : # : : : , , 0 8 9 < > > > > > : : : > > > > > > > 0 0 : : : # # : : : - - - ; ; 2 w V 4.2.m.C./.Z.",
"s f f a p a a u u u d W W W Q i i 5 $ $ % 0 0 0 0 0 0 0 u 0 % $ # # # , , # # 0 , , , , , , # @ @ @ - : < p p p d p p p 9 : @ # # $ 5 u i i i i d d d p p u p p ; 2 3 l n R B.$XdXpXpX%X<X<X%XZ.4.] 4.q.A.'.&XiXjXkXeX{.a.m z m m j t D J [ [ ! A r r F / g.U.dXSXsX<X<X+X|..X+X=X1XzX=XE.M.M.M.O.u.!.R.N.#XpXrXL.[ t e 9 # @ # & & % % $ O + + . . o . - r C m s.Z.%X%XoXQ.Q.Q.Q.8.V.OXN.&XgXgXiXP.U w 2 w q : - @ @ # # # # , : : : @ @ - : < , 9 9 9 , , , , i # + # , # $ @ + @ : : : : : : 2 h I 2.B.P.$XrX%X/.V.m.V.V.k.1.1.<.:.<.p.z.K.P.K./.%XrXrX$XP.B.{ Y z z H ^ ( ^ A r p s G ~ d u # # # 0 u 9 0 , : - - : r H ^ ^ / { h.Y.0XwXU.J.P.P.B.s.U U 2.m.2._ B _ 2.v.B.b.C.B.b.b.L.0X[.H.D...G a 9 : @ + # +     O O O O O O O O O O O O $ % % & & i i i i u u u u i , $ + # $ + + $ # + @ @ - 8 s s t w I b.rXhXpX&XoXQ.M.e.9.6.9.E.E.Q.BXrXJ.{ D e > 0 $ $ O O O + + + + @ , : : > y g ' }.iXNX,X'.r.r.r.6.y.XX>X X~.XXM.>.M.V.%.@.V.8.w.N.+X,XiX[.{ t - , < u 9 9 9 u 8 8 8 8 8 t K ' L.eXjXdXrX%XQ.m.N.6.,.3.m.m.Z.oXeXiXkXeXG.J q : q 8 8 : # + + @ @ + + @ : , , : - - - - - - @ @ @ # : , , , : # @ # @ + + @ @ @ + + @ @ @ # @ # @ @ : # # # , 0 , , , , , , , , : : : # @ @ @ @ : , , , , , , , 0 , : : < < < 4 w 3 h M i.z.K.P.",
"s s s 9 : , , , , , 0 u u i Q W u u , , , , , 0 0 0 u u a a u u a e a s f a a a a a a a a a 9 > , : - : > e A ~ ~ A C A s e : - 5 u i d i u 5 , , , , 5 5 5 5 p r 3 3 3 w z ` C.eXiXdXpX<X;X&X|.r.q.4.4.,.q.'.,XhXhXhXiX[.a.U I m m m n K J ! [ ! C r C Y R f.U.gXZXxX<X.X+X3X=X2X2X1X XM.M.l.8.0.R.!.R.W.%XpXeXg.K e 8 0 # @ # i i i i & % $ + . . . . X - 2 y <.m.#X%X/.V.Q.OX/.M.k.M.V.oXpXfXjXrXv.M w y q > : : : , , , , # , > , : : - : , 9 e a a p 9 9 u f 0 # # # @ + @ # # # # : : : : q w j k I 2.Z.@XrX#XoX/.Z.V.l.k.1.1.<.<.<.1.s.s.P.B.B.P.rXpX%XP.J.g.{ / { / Y F T C r r s s p 9 # + + # , : : : 9 > > e D ( d.g.S.J.Y.U.wX@XL.B.B.b.s.s.s.2.:.B V _ 4.v.C.C.C.B.b.I.0X0X0X0XY.n.[ G e : @ @ + + + O O O O $ $ $ $ $ % $ O O O + i i i i i i i u a a a a d p i u , u 5 , 5 u u < X - > r C F L L s.$XgXgXpX%XQ.N.e.6.6.e.M.M.Q.pXjX$Xh.T s 8 : : O O + $ $ $ + + , 0 0 , : 8 e g ] q.$XVXpX&XN.e.E.e.e. X=XXX X XM.7.l.l.$.3.V.k.N.|.%X,X[.b.F < @ , 9 a a a a a 8 y q q t ' n.L.$XiXrX$XoXZ.N.A.V ;.M.Q.A.m.Z.rXiXiX0XH.{ D q > > , : # @ @ @ # @ @ @ @ 1 : , - @ @ - - - - - - 0 0 , # @ @ # # @ # # @ @ # , , 0 0 , , , , , , @ # , # # # , , # # # # # # # # # # @ @ @ + + + # # # # @ # @ @ # # # , 5 5 p 4 3 3 3 l L R i.h.",
"s s e : - - : : , , , , : 0 a W a s a e < > < 9 < 9 a f ~ ~ ~ ~ G G H ^ ^ ! J ! J J J ! ! G C s e > > r C C ^ D.( ^ H ! ! A r > p d Q Q d 5 1 X X X - 1 < 5 p p r r 4 2 2 w F { L.$XhXhXpX<X+X|..Xr.q.,.4.,.A.&X&X<XgXBXgX$Xv.:.I ] ] I m D J [ ^ C r l C Z R h.%XZXSX<X+X1X1X2X2X2X+XE.e.l.k.7.u.~.R.M.Q.yXrX[.T D q 8 , # @ # i Q Q Q Q i $ + . @ @ @ X X : w M 2.oX%X/.V.Q._.#X/.8.8.Q./.+XpXSXgX$X2.n j w y r e > 9 9 9 0 : 9 e e e 9 9 9 e s f f f s a a a f a 9 0 : @ @ @ , , : @ @ @ # : q 2 2 2 w n 2.b.@X$X%X#X/.Q.Z.V.k.3.3.1.<.<.#.<.B.s.s.B.oXrXiXrXeX[.J.h.p.i.E L i.Y l w r r e < - @ @ - - @ : 8 t t C H / g.Y.U.).@XwXwX).P.h.p.s.s.s.s.s.2.I m B 4.C.C.L.C.C.L.L.eXkXkX0XH.| J s u - @ . + . . . + + $ & & & i i i i i % + $ $ a i u u u u u a d f d d f f f f d d d d d ~ d d = 2 l F L R <.s./.fXvXaX;XOXQ.e.9.5.0.E.E.M.OXSXfXP.` m y 8 : @ + + # # 0 0 0 , W f a 9 8 q t D m ' ].hXgX<X|.e. Xy.e.E.XX=X XR.M.k.k.k.j.k.V.M.Q.+X<X$XC.' t ; - < p s f g g g g g m m ] n.[.iXiX,X&X|.A.3.w.e.V ;.N.|.Z.N.oXpXiX0Xb.T C y 8 > : : : : : : > 9 < 9 u < , < < < - - - : < < < < 9 9 , # # # : : : , , : , 9 9 9 a a u u u u u u , , , , : : , , # # # , # # # + # # # # # # # # , , : # # @ @ @ + @ @ , 5 p p p 4 4 4 4 3 l Z ^ ",
"s s e > : > e e a s s s p e 9 < s C G D r e e e q e s C G ! [ [ H H ^ ( ( ( ^ ^ ^ ^ ^ ^ ^ ^ H H C r r Y } / / d.d./ ^ ^ ^ H H G a d d d p 5 < - 1 1 - 1 < 5 p d 4 r r C z t z F a.L.%XpXhXpX<X+X'.'.N.A.w.,.w.A.'.&XhXSXSXhXZ.3.4.q.2.' n z x F C r r l Z S / p.P.<XZXsX2X2X2X2X2X=X.Xe.M.M.k.7.R.R.R.E.OXyX@Xh.F t y e > # # 0 i a W W W d u , < u p 9 < > e t j _ Z.#X#X/.Q.W.#X#XM.8.Q.Q.Q.<XsXNXpXZ.U n x C C y < e s f s e s s f f s s D G G G G G s e e 8 a s s a > : : , , , , : @ @ # : : : > 2 w j n M p.B.P.#X#X@X/./.M.m.k.8.1.1.1.1.<.s.B.B.m.B.$XdXrX@XP.B.B.s.s.s.h.#.L x z l 3 > ; : < e 9 > e s D K [ g.S.Y.U.wXwXwX).P.J.h.p.i.s.s.s.<.I M I ` m.C.C.C.B.L.[.wXwXeXiX0XD.J r 2 < , # @ # @ + . + $ i i i i Q W W W W W W d a a f a 9 9 < < 9 a d G ~ ~ ~ ~ ) ) ) ) ~ ~ ) ~ G s 3 z R #.#.#.k.W.;XxXcXOXE.Q.Q.8.9.8.9.Q.Q.OX;XvX%Xs.n w q > > : 8 0 0 9 : 9 a f ..! G s e e t D m ] C.iXgXsXOXN.!. X~.~. X=X Xe.M.M.k.3.x.x.M.Q.|.;XpX].a.F r > 1 < e e t y y y K ] ' ` v.].rXiX$X].'.'.A.,.;.,.e.w.w.N.&X%X%X%X[.G.T z q 2 > > : > e a a a s s f G G f a p p s p p e 9 e e p p 9 9 9 9 9 9 9 9 9 a a a a a a a a a a a a f f f a a a 9 9 8 , , , , , : : : : : 0 0 0 9 u u u u a p p u u , , , @ @ # 1 1 5 5 5 p 4 4 4 4 4 3 C ",
"s a e e e t D J ! J J J J D q ; q s H H C t y y q q e r s G ! ( Y T T T T T T T H F C C Z H H T T C Z { S.S.d.^ *./ ^ ^ Y H T | f a e > < e e e e e < < 4 4 r r 4 r r C C y t z ' 2.C.&X<XsX1X=X|.'.|.|.N.q.3.q.m.Z.%XgXSXZX<X|.'.A.w.4._ n l w 2 2 3 l Z Y / p.m.|.<XZXZX2X3X2X3X XN.e.M.V.V.V.R.R.R.Q.#X#XB.U n z t q > : : : 0 u d W W f p u d d s d G G C t h N s.oXrX#XW.l.(.-XQ.M.Q.M.m.+X2XZXZX+Xw.U I L Z l 4 r C ~ ~ G H H J H H H J ^ F H H C r 4 2 > 2 y D D a e e p p p d a u 9 0 9 > > 8 q q y w w n I s.K.@X%X#XoXQ.Q.V.M.k.k.s.s.+.p.k.k.2.2.Z.&XoX].P././.Q.Q.Q.k.3.<.#.R L l 2 4 r C G A s D J ^ | G.I.I.U.).).)./.K.z.s.s.s.s.<.s.<._ M I 2.C.C.C.C.m.C.@XrXiXiX0XY.} F r ; - 1 $ @ . @ @ # @ 0 u W W ~ ~ ~ X.~ ~ ~ .. . .....~ s 9 : - - : e A ~ ^ ) ) ~ ) ) ( ! ) ) ^ G s 4 Z E p.j.3.k.W.-XxXcX:XE.e.N.N.m.8.e.M.N.OXaXfXyXZ.<.k w 2 q e t t D K D e e G ! ~ ! ! G r y t D n I 2.P.pXsX:X XE.XX=XXX X=X X9.M.V.k.p.x.V.V.Q.+X<X%XC.I z 4 < 1 1 : > q y g m ' a.L.].$XiXyX%X].C.A.C.A.4.;.,.|.E.M.Q.%XpX%X].a.T x w 2 2 < < > e s G G H F F ! ( ( ! G A A G ~ G f s s s G G a e 9 9 e s s s s G G G f f s e e e e e a a s s f f s s s e e e 9 > > : : > 9 e a s s G G G G G G G G f s a a p u < , - - - < < p e a a r 4 4 r ",
"y q y t t C F ^ } [ T T ` T x w 2 t D H D z t t r r y y y t C F Y ^ / ^ ^ T Y Y C r 3 3 r z H Y D.{ ^ { D.S.d.Y Y Y ^ ^ Y H ^ g.H s 2 > 2 r s C C C r r 4 4 4 r s r r s r q q w n I 2.m.&X1X1X;X<X%XoXP.Z.s.2.3.w.Z.oX;XgXSXSXsX+X&XN.A.v.` n w 3 3 6 l x S E R s.A.+XZXAX2X3X2X.Xy.e.e.M.V.^._.W.!.(.OX#X/.1.k n z t q > : : : 8 e s G ~ ~ G f G A G ~ ^ ! C w w k <.K.rXyX/.V.W.(.(.Q.N.8.8.Q.=XZXAXzXOXm.<.R L Z l r C H ^ ^ ^ T ^ T H Y T ^ H F F C r w 2 2 2 z T T H G A f ~ ~ ~ ~ ~ f f f a e 8 8 8 q 2 2 w j I s.K.oX@XoX+XOX/.Q.V.k.k.k.p.<.<.1.3.m.w.q.m.Z.&X+X;XOX XQ.M.M.m.B.z.i.Y z C A ! ( ^ J J | g.G.0XwXwX@XU.P.K.z.p.p.p.s.s.s._ P I U a.n.b.b.m.m.m.C.$XdXdXeXU.g.Y z r 2 2 ; , $ . . . # u u W W ~ ~ ~ ~ ! ..! ~ ~ .. .8X8XD...G e > - = - 2 ! (  .} ! A A A H A H H G r r r E p.z.V.V.Q.;XcXDXcX*XM.e.M.m.m.3.M.N.E.;XSXfX/.<.P j w 2 q t K m I ` ` H F H ^ H ^ ^ G r q r Z M M U k.OXaXcX1X~.=X1X=X X|.Q.M.M.k.k.k.z.V./.+X<X,X|.2.x r 4 < 1 ; ; ; e D T ` n.C.@XrXdXfXyX#XC.b.3.3.3.,.8.M.M.Q.%X;XrX#XP.B.L F t w q e e e e s G H F L L L ^ ^ ^ ^ H H H H ^ ! H G H ! ^ ^ G t q > e s G J ! ^ ! H D D s e e e e q q q > > s s C D D D s t e q 2 2 2 y C D H H J ^ ^ ^ ^ ^ H H H G D f s s d a p < : - - : < < e a a e 2 2 ",
"r y t D D z x F R R R <.a.<.U n z C H H H H H H H H H D C r r z Y / d.( ( ( ^ Z r 3 4 4 3 l Z Z } D.D.D.D.S.*.Z l Z ^ } ( ^ ^ ^ H C y r C H J ^ H H C l r r r r r r s s s e > q w n I :.A.OX<X<XpXrX)./.P.V.k.k.k.V.Z./.%XgXSXZXsX<X&X|.C.B.i.I L F Z x x S P P <.w.|.=X2X1X2X3Xy.r.e.M.M.k.^.-X!.OX-X;X#XV.+.k n n t q 8 > > : q t G ^ [ ^ ! ~ ! ! ( }  .( C 2 w j L s.@XyX-X#XQ.W.Q./.M.8.M.e. X2XAXAXsX+XV.s.i.E Z l l Z F Y / R T I T R d.g.d.i./ Y z w 3 3 w n ` { { } } ( }  .......~ ~ ~ ~ f e > > 8 q q q w j M U 2.B.P.OXOXOX#XOX/.K.B.z.p.<.<.3.3.4.:.8.A.Q.OXOX X*X*X!.E.Q./.P.K.h.d.*.( ( } } / { g.H.Y.I.0X@XP.K.z.p.#.+.#.p.s.1.U P I U 2.b.C.C.v.m.C.oXoXrXdXwXb.` x w 3 w 3 4 4 1 5 % % 5 i W ~ ~ ~ f f f f f s f f G !  .D.H.H.H.^ t q ; ; 2 z } D.H. .! r < 2 r e a s r e a C p.k.V.W.(.;XcXAXcX=XE.E.N.A.m.m.m.N.Q.OXfXxX#X3.V M k h 2 2 D { I I U ` { { / / } D.D.H r 2 w Z L M N @.W.:XcXcXXX>X:X*XE.N.N.N.k.1.k.V.j.^.uX;X<X&Xv.M l r r p p 4 4 4 C ^ g.G.U.@XrXrXuXuXyX).B.b.s.<.4.m.N.Z.k.OXdXpX#XK.i.U F C r q q e s G G G F F Z n L L Y H H H H T H H ^ ^ ( [ [ ^ ^ J H C y t D J [ [ | | J D t t t y y t t t y q 2 > 2 q y C H H D C l l l l C H T / / / } d.} / ^ T F F F D D s s g f f f a 9 : : : > : > e a e e e ",
"z z x F F z l x M I <.s.B.s.<.U L H H H H T T [ { | } { H C t r Y / D.d.d.d.Y C 3 2 4 4 3 l l C ^ S.7XY.S.S./ l 3 l Y D.D.} H C C z t C H { } } T H Z C l l l l 4 r C H G t 2 > w z I B ,.N.=XaXrX@X).@X#X).V.k.k.V.V.m.Z.%XfXaXZX1X<X&X$X].L.b.d.{ Y Z x S E E B w.N.N..X1X2XXXr.r.r.M.8.8.W.yX!.*X:X;XOXm.B k I n z w q q q 8 w C T } g.} ( ^ } } D.H.D.[ s 2 3 h M i.Z.#XyXaXOXM.E.OXm.l.Q.e.r.XXAXAXAXaXoXm.B.p.L l 6 h z Z I I I E R i.J.U.U.Y.h./ F l w 3 h N <.i.h.S.Y.D. . . .....! ......G a e 9 q q q q w w w h M <.B./.oX;XyXuX%X@XP.z.B.B.s.:.B +.:.k.m.m.M.M.E.*X:X*X X!.Q./././.K.F.S.d.d.d.} d.h.G.Y.L.L.K.J.z.j.+.P N #.f.s.+.V N <.s.v.a.2.v.B.oXrXpX%X$X@XB.R h 3 4 3 w 2 2 ; < u d W ~ ~ ) ..~ f a e e q 2 > r s C H ^ | D.D.H.^ C r 3 2 l T D.H.7XD.H q ; ; 2 2 2 4 2 2 C T K.V.Z./.=X1XAXAX=Xy.w.N.Q.A.m.m.|.N.Q.<XxX;XM.+.k M M l 2 ; z | U V V I <.p.a.i.I.0XI./ 3 ; 2 z P N N +.M.*X1X6X:X=X=X XE.M.M.Z.3.%.k.Z.3.Q.xXaX+XZ.:.j w l A A A d d A ! } G.I.eXiXrX@X#XtX).K.h.B.b.a.s.Z.Q.N.Q.%XyX%XP.h.L h F C t 2 2 r A ^ ! H H Z z x L R Y F F F T T T Y T ^ { } } ^ H C z z D T } g.g.| g.} J z w r z z z x C F C z w w ; ; 2 z H J H F z Z Z L R *.d.f.h.f.h.f.d.i.R E x x x z z z z t D G K D t q > : : : : 8 a a t s ",
"I L L I U x k x x U s.B.B.k.3.p.p.i.i.f.a.i.h.Y.U.L.L.L.G.a.R T R S.Y.h.d.i.R L z z z z Z F Z x / Y.U.Y.d.L l z l E S.Y.S.*.Z l z r t F { g.D.g./ T F Z Z Z Z Z x m F J F r 2 2 3 j k k B m.OX%X/././.V./.#XZ.>.>.8.m.k.k.V.OX;XpXrX#XoX].P.U.U.G.a.R L P L P E :.,.r.+X2X2X.X.Xr.r.w.;.,.N./.Q.XX3X1X2X+X|.4.V _ U n w w y t z F R { d.i.{ { | b.}.0X{. .K y : 2 l R #.k.oX;X=X+X+XQ.Q.+XQ.k.M.N.N.+XZXFXSX;X/.).K.s.R L z z z z Z F x M R B.wXwXwXU.J.i.I L L P <.B.K.K.J.h.d.{ / Y H ! ^ ! ! G ~ ! G f a a a q q w w w h Z R s.Z.$X%X%XrXrXrXoXV.s.s.z.F.f.#.U <.k.m.k.w.E. X=XOX!.!.OX-X_._.P.J.b.h.g.a.a.a.a.i.R R i.z.J.K.p.$.+.%.+.#.1.p.<.<.<.<.<.<.s.B.P.oXtXrXrX@XJ.p.L h 3 2 3 l l w s C G ! [ ^ ! G s y > ; ; : : ; q w w 2 3 C ^ D.H.D.} ^ T H ^ } g.h.f.R z 3 2 2 w 2 q y w z J a.$XZ.N.|.<XzXZXAX.XE.N.r.m.N.Z.N.E..XXX1XaXOX7.P c S E x 2 2 z T <.V k V U <.s.K.U.U.h.L h ; 3 L +.+.B %.>.E.=X1X1X*X!.!.Q.V.l.k.p.f.k.s.N.+X<X1X+Xw.V j z Z F H ) ) ^ ^ ( D.G.G.[.wXwXwXU.J.b.h.S.g.i.s.C.C.r.q.N.+X,X&XB.<.L x F z w 2 2 r H ( ) H Z l Z Z S E E I U R ` R E L L F Y { / F l 3 Z ^ g.g.g.g.g.d.g.} T z w w z z C Z F Y T T Y F z q 2 2 r z D F I *.i.i.p.h.h.p.h.p.i.i.i.<.#.U N M k k j h j x F T { T D r w e r e e e e e e e ",
"I M L E R U L P P U 1.k.B.B.B.B.s.z.B.P.P.J.U.wX@XU.P.[.[.L.b.a.h.U.wXU.B.h.i.U x x L L U L L L #.J.Y.h.*.x 6 l R h.Y.Y.f.E x l Z x x F { g.S.S.d./ F z z Z Y I n m n I T n w 3 3 h k k U m././.OXZ.V.M.V.k.1.+.+.3.k.8.k.V./.#X#X@X@XP.U.U.U.U.L.a.R U #.#.#.#.1.,.N.<X1X3X.X.Xr.r.,.;.,.e.N.M.2X.X3XZXAX=Xw.:.U _ I n z z C F R / d.d.i.i.a.a.L.[.qX{. .D 8 - 3 x P U :.N.+X=X1X1X XQ.%X/.k.B.M.e.|.sXFXSXaX#X#X).K.p.R L Z z l z z j k P s.P.rXrXrX@XJ.h.g.i.z.K.)./.K.B.p.E E Y Y H H H H C A H ! ..! f a e a e y r 3 3 6 l M <.B.].%X,X,X%X%X$X/.).U.K.F.f.#.` <.<.3.m.M.M. XE.E.Q.(.OX-X-X@X[.L.b.h.a.{ ` R L x x L R h.S.z.j.p.#.p.p.p.p.p.p.<.U L U i.b.B.V.).#XrXtXU.P.p.R x h w h x F F F J T [ T J F D z y 2 2 2 > ; 2 2 ; ; 2 x / S.H.G.H.H.g.{ ^ { ` R R L x j h w l h w z z x T a.$X|.N.N.=XsXZXZX X.XN.w.3.3.B.Q.E..XXX1XaX(.j.%.v P E x 3 2 r F U B B +.1.s.B.P.@XB.N c x c h M N B o.N o.e.OX1X:X=X!.M.W.W.l.$.f.z.z.k.N.+X2X2X&Xw.V k x L Y ^ H ( } } } g.D.D.I.0XwX0XU.b.h.p.h.d.R <.v.A.q.4.'..X&XN.s.` L n z w w 2 4 C ! ( ( Y Z Z Z Z S E E U P R i.i.` E x x Z L Z l l z / g.G.S.d.{ d.g.g.{ Y Z z l h l l z F T { d.{ / L x z z z x F I h.B.B.h.h.B.B.B.s.s.<.<.1.<.+.B N V b k k h h k L R { / Y C C C C s s s s e e e ",
"2.U L U R R U U U <.s.B.P./.Z.V.z.J.).tXwXwXwXtXiXU.B.J.L.b.a.2.s.P.wXwX@XP.B.<.P U <.<.R U U U p.J.J.p.#.M M #.K.P.K.h.R M M L I K L R d.G.Y.Y.h.i.R L L L Y E I K I { { L w 2 3 h v V +.m./.Q.OXk.3.k.3.B N +.1.3.k.k.k.Z././.K.B.s.s.s.B.P.U.h.R M L #.<.#.<.8.M.OX1X1X.Xy.r.E.6.t.6.e.M.N.Q.5X.X.XAXGXZX|.m.:.<.<.R F x L R d.d.i.i.i.h.b.L.[.{.}.n.[ t > - 3 x L M B w.OX2XZXAX+XN.#XV.+.m.M.e.Q.<XSXDXfXyX).).).K.z.i.E L z x x x k N <.z.P.@X@XwXU.L.L.L.).#X#X).K.z.#.L x z z Z C C r r C G ! [ [ ! G D G C z l l 3 3 3 3 k B q.'.<XpX<X<XpXrX@XK.z.z.F.p.R P U 1.m.w.,.M.N.E.Q.(.#XyXuXrXwXU.J.h.a.{ R L F l 3 w x / g.L.J.z.h.f.p.p.i.p.p.p.#.P P <.s.V.B.z.z.B.@XrXdXwXU.J.R x h l x F F J T { | { { F F D x x x z z l r w r x T d.G.H.G.I.I.D./ T T L n x x x x x z x x F F F F I ` oX|.N.r.E.<XsXZX=X XN.8.:.+.k.|.y..XXX1X:X-Xx.7.%.%.P x l w l z N :.1.2.3.m.V.Z.s.+.h h x x h k V +.+.N V >.|.<X*X=X!.9.l./.l.O.z.z.V.V.|.+X<X<X&XA.:.V L Y Y Y A ( D.D.} { { / S.Y.U.[.U.B.h.i.f.i.U U 4.q.,.4.|.&X&X'.C.s.R M j w 3 w z H / ( ( Z Z Z Z l Z S R R R i.f.p.#.L h h h h h l L / G.Y.h.R x L d.S.J.{ L F L x h h h l Z E { i.i.{ i.{ ` ` T T { g.U.U.K.J.z.B.z.s.p.<.<.1.3.1.<.+.B N V V b k c k L R d.{ R Y Y T ^ J J ^ ! G C s ",
"J.p.` R <.<.<.` +.2.Z.@X#X@XP.V.K.U.wXrXwX@X@X@XP.s.R L F n n n U v.oXrXrXrXP.v.:.<.s.2.<._ <.<.B.K.z.s.s.s.B.P.@XB.<.P M N <.h.i.i.i.a.b.P.U.wXP.J.B.p.<.R L M I I ` g.a.I l 3 3 x #.1.k.Z./.Q.Z.k.1.+.+.N N +.j.k.z.V./.#X)./.K.1.N M U s.J.L.I n k M U #.p.s.Z.OX<XaX=XE.r.6.e.6.6.e.E.E.Q.=X2X.X.XZXGXHX<X'.s.m.v.i.U F P i.f.p.*.i.p.B.L.[.L.b.{ K y 8 8 q w k V V B w.=XsXsXAX|.w.Q.8.B k.Z.N.|.<XxXxXyX/.k.V.).@XU.J.g.{ R R U L M N #.3.p.k.B.J.J.J.L.U.).)./.V.k.<.L h h l l l l l r r s s D D G ! [ | | J F C z h 6 h 3 w j V q.&XpXsXsXpX%XZ.k.s.z.K.p.<.P U 3.k.3.:.:.8.M.Q./.OX#XyXtX0XY.G.g.d.{ T J F r 2 ; 2 C T h.h.S.F.S.h.f.i.i.h.h.h.p.i.<.<.s.s.p.p.h.K.@XeXwXrXrXU.g.L x z l z D H [ d.D.H.g.g.d.| } | d.| } } g.D.H.I.I.I.G.d.{ T H C Z L F L L L I L L L F L T T F F F L m.Z.N.,.,.|.<XsXsX+XN.8.1.+.3.Q.E..X.X=XaXuX_.x.j.=.E S L F x j P s.V.k.3.k.B.B.U <.U P U M k v V o.+.N O.>.E.=X X XW.9.l.W.l.@.k.B.V.Q.+X+X+X+X<X&Xm.:.P L Z l r G ( } } ( Y Z T { G.U.U.P.b.p.h.i.U P U :.3.q.A.'.&X%X%XoXs.N k w 2 w F { d.d.Y Z Z S Y S S Y <.<.i.h.J.h.R x h h h h x E h.U.U.B.U h 3 n f.U.U.2.L I R L x x k x M I ` { { ` G.h.g.G.H.G.H.Y.U.).K.z.z.z.p.<.<.#.<.p.k.k.3.<.+.B N B P V v M L R i.i.d.d.d.g.g.}  .D.D. .[ ! ",
"@XP.s.<.<.s.s.s.1.B.$XrX#X#X#X#XdXdXtXwXU.L.B.h.I L n x j w w w m :.B.%XpXpX$XP.2.s.s.2.<.4.s.B.oXoXZ.Z.%X%XoX&Xm.:.V B :.3.Z.oXP.P.P.P.P.U.@XwXwXwX@XU.B.s.<.U U ` n.J.a.L x x x <.K././.Z.V.Z.p.k.1.P N +.1.1.k.x.K./._.#X).K.z.+.b x R s.s.i.k k x L U <.z./.#X;XaX;X Xe.6.6.6.6.e.E.E.R.!.;X+X+X<X2XSXGXSX<XZ.V.B.s.#.P #.K.f.p.p.p.h.J.U.wXL.a.I m w q q w h k V B 3.Q.aXZX2X1XN.,.A.1.U m.Q.|.;XsXxXaXOXl.1.k.P.).U.J.h.h.h.p.i.<.<.<.3.k.3.8.s.p.i.i.p.h.z.V.V.k.p.<.L x L L F Z x z z z t t t s G [  .g.| T F x z h l k h j k V q.&X<X<XsX;X&XZ.m.k.k.s.<.<.<.<.2.3.3.:.B >.m.Q./././.).0XI.S.g. .| [ ! ! G s < - - : > G ^ } S.H.Y.Y.G.h.f.f.h.B.B.s.<.N +.s.B.B.B.h.p.L.U.wXeXwXL.h.i.F x r w z T d.H.0X0X0X0XI.I.7X0X0X0XiXkXkXkX0X7Xd.H r 3 w w r x I ` p.s.a.i.i.i.` { } { T T F n R s.B.<.B 3.&XsXxX;XQ.V.k.8.7.k.E.y.E.OXcXxXuX(.K.j.#.R R R I L <.V./.m.3.k.V.Z.B.P.P.B.s.<.I U V N B o.1.N.OX=XE.N.M.E.M.7.j.V.k.m.N.&X=X=X+X.X2X2X&Xm.<.L z 3 4 4 A ) } ( H l h F i.J.[.[.J.B.s.2.<.B V B 3.C.2.m.'.%XpX%XC.:.U j 3 w I g.f.d.^ R / d.d.R E R i.i.z.U.).L.*.x M M M L <.B.U.@XB.<.k h k 2.@XrXP.2.P P #.U P P P I P U 2.a.a.a.b.g.g.L.0X0X0XI.).).z.p.p.f.p.<.<.<.1.k.V.V.k.3.>.+.B +.+.U P P E #.i.f.f.h.F.Y.I.H.H.H.H.D.} [ ",
"dXiX@XB.s.s.s.1.V.oX%X%X#X#XfXSXJXjXdX@XP.B.i.L x L ` a.` n w w 3 j B v.oX%X%X$XP.Z.B.v.2.3.m.C.%XpX%XhXSXgXoXm.B V B 3.Z.oX&X%X%XrXrXrX@X@X@X@XdXuXyXtX@X/./.).@X@X@XL.<.x x L z.U.rXtX/.m.k.k.+.p.1.P P p.z.p.z.V.^./.).).K.j.P v b M <.<.P k h k M U +.1.Z.#XaXcXaXOXR.e.9.0.6.6.e.E.E.E.E.OX|.+X2X+XsXFXFXxX%X/.k.3.1.$.z.^.F.F.F.z.z.K.wXdXK.b.g.{ T z w w k v U 3.N.%XsXZX+X XA.8.8.3.3.Z.Q.&XsXgXaX;XV.1.+.k.P.U.J.h.h.J.L.B.B.k.B.V.Z.V.l.k.8.#.M x v M N <.z.V.P.).U.P.h.h.h.i.{ / T T T T [ | g.D.g.g.{ T x z h h x M U 4.m.C.&X,X,X+XQ.N.N.m.m.k.<.B U <.s.s.s.2.2.2.2.m.Z./.).K.B.h.T ! ! ^  . . ...! ~ G a 9 : @ @ : e G } D.I.7X0XY.G.h.f.h.B.B.h.+.#.<.<.<.<.p.h.P.U.U.wXeXeX0XU.G.{ x 2 > y J | 7X0X0X0XeXiXkXkXjXjXCXjXkX0XD.{ { F w w w w r z I 2.b.J.B.h.b.J.Y.Y.Y.G.g.d.{ T I <.s.<.U :.Z.pXgXpXOX/./.Z.k.>.R.y.E.E.aXvXxX-X/.K.k.p.p.p.i.<.k.Z./.V.k.k.Z.oXrXrXK.h.K.B.2.U V V o.1.Q.;XpX;XE.e.M.Q.M.>.j._.m.m.Z.+X1X=X.X.X=X2X<XZ.s.R M l 4 4 4 H ( ( Y C 3 l L p.L.U.P.K.s.3.2.U V N <.B.s.v.m.Z.%X<X+X'.v.I j j I a.p.i.i.i.i.p.i.R U U h.S.U.tXwXU.f.U L R i.i.p.s.h.s.U V V B s.oX%X$XV.m.1.:.:.:.+.U U U _ <.s.B.L.L.a.` R g.I.[.Y.G.U.z.#.P P #.1.1.1.p.k.V././.V.B.3.+.+.+.<.+.+.+.#.<.f.h.F.K.U.7XkX0XI.I.H.D.} ( ",
"SXSXjXrX@X/.P.V.yXpXpXyX#X;XxXFXDXjXwXJ.J.b.R k n R b.[.[.n.` I j h k V <.m.B.B.B.B.s.s.s.m.Z.P.hXgXgXdXgX%X3.:.V V 2.&XrX%X&X%X%XrXpXpX%X#X#X%XgXjXvXvXfXfXxXvXSXhX@Xs.L x L i.tXtX#X/.V.8.>.>.$.#.#.#.#.p.z.z.x.K.).).).K.p.%.b b V U U P M k k V P <.1.k./.yXcXcX1X XR.e.9.6.6.e.e.R.E.OXOXQ.r.'.&X+X<XZXDXFXvX#Xk.k.j.c.c.^.^.).K.z.f.z.@XdXwX[.P.[.b.I j j B B 1.N.%XsXsXsX+Xr.A.A.,.3.Z.Z.|.<XZXxX;XQ.k.+.+.k.P.J.s.i.b.U.@X).P./.oX#X#XOX(.Q.V.1.N c h h k +.B./.#XyXdXjXwXeXrXwX0XI.Y.Y.I.I.7X0XI.H.| T F n n n M L #.s.P.$XpXpXpX%X&XQ.8.,.1.1.3.1.+.N :.2.m.B.s.s.m.B.P.P.P.K.J.p.R L 4 < s ~  . ...! W W W W f i , # @ 1 u f ~  .H.7X7XI.Y.J.h.h.B.B.V.s.<.P N U p.J.P.L.L.P.I.0X0X0X0XY.} F w w z F [ d.G.0XeXiXiXkXkXkXkXeXL.} T F a.` T F x z F I 2.s.b.B.L.P.[.[.eXiXeX0XI.I.G.g.I I R i.<.U s./.pXfXuX#X/./.l.>.e.R.E.E.*XxXcXuX#X/.K.z.s.s.s.k.Z././.P.k.s.B.).rXrXP.K.rXrXv.U B +.3.N.%XgXfX%XQ.M.m.l.8.1.k.Q.N.N.|.2X1X2X.X.X.X<X2X&Xm.<.P z 4 4 4 A ) ) H F 3 h x L i.B.K.P.B.m.s.2.:.U <.<.h.s.3.v.Z.%X<X<X&XC._ V I <.s.B.p.i.<.i.i.<.<.i.L.7XwXtXwXL.i.E R z.U.P.B.s.s.<.o.:.8.N.%X<XOXA.M.Q.Q.w.>.3.>.o.B 4.2.m.P.oXoX].a.I L I } i.} { p.$.E P E #.#.#.+.#.k./.#XyXrX#XV.k.1.3.p.1.1.<.p.f.z.J.K.).wXtXkX7XD.g.d.{ T H ",
"BXJXLXJXDXDXDXSXvXvXgXfXaXaXxXSXdX@XJ.p.h.b.R h k n a.[.iXiXeX[.B.<.M k m M N I N N P <.B.@XiXdXpXdXrXoXZ.2.V V B :.B.%X%XP.P.%XP.$XyXpX%X%XyXpXfXSXFXFXFXFXDXSXjX%Xm.U M P z.wXdXtXK.z.k.3.>.+.p.+.E $.f.$.p.z.K._.wX).K.z.#.v v P #.#.U N P U :._ <.k.V./.%XaXcXcX:X!.R.u.9.5.9.e.e.M.OX1X;XQ.q.q.A.&X<XsXSXFXFXyXV.l.x.l.j.c.K.K.z.#.N U z.tXdXrX@X$XP.` M M :.:.8.oXsXgXfX<X&X,.w.N.:.q.&XZ.+XsXDXxX;XN.>.o.+.k.P.B.<.<.B.eXdXtX#X#X;XyX;X-X:X;XOXV.:.V c c b <.V.P.P.oX@XwXdXdXjXjXjXkXiXkXtXiXeX[.Y.a.L j j j M U <.i.J.wXrXdXdXrX$X/.Z.B.k.3.:.+.+.>.1.1.3.m.B.B.B.B.K.@XU.L.b.i.R F h 2 4 p A )  .! d 9 u u a d f i 0 $ @ # , < p ~ ..D.7X0XiXwXL.h.h.B.B.B.z.p.<.U R <.i.p.h.J.L.I.0XwX0X0XI.G.{ F z w F [ g.Y.I.I.Y.L.Y.I.L.b.{ ` { a.b.g.d.` F n T g.C.C.C.K.@XrXiXiXkXjXkXeX0X0XI.G.I x L <.i.P U s.rXfXfX#X/./.V.>.8.E.E.E.(.uXcXaX;X#X/.V.s.s.k.V././././.k.<.1.V.rXjXjXBXJXBX$XB.:.3.Z.+XhXgXpXoXZ.N.m.1.>.8.M.M.E.E.+X1XzX2X.Xr..X<XsX&Xm.2.U x 4 4 4 7 A A A F l h l k U p.B.P.oXC.m.m.s.p.R P i.<.:.:.m.&X+X+XsX%Xm._ B :.B.oXm.s.2.s.s.s.B.P.wXwXtXtXY.f.R L p.wXjXdX@XB.B.B.N.|.;XaXsXpX|.8.M.+X<XQ.8.8.3.;.3.q.Z.&XrXrXrX$Xs.U L n F F L I P %.#.p.k.z.$.N v P 3./.uXvXvXfX#XZ.k.k.k.k.p.p.z.z.B.K.).9XtXuXI.g.I F F Z z z ",
"rXdXDXLXIXIXKXLXDXxXaX;X;X;X;X#XB.s.<.U P N N N N I ` b.eXdXjXjXiXrXL.i.L L L x M U i.P.rXdXdXdXrXP.B.s.<.N k M P <.B.P.P.K.B.s.m.A.N.oX#X%X;X<XxXSXFXGXDXxXxXxX%Xm.V V <.K.wXtX).^.x.k.j.1.@.+.P #.p.p.p.p.z.K.)._._.K.p.P v N P B P U +.<.2.s.m.m.m.k.V.;XfXxXcX>XR.~.*X9.@.E.R.0.0.E.;X;X+X&Xq.] 4.&X<X%XsXFXDXxX-X(.W.x.7.o.1.+.P N k c #.P.dXdXjXdXU.a.I V ,.w.Q.<XZXSX<XZ.C.w.3.q.A.A.'.&X<XZXDXaXQ.8.>.o.8.s.s.s.s.B.].eXyX%XyXfXaX:X>X:XcXxXcX-Xk.+.N N V 2.P.P.s.<.B.@XrXdXBXjXjXjXjXjXkXiX[.G.{ L x j k L <.B./.#XrXrXjXjXdXwXP.K.B.z.z.1.+.+.1.8.k.k.m.m.m.Z.[.@X[.U.Y.h.R F z w > = < d ~ ~ ~ p , # # , u u i i i i $ $ , , , < s ~ D.7XiXkXwXP.J.B.P.P.V.z.s.<.i.i.R <.i.p.h.G.Y.Y.[.0XtXtX[.h.I x L L I R { a.i.{ { } } T F n I { a.L.[.G.` ` g.L.iXhXgXdXrXiXdXjXiXiXiXtX0X0XY.h.R F x E R P P #./.yXfXuX_.W.M.8.0.0.9.W.OX*X;XaXyX;X+XV.8.3.k.Z._._./.V.3.+.U +.P.iXBXJXKXDX$XC.m.Z.%XgXgXpX%X%XZ.N.8.:.>.m.N.w.E.=X1X3X=X+XE.6.N.+XaX<X&Xm.:.L F p 4 7 7 4 Z / S Z x k x P s.B.oX|.Z.Z.B.z.s.f.#.<.1.3.8.N..X+XpXsX<XZ.4._ A.%X$X2.U s.Z.B.B.@XkXwXY.J.f.E U <.b.rXSXDXjXpXpXhXgXxXxXsX;XQ.M.8.|.aXxX<X XE.Q.N.|.&XsXSXSXBXdXrX[.P.b.` I I L Z v x P z.wX).k.+.M M +.V.fXJXLXLXvXdX#X@XP.k.s.k.).).).).wXtXtXK.<.E n j h h h h ",
":.2.Z.%XgXvXvXxX%XOXQ.N.N.N.M.k.+.U N V V V N U M M M I :.B.@XiXJXLXJXSXjXdXdXkXkXjXJXLXLXLXSXjXB.p.<.<.P x k k P R s.s.s.<.U P B ;.>.3.m.N.N.Q.OX;XaXaXaX-XQ.N.8.>.+.<.m.).#XtXK.K.z.k.1.+.+.N P #.p.f.z.z.K.).).).K.p.P v c b N N +.1.k.V.oX&XZ.N.m.M.Q.;XaXzXbX*XR.R.~.9.5.M.W.9.M.E.=X+X+X+X'.4.4.'.,X,XhXFXFXDXfX_.W.^.l.O.N b b v k c M s.rXdXjXjX@Xs._ :.w.N. X1XxXxX%XC.A.q.3.q.A.'.&X<XsXSXSX;XM.>.>.>.1.3.k.k.m.B.P.].$XoX#XyXaX1XaXcXxXFXFXxX;XV.8.1.<.Z.%X@XV.s.B.K.K.@XeX@X[.[.[.P.B.h.a.R L M M b s.m./.%XrXpXiXrXwX@XU.L.F.z.z.z.#.#.1.k.M.V.V.V.m.B.Z.oXeXwXU.Y.g.T z 2 > 2 > > e p d p 5 , - - . $ , # % i i i u , , , : : > e H [ H.7X0X[.U.U.i.z.P.@XP.B.<.U R E R ` a.h.b.b.I.[.eXtXtX[.J.h.I I L L I R { { ' ` T F j w n I b.eXjXjXkXkXjXBXJXLXKXJXBXhXiXeXeXeX0XI.I.7XI.Y.g.T L R / E L U s./.-X#X(.Q.M.9.8.8.l.W.Q.OX+X;XaXaX;XOXQ.M.M.W.yXyX_.V.3.U V v 2.P.rXjXDXBX].C.m.oXpXgXhX,X%X%XV.m.8.3.8.M.N.M.E.3X1XXXr.r.e.e.M.&X<XpX%XZ.3.U Y A 7 3 4 3 Z ^ E Y L x v L <.s.k.Z./.oX/.V.B.z.k.+.B 1.m.A.A.|.%XpXpX&XN.w.Z.&X%X&XC.v.4.<.2.B.h./ L L E i.p.b.J.@XiXjXDXDXDXDXSXZXxXaX;XQ.m.3.Q.aXSXSXxXxXSXxXFXGXKXKXKXLXDXjXjXjXiXwXY.G.{ L x c v p.).tX).P.P M N 1.#XDXPXUXUXPXLXvX#XV.B.K.tXfXfXuXrX).K.f.P M k h h h k x ",
"B B :.s.V.Z.Z.N.N.M.8.8.8.8.5.,.o.B V V B :.3.m.Z.Z.m.<.B B 3.Z.@XiXjXjXjXjXjXdXjXjXJXJXjXtXP.p.<.#.U R U P U R <.<.<.<.P N x k k k b V B ;.:.,.e.N.Q.|.E.M.>.V V +.8./.#XrX#X).V.x.z.p.#.%.B B P +.1.k.V.^._._.V.z.$.P v b v N B %.+.+.1.k.m.B.Z.m.w.N.OX;XaXcX>X!.R.R.7.7.9.9.V.V.Q.OXOX+X;XpXpXA.4.C.%XrXhXSXDXFXSX-X(.-XW.%.b b b V b c k N s.B.$XiXP.<.<.m.|.=X1XzXZXsX%XZ.m.v.q.q.A.'.,XNXDXDXxX|.>.o.>.8.>.1.3.m.B.B.v.s.:.>.3.M.Q.!.OX=XxXFXKXKXFXxXyX%X$X%X$XP.v.<.<.<.C.P.P.Z.B.B.B.s.<.U k h c B k./.rXyXfXgXgXhX%X@XU.Y.S.f.p.*.*.*.#.p.k.x.M.e.9.9.N.Z.oX@XeXU.b.i.F r ; = - ; > e : > : - @ @ @ - . @ # @ $ , u u i u , , , : - : > y F } Y.0XwXeXU./.).P.B.B.h.h.p.<.L L I { a.h.h.G.Y.0XeXwX0X0Xg.i.R L x x F L m m n j w w j n I b.kXBXJXLXLXLXKXKXLXSXpX$XC.a.a.a.` T T d.H.H.g.T F Y / R L P #.x._.#X(.!.R.M.l.k.l.M.W.E.E.OXzXsX1X;XOXE.M.9.W.K.x.z.f.#.P M V :.2.v.].].v.2.A.,XNXgXrX%X$X].m.3.3.m.m.N.N.Q. X2X2XE.;.o.6.N.A.Q.%X<X<X+XA.<.L Y H C l l Z Y Y L L x x x v M :.k.oX%X#X/.Z.V.V.2.B o.3.M.N.A.oX%X<X<X%X|.N.A.&XsXgXoX3.s.v.a.<.R U <.J.rXdXtX@XB.B.@XdXdXdXdXpX%X#X/.Z.k.:.B :.Z.pXvXDXKXKXKXKXKXKXKXKXDXjXdXBXSXSXBXBXjXtXU.R M v R B.wXyXdX@XK.p.U :.B.yXSXvXjXrXP.k.k./.dXvXDXvXuX/.k.#.P V b k k b V U :.",
"V.m.k.3.3.3.3.,.N.M.e.e.e.M.e.9.>.>.>.>.8.N.|.+X<XpX;X|.3.o.o.:.<.B.@X$XrXrXrXeXeXrXrXrX@XB.2.U U P U +.<.<.s.s.m.s.<.U V k k k h k k b b V V V V o.o.o.O.V b c O.8.OXyXyX#X/.V.x.x.k.1.+.%.+.+.#.$.p.k.K./.^.K.j.#.N b b N P P 1.1.1.1.1.1.1.:.3.:.,.Q.;X1XaXcX!.R.R.9.O.7.W.k.M.Q.OX%X+X%X<XNXDX$XC.'.$X%XrXgXSXDXSXaX;XyX(.k.>.+.+.:.U M k k M N 2.C.v._ 3.oX1XAXAXAXZXpX%XP.m.m.v.A.A.].NXGXKXDX;Xw.>.;.1.k.>.:.>.2.s.2.:.B V V B ;.,.e.E.E.1XZXGXPXPXIXKXKXLXSX%XB.2.<.2.s.B.B.B.v.s.s.2.<.U N k b +.V.yXxXxXxXxXgXhX%XoXZ.K.J.z.p.*.#.R R z.z.k.k.0.6.e.E.+X&X&X@XP.b.R F 2 > : - : < 9 e @ - - - @ - - : : , , # , , , u d u 0 9 9 8 : : - ; q x T S.0XtXjXdX@XB.s.h.P.@XL.h.R n x L { h.` i.g.G.Y.I.[.0X0XI.G.} L z l h w j j j j m n I a.L.jXLXUXUXUXUXDXBXrXC.q.4._ M n x j w r F { } d.T Z Y / / / #.*.z._.-X*X!.E.R.l.l.l.M.M.M.N.E.1X1X1X1X=X~.0.;.@.$.$.j.x.z.k.1.B I k j m I ] 2.'.hXDXgXrX%XoXB.m.2.3.m.Z.N.Z.OX=X2X3Xe.o.V ,.w.M.Z.oX%X;X%XQ.s.n T / / R E Y Z Z Z v x x k c c U 2.P.%XrX#XoXQ.m.N.8.B o.N.Z.8.Q.oX+X<X<X.XA.,.+XZXDXhXoXC.2.M M <.B.U.dXLXLXJX@X<.M <.B.B.s.s.V.m.k.k.k.1.U b c +.B./.yXjXDXFXKXLXJXDXjXfXdXrXrXiXdXjXJXLXJXjXL.i.L L #.h.@XrXrXwXB.<.M M U s.K.B.s.<._ z.rXDXKXJXfX/.p.+.%.B N V o.+.>.3.M.V.",
"%XoXZ.N.N.N.Q.Q.E.E.E. X X X X XE.E.E.E.E.OX;X1X1XaXxXsX<X+X|.Q.oX$X%X,XhXgXgXpX%X%X%X$X&XoX].Z.].oXoXoX&X%X%XrXrX%XoXZ.Z.Z.Z.Z.A.A.m.m.A.N.N.N.oXoXoXQ.N.M.N.Q.N.OX:XuX-X^.k.j.x.z.p.+.N B @.3.k.k.k.V.K.Z.V.k.1.+.N b b b v v N N N %.+.+.:.:.:.;.8.OXaXzX1X=XE.9.R.9.@.8./.k.M./.%X<X<X<XsXZXNXiXoX].oXoX%XpXSXSXxXxXsX;XoXQ.Q.V.m.B.m.s.<.U U I U 2.s.2.C.,XZXHXHXAXsX;XoXZ.B.C.C.C.'.,XHXIXKXgXN.:.o.>.8.8.1.>.:.:.<.:.U V b V V V V ;.t.6.e.E.2XZXDXFXFXFXJXdXC._ V N B U :._ U B U B B V V U k./.yXaXfXaXxXcXyX+X&XZ.A.q.1.1.1.<.i.p.j.k.k.k.M.M.e.E.XX2X+X&XC.B.p.R x w > > < 9 e 9 9 e : - - - - > 9 p s a p < , , < u f u 0 9 a 9 9 > : : ; ; 2 C d.Y.tXrXdXtX@XK.B.h.J.J.h.R F n L R R R i.h.b.L.U.[.eXeXwXU.h.R L n j m n I I I I I m n ` ].iXhXjXjXiX&Xm._ V I V m j j j w w F T T { H Z F R / *.*.#.j.W.OXOX~.y.R.W.x.l.l.l.9.e.N.=X3X2X2X=X~.t.O.@.$.$.z.K./.V.k.1._ k w j m _ }.,XNXSXhX%X$X].v.m.2.4.m.m.A.|.=X5X2XXXe.,.;.>.>.Z.Z.P./.#X;X+XZ.R ` { i.f.h.i.L E E E P P v x c P U p.V.#X;X%X+XN.Q.M.>.o.:.k.V.Q.Q.|.&X;X+X|.N.|.,XgXSXDXDXjXpXrXjXDXDXSXSXjXrXB.L h M <.<.i.p.h.p.p.s.z.p.R M 6 k P #.f.K.).wXtXtX@X/.P.K.K.P.J.J.L.U.iXjXjXjXeXJ.R L M I i.B.rXiXiX@Xv.U N V <.<.<.p.P.jXLXIXKXDX%XB.1.+.+.+.o.>.8.N.E. XOX=X",
"gXhXyX;X;XpXaXaX;X;X1XaXaXcXaXaX:X:X>X=X:X:XaX1XzXzXZXDXDXHXHXSXNXsXpX<XsXZXNXpX,X,X,X,X+X,XpXsXDXDXDXSXSXSXSXSXDXDXSXSXDXDXDXFXZXZXNXNXNXNXZXZXpXpXpX%XOX+X;XsXaXaX1X*XW.k.7.1.j.1.#.P N %.1.k.Z.V.V.Z.W.V.k.8.+.B N N %.+.+.+.N %.+.+.1.3.3.3.,.A.|.<XzXzX=XE.u.9.9.9.7.l./.V.V.oX%XrXpXsXNXZXiXiX$X].C.C.&XpXSXgXNXSXgX&X|.+X&X&XoXoX$X@XU.P.L.b.s.v.v.C.&X,XMXAXHXAXsX%XoXC.C.P.].{.,XNXKXPXGX<X8.;.>.8.8.M.M.m.8.3.s.s.3.3.:.,.,.;.;.6.6.6.6.6.E..X<XpXpXpXiX@Xv.:.U B N V <.:._ :.:.U U :.m.Z.%XxXSXvXxXcXaX;XOXE.M.w.3.4.+.+.:.1.s.k.k.M.8.8.M.E. X.XXX3XN.m.:.I x w 2 ; < e p 9 9 u a f G s > - > a ~ ....~ G s e < < p ~ f 9 9 a e e e e q > - = ; C { i.V.tXjXdX@Xh.<.p.h.J.h.{ I F n L I ` i.h.b.J.L.U.[.eXiXeX[.L.J.v.n.n.n.n.2.' ] n m m ] 2.n.n.C.v.q.4.V V V m j j x n z z C F F Y F z Z Z Y E P P +.j.E.!.y.u.u.W.x.l.k.l.8.w.r..XXX2X5X>X~.0.5.@.$.$.z.K././.B.2.<.I V ] ' v.$XBXDXDXhXiX$XP.v.s.s.s.v.A.N.&X2XAX2XXXE.M.8.1.%.Z.Z.V.V.oX%X%XoXB.a.R R a.h.p.i.i.i.#.R E P v x S v M <.N.+X<X2X=Xr.w.N.1.b U /.V.N.Q. X=X<X1X1X|.r.A.pXDXLXKXIXPXPXIXDXrXK.s.<.U k h k L L U R R #.#.*.i.#.P v l c x v S E #.#.R U P P L L P P U R U R p.P.eXiXwXL.i.R M n I ` P.eXjXBXhX$XC.v.` a.L.rXDXKXIXKXjXrXZ.k.1.+.+.+.6.e.|.=X=X;X1X1X",
"DXSXxXgXxXxXxXxXzXxXZXZXAXZXAXxXcXzXcXzXcXcXcXcXcX5XzXzXzXzXzXzXSXSXZXAXZXAXZXsXsXNXNXNXNXAXAXAXDXDXSXNXsXNXNXsXZXZXZXSXDXHXDXDXNXgXgXgXgXgXgXNXDXDXFXDXDXDXFXFXZXcX*XE.l.j.7.7.1.#.%.%.+.1.j.k.Z.Z.Q.Q./.Q.Z.V.3.3.8.k.V.Q././.#X_.#X#X#XoXoX|.m.OX<X<X1X1XXXe.9.9.5.7.R.V.V./.@X#X%X&X%XsXNXNXiXiX$X].C.C.&X,XNXgXZXSXsX%X&X+X,X,XrXpXdXhXdXdXtXiXrX$X$XiXpX,X2XMXAXAXsX<X$X].@XeXiXiXNXHXKXIXDX;XN.w.N.Q.Q.OXOXOX+X&XoX&X$X%XhXgXsXsXsXZXAXzX1X1X1XsXZXZXgXsXpXpXiXrX$X@XoX].oX].oXoXZ.Z.Z.&XfXfXfXaXaXcXcXcX*X!.M.8.8.,.:.;.;.:.,.8.k.m.k.8.M.N.E..X4X4Xr.t.;.B V j h w 2 > p p a a p a W ~ [ G t e s [ D.8XH. .( ~ f a s G [ f a a a a t s G G C r q r C F <.k./.tXrX@XJ.z.p.h.b.B.b.a.` I I R ` i.a.a.a.a.b.J.U.wXiXiXiXiXiXeX$X[.[.{.].C.n.` ' ' ` ' ` v.4.4.4._ B _ U I I ` { T T T T H Y T Y F L Y E E P +.3.N.E.y.u.R.W.c.c.k.8.8.6.r.r..X=X5X2XXXy.u.7.j.c.x.^._./.P.m.B.v.b.}.}.{.VXKXKXGXBXrX].C.B.<.s.m.m.N.&X<X1X5X2X=X XE.M.3.$.k.k.m.V./.+X%X&X$Xv.U U <.<.<.p.<.R U P P P S S S x c N 1.Q.=X1XZX.Xr.M.k.#.#.s.k.8.M.E. X;XsXAX+XN.3.3.3.v.B.C.@X].Z.B.s.:.U <.L N M M x x x x L L L Y Y Y Y Y Y L S S L S S S P P L L L L L L k x x x M 2.B.L.J.b.b.a.` I M I n U B.eXjXBXBXBXjXBXBXJXLXJXjX$XB.s.<.<.<.:.1.8.E. X=X1X1X1XzXzX",
"ZXgXsXsXxXxXZXZXxXZXSXSXSXZXxXxXzXzXzXzXzXsXaXaXzXxXZXZXZXxXxXzXsXAXAXAXAXAXNX2X2XsXAXAXAXZXZXZXHXFXHXZXZXSXSXZXSXDXDXGXGXGXSXZXSXSXSXSXSXSXSXDXSXSXSXDXFXFXDXSXZX1X!.M.l.k.c.j.$.#.%.#.p.k.k.M.V.W././.OXOXOXOX#X#X#X-X;X;XyXuXuXuXuXyX%X+XoXQ.M.;XsX=X=X1XXX6.6.9.;.5.Q.W.k./.rX%X$X].&XpXNXsXNXgXrX'.m.C.&X+X<XNXZXsX<X2X<X+X,XpXsXgXBXSXSXBXjXDXDXBXNXSXZXsX2XAXAXAXsXsXpX%XpXhXhXhXNXGXKXGXSXpX+XoXOXOX;XaX;X1XfXsXhXgXSXDXDXGXHXDXHXGXGXHXAXZXZXZXZXNXpX<XhXhXgXgXgXgXgXgXgXhXsXsXpX%XpXxXgXfXaXuX;X-XOXOXQ.M.8.3.3.,.;.B ;.:.3.w.N.N.M.e. X.X X.X.X4Xr.0.;.B V k x x Z C e s f ~ f W ~ ..J H D F | H.0XeXqXI.D.} H Z H ( | K s t t s H ^ | | { ^ T Y L L <.k.K.@X@X).P.K.J.h.p.p.B.J.J.h.<.i.a.s.s.p.i.<.h.h.B.P.wXiXdXdXBXhXdXiXhXhXhXhXhX$X].L.C.b.b.C.A.A.A.q.3.m.Z.Z.C.P.[.L.J.b.b.h.` i.a.i.i.p.h.z.$.1.l.E. X~.y.~.l.k.7.7.8.8.8.e.w.E.=X5X1X>X X`.(._._._.#X/./.Z.%X%XoX$X,X$XhXGXIXIXKXDXiXC.B.P.R s.B.B.'.,XsX1X2X2X1X=X!.l.7.j.1.j.k.V./.%X;X%X%Xm.:.:.+.N P <.R E P P E R E E S v v b o.8. X=XAXAX+X,.8./.z.v +.>.8.e.E. X2XZX<X+XN.:.B B _ <.3.U B :.:.U B U +.<.<.+.U U P v P P Y L E #.i.h.f.i.*.*.=.#.E E P P P L L M M M k n n k k M U <.p.h.J.J.h.U I I k n I a.{.iXiXiXhXhXkXiXiXiX].s.U B B o.:.3.V.+X=X2X5X5X1X1XzXAX",
"pXaXsXsXsXpXpXpXpXpXhXpX,X%XrXpX%XrXrXpXpXdXgXgXgXjXSXSXSXNXgXpXsXNXNXsX2X2XpXsX<XsXzXZXsXaX<X<XsXxXZXZXSXSXSXSXSXSXSXSXBXNXNXNXjXBXBXSXSXSXSXSXZXHXGXDXZXsX<X;XaXOXW.l.j.p.=.f.=.=.p.f.z.B.Z./.N.E.Q.OX;XaXgXxXDXxXvXSXxXxXxXcXvXyX/.Q.Q.Q.E.E.!.*X>X1X2XXXy.t.w.e.w.8.M./././.rX#Xm.B 3.%XSXSXGXhX,X,X+X'.A.|.|.2XAXNX3X2XNXAXZXxXNXgXNXBXSXSXSXDXFXDXFXKXFXcXcXxXZXxXzXAXAXsXNXNXNXBXBXDXDXDXhXgXNXgXsXzXzXAXZXZXZXZXSXBXBXBXNXNXZXZXZXAXAXDXAXAXZXZXNXNXmX2XsXsXsXxXxXZXZXxXaXzXZXSXxXzXsXzXcXaX;X-XOXQ.k.1.:.s.B.2.B V :.m.V.V.m.8.8.e.E. X XXX=XXX X!.~.E.N.k.3.s.B.L.G.i.F D G G G G ~ ! T L L { L.tXkXkXtXU.J.J.h.#.%.#.` T F C F J [ } D.D.G.L.L.B.z.k.k.l.V.V.Z.Z.K.Z.).K.B.z.B.J.J.K.J.B.B.h.p.s.1.1.s.k.m.V.P.@X%X%XgXZXSXSXSXSXDXDXLXJXBXBXBXjXfXyX%X+X=X;X<XaXgXxXfXgXvXvXvXgXdXpXpX%X%X$XoXoX#XyX#XOX!.!.*XXX~.~.M.M.8.1.1.3.k.x.1.x.#XaXcX1X1X1X=X;X;X:X1X1X<X<XsXsXsX2X,XNXHXKXPXPXIXDXpX@XB.i.p.z.V./.&X<X1X2X2X3X1X1X*XE.l.7.j.$.p.x.^./.#XpXoX|.Z.s.:.U U R U E E E U U U P b N N b b B 8.OXaXxXzX+XM.1.8.M.o.,.8.8.6.e.Q.;XfXfXpX+XZ.k.<.U V V B B :.>.3.3.8.A.N.w.,.;.;.;.3.s.s.k.B.K.).@X#X#X/.Z.x.k.j.3.k.s.s.2.4._ U I M V V k k k B :.s.B.P.P.h.<._ _ I n m w w w w j I U :.:.U B B B k b V ;.w.|.+X=XAX2X=X2XAXGXGXGX",
"|.|.|.|.|.'.C.C.].'.'.C.C.C.C.C.L.P.].[.[.[.].].].@X@X@XoX].].C.'.|.|.'.'.'.'.|.|.&X&X&XoXoXoXoX+X+X+X&X&X&XoXoXoXoX&X&X{.{.[.[.@X@XoXoXoX&X&X+X&X.X.X+X+XpXpX<XOXQ.k.8.j.p.=.=.#.#.p.z.P./.P.V.M.M.E.Q.;XpXaXfXxXaXfXxXaXbXcXaXpX#XN.N.N.Q.E.!.>X>X6X5XXXy.0.0.6.w.M.m.m.Z././.@XP.<.k V B.hXSXSXhX,X<X+X'.N.N.'.<XAXAXmX2XNXAXAXZXsXsXgXNXNXSXNXNXNXxXxXDXAXcXvXDXSXxXZXAXAXAXAXZXNXNXBXBXjXjXhXhXgXgXsXsXzXAXzXzXsXgXgXBXBXSXNXNXNXNXNXZXZXZXNXNXNXNXNXNXNXNXZXzXxXxXAXZXAXAXzXAXZXZXzXaX1X1X:X-X/.V.V.B.B.b.s.2.` U #.<.p.s.k.B.Z.Q.Q.E. X X X XXX*XOX(.(.OX#X@X/./.@X@XU.b.Y F D G D G G ^ E R i.J.wXtXrX@XtXtX).).K.j.$.$.<.U n z m T } D.g.S.G.J.K.Z.W.W.V.W.^./././.Z.Z.K.V.z.z.z.B.J.J.h.B.L.P.K.B.k.3.m.m.V.V./.OX#X;X<XpXsXgXhXhXhXhXBXBXJXLXLXJXvXfXaXaXaX1X1X1XaXsXsXxXxXxXxXxXgXsXaXaXpXpXyXaXfXxXcXbX:X:X>X>X~.y.E.N.M.k.3.p.j.z.p.x._.-X;X:X:X1XcXcXcXzXzXzXsX1XZXAXZXNXNXNXHXIXPXIXGXNXrXP.f.E z.z.K./.%XaX<X+X.X.X3X1X*X!.W.7.j.j.j.c.V.Z.OX;X+X&XoXN.k.p.s.z.z.z.z.z.k.s.1.+.+.+.+.B B +.k./.#XyXaXaX XM.8.8.6.6.8.e.M.E.Q.OX;XfXgXpX%X#X#X@XoXoX+X#X#X#X+X&X+X;X<X=X+X.X.X X&X+XoXoX+X%XyXfXxXfXaXuXuX;X-X-X;X;X;X%X%X&XoX'.'.'.'.A.m.w.N.Z.%XdXjXjXdXrX@X$XL.B.n.a.a.a.a.2.2.2.2.2.2.3.k.m.3.w.E. X=X1X2X2X5XMXAXHXHXHXHXHX",
"A.r.r.w.q.q.3.3.v.3.2.4.a.a.2.` 2.a.v.b.n.v.a.a.s.a.2.2.2.2.a.a.2.2.2.4.2.2.2.v.v.3.3.4.3.v.v.m.m.m.m.v.v.s.2.2.v.v.v.n.n.n.n.n.v.v.v.v.q.q.q.w.N.r.w.w.|.<XpX%XN.8.>.1.1.1.#.#.#.#.1.V.@X#X/.M.l.l.M.V./.oX#X#X#X/.#X-X(.(.-X(./.Z.N.m.M.N.E. X6X1X1X1X X6.t.e.;.w.M.m.m.Z.).@XK.s.n 4 2 I @XBXNXNXhXiX$X].'.A.'.,XNXNXhXhX,X,XsXpXpX<X,XiXhXhXhX,X&X,X,X;XaXxXxXvXxXaXsXZXAXAXZXNXhXhXhXiXeXeXiXiXpXpX<X<X1X1X<X<X<X<XpXdXhXhXdXpX,X<XpXpX,X,X<X,X+X,X+X,X2X2XsXaX1X1XaXsXsXaXZXzXzXaX1X1X=X=XOX/.V.k.s.s.s.n.s.` I U i.h.h.s.k.V./.OXOXOXOX XE.!. X X(.OX-X-XyXyXuXyXrXtXwXU.R Y F F D C H T i.s.B.@XtXdXwXP.wXtXdXrX/.V.k.p.<.U L n F T d.G.S.h.b.B.B.V././.Z.Z.^././.K.V.z.B.z.k.k.z.z.z.h.p.b.J.P.U.J.B.s.B.m.B.B.Z./.oX#X&X+X%X$X$X$X$X$X{.hXJXLXJXSXjXfXfXaX;X%X%X%X%X;XpXpXpXpXpXfXfXgXfXhXhXhXpXpXfXcXvXcXbXbX:X>X!.u.E.E.N.M.k.p.p.f.c.z.V./.*X;X1XcXDXDXAXAXAXzXsXsXZXSXDXAXZXZXGXIXIXGXgX,XoXB.#.E K.K.K.@XpXfXoX8.;.6. X1X-X(.^.l.j.j.j.l.k.l.Q.OX;X;X%XoXZ.V.K.).K.).).).).P.V.m.z.k.j.1.1.3.m.V.Q.+X;XpX;XQ.M.8.e.e.e.E.Q. XQ.M.OXpXgXgXdXfXjXSXgXgXxXxXxXgXgXsXZXZXZXZXZXZXZXxXZXxXsX<XaXsXxXZXDXDXDXDXDXDXDXDXFXHXDXAXZXZXZXZXZXZXZXsX<X<X1XzXvXDXFXKXFXFXFXDXgXpXrXrXhXhXiX%XoXZ.Z.Z.Z.oX+X&X&X<XzXZXAXAXAXAX5XAXGXGXGXHXAXAX",
"&X&X&X&X&X&X&XoX$X].].].].].{.].L.C.L.{.].{.[.].].P.L.C.L.].].{.[.[.{.{.L.L.{.{.].L.C.C.C.].].].].].[.[.[.[.[.[.eXeXeXeXeXeXiXiXiXiXiX,X%X%X&X&X|.|.'.|.$X%X$XZ.3.1.>.1.1.+.%.+.1.1.7.M./._./.V.l.l.k.k.k.k.s.s.k.k.k.k.7.l.x.k.k.N.N.M.9.N.!.OX:X1X>X Xy.0.0.6.6.8.w.m.V.oX@XwXB.R w = = j L.kXVXBXBXiX$X&X].v.$X$X$X$X$X$X$X&X$X&X&X].{.{.$X$X$X].'.].].'.&XhXpXpXyX;X,X<X<X2X<X<X,X$X$XeX0X[.$X$X&X&X&X&XOXOXOXOX&X&XoX@X@X[.$X].].].&X&X'.C.&X|.|.'.|.&X&X+X+X X|.|.OX+XOX XaX<X;X=X;X=XOX|.V.V.B.s.2.` ' ' ` a.h.h.i.i.h.K././.OX+XOXoXQ.Q.E.E.Q.Q.Q./.OX#X#X%XrXrXrXtXrXU.R R I T F F Y R z.B.P.tXdXtXwXU.B.tXdXtX_.^.x.j.#.U U I I { d.h.Y.Y.h.p.s.k.k.m.k.z.z.B.B.z.s.p.s.s.s.s.h.h.s.p.p.p.h.h.h.h.h.s.s.s.s.s.k.B.V.Z.Z.Z.P.C.C.C.L.L.[.eXkXkXiXwXwXwX@XoXZ.Z.Z.Z.].oXP.P.P./.oXoX$X&X&X&X$XoX/./././.#X#X-X-X*X*X!.R.e.N.N.N.k.k.p.p.z.z.l.W.(.;X1XcXxXxXxXxXsXsXaXpXNXZXZXZXZXDXGXGXKXNX%X].V.1.<.p.K.V.K.#XfXdXm.k k V A.;X;X-X_.W.j.7.7.7.j.l.V.Q.;X<X;X#X/.Z.K.).P.).wXrXrX#X#X@X/.P.V.V.V.V.V.V.Z.Q.oXOX+XOXQ.E.E.M.M.E. XOXQ.M.Q.#XyXyXyXpXgXgXpXpXpXpXpXpXfXfXxXsXsXsXZXZXgXsXAXZXsXsX1XsXzXzXzXzXZXAXAXAXAXAXAXAXAXAXZXAXAXAXAXAXAXAXzXzXAXAXcXDXFXFXFXFXFXFXDXSXgXgXNXNXNXgXgXpX%X&X%X,X<X<XsXZXAXAXAXzXAXAXHXHXHXGXHXDXsX2X",
"m.A.C.C.'.].].].C.].].C.L.L.C.L.n.n.n.n.b.L.L.L.n.n.n.L.L.C.L.L.}.I.I.H.n.n.n.H.G.b.n.n.b.L.L.b.L.G.L.L.{.{.[.[.[.{.{.{.{.0X0X0X{.{.&X&X&X&X'.'.'.&X%X,X%X$XZ.s.<.1.1.1.>.o.O.,.6.9.e.E.W.W.V.l.3.3.1.1.:.:.U U U U <.+.P $.c.7.7.M.Q.N.M.E.OX*X=X1X=Xy.0.y.0.O.9.8.8.8./.rXrX@Xa.m ; = - q | {.VXBXBXhXiXeX{.}.iX[.{.{.[.[.[.{.].].].{.{.{.{.{.{.}.}.}.{.'.{.$X$X@X$X$X$XoXoX|.&X&XoX@X$XeX0X0X[.].].].'.|.Z.Z.oXQ.P.Z.K.K.L.L.{.C.C.].].{.].C.].].oXoXoXoXoXoX|.Q.Z.Q.&X+XOX|.;X+X+X+X+X+XQ.A.v.v.s.a.2.' ' ' ` g.b.b.f.h.K.wXyXyXyX#XOXQ.N.w.M.m.m.m.m.m.V.P.Z.Z.Z.P.%XdXrX).<.R R R R Y R / K.P.@XtXrXtXU.J.p.P.rX#X)._.^.z.p.<.#.U E R f.G.I.U.J.a.<.<.2.<.<.i.i.f.p.p.i.i.p.p.p.p.s.s.p.i.i.i.d.a.a.i.i.i.<.<.<.<.i.s.s.s.B.B.b.v.n.a.n.n.L.L.G.G.b.b.b.B.B.b.s.s.s.v.B.C.v.m.B.B.B.B.B.m.m.m.B.B.k.k.s.k.B.V.Z.Q.(.!.!.E.e.N.N.N.M.8.1.1.k.k.k.M.!.*X:X1X;X<X<X<X+X&X+X,X<X,XpXhXNXNXDXDXDXhXoXm.,.o.>.V.B.V.P.tXdXtX/ 4 2 h 4.&X%XyXyX^.l.7.@.@.7.M.E.M.=X;X;X#X/.Z.V.V./.).#X#X#X#X#X%X#X@X/.oX@X#XoXZ.oXoXoXoX%X%X&XOXE.E.Q.Q./.OX/.Q./.oX+X+X%XyXyXrXyXrX#X#X#X%XpXfXpXyX;X;XpXpX;X+X1X1X1X1X1X2X2X1X1X1X2X5X5X5X5X5X5X5X1X1X1X1XzXAXzX5XzX5X5X5XzXcXbXbXcXxXxXxXxXxXZXZXZXxXaXaXsXgXZXgXhXpXpXpXpX<XzXZXzX1X1X2XAXAXGXHXHXAXsX<X+X+X",
"k m V V I ] _ _ I _ ' ] n n I ' ' ] I n n n I ' m n n I I ] I I [ [ [ J K K K K ' K K I I I I n I I I I T ' ' ' ' ' ] ] ' ' ' ' ] ] ] ] ] ] ] ] 4.C.$X$XoXK.B.p.p.1.1.1.>.;.;.6.6.e.~.!.!.V.j.1.+.+.:.:.U U U U I P #.E N $.F.z.7.N.Q.N.M.Q.;X:X:X1XXX0.0.y.0.O.e.8.8.m.oXrXwXY.T q = @ - : f | kXBXBXVXiXeX$X{.[.{.{.{.eX0X{.{.{.].{.{.{.{.}.}.}.n.n.}.}.}.}.}.[.[.[.[.].C.A.C.'.'.P.P.[.[.[.I.P.C.C.C.Z.Z.Z.B.B.B.B.B.B.J.L.L.}.L.L.L.{.{.{.].].{.$X$X$XoXoXoX&X|.|.OX;XaXpX;X;X+XoX|.oXQ.M.3.s.a.<._ ` 2.a.v.b.s.a.s.J.@XtXdXtXyXyX#X/.V.1.+.3.3.s.2.1.<.s.s.s.s.s.Z.%XdXrX/.<.<.<.<.<.#.i.s.K.).yXdXrX).B.s.p.B.).).).).^.^.K.z.i.P L R h.U.[.@XP.s.<.2.4._ E R / { d.d.d.i.i.<.<.<.i.i.<.<.R { d.g.d.d.R E E E E E R R <.i.a.a.a.{ ` ` | | g.g.{ { a.d.i.{ g.a.a.a.a.a.a.a.a.s.s.s.a.a.a.a.2.s.s.s.p.p.h.k.s.k.k.V.V.Q.Q.E.N.E.|.Z.N.8.1.1.3.3.7.k.R.!.*X;X+X%X%X&XoX'.oX&X&X&X&X$XiXiXhXhXBXpXoXm.;.o.,.N.m.V./.tXwXY.A = ; 2 V B.@XyXyX/.l.7.@.@.5.9.R.9.!.OX;X;XOXZ.l.k.#X#XrX#X/././.#X#X@XoX@X%XrX#XoX/.oXoX&X%X%X&X/.Q.E.Q.Q.Q.Q./.oXoXoXoXoX#XyXrX#XyX#X@X/./.@X#X%XyX%X#X#X#X#X+X|.+X+X3X=X2X=X3X+X=X=X=X2X2X=X=X=X=XXXXXXXXX=X=X2X=X=X=X=X=X=X=X>X>X:X:X:X:X:X:X;XaXsXsX<X+X+X<XsXpXpXpXpXpX2X<X2X2X2X3XXX+X=X2XAXAXHXDXsX|.A.N.|.",
"2.2.2.2.a.a.a.2.v.v.n.a.a.a.a.a.n.n.a.a.a.a.a.n.a.a.a.a.n.n.b.n.H.H.H.H.H.H.H.n.n.n.n.n.a.2.2.a.a.a.a.a.g.n.n.n.n.n.a.| ` | ` 2.2.2._ _ ] _ q.q.C.].@X].J.B.B.z.f.#.+.:.,.t.t.r.y.y.~.!.(.W.j.@.+._ :.:._ _ :.<.U <.<.E S =.K.x.k.W.W.9.M.OXaXxXaX=XE.e.e.6.6.t.9.8.M.Z.#XrXY.g.C ; X : : @ 0 J 0XiXVXVXiX$X$X$X{.L.n.L.L.L.b.b.n.n.n.n.n.n.| | | | | ' | n.| ' L.n.n.v.a.2.2.q.v.a.2.a.h.h.g.a.s.a.2.2.s.s.2.2.s.<.<.<.<.i.a.g.a.| | | n.n.n.n.n.b.b.B.B.B.B.B.Z.N.N.&XpXsXhX<X%XoXN.N.m.m.8.3.4.<._ _ 4.v.m.m.Z.B.m.V.@XyXuXyX/./.K.Z.V.s.+.N <.<.<.<.` R ` ` :.2.m.P.rXpXrX/.p.1.$.1.1.p.z.^./.#XrXtX@XK.s.s.s.s.B././././.)._.K.z.$.R <.z.U.wXeX@XB.2.2.:.I F F F F L Y Y I L L n M L L L L F F T T T L F Z F F Z F L L E R R T T I K K I T T T T T ^ / T T ` ` ` ` ` ` ` ` a.{ ` ` ` ' ` ` 2.2.a.i.i.i.p.f.p.s.s.s.k.k.k.m.M.N.N.N.M.k.3.1.3.3.7.8.9.R. X;X;XpX;X&XZ.C.Z.'.].}.}.].{.$X$X$XiXrX].m.4.,.w.e.M./.#XwXY.( d = - - w 2.P.rXtX/.l.l.0.&.&.0.u.9.M.Q.#X;X#XQ.V.l.#X#XyX#X/.Q.W./.P.Z.Z.P.oX@XoXP.P.P.Z.C.P.C.Z.m.V.M.M.M.N.V.V.V.V.Z.Z.V.Z.oXoX/./.P.K.V.V.V.Z.Z././.Z.Z.V.V.V.N.r.r.r.r.N.r.r.r.r.r.E.E.E.r.e.e.u.e.e.e.e.e.A.N.N.N.E.E.E.E.R.R.!.!.!.Q.Q.Q.E.Q.|.oXOXoXQ.Z.|.&XoX&X&X&X&X.X+X+X.XXXXXXX3X2X1XsXsXsX%X&XZ.N.N.N.",
"eXeXeX$X$X{.{.[.iX$X{.{.[.[.{.].{.{.{.[.$X$X[.[.iXeXeXqXeXiXiXkXkXkXkXlXjXkXkXkXiXiXiX$X].].].$X$X@X@X@XeXeXiXiXiX$X{.{.].].].].&X].C.v.A.}.$XpXBXgXiX].B.B.L.K.z.#.N B ,.6.0.r.XX4Xy.E.E.W.l.$.<.2.<.<.` _ <.<.a.s.p.E v =.F.c.x.W.R.8.8.OXxXDXaXE.M.E.y.;.5.E.6.e.Q.oX#X@XS.^ r - - 9 :   # J }.&XhXNXhX$X$X$X].n.` _ U I R ` ` _ _ I V m m m ] ] ] m ] ' ] m ' I n I I m V ] V V M M I I Y L I I I I I U I I R I L n n n L F I K K K K K I ' ' ' I I P U +.:.:.:.3.N.#X%X%X&X/.Z.k.3.1.3.3.s.:._ :.,.m.A.w.,.M.Q.OX;X;X-X#X_.x.k.1.+.+.#.+.U U R ` ` R T T I P 2.Z.$XrXpX#XZ.k.3.@.$.1.k.W.#X#X#X#X).K.B.B.C.B.s.s.V./.K.^.).^.^.^.x.j.p.z.V.rXrX@XB.2.<.U k w r w w r l z z l w w w h h l h z z r y w r z x l z l l z z Z F F F F F m m F F F F F F F F F K F F K I T T I I ` T I n n I ' ` ` 2.2.` R R R i.i.<.<.<.<.:.1.3.8.w.M.M.M.8.8.8.k.8.8.8.0.M.*X1XaXhXpX%XC.m.m.C.].C.n.C.].{.{.{.].[.P.q.3.e.r.w.E.+XrX7XD.) p 1 = X 2 T G.wXrXP.l.W.W.5.O.5.9.R.>.M.OX;X#X/.V.M./.OX-X#X/.V.V.V.s.s.s.m.B.Z.B.B.P.B.v.2.2.2.s.s.k.8.1.8.k.m.k.3.3.k.m.k.3.m.m.B.3.s.k.k.k.k.k.s.k.k.s.3.1.1.1.1.4.;.;.;.;.;.;.;.;.;.;.,.,.;.o.o.@.@.o.o.;.;.;.;.:.:.:.,.3.8.5.1.8.8.8.8.8.3.3.1.3.3.k.m.m.m.v.3.A.N.N.N.r.r.N..X.X3X3X2XAXAXAXzXaX|.3.A.&X<X|.3.",
"C.C.L.{.].L.L.].C.C.C.b.v.v.C.C.C.C.C.].{.{.L.n.}.}.}.{.0XqXqXqX0X0X0X0X0X[.U.P.].].P.C.C.C.C.'.C.P.].].].[.oX@X].$X$XoX].&X&X].{.$X,X&X].&X,XpXiXoXm.s.s.B.K.K.%.#.$.1.6.6.y.4X4X.Xy.y.M.W.c.j.<.a.n.v.a.a.a.v.b.B.h.#.P #.f.F.T.~.E.0.l.*XxXZX+XM.e.E.M.;.5.!.9.8.V.%XdXU.R C 2 : , , @ . + 0 _ N.<XsXpX,X%X%X$XoXZ.m.k.s.B.B.B.m.v.3.2.4.q.q.A.v.n.n.n.n.n.a.n.n.n.n.a.2.2.2.a.n.a.h.h.b.G.b.b.b.b.b.b.b.b.b.h.h.b.G.G.G.G.G.n.H.}.}.H.H.L.[.[.L.L.L.K.U.@XoX$X&XoXoX$XoX].Z.Z.Z.Z.m.<.B B B >.3.8.8.6.6.6.e. X XXX*X*X`.!.W.1.1.#.U U R #.<.R i.h.h.{ F z w h B s.B.@XrXrXoXk.1.+.1.l.^._.-X-X#XZ.V.B.k.2.:.:.<.<.3.k.k.V.Z.^._._.^.z.j.k.V.@X#X@XB.s.<.U I F H T { [ T / } } { { R R ` { { g.| [ [ T ^ [ | { { / / / { d.d.} } d.d.d.d.} } } { { } g.g.g.d.} } | | g.g.n.b.g.| { { a.n.n.n.a.a.` R E R / i.*.R R U P U <.1.8.w.M.N.M.m.k.k.W.8.>.8.8.6.M.OX;XyX%XZ.2.I M M _ _ ' ' ' ` a.a.` n.v.4.:.r.e.6.|.&X%XJ.^ p < 1 - @ - y { L.U.V.Z.V.l.l.0.O.5.M.8.8.M./.#XOXQ.N.Q.OXaX;XV.N.N.3.s.s.s.s.s.s.m.B.B.B.B.m.m.s.s.s.k.k.m.V.V.V.V.V.V.Z.Z.Z.Z.P.].oX/././././././.P./.P.P.K.K.P././.P.C.C.Z.Z.Z.Z.V.V.V.V.V.V.V.V.V.B.B.B.B.B.B.B.b.C.C.C.C.C.Z.Z.Z.P.P.V.B.B.C.K.P.B.B.K.P.P.P.L.C.C.|.|.&X.X.X.X.X.X3X2X1XAXzX2X XN.oX+X|.A.3.w.N.",
"L.C.L.].{.].].].].].].].].C.v.s.b.b.b.n.L.L.L.}.{.{.{.{.0XqXqX0X0X0X[.[.U.P.L.Z.C.C.C.Z.'.|.&X&X].].@X$X$X%X%X%X%XiXpX%X%X,X<X<XhXBXVXhXhXhXhXiX&Xm.<.:.s.z.f.#.=.=.1.8.8.e.y.y..X X.XE.W.^.K.z.f.b.J.L.C.n.C.C.C.L.z.#.P #.-.c.T.~.R.9.M.OXsXsXM.N.E.M.0.5.9.R.e.M./.rXtXJ.Y r e < 9 , @ . + : m ,.+XaXaXaX<X;X%X%X+XoX/././././././.Z.V.N.|.OX&X&XoXoX@X$X[.[.[.{.{.{.L.C.C.C.].[.[.[.[.wXwXwX@X$X$X[.0X0X0X0X[.[.0X0X0XwX0X[.0X0XeXkXkXiXkXiXiXeXeX$XrXrXrXpXpXrXrX$X$X@XP.K.s.v.m.s.<.U U U o.6.M.e.6.6.y.>X>XXX>XXX`.~.R.M.1.<.<.+.R <.i.i.R } g.G.d.T z 2 3 M <.s.V.$X#X/.1.>.@.7.W.(.-X-X#X/.V.z.k.1.U M M U <.s.s.k.V.K.^.^.K.x.x.l.x.V./.oX/.B.3.<.:._ { } d.g.d.} d.g.H.G.g.d.d.g.H.H.I.I.I.H.D. .D.D.H.D.D.D.g.g.g.g.G.G.Y.Y.Y.Y.G.G.S.h.b.G.G.G.L.L.G.G.G.G.H.L.L.L.L.L.L.b.n.b.n.v.i.i.<.` / / *.i.i.i.#.R P P U :.3.8.w.m.m.k.M.M.V.8.@.>.5.>.9.Q.#X%X%XoXm.:.U I U _ _ I K n K I ` ` 2.v.w.w.e.E.Q.&X@Xh.H < 1 1 - @ - 2 Y h.P././.V.M.l.0.>.5.9.8.8.k.Q.OXOX XQ.OX=XaX=XM.M.M.>.+.:.<.<.<.<.<.<.1.2.<.<.<.<.<.<.s.k.k.k.k.m.m.B.m.m.m.m.B.C.Z.Z.oXoX/./././.)./.P.P.P.P.P.P.K.P.P.P.P.K.K.K.P.P.V.V.V.V.Z.Z.Z.K.J.J.J.J.J.G.G.G.G.G.L.L.L.L.L.L.L.L.C.B.L.L.P.[.b.C.L.P.[.[.[.].Z.Z.Z.|..X3X3X3X2X2XZXsX2X X X XQ.oX|.Q.N.m.m.m.",
"[.[.[.eXrX$X$X$X@XrXiXiXoXC.C.].%X$X$X$X$XeXiXiX[.0X0X0X0X0X0X0X[.[.[.[.[.].P.P.P.].P.oX&X&X%X%XrXeXiXiXiXiXhXhXSXDXDXSXSXDXGXGXJXJXDXBXNXhX,XoXN.m.1.1.3.1.+.P p.j.j.k.N.E..X.X X+X+X&X/.).9X7XI.0X0XeXeX{.[.].].P.B.#.P #.-.c.T.R.R.l.W.%X;X%X,.N.Q.8.,.9.u.5.N.Q.#XrX).i.x e e p u , $ . . @ h o.E.<XaXaXaX<XaXaXaXpXyX;X%X%XrXyXyX;X#X;X1XzXaXaX;XyXpXdXdXdXiXiXiX$X$X$X@X@X[.[.[.[.[.0XwXwX[.[.{.[.[.0X0X0X[.0X0X0X0X0X[.[.{.{.qXeXkXkXiXiXiXiXeX%XrXrXrXrXrXrX@X[.P.L.B.v.B.s.<._ U <.s.m.8.6.6.e.y.XXXXXXXXXXy.y.0.t.t.>.o.U U U U ` ` { g.d.d.g.d.{ m w w x U <.s.P./.Z.+.:.1.M._.-X-X-X/.W.x.k.3.:.V k k B <.2.1.1.k.V.K.K.V.V.V.V.M.l.Q.Q.Q.M.3.3.2.2.i.a.g.d.i.a.a.d.| | } ^ T { n.I.0X0X0XH. .[ [ [ [ [ [ ^ ^ ^ ^ T { { i.i.i.i.i.<.i.i.i.i.<.` ` { i.i.a.a.a.a.a.2.a.2.<.2.2.2.2._ a.p.p.f.f.d.d.d.h.f.f.p.<.<.:.:.3.8.k.m.k.M.Z.W.l.8.@.%.o.@.7.8.Q.+X%X%X%XP.B.B.C.C.b.n.a.a.a.a.a.' ` P.oXA.M.OXQ.P.J.{ s - @ @ - - - > z R J.)./.W.M.l.9.5.5.5.k.7.8.M.Q.OXOX X:X1XcX*X8.>.>.V V V U U U N N V P P U P P P U U V b b b b V V B U U U _ :.:.:.:.:.+.+.+.+.+.+.+.+.+.+.+.+.U U U U E R R R R R R E E E U %.#.#.R E T T T T ' T T I I T I T I I I R U U _ _ ` ` ` I I U ` ' ` ` ` :.;.;.,.r..X3X3X2X2X2X=X XE.Q.Q.OXQ.m.8.A.E.=X1X",
"iXiXdXhXiXrXrXpXgXpX%X&X&X%XpXhXrXiXiXrXeX$XeXeXeXeXkXkXqX0X0X[.eXeXeXeXeXeXrXeX$X$X$X$X%X%X%XrXkXiXkXkXjXjXBXBXBXDXDXDXDXDXLXLXDXJXJXBXiX&X'.q.3.N.Q.M.1.%.%.1.j.j.k.l.Q.OXOX+X;XpXdXdXtXdXkXkXkXkXkXiXiXiXiX,X$XoXV.1.%.$.c.c.T.T.R.R.!.OX+XQ.3.N.N.8.>.M.M.5.Q.+XrX@XB.Y z r a p u , # + + X 3 V M.OX<XaXfXaXgXfXfXaXaXaXpXuXfXfXfXuX;X;XaXcXcX1X;X;XyXyXdXjXdXiX%X$X$X$X$X$XeXeXeXeXeXeXiXrXeX$X$XeXeXeXeXkXqXeXeXkXkXiXiXiXkXiXkXjXBXBXBXBXiXiXrX%X$X$XoX].].P.J.B.b.s.s.<.i.2.` ` 2.s.h.B.V.M.8.R.XX>XXXXX6X6XXXXX~.E.E.N.C.C.L.L.L.L.I.I.0XG.} / { { I n x U #.#.p.J.P.V.:.3.M./.-X;XOXOXV.l.k.7.3.<.+.P B _ <.<.<.:.<.1.V.K.K././.V.l.9.W.Q.Q.M.k.k.s.1.<.i.i.` i.a.a.} d.g.g.| [  .0XkXkXlXkXqXH.| [ [ ^ ^ [ } | | } } g.a.p.p.p.p.p.p.z.z.k.s.s.2.<.<.p.f.h.h.B.B.B.B.B.v.v.v.q.v.v.v.s.h.h.h.h.f.f.f.J.J.J.B.h.s.2.s.k.k.k.k.k.m.V.V.k.k.1.%.O.@.1.>.V.oX;XfXfXrX$XP.P.P.L.L.b.b.b.G.G.a.v.[.$XZ.N.oX/.B.{ F e : X . @ - - > w F p.P./.W.V.M.l.8.>.>.l.8.7.8.N.OXOX X1X1XcX*X9.6.,.V o.:.3.k.s.1.+.U P U U U U +.+.#.P N N N P U U U B B B B U _ _ _ :.:.+.+.+.+.+.+.+.+.#.#.#.+.U P L L L E E E R R R R R R #.#.#.*.#.` { ` { ` { ` ' ' ' T R R R R ` <.<.<._ _ U I ` _ _ _ _ _ _ U :.:.,.A..X2X2X2X2X.Xr.N. XOX/.N.M.M.M.M.Q.OX:XaX",
"iXdXhXdX$XP.P.%XDX%XN.N.%XgXgX<XyXpXdXdXrX@XL.b.G.I.0X0X0X0XI.I.{.{.{.[.[.[.[.[.[.[.[.P.P.P.P.U.0X0X0X0XqXqXeXiXiXiXkXkXhXiXhXkXhXBXBXhX&XN.w.3.8.M.Q.9.@.O.@.8.k.k.l.V./.#XrXyXrXdXjXkXkXkXkXkXkXkXkXtXiXiXiXiX%XoXM.$.@.j.x.T.T.T.T.W.!.OX|.N.Z.A.8.8.k.l.l.9./.#X$XJ.*.F C C s p < - # # # - 2 k <.V.$XpXdXpXjXgXfXdXpXpXpXpXfXfXfXyX;X;X:X6X6X:X>X;X-X#XuXfXdXyX%X#X%X%XrXrX$X%XeXeXeXeXeXiXiXiXiXiXiXiXkXkXkXkXkXkXiXkXjXjXBXBXDXDXBXBXDXDXBXgXdXpX,X%XoX].K.J.b.h.a.a.i.2.n L ` a.b.h.i.R k./.yX1X=X.X>X5X5X5X5X5X1X1X<X<XhXhXhXhXiXiXiXeXtXY.d.{ } d.` I Y *.*.#.i.J./.P.s.m.Q.#X;X#XQ.W.l.j.1.1.1.1.2.2.s.2.<.:.:.:.:.+.s.B./.#X/.W.M.M.!.(.OXE.M.k.3.<.1.2.1.i.s.J.J.h.n.G.n. . .H.qXCXCXCXCXkX0X .[ [ | |  .D.D.H.H.H.Y.J.B.z.z.x.V.K.^.V.V.V.Z.Z.Z.B.B.J.K.P.@X$X$X%XrX%X&X|.'.|.|.'.B.B.z.h.h.h.h.h.J.L.K.K.B.B.B.B.B.V.V.Z.V.k.k.k.j.j.1.%.o.@.$.$.N.Q.+X<XpX%XoXZ.Z.P.K.L.J.b.J.L.L.C.C.].oXoXZ.B./.i.Z r e : + . @ - : 2 w l U B.Z.Z.V.M.M.k.1.>.l.l.7.5.9.!. X XXX>X5X=XE.R.E.0.m.Z./.@X/.Z.B.k.1.1.p.p.p.p.f.f.f.s.k.k.k.k.s.s.v.s.v.m.m.m.m.m.m.m.m.m.m.m.m.k.k.k.k.k.k.s.p.p.i.i.i.i.p.f.f.f.f.h.h.z.z.z.F.S.B.B.b.b.G.b.b.b.n.b.b.n.h.h.h.h.m.m.m.m.m.v.3.3.A.m.v.3.3.3.3.q.C.Z.oX,XsXZXsX2X.Xr.6.w.Q.OX/.k.,.e. X=X=XOX!.E.",
"@X$X$XoXB.4.2.m.oXoXoXQ.Q.|.OX;XgXjXvXjXdXP.i.L z z x F F J J F F K K K K K K K T T T T T T T T G G G G J X.[ [ | ' [ ' ' ' ' ' L.{.iXoXm.q.q.w.e.6.;.O.O.5.5.5.M.E.Q./././.).).U.wX0X7X7X7X0X7X7X7X7XY.L.].$XpX%X|.k.@.@.j.T.T.T.u.T.W.E.Q.N.A.oXm.3.8.M.M.R.W.OX@XK.i.L Z Z C a e - @ : 9 0 : ; 6 L i.J.@XwX@XrXrX@X@X@X@X$X%XrX@XoXOXOX=X>X>X6X>X>X;X*X/.#XfXyX;X;X%XyXrX#X@XZ.P.L.L.L.{.{.].].].].].{.{.0X0XqXqX0X{.[.eXiXiXhXhXhXdXpXpXhXNXhXpX,X&XoX'.C.A.B.b.a.i.i.2.` R R ` 2.a.a.h.b.B.U.tXdXfXaX;X2X1XXX=X2X1XsXgXhXhXiXiXiXiXiX0X[.{.G.G.S.H.G.G.i.I Y / *.R i.K.@X).P./.$X%X%XoXN.k.k.7.1.+.+.<.3.s.B.s.<.:.<.<.<.:.U s.P.OX/.E.E.!.!.*X*XE.M.8.3.>.3.k.k.s.B.U.P.b.g.n.D. . .H.kXCXCXCXVXqXH.| [ J | | |  . .D.D.D.h.k.j.j.p.j.c.l.7.7.7.8.k.m.m.m.s.k.z.V.P.oX#X%XoX|.Q.N.E.Q.|.Q.P.K.K.B.F.J.J.K.K.K.P.P.P.P.P././.).@X@X/.Z.V.l.k.j.1.$.$.$.$.7.8.8.E.OX;XpX%XoXoXoX[.P.P.L.L.L.n.}.].C.K.@XP.s.K.R z w e : # @ @ - > e w w n <.m.V.Z.V.V.k.k.1.k.l.k.>.5.R.~.~.XX>X5X>XE.R.R.5.8.m.Z.P.Q.V.V.z.z.z.z.z.z.z.z.z.f.s.s.z.z.k.s.s.m.m.m.m.m.m.m.m.w.w.8.k.8.8.k.k.s.k.k.k.s.s.p.p.p.a.a.p.f.h.h.h.h.h.h.z.z.z.z.z.B.B.z.z.B.b.b.b.b.b.b.B.z.z.z.z.3.q.w.w.w.w.w.w.w.w.w.,.3.r.A.Z.$X%X%XpX2X=X.Xr.r.r.N.M.w.k.M.V.N.E.OX=X=X=X>X:X",
"oXP.C.C.m.3.1.3.>.N.OX|.w.6.E.=X;XyXdXfXdX].<.x w 2 = = - ; > : : > > > > > : : 2 > > > > > > > , # # # # # 0 0 : @ @ @ @ @ 8 y n.L.].C.q.,.w.w.e.;.O.O.t.0.0.5.R.!.*XOXK.f.*./ / ( ( ^ ^ ^ ^ J ^ ^ ^ L L 2.].pX<X X9.@.&.j.T.T.u.u.T.R.E.N.N.N.C.m.3.m.M.M.Q.-XoX/.k.R S F Z C r < - - < a u : = 2 z Y { g.g.i.i.i.i.a.a.a.s.s.2.:._ >.M. XXXXXXX X X XE.k.x._./.!.OX-XyX@XB.2.2.2.2.a.a.a.a.a.2.2.a.n.n.n.n.H.H.H.H.H.G.L.L.L.Z.C.C.].$X%XrXrX&X].C.m.q.q.q.4.a.a.` ` ` ` ` ` b.b.h.a.a.b.[.tXtXwXU.@XrX;XOXN..X X+X,XiXiXiXiX&X&X$X[.{.L.b.g.T } G.7X0XL.a.R E *.*./ i.K.@X@X@X#X%X$XoXZ.q.3.7.7.1.@.1.1.k.m.B.m.s.2.<.<.:.:.U i.z.Z.Q.!.!. X`.`.!.R.9.8.k.7.8.8.k.8.B.P.B.` { | | [ [  .8XqXqXqX}.H.| ' K K [ [ ^ [ [ |  .d.h.k.k.l.l.l.l.j.&.9.T.9.5.,.8.M.V.V.V.Z./.OX#X;X X|.|.|.|..XE.N.k.k.z.z.z.z.z.z.z.B.J.V.V.V.Z.P.P.).).)./.K.V.V.V.j.1.j.j.$.$.j.>.,.8.Q.;XpXpXyXP.K.P.L.J.J.J.L.L.{.{.C.K.@XK.f.f.Y z y 8 # # 0 : - ; r w w j N 3.B.P.Z.B.B.k.p.1.l.l.>.;.e.E.E.XX=X5X>XE.e.9.@.+.1.k.m.V.V.V.Z./.^.^.K.K.K.F.x.K.K.K.K.K.K.K.Z.B.B.m.m.C.C.A.A.N.N.N.N.N.N.Z.Z.Z.Z.Z.V.V.V.K.K.J.L.L.L.P.P.P.P.P.P.P.P.P.P.P.P./././././.P.P.P.[.P.P./././././.N.r.N.E.E..X.X.XE.y.r.r.E. X=X<XgXgXdXpX+X.X'.r.r.r.N.M.k.k.Z./.-X*XOXOX*X6XxXFX",
"+XZ.N.Z.N.N.m.8.e.6.;.6.R.E.E.M.Q.+XuXSXJXDXrXP.R z ; = = ; > : > : > > > : : : > : - - - - - - # $ + + + # # # : # @ # 0 y K | {.[.].C.m.A.N.M.6.,.;.O.t.5.0.u.R. X;X#Xz.L h 3 r r 4 < < e 9 : 4 4 4 2 w M C.pX<XOX9.O.@.j.T.l.u.u.R.E.M.e.M.C.,.3.m.m.k.V._.yX/.P.p.P L L Z r e 2 ; - e d p : ; 4 r A H ^ F r q y t x D F F m w q w k :.N. X!.y.e.e.M.7.%.+.k.7.k.V.oXoXB.U k w w w w w w w w w w w j g g g g g D D D F n z j k k V :.m.'.|.Z.oX'.A.q.q.q.q.3.<.` U U <.<.2.2.<.s.L.P.U.I.[.0X0X7XU.Y.B.s.s.q.q.q.v.n.n.b.n.n.| | | | | ' n z z T H.0X0XL.h.i.*.d.i.*.p.K.).).tXrX%X&XZ.m.3.3.>.>.1.1.3.k.B.Z.B.B.B.s.<.:.+.U <.<.3.k.V.Q.(.(.!.!.R.9.5.0.8.l.9.M.M.8.B.K.h.T q e 9 9 0 a f ..[ X.g y 8 8 8 9 a a p p s G H H f.f.z.V.x.l.j.5.5.l.~.9.O.V o.3.Z.V.V.V.Z./.+X+X;X;X=X XE.e.;.B v L P R R / / ^ d.d.i.i.i.i.s.h.f.h.h.h.h.s.z.z.P.k.p.k.j.#.#.j.8.5.5.e.Q.OX#XoXoX@X@X@X[.0X0X0X0X{.{.{.[.[.Y.h./ Y C s > @ : a 9 - ; e r w h x <.B./.Z.B.B.z.k.%.k.l.5.O.0.E.E. X=XzX1X X!.!.8.8.k.V./._.#XyXuXuXuXtXtXtXwX9X9XwX).U.U.U.U.@X@XrX%X%X%X%X%X%X%X+X+X+X+XOXOXOX&XoXoX/./././.).@X].].].].].].[.[.@X@X@X@X@X@X@X_.#X#X#X#X#X#X$X@X@X@X#X#X#X#X#X#XOX X X X.X.X.X.X.X4Xy.y..XXX1XzXfXpX%XoXN.r.r.r.r.6.6.8.N.oX%X%XOXOXOX;X1XcX1X=X",
"OXOXOXE.E.E.E.E.!.w.;.;.e.E.e.6.w.N.oX%XgXjXjXjXwXY.T z q 2 > ; e : : : > : > 9 < < 1 1 - - - - , $ $ O . $ + + + + # 0 8 D | }.{.{.L.v.m.Z.V.k.o.>.0.0.6.t.0.y. XOXZ.v.I w ; = = X @ # 1 # . . = = X = ; n C.hXsX&XN.0.@.7.W.l.M.N.E.M.w.N.|.|.:.m.N.V.V./.#XyXK.K.p.v x R L 3 w q e s s s a p - < p G ~ f p < - - : > 8 : : 0 : - : j i.K./.Q.l.5.7.8.%.c v V.3.k.V.K.J.i.z ; ; > > q 2 > > : > > 8 8 q e q 8 > 2 e q q 2 2 2 h c V ,.M.Z.Z.N.N.m.v.s.s.2.<._ V o.>.>.;.>.e.M.8.N.oX@X$XeX{.L.I.H.[ F D m D K D m m D D D F D D g g g t q q y C S.0X0XwXU.h.h.z.c.p.#.f.K./.P.yX%XoXZ.m.2.<.:.@.@.@.3.z.P.wXtX).K.s.s.s.2.:.B 1.1.1.1.k./._.Z.W.Q.W.l.0.8.6.5.9.R.l.7.k.P.g.t - @ + + + + # : 8 8 : : # # # @ , , , , , < p A ! / d.S.J.B.k.3.8.W.Q.8.o.o.>.:.m.v.m.V.m.m.|.<X;X+X+X+X&XZ.4.V x 3 4 r C r s A a s C C C x x Z H F C F F Y d.h.B.J.B.z.p.#.+.+.8.8.5.8.W.#X/.k.s.i.i.h.G.G.H.I.H. .H.H.H.H.D.} A ~ ~ s < , d ~ d < - - < l C Z R p.J.)./.V.m.k.j.1.8.8.5.>.0.E. X;XaX:XOXE.R.e.8.M.Q./.).#XtX@XwX7X7X7X7X7X7X7X7X7XI.Y.Y.I.].].$X,XiXiXrXiX%XoX@X#X%XoX&X+X+X&X&X&XoXoX@X[.U.L.].'.].].].].].[.@X@X@X].).oXoXoXoXoX&X&X&X&X&X$XoX$XrXrXtX@XwX#X#X+X+X+X+X.X4X4X.X.X.X3X<X1X1X;X%X@X/.P.V.N.M.e.8.e.N.E.|.|.+X<X+X+X<XsXsXsX<X+X",
"*X*X*X X XE.E.E.E.E.E.6.;.;.t.r.e.r.w.w.m.oXdXDXJXjXeXg.J t r e e : : > > : : : < < < < < < 5 5 5 5 % $ $ $ + + + # 0 g ] | }.{.{.a._ 2.C.K.B.k.N O.@.5.9.y. X=X|.C.2.I z q : @ X . . $ $ +     X X X X ; n C.hXhX&XN.8.@.7.x.x.N.N.N.A.N.E.E.A.w.A.N.V./.#XrX_._.x.R k v P L 3 2 w C H ! G s e 1 5 d W ) W d u , : # , , # , 0 : : > D g.U./.V.j.k.7.+.N N <.k.m.Z.P.L.s.T y - - - : : : : : : : : : : : : > 9 > > > ; ; 2 4 w V o.8.Q.|.Q.N.A.m.3.:.2.B.B.2.N b o.8.9.9.9.0.6.E.|.&X$X$X[.}.n.F C e : - : : : : : : 8 > > 2 > > : : > : - ; 2 T Y.wXtXtXU.B.z.k.j.p.1.k./.OXoXoXoXN.m.3.1.:.:.>.>.1.k.K.).tXkXwXU.h.i.<.<.:.+.N >.8.3.p.x.^.^.K././.M.e.8.6.;.0.T.l.7.m.P.n.f @ . . . . O + + @ @ @ @ $ $ % % + $ $ . . X - < d A ^ ( d.h.z.k.s.>.:.1.8.3.+.V m I 2.B.V.m.m.N.+X+X%X,X<X&XC.2.l 2 = o X X X @ - - : : > > 2 2 ; - - : 4 r H { h.B.B.z.1.+.+.+.>.5.7.7.l.^.V.k.v h 3 w l t s s K K X.[ ......( A G G p < < Q ) ~ d < > < r C Z Y ` h.P./.Z.V.M.l.8.7.7.7.7.8.M.OX;XaX;XOXE.M.8.8.M.Q./.@X@XU.J.h.d.D.D. . . . .D. .} | d.b.L.].].&X&X].].&XoX].P.V.V./.&X|.|.&X|.|.'.C.b.b.G.J.n.n.n.n.n.L.G.G.G.G.J.B.J.B.K.V.C.C.C.C.C.C.C.C.K.L.P.P.P.U.U.[.@X/.N.N.N..X.X.X.X.X3X<X<X<X%X#XV.K.P.P.Z.M.8.>.M.E.|..X.X.X&X&X<X<X<XpXpXpX<X,X",
"OXOXOX+X;X+XOX|. X|.N.r.6.6.t.;.;.,.8.8.m.B.oXrXJXJXCXkX0Xg.[ ! s e e e e > > 9 e e p p p d s d u i 5 5 $ @ + + # : 9 [ }.{.{.{.].2._ v.K.s.+.+.+.@.1.8.M.E. X=X|.2.m w > > : : . . . . O       o X = = > n L.gXhX&XZ.8.@.7.x.x.V.N.N.N.E.Q.r.6.E.M.M.V.#XyX#X/.K.p.M v P L x 3 2 r T  . .! s e 1 5 p d d u 5 1 # @ . + + + @ : : 8 t [ L.@XP.z.7.l.7.b b 1.B.k.V.P.].b.R x q - - - - - - : : : # # # @ @ @ : > e 2 > 2 w C T / s.M./.oXQ.M.8.3.3.m.m.s.` I I U <.7.8.5.8.M. XOX%X%X%X$X{.b.[ K e 9 : : : # # @ + + @ @ - - @ @ X @ - - = = > r } 7XtXrXtXwXK.B.p.j.p.3.k./.#X#XQ.N.m.k.2.<.<.:.>.1.3.k.).tXkXkXkXwXY.h.a.2.2.3.V +.1.1.1.k.z.V.V././.Q.N.M.8.,.5.l.0.>.m.P.n.G @ .       O O O . . . . + + + O O + O + . . @ 1 1 < 4 C Y } h.B.B.<.:.m.N.3.+.+.M M I U +.:.3.M.Z.|.+X&X%X%XoXL.g.} C ; X X - - @ - , < < : > 2 > - - - : 2 z I a.h.B.z.1.+.+.+.+.>.1.1.7.k.z.z.P h 3 2 2 > > 8 : 8 8 e s G ! ! ~ ~ d p < 5 W ..~ ~ d < 2 r C F F E p.B.P.Z.V.V.V.l.7.>.7.l.9.8.OX*X;X=X*X XM.5.8.M.Q./.@X).h.R w w e a a p p d d d e e y F ` n.].{.&X].C.P.].C.k.+.:.N.Q.M.A..X+X%XoXm.U n Z F n m j j z D D D D D F F F F L L F n n n F K K K T T I T T T T T R P I B ;.q.'..X2X2XsXpX%X].C.B.K.B.k.3.3.k.M.N.Q.|.+X+X+X+X+X+XhXpX$X&X].].].].",
"s.m.Z.&XyX;X%X+X|.N.M.E. X.X6.;.V ;.w.M.A.m.m.B.[.iXjXBXjXeXI.H.^ K s t t y e e C C A A A A G G d d d p 5 # @ @ 0 a K H.qXiX{.C.2.v.P.@XB.N v +.j.j.k.V.Q.OX X|.B.' w : : 8 0 #   . . . + . O . X = - - 2 F {.gXhXoXN.8.$.j.K.x.N.N.N.M.e.r.w.,. XN.M.Q.;XaX#XZ.3.U M U R L h h z F |  .} ! C e < p p p < 1 = X - X . . . . @ - > t [ G.U.@XK.k.7.k.>.N B m.Z.s.B.P.P.a.F y > > > : - # - : : , @ # # @ @ @ - > e e r C Y g.H.I.P./.Z.V.m.3.3.3.3.m.m.<.M n R h.m.k.8.1.8./.aXxXyX%X[.b.{ K y 8 < , - # @ @ + + + + + @ @ @ @ @ X - > > - - 2 x d.I.wXwXrXrXP.V.8.k.k.8.k.Q.oXOXZ.Z.m.s.2.<.<.<.+.1.s.K.).wXwXwXtXwXwXY.h.s.s.s.<.+.N U p.z.k.p.z.K./././.Q.m.>.5.0.5.>.m.P.b.J : @ .   . O O   . . . . . .     O O % % $ @ $ , = - 1 2 r H { a.b.B.K.Z.s.:.<.B.p.<.N m b V >.w.8.N.Z.C.Z.$X%X$XtX0X} e X @ - @ , , u u u u p p a 9 < > > 2 t F { p.B.B.k.@.+.+.B +.3.1.1.3.z.z.*.S 3 ; = - - - @ # : : > 9 s G ~ ~ d p < p d ~ ~ ~ f e > 4 l F F E i.B.V.V.V.m.M.M.8.@.>.M.l.>.E.Q.OX*X;X=XE.,.8.M.Q.@X#X@Xp.F = = = - - - - , - - - X @ > z ' L.[.iX$X].C.C.B.3.+.B 1.w.w.r.'.,X<X%XC.I 3 2 2 > : - - : : - @ : : : : > 2 2 2 2 > 2 2 2 2 2 2 y q 2 2 q q 2 2 2 2 w m _ A.|.,XNXNX<X$X].B.B.B.P.B.3.1.3.k.Q.OX/.oX&X&X+X,XpXhXhX$XC.2.' ' ' ' ",
"n I a.B.@X%XrX%XZ.oX+XOX|.N.e.r.8.,.,.,.,.3.m.m.v.C.$XkXjXjXeX[.H.D.[ F z t y y C C H H H H A A G f d d u - : 9 G [ H.0XiX$X}.v._ m.].B.<.P #.p.p.k.V./.%X%XoXC.' m q : 0 0 0 #     O O $ % % % 1 1 1 ; 2 I [.hXdXoXV.s.$.j.K.x.M.N.N.w.6.6.w.e..XE.E. X;X;XoXZ.U V M U U x x I i.} } | J D s s d A G d p < < 9 a 9 < > : - - : q T G.[.U.P.V.k.8.>.%.o.1.m.m.v.K.P.L.` t q > < u , 1 # 1 , , $ @ # , , , : : > e r C ^ D.I.7X7X).P.V.B.m.m.k.3.3.U V V <.h.B.B.<.s.B./.#XpXpXrX@XL.a.T D y > : , $ @ + + $ $ + + + + . . + # , @ < e > - = 2 r { L.[.@XrXrX/.P.k.M.m.8.m.N.|.Q.N.Z.m.2.<.<.<.<.#.p.B.U.wX7XY.D.D.I.7XI.G.a.2.2.s.<.U U <.p.p.i.z.K./.).@XoXV.8.7.0.>.>.m.P.b.! , $     O O O O # # $ $ O O     O O $ $ $ + $ $ 1 - - - : e D K ` J.[.P.s.p.h.B.p.s.i.<.+.+.B V >.8.A.m.Z.%XhXhXeXqX .e @ X @ . # $ $ $ $ $ , , , @ @ @ : > y D R i.B.B.k.1.>.@.B +.<.1.1.1.z.K.z./ z 2 ; ; - @ + @ # @ - - > p G G s d e p a d ) ) ~ s 4 4 r Z L I <.s.B.V.V.V.k.l.8.>.>.8.8.7.e.E. X;XaXaX!.6.8.M.Q.#XrX@Xa.Z ; - - : : # , 0 , , : - - : y m | L.eXrX$X].B.s.3.1.:.o.:.w.A.A.N.&X%XoXp.v h 2 : # @ : , , , # , , < < < < < < < 8 8 8 8 8 8 q q q > > > : : - ; w n a.].$XiXpX$X&X'.C.C.L.L.L.3.3.N.Z.Q.Q.Q.Q.oX+X%XpXpXiXrXiX}.n.T t q q q w ",
"w w F ` g.L.[.eXdX%XoX|.|.|.N.M.N.r.,.:.4.,.3.3.v.v.v.{.eXkXjXjXiXeX[.n.{ T F x z z Z F L F F Z ~ A s s < - e D  .I.qXiX[.'.v.v.C.B.s.U P $.f.p.z.x./.#X#X].v.` z y > : 0 0 # +   . O $ % & i Q p 5 1 ; q T [.hXpXoXB.s.$.j.K.V.l.N.E.w.,.6.r.E.E.E. X=X=X|.N.k.U N M M v x E h.Y.b.} T F D t t r G ~ ~ A s G ~ ! G s p e > > q D g.@X@XP.B.k.8.7.o.o.1.m.3.s.m.].L.n.K q > > < u , @ # 1 , 1 # # , u u a p e e a s H g.I.7X7XU.B.z.B.V.Z.m.3.:.B B U <.p.h.B.B.h.L.wXtXdXdXrXU.a.R F z y > > > , $ $ $ % & i i $ $ + . + @ 5 5 < d s < - ; 2 r { P.@XoX$X#X/.Q.M.M.w.w.A.|.|.N.M.m.3.<.<.#.R <.p.h.Y.7X7XD.( G G ( H.7XY.h.a.i.p.p.h.i.U L #.h.h.J.P.U.@X@XP.B.l.7.>.>.m.P.b.[ 9 $     O $ $ + $ $ $ $ O O O $ O $ % $ O + + $ , , , - - : q y z { G.J.L.@XU.h.h.b.h.s.3.1.o.V N >.3.3.Z.rXjXjXtXI.| s : : - # $ $ $ + O + + $ + + + @ - : q z I <.s.V.V.k.7.1.+.+.+.<.1.p.z.J.Y.S./ C r 4 > - . @ : : - - - ; < p d a e e e s }  .} ^ C r z Z L L U <.k.V././.k.M.l.1.>.1.0.8.9.E. X:XzXzX=XM.8.l./.#XyXwXh.F > ; : , 0 # & 0 0 0 0 , : > q y D { I.eXrXrX@XZ.m.m.3.o.;.,.r.r.A.'.%XrX).h.R F : : @ : , u 5 , , , 5 5 5 p 5 p p e e e e 9 e e > > 8 8 > > 8 q F ` L.eXhXhXpX,X'.}.}.C.L.L.b.a.s.w.N.Z.|.oXoXoX%XyXdXgXdXeXL.n.' D e > - : : > ",
"> q t D F ' b.I.dX$XC.].%X<XoXA.N.A.A.r.3.4.4._ 4.2.2.v.C.$XdXVXjXBXkXeX[.I.b.i.L L L M L M L L H C r r > ; r [ H.0XeX[.C.q.q.m.%XB.P v #.f.j.f./.).wX@XP.a.M w y q 8 0 , # # $ + $ % & i Q Q W Q 5 - - w ` {.hXpXoXB.k.$.j.K.F.M.E.E.e.8.e..X.XE.E. X<X=XN.,.:.B P N N N P <.h.J.g.{ ' T K z y r A ! ! H H (  .} ! s e 2 2 r C i.P.rX@XV.M.k.5.@.O.o.3.8.3.m.C.P.G.` D q q 9 < , $ @ # 5 u 5 5 , , u d W ~ f p s C ^ g.I.0X7XU.p.s.k.m.m.2.:.B B 2.K.K.p.i.h.U.dXdXtXtXtXwXY.g.F z w e q : : : X + . + $ u i u i 0 5 % 5 u i d f ~ ~ e ; 4 l F h.wXrX$X+XoXQ.Q.N.e.w.M.|.;X+X&Xw.3.2.<.R R i.i.J.Y.Y.I.D.! p - - s [ D.H.G.G.G.i.h.J.h.R L E h.h.b.J.P.@XeX@XK.l.9.>.>.m.P.b.[ p #     O % & % $ $ $ $ $ % % % i i i % $ + + $ 5 u u , : : : 8 e t J d.Y.wXwXU.U.P.z.1.2.k.8.>.V >.k.m.P.pXgXiXH.| C q : @ @ , u i % + O O $ % # # , 0 0 > q t F I <.m.V.M.8.>.3.+.P #.p.p.f.h.S.S.d.F r 2 ; X @ : 9 a p < > ; > e r a e e e s [  .D.} ^ H Z F L M L U p.B././.W.M.l.8.7.>.7.9.9.M.E.OX1XaX=XE.7.l./.#XrXwXh.T > : - : # + + $ $ $ # # , , 8 q y K g.L.wXtXrX@XN.M.w.,.;.;.,.w.M.N.oX#XtX).S.} s 9 - @ 1 , # $ $ $ , , 5 5 5 < < < < < < > > > : > q q q y D ' L.[.eXiXiX,X&X'.'.'.'.}.C.b.s.2.C.N.N.N.Z.&X%XyXpXpXdXrX[.b.' m a 9 : @ @ : : : ",
"9 e a y e D [ G.b.L.eXiXrX$X&X&X|.|.|.A.,.;.4.4.:.4.3.3.v.v.].$XiXjXjXjXdXdX@XJ.2.<.U N M M N L F l 3 2 ; ; z d.L.[.[.C.3.4.,.A./.+.v U j.z.x.).).).wXU.b.R j 2 y e 9 0 # # # 0 $ & i i Q Q W ..f 5 = = w ` [.hXpXoXV.k.$.j.K.K.V.E.E.e.M.|.+XXXE..X+X1X=Xe.o.V V P +.+.#.<.i.2.h.i.{ { } ' m q r H ( ( ^ ^ } D.} H r 2 2 r F / J.@X#X/.M.M.8.>.O.o.>.,.3.w.m.C.L.a.K y q a a u , $ # , u d p u u u u d ~ ! G C r z F i.Y.[.wXU.B.B.B.k.1.:.U :.2.s.B.B.B.J.U.wXkXkXtX0XI.G.^ z z q 2 < > - X = @ @ - < a f W W a a u p a d f W ~ ) ~ 4 ; r F R L.dXgX%X+X|.E.E.N.e.r.N.+XsXsX%Xq.3.<.<.<.i.i.d.Y.H.H.D.! p X   o - d (  .H.H.Y.a.a.h.h.i.R R i.f.h.B.L.@XrXtX).V.l.7.>.m.C.n.[ s , .   % i i i i i 5 5 5 i i Q Q Q i 0 $ + + + , u u u , : : > > : q T d.h.U.tXwX@XK.z.m.V.k.>.o.k./.oXrXjXgX@XG.T y q > : > u i u % +     O $ # # # 0 0 8 q t n L <.k.W.W.9.>.k.+.N U p.p.p.p.F.Y.Y.{ C r 2 - - 9 d G ~ A s r 4 r A s e 2 e s H ( } g.} ^ T Y I L M P <.k.V./.#XV.l.l.8.>.>.8.8.e.M.E.OX;XOXE.7.l./.#X#X@Xh.T > : - # # + + + + + + + # 0 9 e q z T a.L.wXwX@XN.w.w.M.,.B ;.w.w.8.m.P.tXtX9XY.[ G e - - 1 @ X 1 1 5 5 5 5 5 5 r r r r r r q q y z m m m ' b.[.iXiXiX%X&X'.N.A.w.A.A.A.m.B.Z.].A.N.|.+X%X%X%X%XfXiX@XL.a.T z q 9 , : @ @ : : : ",
"a p e 9 : > y K { n.L.$XeX$X%X%X&X&X|.|.|.Z.N.A.B ;.:.3.3.4.4.2.P.$XdXjXBXjXjXgXrXV.+.U <.2.+.V M h 3 2 4 3 x <.b.P.P.m.3.A.A.m.:.+.+.k.V.K._.uXwX).J.h.R w 2 > q a u : @ # , # 0 0 i f W ~ ~ ) G 4 = = w ` ].gXrXZ.m.k.1.z.^.K.W.E.R.R.!.=X=X X X X+X=X|.8.V b +.#.#.1.s.s.i.<.I R i.b.G.{ n z Z T { { { d.g.S./ z 2 2 3 l T J.tX/./.Z.1.l.M.O.V ,.0.,.,.m.Z.].a.' z y y s a 9 - # - u f ~ ~ W p p s s G H J ^ F z x I h.P.wXrXP.U.B.s.<.V U Z.P.3.1.V./.rXdXtXkXtXY.D./ C q 2 r e > - - - - - - : e s G ~ ~ ! A G ! ~ ~ G ! ~ ( ( A 4 ; r Y R P.dXgXpX%X|.M.r.e.E.r.r.2XHXZXpX3.:.U R R ` h.Y.H.D.} G 9 @       . - p !  .I.7XY.f.i.f.B.a.R L <.h.G.f.G.wXiXtX/.Q.8.,.8.m.v.} G < . . % Q Q W W Q Q Q W W W W W f a i i # @ + @ # 0 u u u 0 8 8 : ; w Z T J.tXwXtXtXP.k.k.V.Q.8.N.oX%XfXgXdX@X{ J w 2 q t G ~ f f i +     O % & + # # 0 y q z x L #.3.V.W.9.@.k.1.#.+.#.p.p.f.F.J.Y.h./ Z r 2 > e G (  . .( ! C C C H H t q 4 C C H ^ d.g.g.i.i.R v k +.p.m././._.Q.l.8.M.8.@.5.E.E.M.M.OXOXM.M.l./.yXyXtXJ.T q : - : , # + + + + + + # , 9 e a y z F g.U.eXiXQ.Z.M.8.w.w.,.V 3.k.k.B.K.).tXtXI.} C 2 ; - = X - - p s A A A A A C l r w l z z h n I 2.L.iXhXpXhXfX;X|.w.6.e.|.r.,.,.8.M.N.OXfXN.'.|.+XsXgXhXpXrXP.h.T z q q 8 < , , # @ . . . ",
"p u 9 9 : : 8 t z K | b.L.{.eXiXpX%X&X&XoXZ.N.A.q.3.3.4.:.4.3.q.v.C.].$XiXhXjXSXdXpX#XZ.m.3.>.:.P n k k h h x U k.P.#X/.N.Z.N.8.V 3.B.k.V.).rXrX).J.p.R z 2 2 q e e < - @ , 0 0 0 0 9 f ! ......~ 4 = ; z a.@XhX%XZ.m.8.1.k.^.^.W.R.E.R.E. X XE. XOX=X=XQ.1.N N U U #.p.h.h.i.<.U R i.n.h.a.` R ` a.f.f.f.f.f.f.L h 4 3 x L f.).rX/.W.M.k.9.0.O.o.5.8.8.8.V.Z.P.` I z y y t a e 9 9 9 a ~ ! ..[ H H H H T T T { F x k L <.B.@XrXrX@XK.B.s.:.:.m.oX3.1.B./.rXdXwXI.S.{ T F t e 2 e < < - - - : > 2 e t D H ^ ^ ^ ^ ^ } | | } [ [ ( ) r ; ; l Y R J.yXfX;X;X XN.N.e.E.r.w.+XZXsX%X3.:.<.<.i.d.S.Y.D. .! a 0 + O . + . . @ e ! D.7XY.B.p.p.h.h.i.U R R i.h.L.U.wXtX#X/.M.w.m.A.m.a.T e X . % i Q W ..............) ~ ~ f f a 9 0 , - - : , 0 9 9 0 8 8 > > w I Y.tXdXrX@XZ.M.k.k.M.N.Q.OX#XpXfX%XP.R F j w y z D K f s 9 # + @ % 0 0 @ : # : e > w x M U 1.k.W.l.7.p.1.#.+.#.#.p.f.z.S.S.h.d./ F z e e r G ( D.D.d./ Y Y Y H C r r r C Z T { g.g.f.<.<.L M U <.s././.OX(.M.l.M.0.@.9.M.E.E.E.!. X!.R.l.Q.-XyX#XJ.I w > : 8 9 9 0 i & $ + + @ # < e e t z F I a.P.$X&X|.N.w.w.m.3.+.:.1.k.k.K.).wXtXU.S.T z 3 4 > ; e a A ! ^ ^ ^ Y Y S x z x x M N <.s.Z.].&XpXsXsX+XE.e.e.E.E.y.r.6.6.e.E.|.E.E. X+X,XsXNXNXhX%XoXs.i.I z q > > > , , , # # @ @ @ ",
"p u 9 9 > : - : > y D T | b.{.eXpX%X%X%X&X|.Z.m.C.m.q.,.:.:.4.,.3.s.m.C.P.%XgXSXSXDXDXxX;XQ.M.m.<.<._ U P V v P k./.yX;X%XoXN.8.b V.%XZ.V.#XuX#XP.h.U l 2 ; 2 r r e : : > y t y e q t G } D.D. .( l 4 3 M s.&XpX+XN.m.8.1.k.^.^.W.!.!.E.R.R.E.E.=X;X;XOXm.+.B U P P R p.h.h.i.E R R i.h.g.a.g.b.B.B.J.B.B.B.p.<.x 3 3 c #.f.K.tXyX_.l.l.W.9.o.O.8.0.8.M.V././.V.I n z r r y t s f f s G ! [ D.H.h.s.a.2.2.` <.2.U N M M U 2.].iXdXtX@XP.P.v.:.q.Q.8.3.m.Q.yXpX/.a.T l w y y e e e e e < ; : < e r z F T / / R T / { d.h.S.g.} { ( H r ; 2 z R <.B.#XpX;X;XOXM.M.M.N.w.,.|.pX%X|.3.<.2.h.J.S.S.S. .! a , # + + O O O . . @ e ( D.Y.L.J.s.s.b.h.2.R M L f.J.J.Y.wX).OXQ.N.N.N.m.s./ r X o @ u f W .... . . ...! ! ! ! ! ! G f s a > : - : , 9 a a a t q - 2 i.wXdXdX@XV.V.V.k.8.0.E.E.OX;X<X;XZ.s.L n z j j x n F z t r e p f W f a # : : > q > w z v P +.j.x.l.k.p.1.1.+.P %.$.j.j.c.z.J.L.J.i.R z q 2 w F d.Y.U.Y.d./ R T Y Z Z Z F Y R / d.d.f.<.i.R N P U <.V./.OXOXQ.M.M.8.@.M.8.e.E.!.E.E.OX!.R.!.-X;X#XB.U h 2 > q s f f f a i $ + . @ - < 9 r C x x I a.P.%X&XQ.N.N.N.m.3.B o.1.k.x./.#XrXtXU.B.R F z w 2 z C H T T T T R P P N N U +.1.3.oX;XsXsX<X<X+X+XN.6.6.6.y.E.e.6.6.6.E..X X XE.E.<XsXZXZXsX&Xm.2.M n w q > : : : , , , , 1 1 # # ",
"p 9 e a e > - - > q y D F ' g.G.@X$X%X%X%X%X&XZ.Z.m.m.q.,.:.;.B v.v.v.v.m.Z.&X%XSXSXSXDXSXsXOXN.B.m.s.1.:.+.+.+.k./.yXuX;X+XZ.m.B Z.%X/.Z.%XfXyX/.p.x 3 2 2 4 l r r r r D K J J J K F T d.Y.Y.S.*.Z 3 h P m.+X;X+XN.8.8.>.k.^.^.R.!. X~.u.R.!.=X1X;X#XV.#.P U #.L P #.p.f.i.L x L R i.h.f.i.g.J.J.B.B.B.B.V.s.#.b h c P j.K.).tX#X_.l.l.W.7.V >.M.l.l.V././.V.s.M x x z z t C H J J J H J } G.[.@XoX/.Z.B.s.2.<.2.:.B V V _ A.%XjXjXrX%X%XC.,.,.A.w.w.A.N.%XpX$Xp.L w 2 q y e e e s s s a e a C F T { i.d.R E L E E R i.g.i.T H H z 2 2 h Y i.h.B.#X;X;X:X Xe.e.w.N.8.>.C.%XoXC.s.s.s.B.Y.Y.S.} ! f 9 # + + O O O O + @ @ > s H d.P.@XB.h.b.B.a.2.U U <.p.f.F.Y.)._.OXQ.Q.Q.V.B.i.C ; X @ , i a f ~ ! ..! ~ G C F T { } { T H F C r e e s f f f f t q q I L.dXjXyXZ.k.m.M.8.8.e.M.E.+X<XaX&Xw.B k x x x M M M M x L T ^  .H.D. .f > 8 > q t 2 w x L P E $.c.x.x.p.j.j.#.N %.$.j.$.p.j.K.).U.J.f.I w 2 2 x d.Y.wXU.F.i.*.*.E Y Z / { { / R R R i.<.p.#.N N P U 1.Q._.OXQ.M.M.l.0.9.0.8.M.E.M.E.!.~.R.*X:X;XOXB.U h 2 ; q C G G f W d u # @ @ - 1 > r C x z n ` s.$X#X%XoXZ.V.V.V.>.+.o.1.k.W./.#X#X@XU.B.R x w 2 w z F F L L I R U +.+.1.k.Q.OX;XaXxXZXzX2X.Xr.6.6.e.e.e.e.6.6.9.E.E.E. X X=X2X1X<X<X<X,XoX3.P m h w w q 8 8 8 8 u u u 5 < < , , ",
"s e e s s a > - 8 q e y y t K ' s.B.P.%XpXdXpX%XN.N.N.A.8.,.;.;.2.s.v.v.v.m.m.m.%X<XgXSXDXZXsX<XoXP.m.s.1.3.1.1.x./.#X-X#XoXZ.N.m.m.Z.Z.oX+XpXgX#Xs.k 2 2 r r 4 4 r Z ^ { { g.n.b.a.R U p.K.K.F.f.Y c c B m.OX=X.Xe.6.6.>.l.^.W.R.!.`.~.u.~.>XcXaXyX/.p.P S E =.E R *.i.*.L l 3 l L i.h.f.i.d.f.s.s.s.k.V.Z.k.+.b c b $.K._.9X_./._.V.l.l.@.V 8.E.M.M.W.(.W.k.$.v x v L Z x F ^ | } ` T R a.L.%X:X:X:X=X+X|.M.w.A.8.4.B V V 3.oXdXjXhXpX%XZ.,.3.w.w.N.N.N.OXpXyXK.` j w y y e e e s ~ ! ! ^ ^ ^ g.D.G.S.d.R L Z S S L Y Y F x r r 2 2 3 F i.B.P./.#X;X;X;X!.9.0.k.Z.s.:.m.&XoXP.m.B.B.L.Y.G.d.^ s a 0 # $ O * * * O $ # @ - : 2 x h.tX@XB.B.m.2.m.s.i.L P i.S.F.K./.(.(.E.E.Q.V.i.L r > : : 0 0 9 a s D D C x z x L i.f.h.d.{ R R R T ^ [ [ J G G y y ' L.rXdXjX$XB.8.m.8.,.6.M.M.!.;XzX1XQ.;.b h c v N +.+.+.+.3.k.B.U.iXkX0XI.J q q q z H l l S P P P %.j.c.x.j.k.k.$.O.O.@.j.$.$.$.c.^.).K.B.2.n 3 3 c #.K.).).F.f.f.f.=.R E d.d.d.R Y L L E i.p.R M N U N U V.Q./.Q.M.M.N.E.>.0.0.8.8.M.E.R.~.~.6XcX:XOXM.:.c 3 2 3 C H H G ~ W d 9 , - - 1 > e t z j m n I s.P.yXyX#XZ.Z./.Z.1.O.@.k.W.Q.Q.oX$X@XC.<.x 2 ; 2 w z n n I ` 2.1.3.m.Q.%XfXZXSXZXsX;XOX|.e.6.,.6.8.e.w.8.8.M.N.|. X XOX=XaXZXSX<X&XN.3.:.V k w w w y y t t s s d f d d d a a a ",
"G e < a G G e > : > > > > q y D I U s.P.rXpXpXpX$XoXZ.N.w.w.w.w.:.<.3.3.3.3.3.3.w.|.pXsXsXsXZXHX,X%XoXm.k.k.k.j.l.W._.#X_./.Z.Z.].v.3.C.oX|.%XgX%XB.M 6 6 l l 4 3 l Y i.h.s.b.C.].Z.3.+.1.V./.^.F.p.P b o.e. XXX Xe.0.5.>.j.^.T.R.~.~.~.~.XXbXxXuX#Xz.%.S S E E E *.f.f./ x 6 3 3 l R f.d.{ { i.<.:.1.3.V.Z.k.+.b N +.k._.yXyX_.^./.W.l.1.o.>.M.M.M.W.(.^.l.$.%.N v L E L L I i.b.s.a.<.2.m.oX;X5X5X5X5X5X>X X XE.N.r.,.] V 4.A.rXjXBXhXpX'.w.r.6.6.N.|.A.N.=XaXrXB.` n z t e e e s ~ [ D.H.H.H.I.I.I.G.d.T Y Y R Y L Z z r w w w 2 w n i.J.U.tX#XyXyX;X:XE.5.>.k.Z.s.:.m.oXoXP.B.L.L.J.G.g.T C e 0 # # $ O * * O O O + + @ - ; 3 U K.P.Z.B.m.s.B.Z.s.P L *.f.f.z.K./.E.E.!.E.N.s.R F s e 8 : : : : 8 y C F L M N U <.s.B.J.z.h.z.z.h.h.d.| J K K t D G.iXdXrXrXoXV.m.8.>.;.5.e.E. X1XzX=X8.V k c v +.1.k.l.M.R.(.-XyXfXjXjXtXI.| D z z T { x x v P %.%.%.-.c.c.j.k.l.7.@.O.@.&.&.@.$.j.x.K.K.V.m.:.V c b +.z.^._.K.F.F.F.f.p.i.d.d.R L x x v L <.p.U k M P N N 8.M.Q.Q.M.M.W.Q.>.0.0.>.6.E.E.R.~.`.6XcX:XOXV.1.N h 3 6 Z Y Y ^ ..! ~ d p < < < > 2 y z j j j j P s.#XdXyX/.Z.Q._.8.o.>.9.M.E.E./.].P.B.` j 2 ; > q z m K ' { v.Z.oX%XpXgXSXFXFXZX<XN.w.w.w.e.N.,.,.;.,.N.Q.oX/.oX&X;XpXfXgXgXsX+XC.4.V b k h 3 2 w t D K G G G ~ ~ d f f G ~ ~ ",
"H e > e G G s e - : > > > 8 q y j k N <.B.P.$X#X%X%XOX|.Q.N.N.N.2.2.3.2.4.4.3.3.3.A.|.OXOX+XsXHXsXhXpX$X/.W.x.1.j.x./.#X#XoXZ.Z.'.q.3.C.|.N.Q.<XyX/.<.x z Z C 3 3 6 S *.p.s.s.m.Z.N.7.o.7.W.-X_._.K.p.%.o.9. XXX Xu.0.0.&.0.W.T.~.~.~.R.!.>X:XaX#X^.p.P S E S 6 S *.S.f.^ x h l 6 l Y d.d.R / <.:.,.1.8.V.Q.k.+.%.@.l.^.-XuXyX-X^.W.V.k.%.>.M.M.l.M.(._.^.-.%.%.P P P #.R L U i.b.s.2.3.3.N.+X<X5X5X5X5X5X5X1X=X+X+X.X|.r.,.q.A.$XjXBXgXhX&XN.'.r.,.r. XN.w.|.<XgX@Xn.` T D C s e t C ^ D.H.I.Y.I.H.D.{ ^ ^ d.S.U.Y.d.Y C y t z z z I h.U.@XrXfXuXuX;X-X;XW.5.1.k.P.s.<.v.].oX].K.[.U.b.i.R Z q 9 0 # + O O O O O O O O + @ - > 2 c U k.P./.Z.m.3.k.z.i.R E *.=.j.c.V.E.~. X XQ.B.p.{ T D y 8 8 : : 8 z T a.s.1.1.+.+.1.x.^.^.K.^.^.K.h.` T K K J ' a.{.iXhX%XZ.N.N.w.,.,.,.6.e..X=X1X1XE.;.V V +.3.l.W.(.`.*X>X6XbXbXaXfXfXtX).b.K F K i.h.S l c S %.%.%.=.c.c.j.l.l.7.@.O.O.@.&.&.&.-.j.x.^./.Z.m.:.V N +.k.^._.^.^.^.F.c.c.F.i.R L x l x x v R p.R k k M V B +.8.W./.W.M.N.E.8.8.6.8.e.M.E. XXX`.>X6X>X*XE.7.%.c 3 6 S R / } D...! f p p e e e y t z j j w j k U V.yXjXrX/.V./.8.>.8.M.M.R.!.oXP.B.a.I m w w q g K ' | n.L.{.pXhXgXgXSXZXgXgX%X|.A.w.q.,.w.A.3.3.3.m.Z.oX@X$X$XpXgXgXdXrXoXm.q.4.V k h h h w w j D K J J G f s s p p s G ! ! ",
"J y ; 2 C G C a - : 8 8 8 8 q y q 3 h x E p.B.K.$X#X%X;X%X|.N.w.Z.N.m.3.:.:.3.3.m.m.3.8.N.+X<XsXZXSXSXhX;X/.k.%.$.l._.yXyXoXZ.Z.m.v.m.'.|.A.M.|.pX%XB.U M L L Z 6 3 l E i.i.<.1.k.k.7.@.7.^.-X-XuXwXx.+.o.9. XXX Xe.9.0.&.j.W.T.~.R.R.R.`.>X:X-X/.z.#.S E ^ Z 4 Z / S.S.R z l x x S L R R E E R <.3.3.m.N.Q.k.@.5.l.^.-XyXyXyX_.^.l.V.7.O.8.Q.l.l.V.(.-XW.@.N N %.N P #.#.P U <.s.2.1.,.w.Z.+X2X6X6X6X6X6X6X5X5X=X2X2X1X3X'.'.|.%XgXSXxXgX<X.X.Xr.t.e. XE.6.N.+XgXrXP.v.i.T J K y y y A ( S.S.S.g.| ^ C Z ^ Y.tXkXtXY.{ F z D F I R s.@XrXdXhXSXfXfX-X-X;XW.5.7.k.P.k.<.s.P.P.P.P.[.I.G./ H r > 9 0 # + O O & & & $ O + # # , > 2 4 h R K.@XP.Z.:.:.s.z.p.L L #.p.j.l.R.!.*XOX(.Z.B.p.i.T D y y 8 8 y T G.U./.Z.k.>.%.+.k.K.U.K.).).J.i.L z m F ` b.[.$XrXpX%XN.m.m.8.>.,.8.M.y.XX=X=XOXe.;.;.8.W./.#X-X-X>X:XaX:XbXaX:XyXyX#X@XL.R I R f.S.S c c v E E %.#.=.c.j.j.j.7.@.O.O.O.7.7.$.$.7.k./.#XOXQ.8.+.o.@.l./._._.^.^.z.f.c.F.f.R M k h k x x P p.<.x k x M U B 3.Q.OX/.M.M.N.E.5.5.E.E.M.E.>X>X XXX>X>X>X!.7.%.b 6 6 v R i.d.I.D.( G a p d a s C D D j w j j k b 1.rXjXfX/.k.x.7.7.l.M.l.E.OX#XP.h.<.I n n m K ' a.n.L.].iXVXBXSXSXSXgXpX&X|.w.A.N.Z.A.:.;.;.m.Z.%X&XZ.C.oXiXdXjXBXhXrX].s.I k j j w 3 3 w h n F T ' [ K s a 2 > ; > 2 s H ^ ",
"^ F 2 ; y J J D q q q e e 8 e a < < > < r H ^ } b.K.#XyXyX;X*X Xr.N.|.N.w.1.U P 1.m.B.m.3.,.r..X<XaXxXxXxX:XOXQ.k.8.M.Q.;X%X|.m.).z.s.V.Z.m.m.oX;X;X+X8.+.B V c 6 3 3 Z L Z x U E P $.j.c.k.x.K.@XrX/.,.;.6. XXX!.T.l.j.$.c.^.W.R.T.R.!.-X:XyX#X/.f.E L E Y l 4 r H S.7XY.i.L U R R p.h.R L x h k :.Z.oX/.M.9.9.0.!.:X:X;X;X#XZ.V.V.k.+.@.8.M.9.9.R.(.W.7.O.N b N +.>.:.+.>.1.:.l.8.8.8.8.Q.<X;X1X>X~.y.y.XX3X3X3X5X5X2X3X=X=X2X:X>X1XcXxX5X>XXX Xe.;.t.e.E.|.Q.;X%X%XoXB.s.<.R L Z l 3 3 C ^ / H z w r F g.U.wXdXwXJ.i.R P U U m.C.$XrXrXrXgXDXgXgX;XOXOXE.5.5.8.E.8.>.m.&X&XoXwXU.G.^ A r r p u % $ $ i i i i i i 0 & & # + @ - < e r T Y.tX@XK.s.1.k.B.p.P v N $.l.l.R.OX;X#X/.K.K.K.B.p.U n t t F { b.P.).rX_./.f.L Z T g.g.g.[ F z j n U <.1./.fXuXuXaX-XM.W.8.>.,.8.M.N.Q.=X+XOXE.N.M.N.Q.-X;XuXaXaXuXyX-X^./.W.Z./.yXpXyXZ.1.M E z.f.L v c b V +.+.%.#.p.z.j.p.p.j.j.#.N N k.j.+.j.z.z./.OX(.W.0.O.&.9.W.*XW.k.7.#.E U <.L P N k j k x x i.i.i.E z h Z *.R <.s.V./.Z.m.3.e.M.>.7.W.M.9.*X*X*X*X*X*X*XV.>.B b c c v #.p.p.U.Y.{ H A ( }  .( } ( Z l z v k b +.m.OXyX;XQ.j.k.j.7.7.x._._.^.9X^.F.p.R U _ 2.v.'.'.'.,XNXNXZXZXZXZXaX+XQ.N.N.Q.M.,.,.:.,.M.E.E.Q. XOXOX;XfXjXSXjXiX{.b.` I F y q q 2 2 w k M P P R ` I m y y r w 2 ; ; 2 l T ",
"{ F 2 ; 2 F T K q > 8 a f g g f , , , < p A G H { f.K.@X#X-X;X=X.X.X.XE.N.N.m.s.1.<.:.:.3.w.r.e. X*X;X:X1X:X;X;XE.Q.Q.|.+X+X&XZ./.z.j.V.Z.m.M.Q.+X;X+Xw.;.o.B N l 3 3 l z l l x P %.-.j.p.f.h.z.K./.V.,.O.t.~. X!.T.c.-.$.c.^.W.T.T.T.!.-XuX-X_.z.i.E L E Y l 2 4 D D.0XtXL.B.b.B.K.rX@X` x x x j I m.$X#XE.T.u.R.*X>X;X;X%XoXm.m.k.1.>.7.l.M.9.R.R.E.9.@.N B N B 3.N.m.8.8.7.7.8.7.k.m.k.oX;X%X=X!.e.e.y. X.X.XXX.X.X.XXX=X2X1X6X>X>X>X>X>XXX>X>X.Xy.r.E.|.Q.M.;X<XpX%X/.m.k.s.p.R Z 6 3 3 6 l w 3 2 3 Z i.U.tXtX).K.p.+.+.3.M.N.&XpXpXpXhXgXgX%XpX;XOXOXM.5.0.9.R.8.,.M.+X+XoX@XL.g.^ A d p p u i 0 0 u i i 0 0 0 & & & & & # , < < < C } Y.U.U.B.s.s.k.1.+.+.%.o.@.8.V.W._.-X-X/.K.V.V.k.1.U F D K a.P.@XwXtXuX).h.S l r A G s t y w j M #.3.l.(.aXcXuX-X_.^.8.1.>.8.k.M.|.;XaX;XOXQ.M.E. X=X:X;X-XOX#X#XyXyX/.^.k.1.k./.yXpXZ.k.+.#.h.p.P P b V N B N M E *.j.j.z.z.j.1.#.P +.p.1.$.1.j.k.W.Q.!.!.R.9.0.u.!.!.R.k.3.#.P L U m I U N n x n x L d.h.*.Z l Z Y E R s.B.oXoXZ.8.M.e.8.7.l.l.M.(. X*X*X*X;X-XQ.7.o.b c c N 1.z.V.).K.i.R / D.8X8XS.D.( Z x S v v V :.V.OX%X#XW.k.l.j.7.c.W._._._._.9X).K.k.2.3.q.'.&X,XmXNXAXHXHXAXsX+X|. X X|.E.M.w.8.8.8.M.Q.|. X X*X;XaXxXgXgXrX$XL.g.' F z y 8 > : 2 w x P #.#.+.#.<.U n j z Z l w 3 2 2 l Z ",
"` n 3 2 w F T T t q > e s G K ~ p 5 1 - 1 2 r r F I i.B.Z./.#X;X=X+X.X|.|.oX/.P.s.:.B B :.,.w.w.0.M.(.;XaXaXaX;X;X+XOXOX+X+XOX&XZ.k.k.M.Z.V.N.E.+X<X;XN.1.>.1.<.E c 3 h l w w h S =.c.j.$.p.p.i.p.s.8.;.;.6.E.~.!.l.c.-.%.c.^.W.T.u.T.!.-X-X_.^.#.R L L Y Z l 2 r F g.eXkXkXkXdXdXdXjXrX<.x F n j M s.rXyX!.T.R.*X>X>X:X;XoXN.m.k.1.>.3.l.M.M.R.*X!.9.@.N N +.:.3.Z.+X+XQ.M.l.8.7.7.M.V.M.oX;X%X%XN.3.w.N.A.r.r.6.6.8.A.|.+X+XOX;XOXOXOX X X=X2X5X2X=X+X=X+X|.N.+X1XgXaX#XP.Z.P./.B.#.Z 6 3 3 3 l h w h z E f.J.)./.V.3.$.3.W.#X%XhXgXhXpXpX,XoXoX%X;X-XOXl.5.9.9.E.8.,.N.+X#XoXP.b./ H A d p 5 i i i i u i , # & # # & 0 i i u u , - : e C { J.U.K.B.m.s.<.1.3.@.O.%.1.j.k.W.yXfXrXP.V.V.K.z.h.{ ' T h.@XtXrX#X).V.i.L z w 4 e : > w j n R m./._.-XbXxXaX^.W.(.7.>.3.8.m.N.+XaXsX<X+XE.E.E.OX;X;XOX(.Q.Z.Z././.^.x.1.U 1.P.;XpX/.V.1.<.f.i.E #.+.o.o.B N v S %.$.j.x.x.j.$.$.$.$.%.$.1.+.$.c.l.l.E.*X`.~.R.R.!.!.W.k.3.#.P M M k U 2.<.U N L L L d.Y.*.x 3 l z L U #.s./.oXZ.m.M.8.l.8.>.8.W.W.E.!.!.*X;X-XQ.k.+.b b b +.z./.@X@XK.f.i.S.7XqX0X8XD.! x z L P N B 8.Q.+XOX(.W.l.l.7.7.c.^.^._.-X^._.^.W.N.M.'.'.,XmXNXAXAXHXAXAXsX;XQ.N.Q.Q.Q.N.8.8.8.M.N.Q.|.OX=X*X:XcXxXxXpX$XB.h.` F z y q q : - - 2 Z R <.<.<.#.<.<.R F n F L Z Z Z z l l z ",
"R I n n I T T K F t q q y f J ..~ d < X X = > 4 w z F E i.B.K.oX<X=X+X+X+X&XQ.N.N.m.3.:.V B ,.N.8.M.Q.OX;X;X<XpXaXpX<X+XOX|.|.&XV.M.k.M.Q.|.Q.Q.+XpXpXoXk.3.3.s.p.E x z x z x x %.c.x.j.p.z.s.R M V N O.t.y.~.~.~.l.c.-.%.j.^.x.T.u.T.!.*X(.W.c.%.P L L S Z l 3 F T d.[.kXSXJXJXJXjXdX@Xp.R R L n U P.gXuXR.l.`.6X>X>X:X;X|.m.8.:.+.>.k.M.9.M.!.:X!.5.N b N 1.m./.#X;X;XOXQ.M.8.7.8.N.N.N.oXpXrXrXC.3.q.3.4.;.,.4.,.3.m.Z.C.B.s.Z.Q.OX%X=XOX+X=X<X=X+X;X<XyX%XoXOX;XaXaX;X#XOXoX/.V.z.<.R P P L L L L L v L #.p.V.x.k.k.k.V.#XaXfXgXgXhX,X'.C.C.oX%X%XOX(.l.5.9.9.E.9.,.E.%X#X].b.` F C r p 5 < u i i u 0 # # @ # # # # 0 u u u u - - : 2 2 F b.P.P.P.B.s.<.1.k.3.%.B B +.1.V.#XdX#XP.V.P.).).U.G.{ ` a.P.#X#X/.p.#.E E L w 2 y 2 w F I 2.s./.%XyXaXcXaX-X!.W.Q.8.8.8.M.N.|.;XsX;X;X+X+X|.Q.N.Z.N.V.N.V.B.k.p.1.1.#.P +.k./.#X%XOX/.s.<.h.f.#.<.1.+.o.+.+.U P E +.1.k.x.k.k.7.j.+.b %.j.+.+.j.7.8.W.-X-X(.W.W.!.(.Q.x.3.U M x k I 2.C.B.p.2.<.<.i.U.U.R 3 3 l l P L L <.B.P.Q.N.M.8.N.0.O.7.!.l.E.R.!. XOXOXQ.M.%.b b +.s.P.wXyX).J.i.i.F.7XqX0XH.( Z l x E #.+.>.M.+XOXOXQ.V.M.l.7.7.W.^.W.^.-X(.R.9.6.e..X3X2X2XmXAXAXNXNX2X+XoX+XOXQ.m.8.k.m.1.3.m.N./.oXOXOXaXaXaXaXaX%XZ.s.R I F z y q 2 > - : 2 C T i.<.#.#.#.<.i.2.T I T Y Y Y T Y Z Z Z ",
"U :.s.B.B.a.I n n m z t t t J | ..~ p ; - - ; 2 2 2 w z F ` h.J.@X%XpXpX;XOX|.N.Q.Q.N.w.>.:.3.8.Q.V.k.k.m./.;XfXsXsXpX<X+X&X|.&XM.N.e.w.M. X XN.OX<XaX#XV.k.k.z.F.=.L L L I E E f.K.^.x.x.K.s.P c c b o.e..XXX~.R.l.c.$.%.j.K.x.T.u.~.~.(.W.j.%.#.E P S Z z C C ^ d.Y.tXjXJXDXSXDXjXjXdXP.B.h.i.<.B.dXvX#X7.l.:XbX>X>X:X;XQ.m.3.B +.1.M.M.8.E.*X;XE.@.O.N :.V.#XhXpX;X%X;X#XQ.8.8.8.N.V.N.&XhXpXiX{.v.2.I j m ' v.n.b.b.h.d.i.i.b.B.P.$X&X|.|.&XoXoXoX&X%XrXrX%X-X;X;XuXuX;X#XOXW.Q./.P.P.K.V.B.p.p.p.i.#.+.+.1.3.1.7.9.W.-X:XaXgXpXrXpX&Xq.q.].&X%X+X(.(.l.7.9.9.E.9.5.Q.;X&XK.#.L Z r 4 p < < p p u < : @ @ @ # @ @ : , 9 a a p @ @ > > > z h.B.P.].Z.s.<.2.2.k.k.+.b b +.B.P./.K.B.B.U.wXrXeX[.b.` _ k.Z.Z.k.%.N v M x j z F I ` a.b.B.Z.oX;XaXxXaXOX!.OXQ.8.A.r.A.N.&X<XsXsX+X+X+X|.|.A.w.8.,.3.k.k.s.<.U P k k k B s.Z./.oX#XoXk.<.z.z.p.1.1.+.:.8.V.B.p.#.+.O.>.7.l.l.l.k.o.b O.7.$.@.j.$.k.V._.*X(.Q.W.W._.(.V.1.L c h h <.B.@X@XP.P.U.U.tXkX7XL ; 4 l Z R U M P 1.V.Q.Q.N.e.E.8.O.5.W.9.M.M.E.!.OX!.V.l.+.B +.k.P.@XtXdXP.z.#.R d.S.Y.Y.( A 3 h S #.p.1.8.E.=XOXE.E.M.M.9.7.l.W.(.W.(.-XXXy.t.t.y.3X2XmX2XmXmX2X<X+X.X|.Z././.Z.k.3.k.m.k.m.V./.#X%XyXyXxXxXaX;X/.k.U L z z l r r 2 > 1 - e G ^ { i.R U U #.p.b.h.` T T Y Y ^ / ^ Y H Y ",
":.3.Z.oXP.a.I n n K I T F D K [ } ( ! A s e 2 ; ; ; > 2 r Z ^ d.p.Z.#XpX<X+X.X.X.XN.N.Q.|.N.3.+.3.3.s.k.B.Z.Z.oX<XpXpXpX2X<X,X+XN.|.E.w.w.|.|.M.OX;XpXyX/.z.z.z.z.f.#.E R ` i.p.F.^.^.^.K.V.<.M h c V ,. X3XXX~.R.l.c.$.%.j.^.x.T.T.~.!.(.W.@.N %.R P S z z Y ^ H.0XkXBXJXJXjXrXrXjXLXKXjXwXwX@X@XrXjXfXW.>.R.bX:X>X;X*XOXQ.8.>.B :.8.M.M.M.!.;X!.9.>.>.k.V.#XgXSXgX;X%XuXaXOXM.l.8.M.N.N.%XfXpXeX{.n.' m w m ` ' ` ` T T ^ D.H.h.s.v.b.B.m.m.C.Z.C.C.Z.P./.).).OX(.(.*X;X;X-XOXOX;XyXaXfXaXuXyXrXrXwX/.V.j.1.+.>.@.7.R.-XbXcXcXfX%XoX$X'.q.v.oXoX+XoX(.OXM.5.9.M.E.9.5.Q.;XoXB.M n z r 4 < < 5 d p 5 < : : : > : : : : 9 p s s p - - > 2 > z a.b.L.].Z.B.s.s.2.k.m.1.V b +.s.s.s.s.h.B.P.@XeXiXeXP.s.:.<.k.k.1.B b b b M E a.b.[.[.$X$X$X&X;X<XzXxX1XQ.E.OXE.,.r.r.N.|.;XsXZXsX<X+X'.w.q.,.,.3.4.4.<.:.U U U U N k c V 2.Z.oX+X+XoXk.1.z.J.f.1.3.:.3.Q.yXrXP.k.>.O.O.;.0.l.8.7.@.N O.@.$.1.j.$.7.l.W.(.(.Q.W.W.W././.p.L h l l i.B.$XiXiXkXjXjXjXkXJ.l ; ; l Z i.R L N #.k.Z.oXQ.E.E.9.>.7.l.9.M.e.E.!.OXQ.N.M.1.@.3.Z.@X@X#XyXB.p.#.R R R ^ ^ Z 3 3 l P i.s.k.N. X;X+XE.M.M.9.7.9.M.W.E.!.OX*X4Xy.t.y.3X5XMX3X2X2X2X+X+X+X&XZ./.B.s.s.k.V.Z.Z.V.Z.oX%XpXhXgXgXfXpX#XV.<.N x x 3 2 q e 4 < > 1 > s ^ d.g.d.i.R R <.b.P.L.g.{ { / { d.d.^ H Y ^ ",
"|.oX&X&XC.3.:.2.s.a.i.` I F F T } } } [ ( H s e 2 > > : > e s G Y #.z.P.&X;X<X=X.X.XE.|.+XoXB.<.U <.s.B.Z.C.m.v.oX&X,XpXsXsXsX2X X2X=Xr.,.E.|.w.Q.OXyXuXtX^.F.z.c.c.p.#.R 2.f.z.K.^._.(.x.$.M k c V 1.E. XXX X!.~.l.c.-.%.j.K.x.T.T.~.`.*XW.$.N N P P L z Z / g.I.eXjXjXjXdX@XB.B.yXKXPXLXSXSXBXjXjXyX/.8.5.!.bX;X:X-XE.l.8.8.>.<.3.k.k.M.!.*X;XE.M.N.|.#X#XpXSXgXhX;X;XaXfX;XQ.l.8.M.Q./.yXgXrX].L.n.' m m I ` I I F F H ( D.D.| ' T ' ` a.s.b.v.B.B.B.B.z.z.z.l.l.M.W.!.(.(.(.;X;XaXgXxXxXxXxXvXvXvXxXfX#XQ.l.M.R.~.*X:XbXbXbXpX%X].B.m.m.m.v.m./.OX#XOXl.5.9.R.!.l.7.Q.#XQ.k.k x F l 4 > p d d p 9 < e e e e q q 2 q t C G G s > : q q q F a.b.C.L.C.C.P.C.v.2.2.1.:.U U U U <.a.h.b.J.L.wXeXiXrXP.s.<.1.1.+.+.$.1.p.B.@XrXiXhXhXdXhXpXaXaXsXzX1X=XE.A.N.w.,.w.N.|..X<XsXsXpX+X|.q.;.] ;.4.4.3.4.:.U U ` i.p.p.P k N 2.m.oX%XoX+XV.p.z.z.p.1.8.8.Z.<XxXfXrX/.E.0.t.t.5.9.5.5.5.7.o.N $.7.$.1.1.7.M./._._./.V.V.#XtXK.R F Z F a.K.rXjXjXJXJXJXjXwXi.h 4 4 h z R L L M U 1.V.Q.Q.Q.M.e.M.0.5.9.M.e.E.!.OXQ.V.V.l.7.k.Z.P.V.V.P.p.<.<.<.E Z l l 3 4 3 Z <.h.z.V.E. X=XOXE.E.e.8.>.M.E.E.E.OX*XXX.X4X.X3XMXMX5X3X3X2X=X+XoXQ.N.m.B.m.s.s.B.P.oXoX$X%XrXhXgXhXhXhXP.B.<.P x k x z w r r r r p p 4 s D ^ g.S.S.i.#.#.p.B.@X@XL.G.G.Y.7X7XG./ Z Y { ",
"DXZXpX+XC.m.C.$XiX].h.` L n F Y } } } } } ( ! G s a e ; - - : < Z Z E s.Z.%X<X2X<X=X+X|.V.V.V.P.B.s.<.<.<.s.C.'.A.C.|.,XhXNXNXNX<XAX1Xr.6.E.|.r.E.OX;XuXuX).K.F.c.k.z.<.<.<.h.V.x.^._._.k.N h k x +.Z.+XXX X~. X!.T.c.-.%.j.^.W.T.R.!.*X*XW.7.N b M P L Z F } G.H.0XeX[.P.B.p.+.k.Z.jXKXLXKXIXLXJXjXoXs.1.l.(.>X;X:X*X9.>.>.7.:.k.k.k.8.V.;X:X;X XQ.OXpXdXrXpXgXrX%X%X;XaXfX;X(.k.8.M.Q.OXhXfX%XC.C.s._ I _ s.b.s.a.i.{ { / Y F F m m T { g.a.v.a.n.B.B.h.f.f.p.%.@.7.9.l.M.E.(.(.OXOX;XaXzXxXxXvXvXSXFXFXFXvXcX-X;X:XbX6X6X6X:XyXpX].4.2.C.v.V :.V.#X-XOXl.&.l.R.!.l.7.Q.OXZ.s.h x Y C 4 ; r ~ G d e e s C s t t y y r C H ! ^ ~ a > q y t T b.b.C.C.C.].@X[.C.<.+.<.k.s.P M P ` i.b.b.h.b.U.eXdXhXrXZ.3.1.@.+.V.OXuXpXfXvXjXdXgXhXpXpX<XaX1X1XzX=X X|.A.,.,.,.w.|.+X+X+X<X<X,X|.r.4.V V V ] ] 4.2.2.<.2.a.h.b.B.<.M I <.m.Z.|.|.%X/.k.s.f.<.1.m.N.+XgXSXgXuXyX=X~.e.6.5.6.5.5.9.T.@.b @.7.$.j.@.1.k./.#X#X/.V.x.rXjXtXh.R / { h.P.iXjXJXJXJXJXjXU.{ F z l l z S S v v N :.k.N.OXOXe.e.!.9.O.R.M.9.E.OXOX!.Q.Q.V.k.3.z.z.1.1.k.<.<.p.s.R c 3 3 3 4 6 P s.B.V.Z.Q. X=XOX!.E.e.6.@.M.!.E.R.*X;X XXX3X6XMXMXMX5X2X=X;X;XoXZ.B.s.+.:.v.P.].C.C.'.&XrXpXgXgXgXpX%X&X<.I j h h j z z C C C A d A A A ! H ^ d.S.G.d.*.#.i.J.wXeXeXeXeXkXkXkX0X{ F Y d.",
"DXNX,XoXoX&X%XiXrXeX@XL.a.I F F T T T { } } ^ H ~ ~ G a < - - - 2 w z L U q.'.&X+X+X<X<X%X#X/.K.L.B.s.2.2.2.v.v.q.m.C.'.&X,XsXNX2XZXsX.X.X3X+XE.E.OX;XuXfXuX_.x.c.x.k.1.R _ s.B.z._.uX_.p.v x M <.V.%X;X X X X!.!.l.c.$.%.j.K.l.u.u.~.*X-X(.7.%.P P P L L T g.I.I.0X0XL.2.k k b 1./.dXdXfXSXjXdXrXP.<.+.m.OX;X*X*X;X*Xe.>.>.>.:.k.V.8.k.;XaX;XaXOX;XaXsXpX%XoXoXZ.Z.oX%XaXaX;XOXW.7.V.OXoXgXSXZ.m.C.m.:.B 3.m.B.B.B.B.J.S.f./ Y F J ' [ { ` ' I I ` h.b.h.g.f.h.k.7.1.@.@.>.8.k.M.M.N.|.+X<X<X<XdXfXvXvXvXvXvXxXvXcXcXbX6X:X>X*X%XoXP.P.C.s._ V 2.V.%XuX#Xl.7.j.W.(.R.8.Q.OXZ.s.L M x z r r A ) ) f a G ! ! H F z z r z H } D.} ! s q q t F ` h.L.B.v.v.L.$XeX$XZ.:.P s.B.<.L N ` 2.i.a.a.a.b.J.%XrXdXdXyX@X/.Z.yXuXfXjXvXjXfXpXpXsXgXgXsX1X1X1XzX XE..XN.;.;.A.r..X+X1XsX+X'.w.;._ ] ] _ ] 4.4.2.n.v.a.a.h.h.h.b.R P U U s.Z.Z.|.+XQ.m.k.1.<.k.m.&X<XsXsXgXdX#X1X1X=X Xe.6.6.0.l.7.@.%.N O.$.k.1.1.3.l.#XuX#Xl.j.@XjXjXkXwXI.G.wXjXBXjXdXtXtXkXtXtXU.h.d.R L L Z x L R P V :.N.OX XE.M.e.e.9.5.9.9.M.E.OXOXOXQ./.k.+.%.U +.+.#.#.s.B.z.<.x w 4 h 3 M p.B.V./.Z.OX!.!.!.!.R.8.;.;.R.!.M.M.OX=X.X3X3X5X2XXX.XXX;XOXOX/.V.z.s.z.B.3.q.A.'.'.'.&X,XsXhXhX<X&X'.q.4.n x j w w w z Z H H ! ) H G A A C T d.D.S.S.S.h.Y R h.wXjXBXJXJXCXCXkXG.T E h.Y.",
",X%X&XoX%XrXiXpX[.@XwX[.J.i.L x x Z L T { { } } } } ! ~ d < , - = ; 3 l x I 4.q.oX+X<XhXhXrX@XP.P.C.C.C.v.2._ ] C.m.q.3.w.'.+X<X&X1XZX1XsXZX1X|.E.OX;XuXuXuX_.V.^.W.V.s.<.:.1.k.x._.uX_.j.M x N J.).;X=XXXXXXX X~.l.c.$.%.j.x.l.u.u.~.*X*X!.7.o.+.U E L E d.Y.0X0X[.L.p.x 3 3 h N B.#X/.B.k.s.s.<.+.U :.V.;XaX;X;X!.R.M.8.>.>.1.V.Z.V./.uXcXaXcXaXaXpX%XoXC.C.m.m.m.V./.#X;X;XOX/.8.V.OXOXgXSXZ.8.N.8.o.B ,.N.N././././.K.F.h.f.d.| | ` I K K I n I ` i.f.G.Y.U.V.k.7.@.+.o.+.+.8.8.3.8.A.N.Z.Z.@X#X%XyXyXyXaXfXaXcXcXxXcXbX>X!.Q.oX@XoXv.B V V m.P.%XyX#Xl.0.j.W.(.R.7.Q.#X/.k.U L z l r r A ! G A G ^ } { T T Z Z x Z ^ S.S.D.[ G e q z F { n.B.v.s.s.C.[.eXeX].s.<.<.s.<.U ` U I I R i.h.b.B.P.%XgXDXDXvXfXdXfXfXgXfXdXpXrX%XsXsXsXgXzXzX1X2X=XE.r..XN.,.3.'.N..X=X2X=XQ.6.;.V V ] 4.v.v.A.C.v.b.b.b.b.L.Y.J.h.U N M V :.m.N.+X<X+XV.B.p.1.m.N.+XsXzXfX%X/.Z.1X5XzX1X=XE.R.M.5.>.@.%.N b %.1.3.3.3.k./.-X-X/.V.K.tXJXLXJXlXlXLXLXJXiXU.R L R eXdXkXtXU.d.R R Y L E R P V +.m.Q.E.E.M.M.e.9.5.9.9.M.E.Q.(.OX(.#Xk.B b b V P +.3.k.B.B.p.P k w h h P z.V.P././.(. X!.!.E.e.6.;.,.R. XE.E. X=X2X3X2X5X=X XR.N.W.#X/.V.f.p.p.z.B.'.'.'.'.'.&X<XNXZXNX<X].q.] k j j w w w w t C C } } ( ( ( ) ~ H } g.S.Y.I.I.S.d.R R h.eXJXLXIXIXLXCX0X` L i.I.tX",
"B.B.B.C.B.B.v.s.a.s.B.L.J.a.I x L I I I T Y T ^ } } ..! ~ d 5 - = = ; > 2 w n M 2.A.oXrXpXpX%XoX].'.].].C.v.3.4.:.:.:.3.m.C.'.'.Z.%XsXsXAXHXAX<X X=X;X:XuXuX#XW.l.l.l.k.1.<.<.1.1.V.-X(.j.+.<.p.tXrX;XOX XXXXX X~.l.c.$.%.j.K.l.u.u.~.`.*X!.l.@.1.<.#.E R i.Y.0X0XY.h.U h 3 h b k.oXuXyX#XZ.<.N h b +.k.OXaXaX1X;XM.>.e.R.5.>.8.k.m./.;X;XaXcXaXaX<X%X&XC.v.v.q.3.3.m.N.OX-X;XuXOXM.V.OXOXgXxXZ.8.e.8.o.V ,.N. X;X;X;X#X#X/.K.K.Y.L.G.} I L U <.2.<.R R E R i.i.z.k.p.3.1.s.k.m.3.2.<.<.2.s.v.s.B.J.K.K.P.P.@X#XaXyX;X;X-X*X*XOX3.B.P.Z.:.M U s.P./.#XyX_.x.0.0.W.(.T.7.W.#X/.V.<.L x l l A A ! G G !  .D.g.| i.F L L R h.U.7XY.} H r w z I i.b.B.s.2.2.s.B.].@X@XP.B.1.<.<.i.a.I M n I { h.b.b.B.P.rXdXjXjXjXdXjXjXfXpX%X%X%X%X&X|.|.&X1XzX1X1X.XE.E.E.A.q.w.N.E.+X1X1X=XQ.w.,.] ;.4.4.s.v.v.v.L.I.{.I.[.wXwX[.J.<.U N V :.N.|.+X=XOXV.k.p.1.m.Q.=XZXZX<XZ.m.m. X<XzXZX1X=X!.Q.7.7.7.1.%.N %.$.k.k.7.8.V.(.-X#X/.j.z.jXUXUXPXPXLXLXjXwXh.M h L i.L.tXwXJ.R L L E L L P M b V :.e.E.!.E.R.e.0.9.0.9.e.R.E.Q.OXOX-XV.B b c k P #.k.k.B.V.z.<.N k k k <.K.Z.P.#X_.(.*X*X!.M.6.>.>.6.e.E. XE.|.=XzXAXAX1X XN.M.V.^.K.x.z.z.z.K.).@X|.'.'.'.&X,XNXBXpX$XC.2.B j w w w y r t t C C C C C C A ! ( ( ) } { / d.S.Y.d.Y w 3 z ` [.iXiXiXeXb.I n ` [.jXBX",
"` ` R I L n j h L L R { i.{ R I h.i.` I L F F C H ~ ! ( ! ~ f p - - - ; > 2 w w n I s.L.@X%X%X%X$X&X].C.C.C.C.C.B 4.2.s.m.B.V.C.].oX&X&X<XZXHXAX=X1X1X:X>X;XOXW.l.T.V.M.k.2.:.+.N $.l.l.1.1.B.U.tXyX;X X X.X X~.!.l.c.$.%.j.K.l.u.u.~.`.*X!.l.1.k.p.#.R *.h.7XtXI.b.R M k c N <.M.V.@XdXjXyXs.c c U k./.;XaXaXaXOX9.>.8.9.0.7.8.k.k.#XaX-X;XaX;X|.|.Q.N.v.2._ I :.3.8.N./.OX;XaX-XW.W.OX;XgXgXQ.8.w.8.;.o.6.E.+X;X1XaXpX;X#X).).P.L.L.b.a.a.s.v.v.s.<.R U L L x R +.#.<.s.B.B.K._ U U _ ` <.` ` a.h.h.p.p.s.s.m././.Z.V.Q.(.OXOXk.m.m.2.U B s.@XoX/.oX#X_.V.j.0.W.(.l.7.M._./.Z.p.R L z l r A ^ ! H J [ D.G.L.L.i.a.i.h.Y.wXwXU.} H r w z L i.B.B.k.s.s.a.2.s.b./.@X@Xk.<.<.i.i.U I L I R i.h.h.B.B.K.P.@X@XwXwXtXrXrX$XoXoX&X%XN.A.A.|.<XsXzX1X X.XE.N.w.w.w.M.OX;XaXaX=XQ.M.m.N.m.m.v.v.b.L.P.eXeXeX0XeXtXtXtXP.h.s.:.V :.N.OX|.+XoXV.k.3.s.N.OX2XZXZX;XM.k.N.M.E.;XaXaX1X;X#XV.M.M.k.1.+.o.+.k.8.8.7.8.W.(.-X(.1.E K.jXLXLXJXJXjXiXU.f.x 2 h h L a.h.i.R E R Y L L E P b b V 8.E. X XE.e.e.9.0.9.9.9.M.N.OX;XyX/.1.N c c N 1.k.l.V.Z.V.s.+.V M B m./.Z./._._.(.*X*X!.9.;.@.>.e.9.e.E. X X=XsXSXsX;XoXP.K.K.K.f.z.V.K.P.@X@X$X'.'.,XmXNXNX,X,XC.a._ m j w w w y e r r e e e e 2 > 2 C )  .D.D.S.d./ ^ d.f./ H l 3 3 j I ' ` ` _ I I 2.[.iXiX@X",
"Z C z w w l z x R R I L L I ` a.b.i.U L I I F C r C A ! ( ( ~ d < - - : : : ; 2 y z F ` s.C.$XpXhX<X$X].C.m.m.m.Z.Z.m.1.+.#.s.V.].P.B.Z.&XaXZXAX1X1X1X1X1X>X*X!.!.(.(.OXQ.k.:.N O.o.@.%.N +.s.U.tXyX;X XE.y.~.!.!.T.l.-.%.j.K.l.u.u.~.`.*X!.l.7.3.<.#.R f.Y.tXkXY.g.U x k k V +.V.M.Q.rXdX$X<.c U k.#X;X;X;XaX1XM.e.6.>.>.7.8.7.V.V.yXcX-XOX;XOXE.M.w.4._ B m k U B >.m.Q.Q.(.-XOXQ.Q.OXyXgXpXoX3.k.8.3.>.A. X;X<XpXaXpXyXyXyXrX).U.).).@XP.B.m.<.2.s.B.B.B.f.i.U I I I I U R ` ` ` ` { a.g.a.{ ` ` { ` R R R R <.1.B./.#XoXZ.m.P.m.2.<.:.<.B.].oX/./././.x.j.j.l.W.l.@.l.(./.Z.p.<.R F r 4 A ( [ J D T n.0X0X[.I.U.U.U.wXtX9XY.{ F l h x L <.k.B.k.k.s.s._ U <.B.@XtXP.z.s.i.R R R R E L L R i.J.B.J.L.P.U.U.U.P.U.P.C.m.m.m.m.N.|.,XsXzXsX1X=Xr.r.e.e.w.N.Q.|.;XaXcX;XQ.M.3.3.m.k.s.m.B.P.wXiXkXiXtX0XwXtXtXtXJ.h.s.:.V o.m.Q. X=X+XZ.V.k.k.oX<XsXZX1XOXA.k.m.m.m.N.OXpXgXgXfX;XoXZ.V.k.>.B N @.>.7.0.9.l.!.-X(.k.N b #.U.wXL.U.U.L.L.f.x 4 3 3 x ` B.L.L.B.h.E Y R i.i.P N B 6.E.*XOXE.y.0.9.9.9.9.0.8.M./.;XyX#X/.3.v c v +.V.V././.oXZ.2.B U <.Z.oXZ.Q.OX_.(.-X-XW.7.O.@.6.E.9.8.E.+X+X=XaX%X$X$X@X@XP.z.$.j.V././.Z.Z.'.'.,X,XNXNXNX,X}.n.` I z w 2 2 w r e e e e < 2 < 2 2 2 2 r Y } g.d.Y.S.*.Y Y Y ^ H Z w q q q q w j I _ C.iXSXjX$Xv.",
"C l r 4 3 z F R S.h.i.L l j R b.B.i.I L I I x w 2 q r C H ~ G f p : @ : < < - ; > 2 w w m _ A.&X,X,X<X<X%XoXZ.C.Z.Z.V.z.1.p.f.z.J.B.B.Z.oX&X<XsXzXzXzX5X5X5X1X>X~.~.(.OX+X/.m.1.O.O.b b N #.B.@XrXyX;X|.y.y. X X!.T.c.-.%.j.K.l.u.y.~. X*X!.l.7.3.<.U E i.G.I.0XY.i.I M V B :.1.OX#XyXyX/.3.<.1.z./.yXyX;X;X;X+X8.e.0.@.O.5.9.8.V./.;XyXOXE.Q.M.M.8.:._ _ _ 2.2.:.:.>.N.Q.W.Q.OXOXOX(.#XaXpX%XP.k.s.3.3.k.N.+X;X<X%X&XoX#X%XyXyXyXyXyXuXdXyX/.m.m.B.P.@X@XP.B.b.a.a.i.` T T I I T T T [ | } [ [ T [ { { { ` ` ` I U <.s.B.B.B.k.s.<._ <.v.B.C.P.oX/./././.l.j.j.l.W.l.&.l././.Z.p.p.i.Y r 4 C [ [ J D J H.eXtX[.U.[.wXtXkXkXtXY.T x w h x U p.z.k.3.s.m.s.<.U U s.P.@X).P.K.s.R R i.i.R L x L E <.i.s.J.P.Y.Y.G.b.h.a.2.<._ B B ] A.,XZXZX2X|.r.E.r.e.e.e.N.Q.OX:X:X:X*X!.N.M.M.k.V.P.@XtXrXrXiXtXeXY.h.G.U.7XU.J.z.k.1.N N 8.e.+X2X;XQ.V.k.k.|.ZXAXZX=X|.r.3.1.1.>.1.m.oXyXdXfXvXpX#X&X/.m.:.V O.O.5.0.9.9.!.-XOXQ.@.6 6 v P x i.J.U.U.L.R h h 3 h E B.[.U.B.i.Y Y R p.p.+.V V 6.E.OXOX~.R.u.0.9.9.0.6.0.M.Q.OXyXyX#XV.+.k c v Z./.#X%X%X/.m.:.<.3./.oXZ./.#X_.-X-X-XR.@.O.>.9.OXM.e.|.<X1X1X<X%X@XL.B.B.B.z.z.x.Z.Z.Q.|.&X,XmXNXNXNX,X].n.' m w w 2 2 4 4 s s d s a s s s G G C C D J { g.g.g.h.f.*.Y Y / D.D.} / T I K n ] 2.C.$XhXDXBX$XC.2.",
"^ ! A l r C H ^ H.I.Y.R w 2 n a.K.v.<.R I n w 2 3 w r r C A H ~ f 9 : u d u < < 1 > > > 2 w V ] q.'.&X<XpXpX%X$Xm.B.K.).).K.z.p.f.a.h.J.Z.Z.|.=X1X2X5X5X5X5X5X6X~.~.W.!.OX#XOXQ.$.o.O.N +.z.P.@XtXrXoXM.e..XXX=X!.T.c.-.%.j.K.x.u.y.`.*X*X!.l.7.k.<.U U i.g.G.G.G.` I P <.k.Z.oX(.OXyX;Xk.V U m.P.#XyXuXyX%XoXN.w.6.>.>.>.5.9.M.W.#X-XOXQ.l.>.8.8.,.;._ 2.C.{.iXm.3.3.m.Q.W.Q.OXOX-X#X;XaX%XZ.Z.B.p.<.<.m.P.$X%X%XZ.3.:.:.k.C.P._._.#XyXuX;XOXQ.oX%X%X%XP.B.s.s.L.L.H.G.b.n.g.g.J F D z D D D D [ | | [ ^ ' { { R I L L U <.s.B.U P U 2.B.P.].$X@XoX@X#X/.l.j.j.l.^.W.7.V._././.f.p.i.T l 3 C ( | ! D K g.0XiXeX@XeXiXdXjXdXwXS.L l h h M #.p.V.V.1.1.k.k.<.U #.p.z.K.).).).J.h.<.i.i.R L x Z L L I R i.h.h.d.{ ` R I I _ _ B V V q.&XsXsX+XE.w. XR.e.e.e.M.Q.;X:X:X>X*X*XOX#X#XyXyXdXdXdXrX@XU.h.i.T F I h.U.wXK.B.z.1.N O.8.e. X=X+XQ.N.m.N.+XZXAX1X.XN.M.1.b N B U <.s.Z.oX$XdXpXrXhXpX&Xm.3.@.&.5.9.9.0.T.!.*X(.l.N 6 h h h U.kXjXtXU.i.h 3 3 h M i.J.B.i.E R Y E i.p.+.V V ,.M. X X X~.R.e.e.9.5.5.0.M.Q./.-X#X_./.B.+.v b V./.%XyX%XZ.3.:.3.v.Q.oXQ.OXuX-X-X-X_.l.@.O.7.E.OXQ.N.|.<X1X<X,XiX[.b.i.p.B.).#X/.Z.N.|.+X2XMXAXNX,X'.v.' m w q - ; 1 < p d ) ) ~ ~ ~ ~ ~ [ .. . .g.D.H.Y.I.I.I.f.f.f.d.d.Y.tXkXkXkXkXiXkXhXVXBXDXBXBXiX'.4.:.4.",
"d.} / T H Y / { G.0XtXh.z 2 x a.J.B.s.<.R M h 3 z Z Z C C H ( } ! a 9 f ~ f d d < < 2 > > 2 w j _ 3.A.oX%X%X%X%X%X/.V.P.).).V.p.i.<.a.B.k.2.A.OX=X2X1X1X5XzX5X5X6X>XOX XOX*XOXQ.(.l.7.$.k.P.oX@XdX@XV.8.e..XXX=X!.W.l.-.%.j.K.l.u.y.`.>X*X!.l.7.1.+.U R f.Y.I.[.J.i.I U p.V./.#X_._.;XyX/.1.<.m.#XyXuXfXaX;XQ.8.N.,.o.5.0.5.8.Q.OXfXyXOX(.M.:.3.:.;._ 4.v.].&X$XC.3.4.8.M.M.M.Q.OX;X;X;XaX+XM.V.K.p.U :.s.P.%XrX%Xv.n w w n I R i.p.z.V.P.P.P.oXoX$X%X$XP.Z.P.@XL.L.L.L.G.G.b.n.H.n.} [ T [ | | [ [ T F F F F T R R R ` <.s.s.s.<.<.2.s.v.v.].rX@X$XtX#X^.j.j.j.l.(.W.0.W.OX/./.k.s.i.E C r C ^  .[ D D [ 0XkXjXBXBXBXBXjXtXh.L Z l h x L <.s.V.K.3.1.k.k.<.U #.p.3.k.K.#XwX).K.i.i.i.i.R Y L L ` R R ` { } | [ K n m I _ 2.3.4.q.'.<XhXpX+X|.N.N.8.6.w.M.N.%XxXxXbX:X-X-X#X#X#XtX@XU.J.f.i.E Y D t 2 2 z g.wXtXP.V.k.>.b V 7.8. X=X;XOX|.Q.oXfXsXZX<XN.M.N.>.h m I <.<.<.s.B.Z.P.oXrXhXgX%XoXN.l.9.9.0.0.t.0.R.`.!.W.8.B c h k f.tXkXwXU.B.R M x x L <.h.B.h.p.d.R R i.p.+.+.%.>.M.!. X X!.~.R.M.9.5.5.0.M.Q.Q.#X/.Q././.V.+.N k.W.#X;X+XN.,.] 3.w.Q.oXQ.#XfXuXuX-X(.l.@.@.k.Q.Q.Q.Q.|.=X<X<X%XC.L.B.B.K.P././.+X|.N..X2XmX2X3X].}.a.] m w 2 ; ; > p p Q W ) ) ~ ~ ~ ! .... . .g.g.D.g.g.i.` ` R R E Y Y d.S.Y.7X7XI.0XiXiXiXiX&X'.'.A.q.q.&XZX",
"P.L.J.J.p.E R i.Y.I.7XS.T F Y { B.V.V.3.N k c k I R ` I L T } g.| G D [  .! G G G f e > - - : > l x U s.P.%X%X;X<X%XOXQ.N.Z.Z.P.s.<.U <.s.s.m.m.N.|.=X1XzXzXzXzXxXcX5X>X>X=X>X>X>X X!.OX#X$X@XeXrX].C.Z.M.e.~.>X!.l.7.@.+.j.K.k.9.u.`.>X>X*XR.7.3.+.U <.J.U.@XwXB.a.R s.P.#XyXaXyXV.k.OXoXm.3.m.#XaXcXyX#X#XV.1.2.3.1.>.>.8.N./.pXpX%XQ.k.3.3.3.:.4.4.C.{.[.{.}.}.m.v.s.m.V.M.8.N.*X-XOX-X XM.M.m.:.+.>.3./.rXrX@XR 3 ; - - : < t z n T ' | n.n.L.L.P.].oX@XoX/.L.G.L.[.[.L.P.@XU.L.J.G.G.I.n.{ ` ` I F x z x x I L R i.s.s.<.+.U s.B.b.b.L.[.eXeXrX@X/.^.x.-.j.l.!.W.9.W.OX/.V.k.B.B.i.x 2 y H  .n.' q y n.kXkXJXJXCXjX0XG.{ T Z l w x U <.s.k.z.z.p.p.k.p.#.1.@.@.@.j.^.tXtXwXJ.i.R / d.R Y L F F F F J ^ ^ ! D m n ` a.v.C.&X,X<XhXNX,X&XC.N.q.q.3.,.A.&X<X<XaX;X#XyXyXrXU.Y.Y.D.{ H z w 2 : 8 # @ - s D.0XtX/.E.e.6.,.V N 8.N.*XaX=X X=X<XpXpXfXyXZ.8.3.;.V M T { a.a.` ` U s.b.].rXhXhXpX%X;X-XOX9.O.O.t.u.XXXX*X!.8.N k k P.@XrXwXU.@XK.U v M U i.B.J.J.B.d./ *.p.f.#.%.@.7.9.R.!. X*X!.R.T.0.>.>.8.V.Q.V.V.V.Q.OX-XQ.l.7.l.Q.#XOXN.:.B V 4.A.'.Q.+XpXfXyX;X-XW.1.@.7.l.M.M.V./.+X<X<XOXN.s.B.C.P.oX|.|.&X.X3X2XNXNX2X|.A.{ ' D w w r 2 = ; 4 A ~ ) ) ) ) ) ) ) ) ( ( [ } D.G.g.I n M I U <.L z z Z Y Y F } D.S.G.b.b.b.C.2.] ] ] r.,XDXIX",
"rX$XoXoXP.s.<.` i.Y.wX7Xd.H H Y P.#X#XZ.:.V k M P ` ` I M I ` { { J J |  .| ^ ! G G a 9 : : : : 2 3 z L <.B./.&X%X<X<X+X|.N.N.Z.m.v.v.s.<.U :.3./.Q.N.Q.OX;XxXDXzXAXAXAXAX5X6X>XXX~.!.OX#X$X@XeX$X].C.m.3.>.R.*X!.l.7.@.%.s.K.k.9.y.`.>X>X`.l.1.1.+.B U p.B.P.P.a._ <.K.dXvXfXfX-X#XV.8.>.3.N.OX;X:XuXuX-X/.z.s.<.<.1.3.3.m.E.|.;XyX#XV.+.V B :.m.v.v.{.$XiXiX[.].C.v.3.m.m.k.7.l.(.*XOXOXE.e.e.8.:.o.>.8./.pXtXU.R 2 ; 1 1 , < : : : 8 8 g f X.| | n.b.L.U.@XrX@XL.L.P.P.Z.Z./.B.B.J.B.Y.I.Y.h.a.n.b.h.i.R E I Z x x P R U U B s.B.B.b.L.0XiX0X[.eX@X)./.c.-.c.l.!.R.9.E.(.Q.V.k.k.h.i.F q q s | H.n.D 2 t | G.0X[.I.H.G.n.| { z w w x E <.f.k.x.c.p.p.c.p.#.$.@.@.@.7.V.#XtXrXU.G.g.g.i.R Y T n m D D J ! [ [ | n.H.L.v.3.A.&X<X<XpX,X&X'.'.C.v.C.C.A.'.&XpXhX,X%X$XeXwXL.g.| ^ H s r e e 2 > # + + : s } U.#XOX!.0.6.,.O.N 8.M.*X1X=X X=X1XaXfXrX@XP.m.:.;.,.C.G.g.I j n ` b.s.v.b.L.@XrXrXrX;X;X;X!.0.t.t.t.~.XX>X*XR.>.B B <.h.@XwXU.).U.s.#.#.#.<.p.J.J.J.i.R P #.p.1.$.7.l.T.W.~.*X>X XR.T.l.7.1.1.k.V.Q.N.Q.OX!.(.OX~.9.l.Q.OXOXN.3.:.;.q.'.&X%XpXxXSXfX;XOXM.1.>.k.Z.V.M./.%X;X;X+X|.N.Z.Z.Z.C.'.|..X.X2X2X2X<X,X'.q._ F Z r 2 4 4 2 = 4 s ~ ( ) H A A G G G G H H H T T R I k h k V B L L x x Z Z Z Z Z H Y L n m m m 4.q.'.,XNXHXIXIX",
"SXfX%X%X%XP.m.<.U b.eXtX7Xg.Y n s.P.#X@XB.<.U U U <.<.P N I ` ` | } | g.D.D. . ...! ~ s u , , - = ; 2 3 h M <.m.oX%XhXpX&X|.oXoXC.C.C.m.<.B +.1.3.3.k.N.Q.OX;XaXcXAXHXGXFXHXcX6XXX X XOX#X#X@X$XC.L.C.:.B >.R.*X`.T.7.@.+.s.K.k.T.~.XX>X>X`.l.1.8.+.N N <.p.B.L.s.s.B.pXSXSXuX/./.#XW.%.b 3.+XpXaX-X-XuXyXV.s.k.U :.1.3.m.N.Q.oXQ.V.8.:.o.:.3.3.C.C.].{.iXhXkXhX{.C.v.3.s.k.8.7.9.E.OX(.E.E.M.e.8.o.o.>.m.+XdXrXP.I 3 ; 1 1 1 , # # # # # 0 0 9 y g K J ' g.I.eXiX$X].P.P.Z.Z.Z.m.B.B.B.G.Y.Y.G.B.B.J.J.h.i.i.*.R L L U R U +.<.K.B.b.L.eXiXeX}.G.[.@X)./.c.j.j.l.!.R.7.R.!.Q.V.k.s.p.i.I z q q J | g.J q > q z F F K { g.n.g.{ r w l L R i.f.k.x.z.p.$.j.$.#.$.$.@.@.1.z.).tXtXwXI.Y.G.i.R R i.` ' T T [ | | | | D.I.[.[.oX%XpXgXNXpXoXN.'.C.A.q.A.'.'.'.&X,XiXC.v.a.a.{ K g a e 9 > , : > > , + + @ , s ( L.#X;X Xe.6.6.O.%.1.l.!.=X*X+X2X1XsXgX/.K./.V.:.,.|.C.C.n.` I I U <.2.2.<.s.B.P.$X%X%X;X;X=X Xy.u.t.0.`.6X>X!.E.k.1.N <.K.wXU.P.U.K.z.s.<.R <.B.K.P.i.Y S R f.p.j.j.W.W.W.~.*X*X X!.R.W.l.7.>.>.M.Q.m.OX*XE.E.*X*XR.!.Q.Q.N.w.w.r.r.&X<XZXZXDXFXSXfX-X/.k.@.3.V././.M.+XfXaX<X+X&X|.Q.N.A.A.|.+X+X<XNXhX<X&XC.` n z r r 4 ; ; 2 2 2 l H ( ( ) C r r r r 4 r C H H Y T R I M M P <.2.J.P.U.J.d.E Z Z w w w w w j n ] '.,XDXIXPXPXIXIX",
"FXZXpX<XpX%X&XP.<.b.@XkXjXrXb.U M U B.@X@XC.v.s.<.2.<.U U <.s.s.b.J.G.D.g.D. .} ......~ W u # . X = ; ; 2 w k I s.C.%XpXrX%X%X%XoXZ.v.v.m.m.3.3.B :.8.V.Q.Q./.Q.aXzXZXAXHXHXAXAXzX1X+XOX%X%X%XoXa.v.2.B V 8.!.*X`.R.7.@.+.s.K.k.R.~.*X>X>X*XR.8.8.+.N N #.p.J.U.K.P.%XjXSXcX_.l.l.W.l.o.O.M.%X;XaX;X-X#X_.B.p.p.:.<.2.k.N.N.Q.OXM.>.V B 8.N.Z.m.v.C.].eXiXkXjXjX$XC.v.3.3.8.8.8.8.R.(.(.E.M.E.e.3.o.;.8.N.#XdXrXh.L w 2 > - - , # # & & 0 & # # # 0 8 9 y G  .I.kXiX@XP.P.P.Z.V.m.Z.P.B.h.h.S.h.P.J.B.h.p.p.f.h.J.h.p.p.p.s.s.B.P.J.J.[.eXiXG.' g.[.@X)./.x.p.j.8.Q.R.7.M.!.W.M.k.k.p.f.i.Y r 2 z x T { T m 2 ; > w F g.Y.H.} F w w z E <.p.p.k.x.k.1.$.j.$.#.$.$.@.$.p.z.J.L.U.wX0XI.Y.a.{ i.b.b.n.a.| } } | | [ [ | {.hXDXDXSXSXDXsX|.A.N.A.q.q.A.A.'.&X%X$X].' m w q 8 8 8 0 0 0 # # # # # @ . + # 9 s ( Y.rXyX=Xy.6.8.>.%.>.k.Q.=X*XXX2X1XsXpX/.V./.V.>.8.OX4.2.s.m.B.s.U k U U :.<.s.B.Z.P.oX&X+X:X:X>X~.u.0.~.*X`.!.OXQ.1.P U B.@XU.P.U.P.K.B.s.#.<.B.P.K.i.L v R f.j.1.7.W.^.!.~.!.!.`.!.W.W.l.8.>.>.8.N.N.OXOXQ.E. X*X!.OXE.8.>.,.A.+X2XZXHXKXKXKXGXSXpX#XV.1.@.k.W././.M.OXgXxX<X=X+X+XN.r.r.'.,X2X2XpXiX$XL.a.T z q 4 t s y > ; 2 4 4 H ( D.} H l r l r 3 2 3 Z Y R R { a.h.n.B.B.P.P.tXdXdXdX7Xf.Y z F n n n I a.{.iXNXHXIXPXPXIXIXIX",
"HXAXZXZXxXsX<X%XV.s.m.@XSXDXdXC.M n P s.B.B.B.B.2.2.2.<.s.B.Z.K.h.b.h.` Y H H G ! ! ....~ d $ . @ : e e 2 > q w n _ v.].%XpXdXhX%X&XZ.m.Z.Z.N.m.8.3.1.>.1.k.Q.oX+X&X<XsXxXAXHXFXFXzX+X|.+X%XoXC.3.2._ V ;.E.-X;X*XM.7.@.+.s.K.V.R.~.>X6X6X*XE.l.8.+.V P <.B.@XdX#XyXfXfXfX-X/.M.@.@.O.>.M.OX;X;X:X:X-XQ.V.V.k.<.1.2.3.k.N.N.Q. XQ.8.;.>.8.N.m.2.m.P.eXiXiXiXiXkX$XC.v.s.k.3.8.k.9.l.!.(.M.E.Q.M.,.o.>.m.Q.;XdXrXp.F 3 4 > - @ @ O $ $ & & $ O O $ & 0 0 , a ! D.eXrX$XZ.V.Z.M.8.k.Z./.K.B.h.J.J.@XP.K.J.J.J.K.K.J.h.p.p.p.s.B.P.J.L.U.eXeXG.I w ' {.eX[.P.z.1.3.7.Q.M.7.M.Q.W.l.V.k.k.z.z.*.Z w Z F { Y.I.d.z 2 ; w { Y.0XG.R x l z L i.p.p.s.k.x.l.1.$.j.$.#.p.$.#.$.z.z.f./ R G.I.0XI.b.a.a.p.v.v.a.i.} | } | H.G.L.eXBXDXDXNXZXZX<X|.M.N.A.w.N.A.C.oXhXNX%XC.m y > : # # 0 0 & $ + + + + .       @ < s H S.tXaX=Xy.0.9.>.%.%.k.Q.OX=X=X=X=X;X#X/.V.V.B.m.A.|.Z.m.m.k.3.3.:.U B B U U :.4.s.m.C.Z.|.=X:X:X*X`.u.`.`.!.OX;X/.1.#.U i.P.U.@XrX@X).@XK.z.B.P.P.B.<.L v #.z.j.$.$.W.!.*X~.9.9.E.*X!.W.l.l.l.8.3.8.Q.Q.E.OX XE.!.;X(.E.8.>.r.+XsXAXGXKXIXKXKXFXgX;X/.k.$.1.x./././.V.+XaXaX<X+X+X.X.X.X.X+X2XsXpX%XC.a.' F r > 1 1 s C s 4 2 r C C T { g.{ L z x Z z h 3 h S E i.i.i.h.L.@XeXrXeXrXtXdXjXSXjXkXU.B.b.b.C.C.'.,XDXGXPXPXPXIXGXHXHXHX",
"zXAXGXGXFXAXsX;X&Xw.:.m.fXFXSXdXb.U m n N I U <.<.s.s.m.P.@X@X/.<.R L k w 3 w y C G ! ....W 5 X < u s s a 8 > > q w n <.C.$XiXhX<XpXpX&XZ.N.N.Z.N.m.1.:.+.1.M.Z.m.A.oX%XpXZXZXSXFXzXOXE.Q.oXN.3.m.3._ B 3.Q.*X-X*XM.7.@.+.s.P.V.u.~.>X6X6X*X!.R.8.+.B U 1.K.tXjXjXvXjXyX^.l.l.0.@.O.O.l.-XaXaXcX:X:XOXk.8.m.k.+.s.s.s.k.V.Q./.OXM.R.M.8.>.1.s.m.].eXiXiXwX0X0XeXeXP.m.m.k.8.8.l.l.8.E.OXM.Q.OXM.6.o.>.N.OX;XpX@X<.x 3 4 < - X @ O O O O O O O O & & & # # 0 W | L.oXoXV.k.m.8.o.>.l./.P.V.J.P.P.P.P.U.@X).).U.L.i.i.i.p.h.h.J.U.L.U.wXtXY.T w 2 ' {.eX[.K.z.3.3.8.W.M.7.l.Q.M.l.V.l.z.K.F.f.E L i.G.wXkXeXg.L x w x / h.Y.h.R F C F R f.f.p.s.k.x.l.1.1.j.$.#.p.<.#.p.J.L.d.z 3 F } Y.0X[.L.s.` s.s.a.a.a.g.G.H.0XeXkXdXhXgXgXgX<X;X XN.M.M.A.w.Z.N.Z.%XBXBX].' q 8 : 0 , # + $ + + O O O .         X < r C g.@XyX;XE.6.9.5.%.+.8.N.OX=X=XXX+X+XQ./.B.k.m.Z.Q.M.%X;X;XN.3.:.3.m.:.:.B V V B <.s.C.m.m.Q.OX*X*X`.`.`.!.!.*X:XOXM.p.U U s.J.rXdXtXwXrXrX@X@XrX@Xh.U v v #.c.j.7.7.l.(.*XR.>.5.R.*X*XW.l.R.E.8.>.,.Q.M.M.OX*XE.!.:X!.E.Q.OX<XZXAXHXHXHXHXGXGXSXfX%X^.k.p.k./././.Q.Q.&X;X<X+X+X.X.X3X3X2XsXsX<X].C.` F t e 1 X X < s s s w e z H T T { a.i.E L L P P v k x M R i.p.p.B.P.rXdXiXeXrXrXtXdXjXSXSXjXdX$XrXNXDXHXGXGXIXPXPXIXGXHXAXAXAX",
"1XAXHXFXFXFXZXsX<X|.w.w.|.<XxXSXdX].a.U n j M _ s.m.P.#XpXpX#XZ.+.v h 6 3 2 w C D G ~ ....~ a , u p d a a a q 8 > q w m I 2.P.%X<XsXZX<X+X|.|.Q.N.N.m.m.k.3.3.1.v.v.C.].$X,XhXsXgXaXOXN.N.N.w.:.m.4.:.,.k.W.OX-X-XW.7.+.+.s.P.V.u.~.>X6X:X*XR.M.8.@.%.+.1.V.rXfXgXfXyXV.$.@.@.O.@.@.9.`.bXbXbXbX:X*XW.8.7.3.1.:.s.s.k.B.Z.oX/.Q.9.9.0.8.8.m.P.@X@XwX0XY.g.g.Y.eXiX].C.C.m.3.7.l.M.5.N./.l.Q.-Xw.8.;.6.E.OXyXyX/.<.x w 4 < - - # % % $ $ $ $ O O $ $ $ + @ , d ! a./.$XV.8.8.@.b N >.M.V.V.K.P.P.V.V.K.K.K.J.h.f.d.i.h.J.J.J.L.U.I.7X0XI.{ y ; > ' [.eX[.C.k.1.3.8.Z.M.1.l.W.M.l.W.x.x.K.F.c.f.f.L.wXjXkX7Xh.{ R I L E { h.h.i.R F T i.h.f.p.p.k.V.V.7.1.j.1.#.f.<.R i.L.U.{ r ; 2 z / G.0XeXU.b.K.K.L.b.b.G.Y.I.I.eXiXrXrXpXgXZX1XOXE.E.N.8.8.M.N.Z.%XpXdX%X<.w > : : : # + O + $ O $ $ $ $ O +   . @ < r C d./.;X=X~.6.9.5.@.@.1.k. X=X3XXX X XN.M.s.1.m.oX|.A.;X<XaX;XQ.m.w.m.3.3.:.B V B :.<.v.2.3.w.Q.OX*X*X*X*X*X>X:X>X*X(.V.1.+.U <./.yX@X).yXdXyXdXdX#Xz.R L L #.p.1.1.7.T.(.`.T.O.@.M.OX;XW.l.E.W.9.5.6.M.e.M. X=X*X=X:X*X;XzXSXHXHXHXHXZXNXsXsXgXsX;X#XK.z.z./.#X#X/.N.N.+X<X<X+X+X+X.X2X2XpX,XoXv.` I m y > < - X 1 5 G G s y r F T { I ` a.p.<.:.+.+.+.+.B N U 1.B.P.P.P.@XrXrX@XL.L.p.s.h.B.J.P.@XrXhXDXGXIXIXIXIXIXIXGXHXHXAXNX2X,X",
"1X5XzXzXAXFXFXAXzX1X Xe.6.N.=XZXJXVXrX[.s.I U 2.m.P.rXgXSXvX%XV.+.k 6 h h h x / ( ^ ( ....! f u p u u u a a a e 8 8 q w w n a.P.<X<X<X<XsXsX%XN.N.V.V.m.k.3.1.<.v.n.v.v.C.].%XpX%X;X%XQ.N.M.8.,.3.:.:.8.M.M./.yX-XV.7.+.U s.P.V.u.~.>X6X>X`.R.9.0.@.%.o.1.k._.uX#XOXV.@.O.O.O.O.&.T.>XbXbXbX>X*XaX!.9.8.8.:.+.1.<.s.k.Z./.oX/.Q.E.5.O.>.V.%XtXwXI.Y.G.^ F T H.tXdX@XZ.Z.V.3.1.k.M.>.M.Q.k.Q.;X8.8.,.8.Q.OX;X;XP.<.F w r < 1 - 1 % & i i i & $ O O + + @ @ , a H i./.%XQ.8.8.@.b b O.7.k.m.B.V.B.V.B.s.p.i.i.i.d.h.h.Y.I.I.L.G.Y.7X7X7Xg.C - = > T [.iX[.B.s.1.3.s.Z.V.1.k.W.l.l.W.W.x.K.x.c.c.F.U.wXtX7XY.Y.S.d.g./ E i.h.J.f.{ Y T a.h.p.1.1.k.V.V.7.1.j.p.#.f.<.U <.L.I.} r - = ; z ^ I.iXkXeXrXrX@XL.b.h.D.G.G.G.b.B.$XgXgXsXxXOXE.E.E.6.6.M.A.&XfXjXpXC.N 2 8 : @ # @ + $ % % % & & i i 5 , @ X - p s Z d./.;X=X X6.9.5.@.$.+.k.Q.;X2XXX XE.E.8.+.:.m.oX|.C.<X+X X%XpX;XQ.w.8.m.m.3.:._ U U <._ :.3.m.Q.OX-X`.`.-X:X:X>X*X;X#XV.1.V M z./.B.B.#XdXyXdXjXtXB.<.E P #.$.+.@.7.W._.(.9.O.@.M.!.:X!.M.E.N.0.5.8.8.e.E.!.=X1X1X=X:XxXDXGXGXGXHXHXNX2X+X+X,X+XOXoXK.F.K.tXyX#XQ.N.A.&X<X<X<X<XsXsX<XrX$XC.a.I j y w > ; > 1 - < d ! J D t z F R ` L U s.k.k.3.:.o.@.+.+.+.>.k./.rXyX#X@X@X[.v.2.<.N P L N P s.oXhXGXKXIXIXIXIXGXIXHXAXNXmXmX2X&XA.",
" X+X1XzXAXAXHXHXAXHXAX=Xy.6.E.=XgXBXJXLXJXBXBXBXjXDXKXKXFXgXZ.+.N b c k L i.J.Y.H.D.} } } ~ d < u u u u 9 u a a g g y q 2 2 n v.|.+X2X2X<X<XaXaX&X&XN.m.B./.Z.3.I V I 2.v.].oXoXoX%XfXpXoXm.,.;.B >.8.8.k.Q.OX#X-X/.k.+.<.B.Z.M.y.~.XX>X6X>X!.9.>.@.@.3.x./._._.^.3.%.O.N O.5.(.`.`.`.*X:X:X:X>X!.R.9.8.>.:.1.k.s.s.z././.V.8.>.0.9.M.Q./.U.[.I.Y.{ C 4 2 w { 0XwX$X$XZ.k.k.7.1.1.8.k.l.V.OXOXQ.0.e.e.M.OXaXyXP.U L z 2 ; 1 < < i Q W d i d d a u 9 < > < e e r h 1././.V.M.7.@.@.@.>.8.8.3.k.V.B.s.#.M c h L R d.g.g.g.g.G.[.0X0X8XD.G - o X > T G.U.B.B.s.1.1.s.P.V.1.k.W.M.l.W.W.x.c.x.F.F.K.i.E *.d.h.tXjXwXY.U.7X7XY.h.i.R I { h.B.p.<.1.k.l.l.1.1.k.k.$.1.U R a.Y.I.d.C ; o = 2 D D.eXkXiXdXiXwXY.Y.S.} T x j j I m.%XaX1X:XW.9.M.M.6.6.N.N.<XjXgX@Xp.M w e : @ . + $ u i Q Q Q Q Q Q i u u < < < s H { s.#X;X*XE.9.9.7.o.+.1.N.OX=XXX~.e.M.8.1.k.V.P.oX%XfXpX%X+X%XpX<X%XZ.m.2.<.2.<.:.I V U <.2.3.k.M.W.#X-X:XaXbX:X*X!.#XrX/.3.b k U s.V.V./.#XyXrX/.B.#.P P $.p.1.7.l.W.(.(.l.>.>.8.N.Q.(.Q.M.9.9.e.9.>.9.E.E.!.=X1X:XxXZXZXZXZXHXDXZXsX,X|.'.&X&X&XoX).wXuXyX#X/.N.N.|.|.+X<XsXNXpX%X$XJ.R x x z l r 2 2 > > e a f G ! ! H D J } ` n I N :.m.N.8.:.,.1.7.7.k.V.#XdXjXfXrXoXB.2.U M k c h h c V m.pXDXKXIXIXIXIXGXHXAXAXNX2X.Xr.q.r.'.",
"|. X=X=X1XzXAXAXAXHXHXAX5X3X.X X,XhXhXBXDXDXJXDXDXJXFXjXpXyX#X/.k.k.s.z.z.z.h.h.{ T Z H ! ! s > - : < 9 9 9 u a e s y q q 2 l ` Q.+X1X2X=X<XaXsXpX<X&XN.m.V.m.m.v.2.<._ _ 2.C.].@XoXoXZ.N.8.,.>.B ,.8.8.M./.;XyX-X/.k.+.:.m.Z.M.u.~.>X6X6X>X~.9.9.7.>.1.k.V.^./.1.N b @.l.W.~.(.:X>X*X>X:X:X>X`.E.e.6.6.7.1.3.m.s.s.B./.@XZ.m.k.k.M././.U.L.G.g.! s > - = - C d.@X@XoXV.k.k.7.1.7.7.8.k.V.oXoXQ.9.M.M.E.OXaXOXm.#.U Z w 4 e p d d d f f d d d f a a e 8 > 2 q w h U z././.V.l.7.@.O.o.>.3.3.3.s.z.k.i.M 3 4 4 3 l C F J [  .H.0X ...~ e - X - q | I.[.L.B.m.s.s.s.K.V.3.l.W.M.l.x.x.x.c.c.x.K.^.f.i.d.i.f.9XjXjXtXtX7XY.J.h.i.{ { { a.s.s.1.s.M.x.V.1.1.k.k.1.1.<.#.i.Y.I.D.A < o X = > F H.eXkXkX0XG.{ T D r 2 2 2 w U Q.<X1X=X!.W.9.9.9.e.e.N.&XpXgXiXK.` x 2 ; - - - < u u i i 5 5 5 u Q Q W d p < < r A / s.oX=X=X~.e.9.7.o.+.3.N.OX>X3X.Xy.E.M.k.B.Z.P.$XrXpX@Xm.2.m.oXrXpX$X].Z.m.s.2.4.<.<.U I I U 2.k.M.W.Q.(.-X;X:X;X-X#XdXfXyXm.B b b N +.3.P.#X#XZ.k.#.P P $.j.j.l.x.^.(.(.M.7.>.>.@.M.Q.OXQ.M.9.M.R.O.9.E.!. X=X1XaXaXxXSXZXNXNXsX2X,X,X|.'.A.N.'.&X@XtXyX#X/.V.M.A.|.&X+X<X<X<X&XZ.h.{ L l r 3 4 2 2 4 q y t D J [ [ J C D T } T x M U 2.Z.&XQ.r.8.M.l.M.Q.;XfXvXvX%X/.m.<.P V h h b V U 3.Z.<XDXKXIXIXIXIXGXHXAXAXNX,X&X&X.Xr.;.] ",
"Q.Q.E.E. X=X1XzXzXAXHXGXGXHX5X=X&XoX].$XpXjXBXBXjXjXdX#XP./.#XrXDXvXjXuX).z.#.L Z l 3 w C H r ; - : e e e e 9 9 9 s a y r 2 w M N.+X1X<XOX+X<XsXaXsXhX%XZ.m.m.w.A.C.m.4.B I <.v.].Z.m.m.m.k.1.+.;.>.8.M.W.#XyXuX#X/.k.+.+.k.V.M.u.~.>X6X>X*X~.9.R.l.8.7.k.k.j.7.B b %.M.-X:X-X*XbX>X*X>XbXbX*XR.e.6.5.5.8.k.k.m.k.k.B././.P.V.M.V.Z.U.U.Y.g.J f < - X X o X : z L.P.).K.k.k.j.7.7.7.1.8.V.oXoXQ.N.R.R.E.*X:X/.3.+.E S l r A G ~ d p p s a e s G G D D y q 2 w h k v #.V./.W.M.l.7.O.N o.3.8.1.<.k.z.p.E h = o o = - : e s G [ ..~ a : @ X X : y g.0XwXL.B.m.s.k.s.Z.B.3.l./.V.l.l.x.x.c.c.j.z.F.J.Y.L.Y.9XwXdXnXjXdXU.h.i.i.h.J.G.g.h.s.p.p.k.V.V.M.3.1.k.k.1.1.<.:.i.Y.7XD.H p X X X @ q [ H.qXH. .K t 2 ; = o = = h s.;XaX=X X9.R.R.6.6.e.E.N.<XsXhX@Xp.L 3 2 ; ; < 5 p p 5 5 1 $ X X 1 5 Q ) ~ A p 4 r F i.s.Q.=X2X XR.9.7.o.<.1.m. X=X>XXX~.R.R.V.V.B.P.$XhXeXb.M j n 2.P.eXrXrXrX@XB.s.s.v.2.<.I M M N +.1.k.l.V.Q.OX=X:X;X#XfXDXDXfXV.+.b c c N 1.V./.Z.V.z.$.#.3.k.k.l.W.^.^.W.M.k.1.o.b 1.W.yX-XW.M.R.W.7.9.R.!.E.Q.;XxXaXxXSXgX<X,X+X&X'.A.q.4.q.A.Z.oXrXtXrX@XM.8.w.A.N.&X+X+XoXZ.3.` Z C l 3 4 4 4 2 r z C F K ' ` | [ F z F { ` L j n U s.Z.&X+X&X|.+X#X#XaXvXSXjXdXP.m.+.V k k k k :.k.oXgXDXGXIXIXIXIXGXHXAXAXmXmX3X'.'..X.Xq.V V ",
"M.A.N.N.Q. X<X1XsXzXAXHXGXGXHXAX+X|.N.A.A.C.C.C.Z.P.P.Z.B.B.B.B.z.z.f.p.i.R E L Z l 3 w l l 3 ; r C F H G s a a a f s s C r w x m. X;X=XE.E.+XaX&XpXNXZXpX&XN.w.3.A.Z.Z.s.:.U ` B.B.B.B.V.k.:.V 8.8.8.M./.-XyXyXrX@Xk.+.+.k.V.M.u.~.>X6X>XXX~.R.R.R.l.k.j.7.@.%.>.8.W.OX*X(.*XbX-X!.!.*XbXbX*XR.0.t.O.,.8.m.k.m.B.B.K.P./.Z.V.z.V.J.J.S.} G 9 : @ + . + . X : q i.V.#X).V.k.j.j.7.7.8.8.k.V.Q.oXE.E.E.!.;X:XQ.1.U P L C C G ~ ~ r > ; < 2 : q D J T T F z w l x L v P k./.W.x.l.l.@.N o.3.s.1.<.p.B.J.f.L 2 = o X X - : : 0 0 0 0 @ .   . X : y g.[.@XB.k.s.1.3.p.K.B.3.M./.V.l.l.l.x.k.p.#.E R R h.S.U.wXJ.R f.wXwXY.d.R / S.U.[.{.L.J.h.2.s.m.V.M.3.1.k.k.3.3.:.:.s.L.0XH.! p X X . @ > s J [ f e > : - - X X ; 2 U $XxX1X~.y.9.l.l.6.6.e.E. XsXsX%XB.E l 3 2 2 < r p 5 1 1 1 X X X X = 1 p A ~ ~ A r r F i.s.N.+X2X XR.9.7.@.<.<.3.E.XX>XXXy.R.R.V.V.V.].rXhX[.| w - > j ' g.[.eXiXiX@XC.m.v._ 2.s.<.M k v P s.k.k.N.Q.OX=X;X#XuXvXSXvXfX/.V.+.N b b +.k.Z././.z.j.k.x.j.7.j.W.W.W.M.k.7.+.b +.V.yXyX(.W.W.W.(.T.l.M.V.Q.;XSXvXvXgX<X&X|.'.'.q._ V ] m.oXoXoXtXrX#XZ.8.,.8.N.|.+X+XZ.3.U V k 3 r l l r r l l H Y T R ` ` ' ` F z z T } R x j M <.s.3.m.&XpXgXgXxXvXSXvXfX#XP.k.<.V k k B 2.V./.;XSXKXIXPXIXIXGXGXAXAX2X2X3X.X'.A.A.'.q.V ] w.",
"3.s.8.m.m.Q.OX+X<X1XzXAXHXHXGXGXZXsX+XZ.w.,.:.:.:.U U U R R R E k x S L E E R R R E L L Z z h h L E / { ( ~ G f f f s s A C r x 1.E.;XOXE.N.|.;XN.|.pXZXSXsX+X|.w.M.N.N.C.v.a.` a.b.J.K.B.s.#.o.E.9.0.N.OXyXyX#XrX@Xz.+.+.k.V.M.e.~.>X6X>X*X!.R.R.l.7.7.7.7.7.j.V./.#X;X-X!.`.-X~.R.R. X>X:X Xe.6.;.O.,.8.k.k.k.B.K.P.P.P.K.V.z.h.g.{ H s , @ . + + + + @ @ : q x s.#XrX^.k.k.k.1.7.k.k.3.k.Z.OXE.E.E.*X:X;XQ.>.+.R L Z A ~ ~ A 4 ; = > > - > s J [ [ T F z x x L c v p.K.^.Z.W.l.3.+.>.1.1.1.s.i.h.Y.G.} C ; = - - @ @ @ + + . O O   .   . : t g.I.U.z.k.3.@.1.1.V.B.3.V./.V.l.k.M.V.k.1.P v x Z R d.U.tXh.h w I h.U.Y.i.I i.G.Y.L.[.U.B.1.1.k.V.M.1.@.k.k.1.3.:.:.s.[.tX8X! p @ .   + 0 u 0 0 : @ @ , , : - ; 2 Z B.dXzXXXy.y.R.9.7.9.8.8.E.<XxXpXoXa.F w w r r s s p 1 X @ 1 1 1 1 1 1 1 p d ) ) ) A A Y i.s.N.+X2X.XR.9.j.1.<.<.3.M..X3XXX~.u.R.V.Z.P.$XiXiXH.G : @ - > y D | G.[.iXiXeX[.K.s.s.z.p.R L M L #.<.3.k.N.Q. XOX#X#X;XfXvXSXvXvX#XV.+.V N +.k.V./.x.k.l.x.j.7.j.l.W.W.V.k.1.+.B +.k._.-X-X(.W.l.*Xl.7.l.Q.(.;XgXvXfX%XoXoXC.m.q.q.4.4.3.C.].$X@XtX#XP.m.,.,.w.|..X+X|.3.M j h w w l z Z Z H Y / / R R R i.2.U M l l x R { I M M U s.B.2.:.m.%XpXgXjXBXgXrXZ.s.<.V V V U 3.Z.%XfXDXFXKXIXIXIXGXGXHXAXmX2X+X&X.X'.'.r.q.q.:.;.w.%X",
"1.2.s.s.3.m.N.N.OX=X1XzXzXAXHXHXGXHXAXsX+XZ.A.v.<.V h w h h x n *.f.J.K.Y.J.z.h.z.z.h.p.#.R R #.E #.*./ ^ ! ~ G G d p a A C l Z B M.OXOXE.M.Q.|.w.w.N.+XsXNXsX1X<XOXM.8.k.B.B.B.i.h.b.h.i.<.p.k.M.9.9.E.-XyXyXrXtX@XB.+.+.3.N.M.0.~.>X>X>X>X X~.~.u.7.@.7.l.^.-XOXoXOX;X;X-X!.R.R.R.!.OX*X XR.0.6.;.O.,.8.3.s.k.B.K./.P.K.V.V.z./ H C < - + . O O O + + + # : > w #./.rX).V.k.k.1.7.k.k.3.3.m.oXE.E.!.*X:X=XN.>.<.<.R Y ! ~ G d r 4 4 4 e > e s K T [ [ T F x z z l x R z.K./._.V.k.1.<.<.:.<.p.i.d.S.S. .~ e - - # @ @ + + O O O O O + . . : s g.I.).z.k.7.@.1.1.B.B.3.V./.V.l.k.k.k.s.i.R M x Y R i.U.kX0X{ F h R U.0XY.R F n I { B.L.B.1.1.k.V.l.1.@.k.k.1.3.o.o.3.@XtX7X( d 5 +   + 0 i 0 0 $ @ $ u u , - < C i.wXfX;X~.y.y.~.7.>.9.M.e. XsXpX&Xv.` x w r C s s e < - - < u u p p p < < p A ) ( ( A A Y / <.Z.OX=X XR.R.l.7.<.<.3.N..X>XXXXX~.E.W./.rXpXiX{.~ 9 + + # : > 8 t F | I.eXiXrX$X@XB.p.p.h.h.i.R P U +.:.3.w.A.Q././.OXyXfXvXSXvXvXpX/.k.1.:.>.1.j.1.j.V.x.j.l.W.W.(.(.V.3.:.:.+.#.k.V.^._.-X_.W.W.j.7.l./.%X;XyXyX).Z.Z.Z.m.4.] v.C.].].C.C.@XrXrX/.V.m.3.,.r.&X+X+XA.B h 3 3 w j j n F L T / d./ R E E R R P x h h S E R R ` i.B.P.@XC.s.4.3.v.v.B.L.m.2.I V V h V 1.Z.%XgXSXDXIXIXKXKXGXFXAXAXmX2X3X3X&X|.'.A.q.4._ 4.A.|.<XZX",
"B.B.B.s.2.<.3.3.M.N. X=X=X1X5XAXGXHXHXHXDXNX<X&XC.3.P n j h z F R d.S.U.7XwXwXtXK.K.K.z.s.f.p.j.%.#.#.E Y Z A A G s p r ~ H A Z v 8.OXOXQ.N.N.N.,.;.;.r.&X<X2XZXxX:X!.M.m.V.K.P.f.h.h.i.#.#.f.V.e.e.E.*X;X#X#XyXtX@XB.:.+.3.m.M.u.y.XX>X6X6X*X!.!.R.R.R.W.(.-XyX#X+XOXOXOX!.R.9.R.!.*X=X XR.9.6.5.;.O.,.>.3.s.m.k.K.P.V.z.p.#.U z r > - @ + + O O O O + + # # : 3 N z._._./.x.7.k.3.3.s.k.3.m.N.E.~. X*X=X!.8.>.1.<.R T ^ ! G p d s C s s s s s G ! | | { Y x l l z S E i.K.).#X/.k.3.<.<.<.<.p.i.d.d.D.D.} G p - # + + + + + O O O O + + + 9 G | I.).x.k.7.@.1.<.B.B.3.V./.V.m.V.k.1.<.<.U L x R I { Y.0XtX0Xg.I { g.Y.Y.d.F w w z R s.s.2.3.k.M.l.>.%.8.8.1.1.o.o.3.@XtX0X .d u # . + i i i i i % 5 i i 5 , p } 7XdXyXE.y.y.u.9.7.5.e.E. X=XsX&XA._ n l w r G s e > < p d d d u p d p p a G ! ( D.( A A A R R m.|.=X.X!.E.T.7.#.<.k.E..X3XXXXX X!.W./.dXhX$Xn.u +   + , : : : : q z T b.[.eXrXdX#XK.B.F.z.f.i.R R U B B ;.q.A.N.Q./.#XpXfXfXfXvXfXuX#X/.V.k.3.3.j.x./.W.j.l.^.W.(.(.V.3.>.:.<.#.p.z.x._.yXyX_.W.l.7.7.V.oX#X#X#XV.k.B.B.v.q.q.v.C.].].P.P.rXdX%XZ.w.r.r.r.N..X+X|.3.k 3 3 w h m m n I I I R ^ ^ E E Y S S v v l x x v E p.J.P.eX@X@X].C.<.V k j j n k j k k M U 2./.pXSXFXKXKXIXKXGXFXAXAX1X2X.X.X.X.X|.'.w.q.4.4.4.3.Z.<XZXZX",
"@X@XK.s.<.:.:.:.3.3.8.e.E.=X1X5XAXAXAXGXGXGXZX<X%X$X@XP.h.U L I S.G.Y.Y.Y.J.U.).).K.z.k.k.k.j.1.$.$.%.L z l r r A A r s ) ) A S v 3.OX-XOXE.M.M.B V B ,.N.|.=XzXcX:X=XOXoX/.K.B.b.J.B.s.<.<.1.k.M.E.;XaX-X/.@XyX#X@XB.:.+.3.M.M.y.~.XX>X5X5X>X!.!.OX-X:X:X-X(./.;XpX;XQ.8.>.7.9.R.(.:X:X Xe.8.8.;.O.;.>.>.1.s.B.z.P.P.h.<.P x h 2 : - - @ $ O $ O O $ $ # # # - w v #.V.).#XV.1.l.1.1.3.k.k.s.m.Q.!. X=X*XE.8.+.:.#.R Y Y H C 4 A H H G C D D C J ^ | d.d.T Z h l L E L R z./.).).V.3.1.1.1.1.s.f.d.d.D.H.D...~ < , @ + + + O O O O O O + # e H { U.).z.k.1.+.$.<.B.B.3.V./.V.m.Z.s.#.U I I F z h.} G.0XtXCXJXtXI.d.I { h.G.T l 2 w M i.s.s.3.k.M.l.@.%.3.7.$.1.;.;.1.P.tX0X .d , @ . @ , 0 0 0 i 5 5 i a u p A I.kXjX#XE.R.y.0.5.0.0.e.E.<XsXpX'.3.I x w 2 r G G e : e G ! ~ a < e e e r s H { D.S.d.A 3 Z P U w.|.+X X X!.R.7.E #.s.N. XXXXXXX*X!.W./.dXjX].' 0     + , , : : - ; 2 w L a.U.eXtXjXjXtXz.<.<.s.s.2.:.B V B 4.w.m.V.Z./.yXaXfXpXaXfXfXfXaXyX#X/.V.W._.-X^.j.j.W.T.W.W.l.8.1.>.:.+.1.j.x._.yXuXuX_.^.j.%.+.V.oXoX%XP.k.s.v.v.'.$XA.4.4.q.].pXdXfXrXN.w.r.r.r.'.+X,XoX4.k 3 3 w l n V I I T I Y Y E / / S c 6 c v L L x h I J.wXwXdXeXU.[.K.<.j 3 w 3 2 w j V B 4.'.&X<XZXHXGXPXPXGXFXDXAXZX1X2X.Xr.r.r.r.'.A.q.4.q.'.&XN.w.Z.;X<X",
"@X@XK.B.B.B.2.:.:.3.m.m.m.Z.Z.|.XX6XzXHXHXHXHXFXAXcXuX_./.K.K.z.d./ F L / f.h.z.P.K.K.Z.V.V.l.k.$.1.1.U x h h l C C C C G ! ! A z i._.yX(.E.E.E.M.+.V :.N.OX+X X>XbXcX:X;X%X@XP.J.U.L.B.B.Z.m.,.E.E.!.OXQ.B.P.rXrX$Xm.o.o.>.e.e.0.~.XX>X1X1X:X=X1XaX1X;X;XyX;XOXoXV.m.M.k.>.o.+.8.-XaXOXW.V.8.o.V O.>.8.7.3.s.h.P.Y.g.T C r 2 ; - , , # + + O + $ % i i 0 # # > 2 h L 1.^.OX/.M.8.7.>.<.1.s.h.k.V.OX;XOXE.N.8.+.m.B v R i.Y z Z z L I L n L L M I a.B.B.p.R v h x x x L U <.B.@XK.P.Z.k.1.>.1.k.h.h.a.i.g.H.D.( s > @ - @ . . # + + + + + : a H a.B.Z.V.k.1.i.<.<.B.k.2.N.oXV.k.f.p.*./ R Y z 2 F T T T } 0XBXJXJXjX0XH.I.0XG.{ z h x i.s.p.3.k.V.k.@.+.3.1.+.3.:.;.m.$XwXY.} C < - X @ : : : : # , u s p y F i.rXjXgXOXN.E.R.9.5.6.e.E.=XsXfX%Xm.U x z r 4 r H G s e a ! | ..J s D D D x I a.b.U.J.i.L l c V :.6.e..X>X:XE.7.l.p.#.#.k.Q. XOX=X>X`.(.-XdXeXa.t O     + $ @ - 1 ; 4 r 3 3 h I h.0XtXiXrX$X'.Z.N.6.;.;.:.4.U I N +.1.M.V.V.Z./.#X;X;XyXpXaXaXyXyX#XyXuX-X^.T.l.T.W.!.!.9.6.,.,.,.8.k.1.7.(.uX:X:X!.W.l.9.5.>.w.|.A.m.m.B.}.}.C.q.'.,X'.|.|.oXgXuX).V.m.8.r.N.|.%XdX@Xi.l 2 3 x F I I Y L L Z Z L L E d.i.L h c L i.I x U L.kXjXjXkXwXY.7XU.*.Z 6 z x n M B 4.A..X3X2XMXHXGXIXGXHXFXDXZXsX%X&X|.|.'.'.r.q.4.;.q.w.'.|.N.A.|.sXZXsX",
"#XoXV.B.B.B.m.2.:.<.2.s.s.v.m.A.y.XX6X5XAXAXGXGXFXAXcXcXvXvXyXz.R F h w l L i.f.B.K./._./.^.W.V.j.k.f.#.v h h l Z Z C C H ^ ( ! l / ).#X(.R.R.!.Q.3.+.<.N.E. X XXX>X>X;XpXdXtXwX[.[.[.P.C.C.N.A.M.E.Q.Q.m.s.P.iXrX$Xm.o.o.5.e.e.u.~.XX>X>X1X;X=X;X1XaXaX<X;XoXN.V.8.>.8.k.1.N b k.OX;XQ.k.k.8.+.V %.1.k.k.s.p.p.h.i.H t e > : - - @ @ + . . + + i i f W u , : > 3 h v :.V.oX XE.8.6.>.>.1.s.z.z.M./.OXOXQ.N.,.o.3.+.V U #.P S L L R I M M U :.:.:.s.B.B.z.p.E x h x v L P R z.).K.Z.Z.k.1.>.7.8.1.p.i.i.g.G.D.} J s < < - . X # : # # , # , s J i.B.Z.V.k.p.i.i.i.B.k.2.N.oXV.k.z.h.f.d.^ H r 2 ; q j z F g.iXCXLXJXCXkXiXeX[.G.R L P p.z.p.s.m.V.k.+.%.1.$.+.1.:._ m.@X[.Y.} C e ; - ; < : - - - : e C C F i.P.uXfXpX/.M.N.N.e.6.6.e.|.<XsXpXoX<.L z z r 4 r ! A s r s [ H.H.| K K K F I a.L.P.$XV.<.v c v o.;.;.r..X>X1X~.9.M.p.#.#.k./.&XOX=X:X*X*X-XtXP.I 8 O   O $ $ @ X = 4 4 7 4 4 3 h Z { G.0XiXrX+X.X.X.Xr.,.,.:.U M v +.>.1.3.1.8.M.Q.%X#X%X;X;XyXaXfX#XyXuX-XW.W.W.~.~.!.~.0.5.;.;.;.6.8.7.9.*X:X>X*X!.^.!.E.M.5.,.w.,.q.A.C.}.}.C.'.,XNX,X.X.X%XxX#Xz.z.k.8.r.N.&XrXtXY./ r 2 r F / / ^ Y Y L L L S R / i.i.R L L ` i.a.G.U.kXJXJXJXjX9XY.H.S.( S Z Y I <.2.m.|.2XMXMXMXHXHXHXHXAXAXzXfX<X%X&X|.N.r.'.A.q.;.;.q.r.'.A.|. X X<XZXHXDX",
"dXrX$XP.P.P.Z.B.<.4.4.4.<.4.3.,.6.u.y.XX>X5XAXHXFXGXGXFXxXuXyX).f./ S h 3 h x M #.k./.#X_./.W.W.x.V.z.p.P x x z Y H F A ! [ } ^ l E F._.(.~.~.!.OXV.1.1.8.M.E. X X!.R.W.@XdXdXiXiXeXeX$X].m.m.N.oX;X+Xk.U U m.@XrX$Xm.o.o.5.e.9.u.~.XX=X=X>X;X=X;X;X;XOX+XoXN.w.8.3.1.+.V V o.3.V.oXoXm.1.3.3.+.%.@.1.7.k.k.p.i.i.H r 2 ; > ; - X @ @ X + + @ # i W X.~ a , - : w h b B k.Q.OXE.8.6.>.>.3.s.z.z.l.N.(.-XOXM.>.;.3.1.+.+.R #.#.R f.a.` U I <.2.s.s.m.Z.K.K.z.#.v 6 h x L P U p.K.K.Z.Z.V.7.1.1.3.<.<.<.<.i.g.S.g. .! C p > - - < 9 9 u u u 9 s T i.B.W.l.j.1.i.i.*.B.k.1.N.Q.V.k.p.p.f.d./ T Z z l z F { G.I.0XkXjXCXCXjXkXeX0X7XY.f.i.p.h.s.k.B.V.k.@.+.1.#.%.1.1.:.s.].P.b.{ Z l 4 4 r a e ; - > e C H T i.P.dXfXuXOXE.M.l.l.M.w.e.E.+XaXsX#XB.L n z z r 4 C ^ G C r D | I.0XH.H.H.n.g.b.[.eXrXrXK.U k v +.>.o.;.0..X=X1X!.9.W.p.#.U s.P.%X%X*X:X:XuXyX).a.w @ + O $ 0 5 @ X o 1 4 4 4 4 2 4 2 w F n.[.%X,X<X2X3X.X6.,.3.<.U U V N B B o.>.M.Q./././././.#XyXfXyXyXyX_.W.W.W.^.~.!.~.9.t.;.;.;.>.9.0.l.*X:X*X`.!.~.R.9.5.>.8.M.w.A.].].].{.&X,XNXHXmX3X+X<XpXz.<.1.3.8.A.'.%XdXeXG.Y r r C ^ d./ Y L L Y Y Y Y R R d.i.i.R R <.g.wXjXBXBXJXjXtXU.S.f.f.d./ E / d.s.B.].+X2XAXHXHXHXGXHXHXMXMXAXxXuX|.N.N.N.N.r.4.;.4.q.r.'.|.'..X+X2X1XsXAXZXsX",
"jXfXpXrX%X$XP.Z.m.v.3.3.4.:.:.,.6.6.y.y..XXX3X1XzXFXKXGXvXfXyXrXU.J.p.E v k c h v +.x._.#X_./.Z.^./.Z.k.#.L L Y T T H H ^ } } ^ 3 Y z.(.(.!.!.!.OXQ.k.3.,.8.E. X*XR.@.N U h.[.eXkXeXeXiX[.n.m.C.oX;XoX+.h k 2.P.rX@Xm.+.o.8.e.e.u.~.XX=X=X;X;X=X;X+XE.e.8.m.m.m.1.3.3.+.V V k.#X/.+XoXm.1.1.1.:.7.1.@.3.z.B.f.i.Y z 2 ; ; : : : - - 1 , , 0 u a f W ..X.d : - > j k b B 8. XOX Xe.9.6.3.3.s.s.s.k.l.Q.;X;XQ.8.8.1.3.1.#.<.f.p.R f.b.J.B.s.s.s.m.B.P.@X).K.z.#.M h h x L P U #.p.K././.Z.k.7.>.@.+.<.1.<.<.i.g.h.G.| ^ D r > 9 p a a a d a a G T i.V.W.M.j.1.i.*.*.z.k.1.N.oXV.k.#.i.f.S.d.T L F F x T Y.iX0XH.} d.G.Y.I.I.I.7X0X9XJ.h.p.f.s.k.V.V.M.1.+.1.+.%.1.>.:.k.P.J.h.i.F H C C H ~ A e 2 z D T ` 2.B.%XvXfX-XE.Q.N.8.8.l.e.N. X<XsXpXP.2.L M Z l 3 4 A ^ H C r z [ I.0X0X0X0X[.{.eXhXjXdX@XB.P k P s.3.V ;.r..X=X5X XR.W.j.#.U 2.Z.%X%X#X;XuXuXrXJ.L > . + + 0 i i 1 X o = = ; < 4 4 2 2 2 w n ` C.&X<X2X+X.X|.N.m.k.1.<.+.o.N N N +.1.k.k.M.V.V.V.Z.OXyX#XrX#X_.W.W.W.^.~.~.R.9.,.;.;.;.,.8.0.l.*X:X*X`.!.R.9.0.0.e.Q.+X'.].$X[.].$XhXBXNXZXmX,X+X%XP.#.E <.s.m.M.&XpXdX@Xg.Z r C H ^ { Y Z z Z Y R / R E R i.h.h.a.` U i.wXjXBXjXdX@Xf.f.i.R R E E i.S.K.].%X<XsXAXAXHXHXHXHXHXAX1X1X1X;X+XN.m.w.w.q.,.] ] ,.r.|.&X&X|.1XsXZXAXAXAX1X.X",
"rXpXdXjXgXiXoXC.].C.m.v.3.3.4.4.,.6.e.e.r.E..X X+X=XaXFXIXPXFXfXuX#XK.z.k.1.P b b N 1.W.-XyX;X#X#X#X/.B.<.P P R I T H H [  .} ^ 4 S c._.-X*X`.!.!.Q.M.3.,.8.~.XX*XR.%.c 3 h ` G.0X0XeXkXiX{.[.$XB.Z.s.k 3 k s.@XtX@Xm.+.o.8.M.9.e.E. XOX=X;X;X=X=XOXN.3.,.,.3.1.:.+.+.1.V.oX/.N.&XoXZ.m.3.:.:.+.k.1.+.1.z.J.h.d.z 2 ; ; : - - - < < u p d f W X.X... ...a : - > x b V o.N.OX*X!.E.E.e.8.3.3.2.1.k.k.W.;X;XOXQ.Q.3.3.1.#.p.z.f.P i.L.iXdXrXP.C.L.].rXdXrXK.s.#.P x l h x U R R U V.^././.V.k.@.%.>.1.3.1.<.<.i.f.Y.g.} T C t s s G f W W f s G T p.V.W.l.j.p.i.i.*.z.k.1.N.oXQ.M.z.z.S.S.d.Y F L Y Y d.7XeXG.T C 3 w z H / d.Y.7XwXY.h.p.p.k.B.P.Z.V.3.@.1.#.%.1.>.:.m.P.B.p.i.Y Y F Y / ( ^ A z T ' { a.v./.pXxXuX!.R.W.W.9.7.8.e.E.=XaXfX;XB.U U L x w 4 2 r ! F z w y J I.kXVXkXkXiXkXBXDXBXhXK.s.U M <.B.3.V 6.y.XX2X5X XR.W.k.<.U <.B.&X%XOX-XuXuX).d.l - . + % i W Q u 1 X o o = ; > e e q q 2 2 j 2.'.+X+X+X=X<X;XQ.m.s.1.k.1.:.o.B B o.o.1.k.M.M.M.M.Z././.#X#X#X_.(.(.(.^.E.R.6.>.;.;.;.,.8.0.9.!.*X*X*XE.E. XOXOX+X+X%X].{.[.eXiXhXBXBXNX,X,X+X%XQ.1.#.#.p.k.m.N.&XpXdXP.{ l l H Y Y Y x l h l z L E R i.g.J.J.J.h.R M n i.L.U.@XwXJ.R s.<.P x v U B.rX,X<XNXAXAXHXHXHXHXHXAXZXsX1X<X+X8.M.N.N.A.3.] V '.'.A.r.A.|.<XsXAXAXZXAXHXAX1X.X",
"B.].rXjXBXjXpX%X&XoXZ.A.m.q.3.4.] ;.;.4.w.r.r.N.|. X X;XxXKXKXKXKXSXfXyX#X_.V.k.N N +.k./.yXuXyXfXfXyX/.k.#.R R E T R { g.D.} ^ 4 Z =._.-X>X`.~.R.W.M.8.>.9.~. X!.W.7.v 4 = 2 D H.8XqXkXkXeX0XeXB.s.P 3 4 h i.[.wX@Xz.+.+.8.M.l.e.E.OXOXOX+XOX X X|.N.8.,.>.:.o.+.:.:.3.Z.#X%X&XoXZ.m.3.1.:.B +.k.1.<.p.z.J.f.{ r 2 > e e < - < u p d f ~ ! .. . . . .! a : - q M V B ,.E.=X=X X XE.M.e.8.3.1.:.k.k.V.OX;X;XOX#Xk.s.<.+.p.z.p.L R J.kXJXDXdXrXrXdXjXjXtXB.i.<.i.I x h x U R U P z.V././.^.l.1.@.>.>.3.8.1.<.<.p.B.b.h.{ T F F H G G ~ ~ f s G T s.V.Q.V.k.p.p.d.R z.z.1.N.|.Q.M.k.f.h.S.f./ R i.h.Y.0XI.{ l 3 r 2 2 2 w Z / S.I.9XY.h.i.p.k.V.P.Q.Z.j.1.1.+.%.1.>.>.M./.V.s.p.R Y Y Y / ( ^ Y Y ` 2.s.v.Z.;XaXzX*XE.R.R.R.l.k.l.N.|.<XpX;X/.1.M L L z w 2 3 C H F x w w F H.kXJXCXJXJXDXDXBXdX@Xs.<.+.<.z.B.k.;.y..XXX>X5X=XR.M.k.s.:._ v.P.oX/._.yXtXK.E 4 = X . u Q W W Q p 5 = = X = - > 8 q q > > w ` C.&X+X|.+X1X<X#XoXP.V.k.1.:.+.+.+.+.o.>.8.k.M.M.M.M.V./.).#X#X#X#X-X-X!.!.R.7.>.,.;.;.>.0.0.0.!.*X!.(.E.E.Q.N.N.Q.|.'.{.[.iXVXCXBXiX$X].q.|.,X%XZ.+.p.p.z.V.m.Q.%XpXyXK.E l Z / / Y F Z x l h h z Z L h.J.L.J.p.<.U M n n k n U 2.U M b N +.2.k.Z.%XhXsXNXAXHXHXHXHXAXHXAX2X2X;X%X/.Z.N.N.m.3.,.4.2.q.A.'.&X&X,XpXZXDXAXZX1XZXAXZX=X4X",
"U 2.C.$XdXhXgXgX,X%X&XoX'.N.w.3.;.] _ ;.4.,.w.w.N.|.|.N.M.OXSXKXKXKXFXDXvXfX-X(.8.>.+.>.k./.#XyXcXvXvXfX@XB.s.p.f.h.h.H.H.H.{ Z 4 l =.^.-X>X`.~.R.W.V.8.6.9.y.E.Q./.V.#.w = = > .. .H.0XqX0X0XI.Y.i.h 4 2 h ` P.wX@XB.#.+.k.V.l.M.Q.OXOX XQ.Q.M.N.N.m.3.>.1.>.+.:.s.m.3.2.V.%XpXoXm.3.4.:.U U <.s.p.p.s.z.h./ F r 4 e f a < 1 < p d ~ ! [  . .D.H. .[ f q : 2 z U +.:.w.OX1X>X X X.XR.e.8.3.1.<.k.l.M.W.OX;X;X;XZ.B.s.1.s.h.p.<.L i.wXBXJXDXBXSXJXDXjX@Xp.i.i.f.i.F l x L E U P p.k.Z././.Z.k.1.>.>.1.8.k.1.<.1.s.B.B.f.{ I L H J ! ! ! ~ f H R k.V.Q.W.l.k.p.i.R z.s.1.N.|.Q.V.p.#.=.S.S.d.f.Y.I.wX7X/ 3 = = 2 w 3 3 w l F { Y.U.J.f.#.p.k.V.P.Z.Z.j.1.1.+.%.1.>.>.M._.V.k.f.*.E E E *.*.*./ R 2.3.w.M.OXaXcX:X!.R.T.9.l.l.x.W.|.=XaX<XoXm.U k x x x z z F T { ` ' F w w ' {.iXBXDXDXBXjXiX].v.<.+.<.z.K.z.l.M. XXXXX>X5X:X!.M.k.s.2._ 2.m.C.Z./._._.f.Z ; X X X u W ~ ~ ~ ~ d 5 < 1 - : > 9 8 y 2 2 w I m.oX+X|.+X=X+X%XyXyX#Xm.8.>.:.1.3.1.1.+.>.1.8.k.k.k.k.Z././._.#X-X;XyX(.Q.M.8.>.,.>.;.@.0.8.0.E.Q.E.N.Q.N.8.>.3.A.P.].iXiXkXVXVXiXL.` 4._ '.&XoXB.+.f.j.z.k.m.Q.;XpXrXJ.L 3 Z } d./ Y L L F x h j L U J.P.J.i.U U i.s.J.U h 3 h k k k h V m.+XpXsXxXzXmXMXAXHXHXAXAXmX2X2X=X&X/.K.B.z./.N.3.:.:.v.].&Xv.'.<XNXDXSXZXsX2X2X2X2X2X3X.Xr.",
"h m U s.L.$XpXhXdXpX%X%X&X|.N.m.m.v.4.4.4.,.q.w.q.r.M.N.Q.=X;X;XxXvXFXGXFXvXaX;XOXQ.l.1.1.M.oX;XxXDXFXDXgX%X/.K.U.U.I.I.I.H.T r 4 6 %.T.`.*X`.~.R.Q.W.k.8.9.e.e.(./.K.i.l = o - , a ! ..H.0XqX{.S.F 2 ; 4 z i.U.wX).B.#.+.k.V.m.M.Q.OXOXQ.N.M.6.m.8.>.o.o.>.8.3.3.m.m.m.Z.$XoXZ.oXs.:.:.:.:.:.s.1.1.s.z.J.g.Y r r < e s p - @ < d f ~ .. .D.H.H. .[ D e > > r F <.:.>.M.*X1X2X.X.X~.y.e.8.8.3.>.k.l.M.k.Q.;XyX;X#X/.B.k.s.s.z.B.L L h.dXJXLXJXLXLXJXiXB.<.<.f.h.d.Y z x L L U R #.p.V./.#X/.V.7.>.@.>.8.k.1.1.1.s.B.K.B.i.R L L T ! ....~ G H R k.W.!.W.l.k.f.p.R h.s.1.N.|.Q.M.z.p.=.c.z.f.f.J.wXwXY.Y l h l 3 l h h h h l Y h.Y.J.f.#.p.k.V.Z.Z.Z.j.$.$.+.%.1.>.>.N.OXW.k.c.p.=.#.*.=.=.=.=.p.m.r.e.E.=XcX1X*X~.R.9.7.7.l.W./.OX<XsX;XC.<.M h h x Z L R i.h.h.b.b.` j 2 w I v.{.{.$X$X$XoXC.s.+.U 1.K.^.k.M.OXXX3XXXXXcX6X!.R.k.v.s._ ` v.Z.V./._.Y.=.r = X @ X u ~ ~ ~ ) ) ) G s p e e e a a s t q w x <.C.%X<X<XOX|.OXpXyX#X#XQ.k.1.1.1.>.>.o.o.+.>.1.8.8.8.k.V.Z.Z./.#X;XyXOX/.N.8.>.>.>.o.o.8.0.8.E.Q.8.8.8.N.Z.Z.oX%XrX$XhXkXkXkX0X| m y m ] &X'.A.V.+.p.z.x.k.8.Q.<XpX#XJ.L 3 Z d.D.d./ R R E L x n R a.L.U.J.` M <.P.iXjXB.k h h k k B 4.w.Q.+X<XsXAXAXAXAXHXHXAXAXmX2X.X.X&XoXV.z.z.z.k.,.:.3.m.L.].L.iXiXhXBXSXgX<X&X.X.X3X2X2X3XXXXX",
"w 2 w n 2.v.P.$XpXhXhXhX<X&XZ.A.].L.v.2.4.4.4.,.;.3.N.N.N.M.N.E.=XbXAXFXFXxXxXcXxX:XQ.8.>.7.N./.yXxXGXKXFXvXfXdXdXjXjXiXI.| z 2 4 x %.j.~.>X*XR.l.Q./.k.+.>.6.9.W._.).z.T 2 o X @ # < a !  .H.H.^ z ; = ; x f.U.).wXB.+.1.z.B.B.V.N.Q.Q.V.8.3.8.3.:.o.o.:.8.k.m.k.V.oX#X$X/.Z.Z.m.3.1.:.:.:.1.k.<.p.B.B.f.E l 2 4 e e e < , , < p G [ }  .g.g.| { F 3 ; 2 r H / s.>.8.E.1X1X>XXX~.E.E.E.M.8.1.1.7.l.M.8.k./.#X#XfX+XZ.Z.k.#.z.wX#.L F h.iXjXDXDXDXiXb.I R b.Y.G.d./ Y F L E R R U 1.z.V././.V.7.>.5.5.7.0.7.>.+.k.m.V.V.B.s.R L T H J [ [ H Y <.l.W.!.R.l.k.f.i.R h.s.1.M.|.Q.V.z.f.f.z.h.<.s.J.wXU.d.L l z Z x L x l x z x L *.J.S.p.<.<.p.k.V.Z.Z.7.+.$.%.%.7.7.O.9.OX(.V.z.p.#.#.=.=.p.=.p.k.w.r.E.=XzXzX>X~.u.u.9.0.7.V././.pXsXpXoX2.N x k h L R R i.J.L.L.U.L.a.M q > w n ` n.].[.P.Z.m.3.+.#.k.P.K.k./.aX=X2X2XXX>X6X>XM.B.B.s._ _ 2.m.Z._.^.c.E C < - - - < d ~ ( ( ( ( ^ ! ~ G G f a a s r z m z k <.oX<XaX;XQ.M./.yXuX;XyX#XV.k.k.k.1.+.+.:.+.o.+.:.1.Z.k.3.3.m./.#X%XoX/.V.8.1.>.>.>.>.>.8.m.Q.V.3.B V 3.P.oX%XhXhXiXBXkX0XH.' q - - m 4.'.'.m.3.1.1.p.k.k.8.Q.<XpX%XB.x ; l d.Y.G.i.i.<.i.i.<.R R a.J.B.<.M U L.dXjXjXP.U M V V B 3.|.+X=X2XsXAXAXHXHXHXHXMX2X3X3X.X'.'.Z.B.s.p.h.B.U :.m.C.P.].$XeXkXjXDXSXdXZ.3.,.,.3XAX5XXX.XXXXX",
"2 2 w j n I 2.B.$X%XhXgXsX<X&XoXC.L.C.C.v.4.4.B q.w.A.N.A.N.m.M.M.E.*X1XzXZXFXKXxXxXaXOXW.8.1.>.8.Q.aXFXKXKXKXKXLXLXjX0X{ z 2 ; 3 c P &.~.>X>X!.7.V.Z.k.>.>.5.0.W.#X).K.d.r - - @ @ @ : e f G K t 2 - = ; x f.U.@X@XB.+.<.z.z.B.3.s.m.B.s.:.+.:.B o.>.8.M.N.k.8.V.oX%X#X#X%XoXZ.m.3.>.:.>.:.1.3.1.s.B.B.i.L l w C C s e < < u p G (  .| J F x j j w 2 ; 3 Z / h.k.3.8. X1X1XXX.X.X~.E.E.e.8.1.3.k.k.k.3.8.V.OX%X;X+X@X/.k.#.p.U.i.R n x I h.L.L.v.2.n j I G.Y.g.{ { / T Y Y E E P <.s.B././.W.k.7.5.>.5.7.7.1.>.8.k.V.V.B.s.<.R R Y H ( ^ H Y <.l.^.!.R.l.k.f.*.R h.h.1.N.|.Q.N.k.f.c.F.z.i.p.B.U.U.h.R L L E E R P P P L v L #.J.z.p.i.1.s.k.V.Q.Z.j.$.$.+.%.j.5.;.9.OX(.W.l.p.$.#.$.=.=.$.p.k.M.e.~.>XzX5XXXy.u.u.9.9.l.W./.#XhXpX%XZ.<.N x x z L / i.a.h.B.s.B.a.U n w 2 j ' C.].rXdX%XV.1.+.<.k.B.K.K._.yX:XXXXXXXXX>X6X>XR.B.B.s._ _ 4.m.N._.^.z.*.Z r : - - ; < G ( D.D.D. .} | [ ! f a 9 9 e t D z j _ Z.yXyX-XV.m.V././.#X;X;XOXQ.V.k.1.Q.M.1.B V B >.8.k.k.k.k.k.B.V.Z./.Z.V.8.>.:.>.>.>.1.8.k.Q.Z.2.V h U B.[.eXhXjXkXeXH.| K e - - 2 ] q.|.|.A.2.p.p.f.k.l.M. X1X<X&Xs.x 3 z h.I.Y.b.h.i.i.p.a.` U U U N k m s.hXJXJXhXB.N V B 3.|.pX1X2X=X2X2XAXHXGXAX2X.X.X3X3X.Xr.|.'.B.s.s.i.i.2.s.q.A.C.].$XiXkXBXBXjXeXs.V b V .X3X5X2XXX.XXX.X",
"; 2 2 w w w x I s.C.$XpXgXhXpXpX@X[.].].C.A.3.;.;.;.:.3.m.m.N.m.8.M.E.E.OXaXSXGXGXFXZXaXOXM.8.,.5.0.E.;XaXfXgXjXSXjXwXi.j 2 2 w Z L %.@.~.>X>X!.l.Q./.V.k.8.8.8.l././.K.S.H : - , : @ @ : 8 9 e : : ; ; 2 x h.@X@X@Xz.U <.s.k.B.p.s.m.m.s.:.+.<.+.:.1.m.V.Q.V.N./.#X;X#X;XyXOXm.k.1.>.>.1.>.>.1.7.k.B.s.R x h w Z D C p 9 9 p d ~ } D.} L x M L U M c h x E f.S.B.k.N.OX1X=X Xy.y.E.E.E.M.8.1.k.z.k.7.3.1.k.Q.;XoX%XyX@Xk.<.<.s.U.U.f.x h k n k w 3 2 w I b.G.d.g.D.S.g.{ R E R P #.<.s.P.@X/.Z.0.5.@.@.>.5.7.1.1.8.m.V.V.k.3.<.<.I T ^ T H P <.l.~.!.R.l.k.j.*.R h.h.1.m.Q.Q.M.j.p.c.K.z.p.<.p.B.U.U.J.h.p.p.p.p.p.h.h.i.R R #.F.z.p.i.p.s.z.V././.k.1.1.+.+.k.5.;.e.*X(.W.l.7.7.$.$.$.$.$.j.l.!.~.XX5XzX>X~.y.R.9.0.l.W.W.#XuXhX%XC.2.P M x z S Y / i.p.s.2._ U n k j j j I B.eXeXrXrXP.<.N N k.K.K.z.K.fXfX*XXX.Xy.XX6X6X>X(.V.B.2.<._ :.q.V._.^.x.=.Y C e > - = ; 4 H d.S.S.H.D.D. ...G a , - > t F x j L s.#X;X#XV.k.k.k.7.V.oX%X;X%XOXZ.k.k.8.1.1.>.+.o.N +.1.k.m.k.s.k.m.Z.P.Z.k.<.+.:.1.>.>.1.M././.2.m ; n b.0XiXkXeX[.| K e > - X : w ` '.+X&Xm.1.$.=.j.l.M.E.=X1X=XN.B h 3 z d.U.[.[.B.a.<.<.<.U I M U P U v.iXDXSXrXB.3.3.Z.&X%X<XsX;X1XZXAXHXHXAXAX2X2X2X3X.XN.r.A.w.3.4.<.s.h.h.s.C.A.C.].eXkXjXBXkXtXL.U w 2 k ,.sX5X1XXXXXXXXX.X",
"q q 2 2 2 2 w j n U s.P.%X<XpXhXdXrX@X].].].Z.m.B B B 4.3.m.B.B.V.N.N.N.N.Q.;XaXFXFXFXSXaX=XE.R.O.O.O.;.8.8.m.N.m.s.U n w w n I i.s.k.9.~.XX XR././.).K.B.k.k.l.k.Z.^.K.Y.( < - 9 , # @ : 0 8 8 - < e q w n g.[.@X@Xk.U #.2.s.z.B.s.s.s.s.1.1.2.k.k.k.8.m.Q.OX;X%XOXOX#X;X#XV.8.8.>.+.1.7.1.>.>.k.k.k.1.P k h z l z C s p p d f ( D.H.d.I U s.K.@XZ.p.U E i.F.F.V.M.Q.*X:X=XE.0.0.e.E.!.E.l.8.k.x.k.j.k.8.7.V.;XoX;XpX#XB.s.p.#.h.Y.Y.{ j 3 2 2 h h w w F } d.} G.H.Y.I.Y.g.i.R R R #.<.z.).#X/.l.5.@.O.@.>.7.8.1.1.k.M.V.V.k.k.i.R T Y F F P $.l.~.`.R.l.l.c.i.R h.h.1.m.Q.W.M.k.j.j.x.z.p.$.<.s.P.rXwXU.J.B.B.B.P.).P.B.s.<.i.z.h.p.i.p.s.z.V././.k.1.1.+.+.k.6.;.e.*XOXW.l.7.j.$.$.$.$.1.l.W.*XXX>XcX6X~.y.~.R.0.5.R././.rXfXhXoX3.U M x x x L E R i.s.s.<.U M h h k k M a.[.iXeXU.B.#.k b +.V./.V.z._.fXfX!.>X~.y.XX6X6X6X-XZ.z.s.<.:.:.3.M./.^.x.f./ F s e 2 ; = ; r Z T / g.g.D.g.| K e : @ : s H F z M #.Z.#XyX/.k.7.1.>.+.8.Q.#XyXyX#X/.>.>.3.k.k.1.B b B +.1.s.s.v.m.B.C.P.P.B.2.:.1.8.1.>.1.V.@X@Xi.j o w n.0XiX0Xg.T q : - - - ; q n n.{.<X&Xk.#.$.j.j.k.N. X1X1X Xw.b 6 3 h R J.rXdX@XL.p.R I N I U M <.oXjXLXLXhXC._ 3.&XNXDXsX;X+X=XsXHXGXGXHX2XXX1X1X1X+XN.w.w.A.:.:._ <.s.B.C.C.C.'.&XiXjXBXjXkXG.d.n 2 ; 3 <.+XHX5X=X.X+XXX XE.",
"C t q 2 2 2 w 3 3 h M :.m.Z.#XyXdXrX@XoXoX].Z.C.v.m.v.3.2.2.2.2.2.s.m.m.m.Z.Q.OXOXaXFXKXKXAX1X X~.0.O.V V V V V B I I I ` { g.a.L.P.&X X X X X!.OXP.J.B.h.p.1.1.x.(._.).wXD.A 9 < , # # , , : : : 9 s t t F a.U.@XoXk.U :.<.<.p.B.<.U R <.1.1.1.V.V.Z.Z.Q.OXyXfXyX/.Q.;XyXW.7.8.1.@.@.1.7.1.>.1.k.k.j.+.v k x x w r r r a s ~ ! H.7XY.i.L U m.oX;XOXx.$.#.z.K.K.V.V./.;X:X Xy.0.t.t.y. XOXQ.M.k.z.j.j.k.k.1.M.OX+XyXpX@XP.P.k.#.R d.S.L.i.k j L n.a.T n z F T T G.D.S.I.I.Y.d.i.#.#.R U p.K.@X#XV.8.>.o.o.>.1.8.>.1.k.k.V.V.V.V.p.<.E Y F L P $.j.~.`.~.l.l.z.i./ S.h.1.M.E.E.M.l.j.j.j.j.1.+.+.1.P.dXdXrX@X/.P./.#XtX#XK.k.s.s.h.h.f.p.p.s.B.Z./.Q.k.1.1.+.+.j.8.;.M.=XOXQ.l.7.7.1.$.$.7.7.x.!.*X>XcXcXXXu.y.XXR.9.0.W.OX#XyXgXrXC._ M x x x S R R #.i.s.2.<.<.U L M M N U b.eXdXrXP.s.v c P k.K.V.z.^.tXfXuXOX>Xy.u.y.XX>X>X:X^.z.s.<.:.:.>.k.W.W.W.z.p.T C t r w 2 2 3 w j x I R { } { H e : - > s H H x L U 1./.uX#XM.8.8.8.V o.3.Z.OX;XyXyX#X/.M.8.3.8.3.1.+.B B U <.s.v.v.v.C.Z.B.2.<.1.7.$.$.1.V.@X@Xi.j o 2 T n.n.| C 2 : - - : : > t T L.$XpXoXk.+.$.j.j.9.E. X1X1X.X6.V b h 6 x p.eXjXBXjXdX@XB.s.b.B.C.iXDXJXSXrXC.v.Z.oX<XsXaX<XsXZXHXHXAXAXAX2X2X3XOXQ.m.m.N.N.m.3.3.3.3.q.q.A.A.'.&X,XhXBXBXkX0XH.T C 2 = 4 N P.pXZX2X X X+X.X.XE.",
"! D r 2 q r w 2 3 w h k B <.m.P.#X%XyX%X%X&XZ.C.C.C.C.v.a.<.<.` _ 2.v.B.B.m.Z.N.N.OXaXDXFXFXFXAXzX=Xy.;.O.V V V 4.3.m.].eXrXeX[.].$X,X+X.X XXX=XOXK.h.h.f.i.#.+.x._._.).tXI.! s 9 , , , , 9 : : , 9 e e y F a.P.@XoXs.+.:.:.U <.s.R L U <.s.s.s.s.V.%XaXyX;X#X#X-X/.(.;X-Xl.>.7.@.@.@.1.7.1.7.k.l.8.@.N b k x L x C z r r G  .8XqX0XY.R M U M.OX;XOXW.1.p.K.9X9XK.W.OX;X>X!.u.0.O.O.0.!.*XOX^.V.j.p.p.j.j.1.8.M.#X;X%X+X$X@XK.s.R Y R J.J.i.b.eXiX0Xb.I x z F T } ^ ^ g.Y.g./ E L E U U #.z./.#XQ.M.7.>.@.>.>.1.1.1.8.k.M.V.Z.Z.s.i.R L L L U @.9.~.`.~.T.l.z.i./ G.z.1.M.Q.E.M.l.j.$.$.1.1.%.B :.Z.yXfXdXyXrX%XyXfXfX%XV.k.s.s.f.f.f.p.p.p.B.P././.k.1.1.+.+.k.6.;.M.;XOXQ.M.7.7.1.$.7.j.l.W.*X*X6XcX:X~.0.u.`.9.9.9.W.OXyXdXdXoX3.V m x l z Z i.i.p.h.s.2.3.2.K.K.z.<.U <.L.@XrXwXK.<.v b #.z.V.k.V.uXfXfXuX:X Xy.t.t.u. X>X:X/.B.s.2.<.U >.8.R.W.W.V.z.{ F D z C F F F x x n n L R { { J t e : e s G H Y L P E Z.uXyXQ.V.M.M.%.o.+.8.N.Q.#XyXvXaXOXV.k.8.8.k.3.:.N V U _ 2.2.2.a.v.v.1.<.<.1.$.1.j.K.wX@Xa.z o - y C C y 2 ; e : - - ; 4 D | [.%X%XQ.7.$.-.c.l.9.R. X2X3X.X6.:.+.M h h L v.].jXJXLXJXSXjXBXBXDXJXDXdXC.2.3.m.,X<XpX<X+X<XDXKXGXHXAX1X2XXXXX=XV.V.k.s.3.3.2.3.3.m.N.N.A.'.|.&XNXNXBXVXiXH.J t w 2 = ; x B.dXvXsX XE. X+X.XE. X",
"[ ! G r r C z w w w h h h k N +.k.Q.%XpXyX%X+X&XC.C.B.m.b.s.i.` ` 2.s.v.s.v.m.m.|.|. XOX;XzXFXIX5X=X XE.E.E. X+XoX$XiXhXBXBXkXiX].].|..XE.y. XOX#XK.b.G.Y.h.p.$.j.^././.9XY.[ G a u 9 9 p a a a 9 9 > > y K a.C.oXP.s.:.<.+.B ` a.<.<.a.h.h.B.V.m./.uXfX;XQ.M.k.Q.OX-X#XW.l.7.@.@.@.@.7.7.7.l.W.l.1.%.b b b M L L Y Y H ^  .8XqXqX7Xg.L M +.M.E.*X-XQ.l.z.^.).^.^./.#X;X*X~.u.0.O.O.t.R.-X-X/.K.j.j.p.1.1.8.k.1.oX+X%X%X%X#X/.B.*.Z h n R i.P.kXkXeXL.g.| [ | | / H F / { L z h h x P U +.p.V././.W.k.1.>.>.+.+.3.3.8.k.k.V.Z./.k.s.i.E L P #.$.0.~.`.~.T.x.z.p.*.Y.z.1.N.Q.Q.M.l.j.$.$.$.$.o.N +.N.yXfXvXvXSXSXSXDXvX#Xk.1.1.1.p.f.h.p.p.p.B.P././.k.1.1.+.#.k.8.;.N.;X*XQ.M.7.7.1.7.j.l.W.(.-X:XcXcX*XR.u.u.0.9.M.E.N.#XdXdX%XC._ k k x h l z *.d.z.B.s.U B :.@XrXwXp.R h.U.[.U.U.p.P v $.z.z.k.z._.vXvXuX-X:X~.y.t.O.t.~.>X:X_.K.k.s.1.o.>.9.R.R.^.^.V.p.T F F I i.b.B.h.2.U N P ` i.d.{ H D e p s C H T E P M k.#X-XOX(.Q.V.8.>.+.>.3.k.Q.#XyXyXyX%X/.V.8.1.k.3.<._ _ _ _ _ ' 2.s.s.s.1.1.1.$.p.z.K.wX[.a.F = - > q 2 : ; > r > : 1 4 e T G.@X%X#XV.7.$.-.c.l.9.E.XX3X3X.Xr.8.k.<.N k M U <.P.iXSXJXJXLXLXJXhX%XP.m.v.C.$XhX,X<XsXsXsXgXAXHXzXzXzXsX1X+XE.M.k.K./.x.<.U 1.m.m.A.C.|.&X,X2XNXpXpX$X].g.F q ; ; = ; h i.tXvXSX;X XE.*X XE.E.=X",
"} } ^ C s C F C l l w 3 2 3 h h N 1.Z.$X#X%XrXpX%XoXZ.K.K.J.h.2.U ` 2.2.2.s.B.Z.N.N.E.E.XX1XAXFXFXAXzXzX5X1X1XsXgXBXSXSXjXkXiXiX[.'.A.r.w.e.M.Q.@XJ.b.Y.I.Y.f.<.7.W.^.^.).Y.} ^ s e 9 9 a f G ~ f e > > w I a.B./.Z.8.>.1.+.N +.<.<.s.B.J.B.L.@X@XrXrX@XB.<.+.@.k.-XuXQ.7.8.5.O.o.@.7.7.7.7.l.Q.8.>.N b b V L L L ^ g.D.H.8XqXqX0XH./ Z x U 1.7.W./.W.k.l./._.V./._.-XyX*XR.0.9.O.O.O.R.-XyX_.^.k.k.3.>.1.M.m.>.N.Q.#XyXyX#X/./.J.#.k h L h.wXiXiX[.L.I.[.[.Y.G.{ Y F Y Z 3 ; 4 4 h P U #.1.z.Z.#X/.V.k.1.>.+.+.7.8.k.k.m.V.W./.B.B.f.R E R #.$.7.~.`.~.T.l.k.p.i.J.B.3.N.|.Q.M.k.1.#.#.$.$.B b B k.%XgXSXFXKXKXLXKXDX#Xs.:.:.<.p.f.s.f.1.p.V./././.l.3.p.#.#.k.8.,.E.;X=XQ.M.8.7.1.7.l.M.W.(.:X:XcXcX!.R.~.u.O.5.E.E.N.+XfXdX$Xs.P k x x h 6 l / i.B.B.1.V k V P.yXrXi.U b.wXwXwXK.#.x P K.).K.1.W.uXvXfX-X(.*Xe.u.t.O.O.~.:XuX_.K.k.k.1.o.;.9.u.R.!.(./.h.` T Y / h.[.rXwXB.<.<.<.i.h.h.g.{ T s t y t H / R L v p./.#X-X-X_.V.V.8.>.>.>.3.N.OXOX#XyXyX#X/.Q.Z.k.k.m.3.:._ _ _ _ <.a.s.s.s.p.1.$.j.x.^.wXI.d.F - : q t e > ; ; 4 ; 4 e r C { L.@X$X/.k.1.$.j.c.l.e.E. X3X3XXX.XN.|./.k.:.B U U 2.C.$XrXdXjXjXpX%Xm.:.3.'.,XrX%X<XsXsXsXzXxXsX1X;X;X;X;X=X XE.M.V.k.k.j.k.m.m.A.Q.Z.'.&X2XNXNXNX].}.n.' t > : : ; 4 r Y J.dXvXgX=X!.!.=X Xe.E.1X",
"J.` ` { C C ) ! G A C r 2 ; > 2 z n I a.L.wXrXrXdXrX/.z.s.k.Z.@XV.<.b V 3.Z.N.q.,.6.E. XXX>X>XXXFXGXIXKXGXAXsX1XsXhXrXrX@XU.U.L.L.Z.Z.C.m.2.<.` a.h.Y.I.I.Y.g.i.7.j.W._.P.K.J.{ z t e < p ~ ) ! ! s : ; w R B.@X#XV.@.@.7.5.@.7.M.l.k.k.B.U.tXkXkXeXY.i.M h k B Z.-X-Xl.1.3.7.%.O.7.l.7.$.l.W.l.8.B k k M P L x T } H.0XqXqX0XqXD.} D r l F R i.B./.W.l.l.!.!.E.W.-XuX-X(.T.l.0.0.5.&.T.-X(.W.(.Q.Z.w.:.o.,.w.M.>.N.OX;X-X-X_./.#XV.1.k h k.dXrX[.U.U.wXiXkXkXkXeXS.Y z l 3 ; = 4 6 v #.#.E $.V.).)./.V.3.+.+.+.k.k.k.k.k.l.V./.).B.s.s.<.U +.j.k.W.!.W.M.k.7.>.#.B.B.3.M.OX XQ.k.c.f.c.f.R v x N U K.BXKXKXDXJXJXJXjXZ.P v P <.h.z.z.1.1.3.V./././.l.3.p.#.<.V.8.,. X:X*X!.8.8.5.>.>.8.E.Q.OX:XDXbX XE.E.E.9.;.8.e.E.+X1XaX+Xm.R L L Y Z 3 ; 3 R U a.P.B.V h h s.oXoX<.M h.tXwXY.f.L M <.Z./.Q.l.-XcXcXaXaX+Xr.r.r.;.b t.>XcX:X(.K.x.k.1.@.;.t.y.y.~.!./.V.f./ Y *.Y.7XwXU.B.p.R U <.h.B.h.i.2.n t w w F T R E L R z.@XuXuXOXV.V.k.3.,.>.8.8.8.OX;X;X#X#X#XyXuXoXk.:.B 3.q.:.V _ :.2.s.k.k.s.p.-.-.c.K.9X[.d.D : q a e q r r r 4 4 3 w z R b.P.%X%XP.s.1.p.z.z.k.Z.OX;X;X=X=X=X+X+X=X<XOXQ.M.N.m.>.V b b V k k k ] A.'.|.&X<XsX1XZXAXAXzX1X<X<XsX;XQ.N.V.V.M.k.>.o.V ,.Q.=X+X.X6.'.<XNXZXZXsX&XC.] t q : X - e p 2 H G.@XjXxXOX!. XXX X!.!.OX:X",
"oXv.2.` H C H H H ~ ~ s e > : > q w z F ` h.U.eXrXrXrX@X/.V.k.l.k.8.1.:.:.:.3.w.r.A.M.y.~.XX>X>XcXzXAXAXAXzX1X<X<X,X%X$X[.L.J.h.s.s.<.2.a.a.2.` ` ` R R / { { i.j.7.W._./.$X].s.j D t e < d ) ) ..A 2 2 l E z./._.Q.9.9.R.9.5.5.9.k.V.P.@XtXtXqXqXH.J w 2 3 N k./.#X_.l.1.1.>.%.@.7.k.7.j.x.x.7.B V k M U R F z C T g.H.H.D. . .J F z r l x L L <.k.V.M.R.!.~.u.^.-XuX-X^.W.l.7.l.l.&.j.(.(.!.OXN.N.w.4.;.,.w.w.>.M.(.-X;X;X-XQ.OX/.Z.1.V m.rX@XU.@X@XU.L.L.U.7X7XwX7XY.h.d.S 3 6 6 c E #.#.#.k.K.U.).K.s.#.+.+.3.7.k.k.k.x.W./.).J.s.s.1.U +.s.m.Q./.W.M.8.5.>.:.B.m.,.M.OX XQ.k.j.f.f.f.R L x N U s.rXDXLXKXIXKXJXpXs.L L i.h.z.s.1.+.+.1.k.Q._./.V.3.p.<.<.V.k.,.OX:X*X!.8.0.5.>.>.e.E.OX;XaXxX:X!.R.M.e.8.6.e.N.E.=X1X1X|.3.R L Z Z l 3 4 3 L L i.P.K._ j 3 :.Z.oXs.M i.U.9XY.f.U U s.Z.C.N.(.bXvXcX<X+X|.r.r.6.;.;.9.`.>XaX#X^.k.j.7.@.&.t.u.y.y.~.Q.V.c.=.*.f.J.U.).K.h.i.#.R <.B.P.P.B.B.a.I z j F T R R Z L p.P.yXyXoXm.M.k.8.>.,.>.8.M.Q.+XyXyX;XyXrX#XoXZ.8.3.3.3.4.:._ :.<.2.s.s.f.j.$.-.c.K.wX[.a.D > q y e e r C l r l l z M <.C.oX&X&XZ.s.<.p.z.z.z./.#X-XOX X X=XXXXX=X1X<X=XOX+X|.E.m.8.,.,.3.q.A.'.+X,X,X,X2XNXAX5X2X2X1XsX1X+XQ.Q.Q.Q.Z.k.3.1.>.6.w.e.r.r..XXX.X<XsXsXhX,XC.2.I j q q e : - - < s d.wXdXSXaX Xy.~. XR.E.*X=X X",
"%XoXs.` / Y C A ) ) ) G s e > > > 2 2 w h n i.J.@XrXyXuX;X/.M.8.k.M.N.m.3.:.,.3.N.N.M.M.E.*X>X>X1X1X:X=X;X<X<X<XoXoXP.L.B.h.h.p.<.U B B _ 2.` U L F x x F T } f.1.&.9.W./.%X$Xn.m m D e < p ~ ~ ( G q q x R z.Z./.Q.9.9.R.M.5.0.M.V./.rXiXiX7Xn.| D 2 = = h s.#X#X/.V.k.3.1.@.+.7.k.7.7.x.^.x.@.b k M U <./ F l w C J [ ^ K D D z w w j z z x c v +.k.M.E. X!.R.(.-X-X(.W.V.l.7.l.T.j.0.(.-X(.(.M.M.8.,.,.3.8.8.7.k.W.OX;XuX-XQ.Q./.%XoXs.s.V.V.P.@XwXP.i.L I / S.eXkXkXtXtXY.*.S c c L #.#.#.<.h.K.)./.z.p.1.1.@.1.7.k.l.V.W./.@XP.B.k.1.+.+.3.V././.V.k.8.7.1.:.B.m.,.r.+X XQ.k.k.f.h.f.R L x I U <.B.rXSXLXLXDXhXB.I x L f.Y.U.p.U P U :.k.Z._._.V.k.s.<.<.V.M.5.OX:X=XOX9.0.6.>.6.M.OX;XaXxXaX;X!.e.8.8.8.9.M.E.+X<X1X=XM.o.L Z Z Z x 3 3 3 x I a.P.@XB.V 3 U m.P.B.L E S.Y.J.p.<.s.B.A.A.A.1XcXDXxX+XE.r.N.r.t.t.y.~.y.`.bX;X/.k.7.7.>.O.O.0.0.y.E.Q.^.z.f.i.p.B.K.P.J.h.p.<.#.i.J.@XwX@XP.L.a.I F I { / R Y L #.B.#XyX#XZ.M.m.8.>.;.,.w.N.N.OX;XyX#X#X/.P.oX@X@XZ.s.4.2.s.<.<.:.:.:.1.1.7.%.&.j.V.#X@Xa.m q y y y s A H C l x z M U 2.C.&X&X&XQ.m.2.s.k.z.K./.#XQ.N.e.E.+X+X XOX;XaXaXpXaX<XpXpX%X&XOX;XpXNXNXNXNXNXNXNXZXAX5X=X+X2X1X+XE.w.M.N.M.k.3.1.1.3.M.|.E.r.r..X2XZXZXsX,X].v.I w q > > 8 e e > - e | 0XdXDXvX;XOXe. X~.9.E.:X;XE.",
"%X%XB.i.d.T C H ( ( ) ~ f p e q > 2 2 2 2 h n U B.P.#X;X;X#XOXQ.Q.N.M.N.Q.Z.w.4.q.A.|.OX;X1X:X=X1X;X*X XOXOX|.'.N.m.s.2.` i.g.f.U U B B U U U P L L L I R i.g.h.1.@.0.N.N.&X&Xn.I I m y e e s f J C y w L i.B.P.Q.W.5.@.0.9.8.M./.oXwXiXeXI.| G q : = = 3 L K.yXrXZ.s.s.s.1.+.:.k.k.k.k.W./.l.$.N M P R i.d.R Y l r r r t t z z j j n F I L M v V +.k.M.!.*X X!.-XyX-X(.W.l.l.7.7.W.M.l.-XuXOXQ.N.M.8.>.,.,.>.>.8.k.l.W.-XuX;X_.k.N.%X%Xm.+.+.s.B.@XrX@XJ.R x l w Y } S.Y.7XU.S.f.R L L P P U #.i.z./.).K.k.3.1.+.1.7.k.l.x.Z.^.@X/.K.B.p.+.+.1.V././.V.8.8.7.1.:.V.m.,.r.OX XQ.k.k.f.S.f./ L M I 2.a.2.v.].$X].C.a.M w w Y S.U.0Xa.n M U <.k./.OXOXV.k.k.1.1.Z.N.5.OX:X*XOX9.0.5.5.8.Q.*XaXzXxX*XOXE.9.6.6.8.M.E.OX<X1X;X|.,.V M Z Z Y Y F x x I <.s.K.$X@X2.j :.2.V.B.L v *.f.h.p.z.K.Z.w.A. XxXxXzX1XOXM.N.|.w.6.0.~.~.u.~.5X:X/.l.7.1.@.O.O.0.6.y.~.!./.V.h.U +.<.p.h.B.h.h.<.R #.z.@XtXwXwX[.Y.b.d.d.d./ R i.#.#.p.P.%XyX;XQ.V.8.>.,.,.w.M.Q.OX%XOX/.V.k.1.B.U.wXwXP.b.v.B.s.2.<.+.+.+.>.7.&.&.j.W.#X@Xa.m q q y C H ^ ^ F Z Z Z L R s.Z.OX+X+XQ.w.3.8.k.p.V.Z.N.m.3.,.w.N.|.N.N.|.%X%XyXpXpXfXgXfXpXpXxXDXHXDXAXAXAXAXAXAXsX1X1X2X+X|.N.M.E.M.8.>.+.>.8.M.M.A.E.|..X+X+X+XsXpX$XB.` n w 2 2 q q > 8 t t y J [.iXdXSXfXOX;XE. XE.e.E.;X;XOX",
"OXpX#XB.z.R Z ^ H ~ ~ ~ G s 9 : : : 2 2 w w w h N U 3.V.OX*X-X*XOXQ.N.|.%X,X'.w.A.|.%XhXgXgXpXOX;XOXE.E.N.M.w.3.3.3.<.` R R { <.V B +.+.+.U U U <.<.<.i.i.a.f.s.8.0.E.Q.N.Z.].C.a.' K z y q 2 > t q q w I p.V././.Q.8.>.8.N.V./.#XwXwXI.n.J t q X = - 2 F a.@XrX%XB.1.3.s.1.:.1.3.k.k.V.W.Q.V.k.#.#.E E R d.f.S.R Z 3 2 w z z j m V _ <.2.s.s.s.m.V.W.W.!.!. X X;XyX-XW.M.l.8.1.8.W.V.V.#XyX#X/.Q.Q.M.3.>.>.>.@.l.8.8.8.Q.;X;X-XM.Z.+X+Xm.B V 2.K.P.wXtXdX@Xh.R z r D } G.Y.Y.I.U.J.i.E L M I R #.s.K.).P.z.s.1.+.1.7.k.k.k.V.V./././.V.k.<.+.1.V./._.V.k.7.7.3.+.V.m.,.N.OX XQ.k.z.z.F.S.d.R I ` b.L.a.` I I I n n j w z / Y.0X0X^ w x I <.s.P.OXOXQ.k.k.1.3.Z.N.6.OX;X=XOX8.8.>.6.e.E.;XcXcXaXE.E.E.9.6.5.8.M.E.;XzX1X|.8.o.V v Z Z Y *.i.f.h.f.b.B.K.rXdX@X<.s.s.B.z.P x L L i.h.K.oXN.w.|.1XAXzX1X=X XN.N.N.6.e.y.y.u.u.XX6X>XOXV.k.1.%.%.@.5.0.y.!.OX/.V.k.B B U U U :.:.<.M x M i.U.tXtXdXtXkXiX0XG.i.R L d.R N U k.#XfXxX;X/.8.>.6.8.8.6.M.Q.OXOX/.k.P c v { L.0XwX[.L.K.m.s.3.>.>.7.9.R.0.9.l.W.OX/.p.n 2 2 w H } } ( H Z S L U <.k.Q.OX+XOXE.8.>.>.1.+.3.<.:.>.3.3.8.8.A.w.8.m.P./.oX@X#X%X%X%XpXgXSXDXSXZXZXAXAXAXAX5X2X=X=X+X XE.M.w.e.8.,.,.>.8.M.N.N.N..X+XsXsX<X%XoXC.{ F z r 4 4 e s s e 2 y D K n.iXjXdXdX#XZ.OX X~.E.E.E.!.;XaX",
" X1XpXoXB.i.Y Y r A H ~ ~ s > - - - > q w h w 3 3 h V 8.Q.OXOXOX!. XOX+X%X%X%X&X%XrXpXpXpXpX%XoXN.M.w.8.3.,.:.B :.:.<.2.` R T L b V :.>.:.+.<.1.B.h.s.i.i.i.g.p.W.Q.OX+XZ.C.].C.C.| I K D q : - q 2 2 w I s.C.Z.oX#XOXQ.#X%XoX$X[.U.G.{ D q : - @ - > t T J.wXrXP.m.<.2.1.<.<.3.3.k.B.Z.Q./././.k.f.p.#.#.i.F.U.S./ x j x L I I _ 4.q.A.'.&X%XyXfXaX;XOX!.!.!.!.;XyX-XQ.l.k.8.1.M.Z.M.M.OX#X/././././.M.8.7.1.>.8.8.8.8.M.(.;X;X+X+XoXoXQ.:.B s.K.B.P.tXjXSXjXiX0XH.H.eXkX0XI.wXU.Y.G.i.I L I R R p.z.P.P.V.k.1.1.1.7.j.k.k.k.M.P.).@X/.B.1.<.<.M./.OXQ.k.1.1.1.+.V.m.,.M.OX XQ.x.z.F.J.Y.h.{ ` { G.[.G.` n n n n L F F T S.7X0XH.D > z I R s./.+XOXQ.M.w.,.3.N.Q.5.!.;X*XOX8.8.>.0.N.OX:XcXaX*XR.E.R.9.8.6.8.M.OX1XsX=Xm.o.V V L Z Z Y d.Y.U.[.L.L.J.L.eXjXjXdX@XP.P.z.L x v x R h.P.Z.A.N.=XAXAX5X=X|.|.Q.m.8.7.M.E.0.0.y.XX6X3X+XQ.V.1.%.%.@.5.6.y. XOXoXV.m.3.,.;.B V V k k c h h P h.U.tXkXjXjXkXtXY.{ L Z R P V B 3.oXaXSXgXOXm.8.8.e.8.;.6.M.OX;X#XV.N 3 ; 3 Y S.I.0X[.U.J.B.m.8.9.R.~.!.u.u.u.W.OXoXs.M 2 2 z ^ D.d.( Y L P #.1.k.V. X=XOX XE.6.>.>.+.%.B V V B 3.q.3.3.3.3.<.3.B.B.B.P.K.Z.P.oXyXgXSXSXxXzXzXAXzX5X2X=X=X|.e.e.Q.E.M.8.o.;.,.M.Q.E.N.e.|..X2XsXpX,X$X$Xa.I z 4 4 4 4 d d G ~ A r t I ` ].hXSXgXpX/.V.V. XE.E.E.E.E.=XSX",
" X=XaXyXP.z.f.^ C C s s s p < : > 2 y t z j h h h k V >.M. XOX X XOX=X+X&X&X%XpXpXrX$X].L.{.L.C.3.3.,.,.:.B B B B U U R ` ` { ` U :.>.3.3.3.s.k.V.B.B.z.z.B.L.P.#XOXrX%XP.P.L.n.a.' T J K t 2 2 w q 2 j U s.Z.Z./.yX;X%XpXrXoXP.g.{ F t 8 : - - - > t H g.[.wX[.s.3.2.<.:.U <.s.s.k.B.Z./.#X%XuXOX_./.V.j.f.z.K.K.B.s.s.s.m.B.A.'.|.+X,X<XsXgXSXDXSXxXaX>X*X!.!.-X;X;XQ.k.3.3.3.k.m.m.Z.%XoXm.k.k./._./.l.7.1.>.1.8.k.8.8.V.OX;XpX;X/.Q.#Xm.+.<.k.s.B.).dXSXJXLXCXjXkXkXeXY.g.g.h.G.J.h.} R I I U R i.B.P.P.B.s.1.1.3.3.3.8.k.V.V.oX#X@XV.s.<.:.k./.#X/.k.3.1.1.+.V.M.,.M.OX XQ.V.z.F.Y.Y.S.g.a.g.G.Y.G.{ I I a.a.i.` ^ g.7XqXqX .a - t T ` s.oXoXOXQ.e.8.>.>.N.E.5.!.;XOXOX8.5.5.e.E.*XaXxX;XE.E.N.M.9.8.8.M.Q.;XaXpXQ.3.B V V x L Y d.S.J.h.i.` R U ` B.rXjXJXdXdXuXJ.S x S x #.B.P.N.A..X1XAXMX2X+XN.N.Q.k.+.l.E.E.y.y..X3X6X3X+XE.V.k.$.%.$.7.7.e.E. XOXQ.N.|.N.w.:.B V V V k c h x L R S.U.wX0XY.h.i.R P L R <.1.k.V.OXaXxXxX%XN.m.w.w.,.;.,.w.Q.%XdX#X1.c = = 4 C { S.Y.Y.P.K.V.M.e.u.u.u.u.u.u.!.OXoXs.N 2 3 z / d.( ) Y P U <.j.V.Q.OX=XOX XE.8.6.7.>.o.V V V B 4.4.:._ :._ <.2.p.s.B.P.P.K.K./.#XyXaXaXaX1XaX1X>XXXXX.X XN.8.8.M.M.8.,.;.6.M.E.|. X X.X=X2XNXhX,XC.a.{ m y ; ; 1 < p ) ) ) G H F F 2.'.<XsXZXsX+XQ.Q.M.M.R.E.!. XOXaXDX",
"!.!.:XaX/.).K./ ^ A 4 ; ; > e r s D F F x z n N U U +.,.M. X=X;X;X+X X|.OX%X%X%X$X].C.n.g.n.a.a.2.2.3.:.B B B :.U B M M I { g.J.m.w.8.8.k.m.m.m.B.V.P.@XtXrXtXtX#X).@X@XL.L.b.' J K J [ J D C x z j j n ` m.Z.Z.Z.%X%XoXeX@XL.b.H s 2 : : > : - : r H } Y.eXwXL.:.4.3.:.P U <.s.B.z.B.Z.$XyXfXgXfXcXfXyX/.k.j.k.V./.#X%X%X%X,X<X2XmXAXAXZXZXSXDXSXSXxXxXcX:X*X*XOX;X;XQ.k.3.3.3.1.s.B.%XdXP._ P $.V._._.x.3.1.+.+.8.M.k.8.M.OX;XaXpXQ.V.%XN.B V +.1.B.P.wXdXSXLXLXLXJXkX[.G.g.| R a.b.G.g.| T L U U R s.P.).K.k.1.1.1.1.1.8.k.V.B./.%X#XZ.k.1.+.k./.#X/.k.3.1.$.#.Z.M.,.M.OX XQ.V.z.F.U.U.Y.h.g.H.n.n.n.} T a.[.U.h.{ { H.qXkXqX .9 - z { ` v.$XoXOXE.e.w.,.,.E.E.5.Q.=XOX X0.5.6.M.!.;XcXzX;XN.E.E.e.6.8.8.N.Q.fXfX%XN.:.B V k x L d.Y.Y.h.L 3 4 2 2 3 M s.rXjXjXvXjXK.v c L v <.B.Z.A.N.2XZXmX3X3X.Xr.N.Q.m.+.V.V.R.E..XXX3X5X2X+XE.V.x.j.$.%.7.7.8.M.E.OX+X&X+X.X'.r.3.,.:.<.U N c h 3 6 x E d.I z l n R R R s.B./.#X#X+X;XaXgX;XQ.N.A.w.8.,.8.8.N.oXfXfX/.<.= = = 4 r Y d.G.[.P.Z.M.9.6.t.t.0.u.u.!.*X+Xk.N w w x / *.( Y Y P #.<.k.V.Q.OX=X+XOXE.M.9.e.8.>._ _ _ _ B B B I V I U 2.i.i.h.P.)././././.oXOXOX;X;X:X=XXX X~.~.8.M.Q.V.8.>.o.o.E.|.E.r.r.E.=XsXAXsX<X&X].a.n w q ; = ; 5 p Q ) ( ) A H Y R C.<XAX2XZX1XN.Q.#XZ.8.E. X X*XcXDXDX",
"E. X*X;X;X#XP.h.h./ H l r e C H ^ } g.d.g.b.P.P.@XoXoX+X;X;X=XOXOXOXOXOX&XQ.m.m.B.C.C.G.b.n.| ` I U U B V V +.1.<.<.<.<.i.a.d.a.3.8.8.M.N./.@X#X#X$X@X@X@X@X@X).U.U.Y.i.Y Z F H ! |  . .} ^ H Z n k k M <.m.C.Z.P.oX@X[.L.g.I F e > - - > 9 9 : e s [ Y.iXiXwXL.4.:.2.v.v.<.I N f.B.P.Z.m.m.&XfXaXaXsXzXaX1XOXQ.Q.|.OX;X1X1X1X1XAXAXHXHXGXGXFXDXxXxXxXcXaXaXaXaXOX#XoXm.:.+.:.s.s.s.B.@X$XB.U k k p.).).K.p.1.1.3.>.1.k.8.8.N.=X;X;XOXN.V.Q.m.+.+.<.p.k.s.s.B.L.eXI.g.{ K z z x w F T | g.| T F L U R <.h.P./.V.k.s.3.3.8.k.k.k.m.V./.@X/.Z.k.1.Z./.#X/.x.1.$.@.1.V.8.>.E.=X XQ.Z.s.f.Y.7XY.G.n.n.H.Y.| z { I.b.Y.Y.G.I.kXkXqX .a a s D T { s.Z.oXQ.E.M.6.;.6.E.E.,.E.;X=X X0.5.8.E.;XaX:X;X!.N.M.0.8.8.8.8.N.%XxXyXQ.k.+.b k k L R h.J.f.E x h j h 3 3 h I h.P.dXvXtXF.*.L P z./.V.m.Q.<XZXAXZX2X.Xy.E.N.8.k.V.M.k.Q.=X=X3XXX4X.X1X|.k.k.-.-.%.+.7.M.E. X=X+X|.+X+X+X,X+X%X%X%X&XP.s.U x c h h w z I ` a.h.B.P.pXpXaXaXaX1X;X;XpXQ.8.w.N.Q.w.;.,.w.m.V.oXrX@XB.C > = ; 4 4 C / h.L.).P.N.E.e.0.t.0.E.!.OXQ.s.P h h l Z l l A ( i.<.1.k.Z./.+XOX+X;X;X;XOXE.N.M.m.m.m.s.<._ _ _ _ 2.2.2.R L L L <.s.P.oX/./.OX%XOXOX X~.E.y.y.R.7.1.1.>.1.8.M.N.M.M.e.E.+X1XzXZXZX=XN.4.V j w q : - - 1 p d ) ) ) ) ) ^ i.B.&X<XNXMX2X.XN.Q.Q.Z.M.E. X X;XxXxXaX",
"R.!.OXOX;X#X/.B.J.d.R L C C H } S.Y.Y.U.[.eXrXiXdXdXpXpX;X+XOX|.|.|.|.|.Q.m.3.:.U ` a.n.n.| ' I I U _ U B B +.>.8.3.<.<.i.a.h.b.Z.Q.Q.N.N.Q.@XrX#X@X@XU.P.B.p.*./ / Y Z r r r r H ! [ ( ^ ! H F n k k N <.B.P.P.@X[.U.b.{ F y q > , : : > > > > r D } I.eXiXeXP.3.4._ 2.2.2.<.<.R i.s.B.Z.Z.Z.|.=X=X2X1XzXxXzXzX=X=X=X1X1XZXAXAXAXAXHXHXGXGXFXDXgXfXaXuXyX;X;X;XOXQ.N.3.:.<.s.V.s.s.J.@X@Xs.n 3 6 R K.).K.z.p.1.1.:.>.3.6.,.M.OX;X;X;XQ.Q.Q.N.1.B B P U U U <.i.n.' n w 2 ; ; ; q w x K T ' J F L U R <.p.K./.P.m.k.3.1.8.k.k.k.k.B.P.oX/.P.B.k.Z./.#X/.x.1.$.@.1.x.8.>.E.*X XQ.Z.z.h.7XtX0XG.g.| | n.| x R L.J.L.U.0X0XeX0X .G 8 9 e D T a.B.P.oX|.E.E.0.;.6.E.Q.>.E.;X=X X0.8.e. X:X1X;XOXE.M.8.5.>.8.8.M.OXpXpX#XB.1.B k k k L / h.S.i.L x h x x h 3 3 j U i.U.uXtXF.#.#.p./.@XZ.N.|.1XZXzX2X2X.Xr.E.N.8.k./.M.M.Q.;X1X.Xr.r.r.2X&XV.x.j.j.%.%.1.9.M.E.+X%X&X+X+X2XNXNXsXpX<XpXpX%X/.B.<.P M n I s.L.].$X%XpXpXfXsXzXaX;XOX|.Q.N.N.w.8.w.w.w.8.w.m.m.P.rX#XP.( r - - > < r C T i.B.P.OXOXE.e.6.e.R.E.OXQ.k.U c h l l l l A ^ J.h.p.<.s.B.P.oX+X%X;X<X;X#XOX/.oX].].Z.m.s.2.2.2.2.i.2.R U L N U 1.V.oX#X+X/.Q.OXOXOXE.e.9.6.8.l.8.1.>.>.w.Q.OX X X+X=X1X1X1X=XN.w._ k j q 2 : : - X - 5 A ) ) ) ) ( / h.oX;X2XMX2X3XE.e.N.Q.Q.E. X XOXaXSXgXOX",
"E.E.!.OX-XyX#XK.K.z.i.R Y Y d.J.U.tXiXtXiXdXhXdXiXrXrX%XoXZ.N.A.3.,.,.8.8.8.3.3._ U M n m F J ' U <.2.3.3.1.7.8.l.k.k.k.h.B.J.L.oX+X+X+X/.P.P.P.P.K.B.h.i.L x 3 3 3 4 4 4 4 r d G ~ ~ H A A A H L M M P s.B.K.K.L.b.a.T z q : - - , 9 9 : - : > y D } L.wXiXrXrX'.A.3.3.2.a.p.h.P U #.3.B.N.A.8..X4X.X3XzXAXHXFXAXzXzXAXAXAXHXHXAXAXAXZXZXZXNXgXfXpXyX#XOX/.Q.V.V.M.M.m.m.m.k.z.h.B.U.tXU.i.h ; ; z d.Y.L.S.p.<.<.+.+.>.>.,.e. XOX;X;XOXOXOXQ.k.V b k c k M U <.L.{ n w 2 2 2 2 2 2 q t D J J K L U U R <.B.P.P.Z.m.2.1.3.k.k.s.3.m.Z./.oX/.Z.V././.#X).V.3.$.$.$.l.8.>.R.*X XW.V.s.S.wXkXeXG.[ J K [ [ F I h.J.L.U.wX7XH.[ s : : > e D ' a.B.oXoXoXQ.E.9.5.9.E.Q.5.!.;X;X X0.0.E.*XaX:XOXE.E.M.8.5.3.8.N.Q.%XfX#XZ.2.U M k k x L i.J.b.{ F x x L L L k w w x U f.^.tXK.#.p./.#X/.N.N.OXaXxX1X X=XE.r.E.M.5.9.OXM.Q./.;XgXC.B _ ,.<X+X/.Z.j.j.%.O.,.e.M.Q.oX+X&X&X+X<XsXgXgXsXsXgXNXSXgXdX%XoXZ.C.oXiXhXgXhXpXaX<X<X<X;XOX!.E.M.m.m.w.3.,.,.r.N.|.|.Z.B.oXrXrXU.D.C - - > > > > r C I p.P.#X#X XE.E.E.|.+XoXV.<.x l l Z l A ! ( S.f.i.E U R s.B.P.oX%XrX%X%X#X#X&X&X$X$X$X@X].P.J.h.<.R U <.<.s.m.m.V./.#X%X#XOXOXQ.M.e.M.M.6.o.:.1.8.M.Q.Q. XOX;X;XaXAXZX1X+XE.;.V k h 2 2 2 > : - @ - < p A A A H / f.U.yXaX1X5X2X.Xr.e.M.Q.Q.OX XOX;XSXDXpXm.",
"M.W.Q./.#XyXyX#XK.B.s.p.#.#.h.U.tXtXdXdXrXyXrX$XZ.P.].C.B.v.q.q.q.>.o.V N o.:.1.<.U M n n T | n.` 4.m.m.N.M.M.E.l.M.W././.P.U.P.Z.oX%XyXrXoXB.s.U L x j h w 3 3 ; ; ; 4 4 r d d p p p 4 4 r Z Y L N N _ s.B.s.a.I L x y q > : @ , 0 u , - @ - : q z I a.B.U.rXpX<X&X'.C.v.p.p.p.i.<.#.:.1.3.8.w.r.r.y..X3X1XAXAXAXAXAXAXHXHXHXHXDXAXNXsX<X%XoX].@X@XP.P.K.V.B.B.V.k.3.3.k.k.s.p.z.L.wXtXI.R 3 = = 3 ^ S.Y.Y.h.i.<.+.+.>.>.>.8.N.!.;X1X;XOXOXQ.V.:.V c 6 h P p.B.P.` j 3 2 2 2 2 w w q y z F T T L U U U <.p.K.@X/.B.s.1.3.k.s.3.3.k.V.Z./././.P././.#X/.V.j.$.$.$.l.8.>.R.*X XV.V.f.f.Y.7XG.' F z y x K L L #.h.K.).wXY.^ t 2 : q e s J ` i.s.Z.OX(.Q.E.0.5.9.E.E.>.OX:X*X X9.l.OX:XaX;X!.E.M.M.8.6.8.M.Q.#XyXfX/.k.+.M k h k M <.f.J.J.i.E L L U U U I M x M U p.x._.K.#.V.#XQ.V.V.Q.;XsXsX;X X*X XR.e.0.9.R.!.M.#X%XrXdX` 2 k 4.<X;X#XK.p.3.o.V ;.e.E.N.V.V.V.oX|.|.|.&X%XpXsXSXZXZXZXgXsXsXsXgXBXDXDXSXNX1X2X=X=X XE.M.e.M.N.8.3.:.,.w.A.N.A.&X|.Z.oX%XdXyX@Xn.H 2 : > < > > < e r x R B.oX#XoX|.Q./.#X$XK.i.x x Z H Y H ^ ( d.d.} / L x x x R 2.s.B.K.].$X$X$X$X%XrXdXdXdXrXwX@XU.P.P.].].].Z.Z.oX%X;X%X+XQ.V.m.8.3.3.,.>.>.1.8.N.Q.OXOXOXOX<X1XsXzXzX1X Xe.;.B V k j w w t q q > ; ; 4 4 l Z Y *.z.#XxXxXcX2XXX Xr.e.N.Q.Q. X XOXaXSXZX+X>.",
"M.V.V.Q.OXyXyXyX/.Z.k.k.p.p.K.).rXyXrX#X$X$XP.C.B.C.C.C.v.q.2.q.Z.3.+.V b b b V V P i.n.J.L.G.b.2.3.m.m.M.M.R.R.R.!.(./././.@X@XP.P.$XrXdXrXP.h.x h 4 = = 2 3 w 4 4 2 4 < < p p < < ; ; ; 3 Z / U U R i.s.s.E x 3 2 2 > 9 9 9 , 0 , , @ - - > 2 w j x M P 2.Z.#X%X,X%XoXK.B.p.i.z.z.z.<.B B ;.6.6.r.r.4X X+X=X;XzXZXDXHXHXAXAXzXHXDXhX<XoXC.B.s.B.B.h.h.z.B.B.B.V.1.N N P <.p.p.h.Y.tXtXY.Y 4 = X > D | H.H.b.a.<.+.+.>.8.8.0.8.E.*X:X:X;XOXQ.V.V.1.b 6 h +.B.P.b.I h 3 w w l j F m z z x F T ^ I U P I U i.B.@XoXV.k.3.3.s.3.1.3.8.m.Z.Z.Q././././._./.x.p.$.$.$.l.9.5.E.*X XV.x.f.i.d./ F z j q q w n R L v E B.P.).Y./ r q e t C H T ` 2.s.Z.OX(.Q.E.8.5.9.E.E.5.OX:X*X XM.E.;XaXaX;XE.M.e.9.>.8.8.N.+XpXdXpXV.p.P x c h x L i.h.B.J.B.f.i.R I L L R i.R R R z.z./.V.3./.;Xm.k.Q.;XgXxXaX;X;XOX*XR.6.0.~.~.e.E.pXyX@XY.z X w :.%XyX#XZ.7.8.;.V O.t.6.8.s.z.J.C.Z.A.m.A.'.&X<XsX2X2X2X2X2X2XsXZXSXAXAXAXmX2X2XXXXXE.e.8.8.e.M.3.3.3.w.A.N.N.N.N.Z.oX%XpXdXrX@X| J t e 8 9 < < < < 4 w j L a.K.P.Z.P.P.).@XJ.i.L L Y ^ ^ H H H ^ [ [ ^ C w 2 2 2 w j n I a.B.P.].oX&X%XrXrXrXrXrXdXSXJXFXNX%X'.m.Q.;XpX<XoXm.3.3.N.N.k.B V :.m.+XQ.N.M.N.|.;XaX<X;X;X;X<X<X X|.w.8.3.<.U I J J D G C e ; = 2 l E *.f.K.uXvXxXcX=X XE.E.E.E.E.E.Q.OX<XsXgX;XN.+.",
"k.V.Z.Z./.#XuXuXyX_.V.x.x.V.^.#X#X#XOX/.Q.Z.V.s.3.v.2.2.` ] I I U B B U +.+.+.+.#.<.p.b.b.b.b.n.C.Z.V.N.N.R.R.R.`.`.!.M.l.V.P.$X@XoX/.@XiXdXrXeXJ.i.n 3 ; ; ; ; 2 2 4 4 r s ~ ~ } ^ H r 3 l F R <.<.s.h.B.i.L h 2 ; ; > p u u , , # @ @ > e z x F n k h c b +.3.Z.&X%X%X@X@XU.J.z.K.K.k.:.B ;.,.r.r.r..X.X|.OX&X;X;XaXxXxXsX1X;X+X&X].C.C.C.B.b.b.b.h.p.i.2.<.<.$.%.o.$.j.z.f.i.h.Y.tXwXS.Z ; = X : a G  .H.G.h.<.<.<.1.8.8.0.6.M. X*X;X;XOX/.Q.OXV.+.c c +.B.P.p.U k h x n I R R T T J D F J T R I M M P ` s.K./.Z.B.k.s.3.3.1.3.8.m.m.N.V.Z.Z./././.^.x.p.$.#.$.l.l.6.~.=X XW.l.p.*.R Z w q w q w j I p.#.v N $.z.K.U.d.C y y D F T { i.i.k./._.(.!.E.0.5.0.W.E.5.OX;XOX XE.OX:XaXaXOXE.M.8.6.>.3.M.Q.;XfXpX%Xk.<.M k h h x L i.f.J.U.[.U.B.p.R L E i.h.i.` ` z.z.V.k.V.OX#XM.M.#XxXDXxXfXyXuX(.`.R.5.0.~.~.0.!.pXrXJ.T ; o > L oX#XoXZ.8.e.6.O.O.O.;.:.<.h.K.s.s.m.m.B.Z.Z.'.r.r..X.X3X2X2XmXAXZXNX2X3X.X.X.Xy.y.r.e.8.6.5.>.:.m.Z.'.A.A.'.&X&X%XpXpXrX$XB.s.n m t q : - - - < < e r q w n ` B.B.K.P.@X@XP.h.R R ^ / ^ A r r r t s s r y y y 2 2 q q w j n M U :.2.s.B.K.@X@XtXfXSXDXSXpX+X|.OX+X+X|.N.m.m.m.2.:._ :.2.v.B.B.Z.E.E.Q.OX;XsXxX;XOX|.E. XOXOXOXOXOX/.P.L.G.G.H.| | | D 2 2 w x i.z.K.#XaXxXxXbX XE.R.E.!.E.E.E.Q.=XzXxX;XN.1.o.",
"k.V.Z.V.V./.yXfXcX-XW.W.^.(._.-X-XOXQ.M.M.m.3.:.B I I I I I m m j k V #.s.z.x.z.x.z.p.<.<.i.a.n.P.P.Q.Q.!.!.!.~.`.!.R.9.7.1.s.m.B.Z.P.].@XrXdXkXkXtXY.g.T z 2 ; 2 q w y C !  .D.7XI.g.T F n R <.h.z.z.V.J.h.U z 3 4 2 9 u u 5 $ $ @ # , e G J T R L k h h h c b ;.q.Z.oXtXtXtXtXK.K.K.V.m.8.8.w.E..X.X.X|.|.+X%X+X#X#X#X#X#XOXoXq.q.2.a.v.b.b.b.b.h.a.i.R I I P P %.$.z.^.K.z.*.S.U.tX9Xd.l ; = @ @ : a [ H.Y.G.s.2.<.:.,.8.0.5.e.E. X=X;X;XOXOX#X#Xk.N v <.B.K.i.U v x M M L R i.g.g.} J F H T R M k n N P <.s.K.K.Z.B.s.2.1.1.3.3.3.3.k.m.V.Z.Z./.^.V.z.p.$.#.$.x.l.0.!.=X XQ.V.p.*./ Y z w z m { a.B.wXK.$.1.p.z.K.U.S.T C C H T R { <.<.k././.!.Q.R.7.>.8.W.E.5.!.;XOX XE.;X;X;X;X!.N.e.6.>.>.8.N.oXyXfX%XZ.<.P x c h c S E i.b.[.rXdXrX@XU.J.h.b.U.Y.g./ ` k.V.k.k.Q.OXQ.Q.OXaXDXFXvXpX;X-X(.W.T.u.u.y.y.y.=X;X].R 2 = - 1 Z P.@X@XQ.8.e.6.;.;.O.;.:.#.d.f.#.<.s.m.m.m.m.w.;.;.6.4X.X2XmXmXMXmX2X3X4X4Xr.t.t.6.6.6.6.5.5.1.3.m.oXoXZ.'.&XpXgXgXgX%XZ.<.N m w w y 8 : @ @ @ , , p s e 2 q z R a.B.U.).wXU.J.R R ^ / ( H C s < < e e s s C C y y y q 2 2 2 2 3 c b V V U <.z.@X%XyX;X+X+X+X=XsX=XN.8.,.3.3.m.<.I V _ L.eX@XC.8.M.OX<XsXsXaX<XOXE.M.e.M.N.Q.Q.(.#X-XtXeX0X0X0XI.H.| T z j M P m.P.#XuXfXxXbX:X!.R.e.E.E.E.E.|.OXaXxXgX+X3.B B ",
"s.V.P.V.m./.;XfXxX;XW.W.(.OXOXOX*X(.W.8.>.>.o.V V M V ] ` ` | ` <.<.<.<.1.p.p.p.f.s.h.h.b.J.L.L.B.V.Z.Q.(.(.!.!.u.R.~.M.7.%.B B :.s.C.P.P.@XeXdXiXiXiXtX0XG.R F w w z t t G [ D.D.g.} T I U s.B.V.V.K.P.P.J.i.Y z r e p u 5 # . $ $ 0 9 s G ^ { ` U v c h h 6 h c V >.k.Z.#XtXtX#XP.z.M.Q.OX XE.+X+X X|.Q.Q.#XrX%X#X/.V.B.m.V.V.C.v.v.a.2.2.` R I I I I R ` 2.<.1.#.%.#.p.z.S.S.Y.9XtX0XD.l ; - @ @ @ 9 ! H.I.L.B.s.:.+.>.8.0.5.8.M.E.*X;X;X;X=XOX%X/.1.+.k././.K.z.i.<.R R R i.g.G.Y.G.{ F H T R x h k n L U <.J.K.P.B.k.1.1.1.3.3.3.3.3.m.V.Z.Z.Z.Z.V.z.p.$.#.1.V.l.0.!.=XOXQ.V.p.i.d.d.T F F T I.eXiXjXtXK.^._._.).).L.i.R { T R ` <.#.#.j.Z./.Q.Q.M.7.@.8.V.E.5.!.;XOX X!.1X;X;XOXQ.M.e.>.o.e.N.|.+XyXyXP.<.U M k h l x L R i.J.tXjXjXdXdXiXtXtXrXtXwXf.R <.z.^.k.k./.Q.M.|.;XzXDXDXxXyX#X/.(.9.9.~.~.u.y..X<X%XB.x X X 1 1 D U.wX$XoXw.6.t.t.;.;.6.3.R Y L P U +.<.2.2.3.,.w.r.r.r..X.X3X2X3X3X.X.X4Xr.r.r.6.6.,.,.6.8.M.E.Z.Z.Z.Z.&X<XpXpX<X<X%XZ.:.k h h w w t y q 9 9 < , , , 9 9 : : q y F d.G.Y.U.L.z.R I R / { ^ T ^ H H G H ~ G s e > 8 e r y y y w 3 h h h 3 3 6 k <.V.;XsXaX;X+X+X XE.M.w.w.3.o.V V :.m.C.m.s.C.oX%X;X<XaX<X%XOXQ.Q.N.k.3.8.8.8.8.k.V./.#XwX@X[.[.0X{.n.` I P _ <.Z.OXyXfXcXbX:X*X!.e.8.e.E.E.E..X<XgXSXgXoX<.V V ",
"s.oXm.<.V.Z.Z.gXhXhX%XQ.N.|.+X+X-XW.l.l.1.b b V N B :.<.<.` a.a.s.s.p.p.p.s.z.J.h.h.b.G.G.H.H.H.h.z.z./.-X;X-XOXE.E.l.8.7.>.%.V U ` 2.v.B.L.P.[.rXdXjXjXdXrX@XP.d.T x l l z F T T I I U <.s.Z.oX/.Z./.).@XL.f.d.Y A p < , 1 1 5 , 0 9 9 a G ! T Y Y E L x c h h h c V :.m.oX&X%X+X&XoX/.OXOX;X1X X+XOXOXQ.Q.Q./.Z.Z.V.k.1.>.3.w.w.q.4.4._ B B I _ _ _ _ _ 2.v.B.k.j.j.c.z.K.Y.Y.7XwXkX7X( r > , + + @ , f  .L.L.@Xm.1.1.1.1.p.k.8.l.V.E.OX=X2X=X=X X XQ.M.k.k.z./.Z.B.v.s.a.i.a.b.b.Y.I.G.T Y / I F l l F L L R p.P.@XP.h.i.p.s.+.k.k.+.o.k.V.m.Z.Z.^.V.j.1.$.$.1.l.l.8.!.:XOXE.l.1.1.z.Y.g.d.D.H.0XkXiXtXwX).^.V._.rXrX).K.B.B.i.#.#.#.#.1.k.Z.W.(.(.M.5.@.7.R.R.l.E.*X(.OX;XaX;XQ.N.N.M.8.8.8.R.E. X;X;XoXs.I n F x z Z T ( / h.f.U.jXJXjXjXJXDXjXjXjXwXR U z.x.K.^.Q.Q.Q.!. X1X1XDXFX%XZ.).W.M.0.6.y.y.E. X;XgXP.I > . 1 i , G | I.eX&XN.r.r.0.6.6.6.2.<.R Y #.1.1.1.+.B o.:.3.M.|. X.X.X+X3X.X.Xr.e.E.W.x.c.j.j.k.8.6.6.r.|.N././.Q.%XgXgX<X&XA._ V k h h h w j z z D G d p , @ @ < 9 9 < 9 > p G H [ h.J.B.p.#.R <.` R / g./ } S.g.[ G s a a a e e e a s C r 3 4 4 3 h k V >.M. X+X+XOX XE.M.m.8.>.o.o.o.o.;.6.e.r.r.r..X XaXpX<X%X%XP.m.4.<.<.:.:.1.3.1.>.3.k.N.Z.B.B.Z.@X@XP.v.2.2.s.m.m.M.;XcXaX1XaX-XV.Q.E.6.,.E.E.r.+XsXjXvXpXZ.U V B ",
"s.V.s.3.Z.Z.Q.pXgXsX<XoXN.C.&X&X-XW.k.l.7.O.O.O.7.8.8.1.<.U T R p.p.s.z.z.B.G.G.h.n.G.G.H.H.H.G.h.f.h.K.@X;X%X#XN.N.M.k.k.k.j.3.<.` ` <.<.s.B.Z.K.@XdXfXjXjXjXdXwXJ.d.Y Z l z x z x L #.3.M./.OXOX#X#XyXtXK.d.{ ! A d < < 1 5 u u a a e e s C C Y Y Y L v x M N b V +.>.m.N.Q.Q.M.Q.+XpXaX1X-XOXQ. XOXOX/.M.1.+.B.B.k.k.8.>.;.V V V V ] ] ] 4.4.m.v.q.4.4.4.2.2.V.K._._.).U.7X7X7X0XqX8X) a < , + O @ , a J g.B.P.m.3.1.p.p.p.z.3.k.V.Q. X2X1X2XXX=X=XOXV.7.j.V.#X%X@XZ.m.s.b.b.L.J.U.[.G.R L T T T z w Z L L R d.J.).U.B.p.p.i.:.3.3.:.+.3.m.m.V.Z.K.V.k.1.$.@.>.M.l.8.!.:XOXE.8.>.1.z.J.S.Y.7X0X0X0XY.h.f.p.#.$.c.^.yXuXyX@XP.p.<.#.#.#.1.k.Z./._.(.M.5.@.6.M.R.l.E.*XOX*XaXaX;XOXN.m.8.3.3.8.R. X>X<X&Xm.` I F F F C H } S.S.d.i.U.jXLXJXDXJXLXLXJXSX@X2.2.K.z.K.^.W.W.E.OX=X1X1XsXfX/.z.z.k.8.6.e.E.E.E.OX%X@Xa.z - . @ 5 $ a J H.[.$X|.E.y.E.e.8.3.s.p.h.f.V.V.k.1.+.N B o.>.8.Q.OX=X;X;X<X3XE.6.0.W.^.x.=.P $.c.Q.Q.N.r.6.Q.#X%X%XpXgXpXoX:.V j h h 3 w j I ` { { | } ( ~ p < , < 9 < > < , 0 : : q I f.B.V.k.1.1.<.R R i.S.J.Y.G.| [ J J f s s s d s s A H A r 3 l P s.B.|.+X;X=X XE.e.0.8.1.+.o.o.O.,.6.e.e.r.e.y..X3X1X<X%X%X%XP.a.n h n n M I +.1.3.3.:.:.:.>.:.1.m././.Z.B.k.s.k.m.N. X1XzXcX1X;XOXW.Q.E.8.w.N.E..X=XxXjXdX@Xs.N V U ",
"k.1.:.k.Z.Q.oX%XgXxXgX&XN.A.|.;X#XW.7.7.7.7.7.8.7.8.3.p.s.p.h.h.B.J.K.U.U.U.Y.L.H.H.n. .| ! J K l l z Y p.P.#XrX%X+XoX/.V.M.k.m.s.2.<._ U :.2.s.B./.%XyXdXgXjXfXdXtXJ.d.E x l j h M <.k.V.Q.OX;XyXyXuXfXyXP.i./ ^ H A p < < p d a f f f D H T T d.d.i.<.<.i.s.B.3.k.V.Q.oX&X+X+X+X+XOX&XQ.Q.V.V.M.M.V.Q./.V.p.+.+.+.U +.1.>.o.V ] _ ;.4.:.4.,.4.3.q.m.m.B.C.Z.Z.B.).tXtXtXwXwXeX7X8XH. .G p < - $ + @ 9 a t T h.Z.B.k.k.p.$.p.z.1.8.k.M.Q.=X1X5X=X=X1X1X/.3.j.Z.%XdXjXpX@XrXtXiXiXiXiXeXJ.R F L R { Z 3 l F Y R E h.U.U.L.h.p.<.2.3.3.1.>.1.k.m.x.V.Z.V.k.3.$.+.+.l.l.8.!.;X XE.0.>.3.z.J.Y.7XkX0XH.} F F E R E N P $.V.#X#X/.B.z.f.1.1.1.1.k.Z./.OXOXM.5.@.6.M.M.9.E.-XOX;XaXaX;XOXN.8.,.>.3.M.R.*XaX1XoX2.' I K J J T / S.Y.Y.d.R h.kXLXLXLXLXIXKXJXdXb.U 2.J.z.x.W.W.E. X1XzX1XaX;X+XoXV.s.m.,.e..XE.E.OX%X%Xs.L 2 X   @ 5 , a ! H.0XiX$X+X+X=X XZ.V.B.P.U.wXP.Z.k.8.1.1.k.k.M.N.OX;X;X+X XQ.N.N.N.k.j.-.c.c.z.c.z.V.N.Q.'.'.%XfXxXgXgXsX&XA.V b j h h h h k n n I K J J G s p 9 < 9 9 < : , u 9 : - 2 F h.).%X/.Z.z.p.#.R <.p.p.h.g.d.| [ T G D D C C C A A A H / d.h.J.@X%X%X;X+X XQ.E.e.5.@.+.o.o.o.,.8.r.E.E.y.E.+X2X5XZXfX%XZ.v.<.` U I n n x M N B U B +.o.+.:.:.1.k.Z.Z.Z.Z.B.m.m.V.Q.;X5XxXcX:XOXQ.Q.Q.M.M.N.r..X3X1XSXfX$Xs.N k N <.",
"V.:.+.k.V.Q./.Q.;XxXZX<XQ.N.OX;XOXM.5.>.7.l.M.M.1.1.s.z.L.[.eXtXI.I.[.0X7XY.H.n. . .[ G s q : : X = = 2 x { J.[.rXpXdXpX#X/.V.V.B.m.v.2.<.:.<.2.B.Z.P.Z./.#XyXrXdX@XJ.p.<.U L U <.s.Z./.Q. X*X:XaXuXuXfXuX/.p.E / / ) s < 5 d d s K [ | g.G.G.G.J.J.K.P./.).#X%XrXyXpXpX<X%X%X<X<X&XN.8.>.1.8.M.k.k.7.p.k.z.z.z.#.P M M P +.<.>.w.q.w.w.w.m.A.m.3.3.m.C.oX$X%XrX/.@XtXtXwXU.Y.I.D.} ( ~ d < - @ $ + @ u a y F a.B.B.V.B.p.$.=.p.1.7.k.l.E.=X1X5X=X+X=XaXOXk.3.Z./.gXJXDXBXSXJXJXBXjXjXeXh.L x F ^ d.Y 2 3 z F Y L i.Y.U.U.L.h.<.k.1.1.3.3.:.1.B.V.V.V.V.k.p.$.@.%.k.l.8.!.=X XE.8.1.3.z.U.9XtXkXH.[ r 2 w L R #.#.E %.p.K.@X@X/.K.z.f.p.p.3.k.W.#X#X(.M.5.>.6.M.M.8.W.*X*X;XaXaXOXQ.N.8.>.:.3.M.E.*XaX;XZ.<.I T T T ^ } D.Y.Y.Y.R n P K.jXLXLXKXJXDXdXB.U U s.B.V.x.x.W.OX:XzXAX1X1X|.Q.#X/.k.V.,.E. XE.E.;XyXoXR w ; X   @ i u a ~  .I.[.{.&X&X,X,X%X%XrXrXtXuX/.Q.V.V.Q.oXOX%XOXOX#X%X#X|.M.8.>.k.V.k.$.#.c.^.tX_.z.k.m.P.&X%XpXjXSXSXSXxX<XoXA.w.3.:.U N M M n n F n F F C p e e e e p < > : a a s r z R B.#XuXyX#X/.K.s.<.R v M L R ` ` T F J F H H H Y ^ ^ Y *.Y.7XwX#XrXpX%XOXQ.e.w.e.8.>.o.;.>.8.8.w.w.e.N.E.+X1XzXzXsXsXhX%XB.2.` a.b.L.` ` U P N V b b V V +.3.k.3.k.m.Z././.V.m.m./.%XcXzXzXcX;XE.Q.OXN.8.E.|.r. XzXZXSXpXB.P k k B s.",
"OX1.o.8.k.N.Q.M.OXaXZXsX+X|.OX;XQ.M.5.O.5.M.E.M.V.Z.P.U.U.0X0XtX7XI.D. .} [ J G t a e 0 , : @ @ - - - - > y F ' L.[.pXgXgXpX%X#XV.Z.Z.V.m.3.:.:.3.8.1.1.k.Q.#X#X/.k.1.<.<.<.s.B.P.oX#X+XOXOX:XcXbX-X*X-XyX/.p.U i.{ ^ C 4 r d a K [ H.I.[.wXwX).@X@X#X%XyXyXyXyXgXgXgXpX#XQ.Q.Q.N.A.A.m.8.k.k.s.k.j.1.#.E E #.=.z.z.p.#.#.#.p.k.w.w.m.m.N.Z.oX&X/.Z.Z.Z.oX$X#X@XrXwXU.b.g.{ T H C s s a p 9 1 @ $ . X 9 s t F 2.b.K.P.V.s.<.#.#.1.7.8.8.M. X=X1X1X+X+X;X#XM.1.3.k.pXJXKXLXLXLXJXJXJXjXwX{ z z F / g.Y 2 4 w z F L d.Y.U.7XU.S.p.k.1.1.3.3.:.1.m.V.V.x.z.k.j.1.$.+.k.k.0.E.*X XQ.M.1.1.B.wXtX9X7X} D 2 2 l L R #.<.#.#.#.s.V./.@XP.K.z.k.j.p.l.^.#XOX(.M.5.>.7.l.9.7.R.OXOX;X;X;XQ.N.M.8.3.>.8.N.OX;X;X#XB.` F D H J ( D.D.D.D.d.L h h L B.rXdXjXrXU.s.P B s.Z.P.^.x.l.Q.;XxXZXzX=X=XM.m.oXZ.1.k.8.Q.|.N.Q.pX%XB.n 2 - X . # i Q p f ~ [ | | n.n.}.].$XrXtXtXtXtXyX;X%X;X;X;X;X;XOXOX/.Q./.Q.V.k.s.<.+.$.z.V.K.x./.^.K.).#XrXrXrXpXfXfXfXgXxXxXgXpXpX%XoXZ.B.s.a.a.a.` I F F C r < e a p p e e < e a C D F R k./.yXyXuXyX%X/.k.<.V k k k M I I L R R / / *.f.S.F.U.U.9X).P.@XyXfX%XoXN.,.:.>.o.V :.,.8.w.M.N.N.N.|.%XgXZXgX<X%X&X].].[.[.L.G.n.a.g.a.i.<.R U U B V b V :.3.3.3.k.Q././.V.k.V.#XaXzXzXzXcX*XE.E.OXM.8.Q.OXE.=XAXZXgX@X<.k h c U B.",
"OXV.>.;.8.M.M.M.E.;XzXzX;X=X=X=XR.e.6.;.5.R.E.M./.#XtXwXI.Y.H.H. ...! f f a 9 8 : # # # @ @ + + $ $ # @ @ - > y ' a.P.rXdXdXrX%XZ.N.N.N.N.8.>.B 8.8.>.o.1.M.Q.(.8.1.+.+.1.3.B.P.@X#X+XOX=X>X6XzX>X`.!.*X-X/.k.#.#.i.R C r l r r x ' b.[.rXdXdXyXyXuXyXaXaXaX;X%X$X#X&XoXQ.N.M.M.3.3.3.3.3.<.<.:.:.1.p.$.#.E #.#.z.F.F.z.z.k.x.Z.Z.N.N.Z.Q.&X#X%XyX#XoX/./.oX/.P.h.{ F z l r w 2 - - : < e u < , @ . X : e y n I p.B.P.V.z.p.#.#.$.7.k.7.8.E.OX=XzX;X=X=X#XW.1.B B B.gXLXIXIXPXPXIXLXJX[.I w w Z / D.^ 3 2 4 w Z Y / h.J.U.wXY.z.k.1.1.3.3.1.1.k.V.V.x.x.x.k.7.$.%.k.k.0.E.*X XE.M.1.1.z.wXwXY.} H C r F { S.Y.Y.L.J.J.z.z.s.z.B.P.K.z.z.f.p.z.W.#XOXQ.l.>.>.7.l.9.5.M.(.OXOXOXOXN.l.8.8.8.8.M.Q.aX;XOXZ.s.I z 2 C C ! } D.} ^ Y v x h 3 k U <.a.U M k k <.K.oX/.^.W.W.-XxXDXxX1X=X XM.M.Z.m.1.3.M.Q.Q.N.oXrXP.` l ; = @ X 1 i d d d s s a g D ] ' ` n.L.P.U.^.^.;X<XaXaXaX<X;X;X+X/.Z.V.M.V.k.k.1.<.1.j.x.W././././.#XyXdXjXjXjXgXfXyX%X%X%X;X<XgXgXgXdXiXrXrXrX@X].L.a.{ / Y F C G H C s s s e e r z x x V 3./.-X:X:XuXuXyX/.m.k.:.V k k M P R s.h.h.z.F.^.9X9XuXuXuXtX#X/.oX+XN.N.8.:.o.:.:.o.8.6.8.8.m.Z.oX%XpXhXhXrXP.m.s.v.a.b.[.0X0XI.G.n.G.G.b.h.i.<.<.1.+.V V V +.1.k.m././.Z.N.m.Z.%XxXcX5X1X=X XE.E.Q.M.M.Q.OX+XaXZXsXrXB.P h 6 k U B.",
"Q.OX8.o.5.9.0.e.R. X:X1X:X=X=X X0.e.0.t.5.R.E.9.W.@XtXwXG./ H H G a 9 0 0 0 , # # # # + + + . .   O + + + @ : 8 t F ` n.P.$X$X$XOXQ.M.M.N.8.o.V 8.8.7.>.7.M.R.M.0.;.o.>.3.k.V./.+X+X+X;X:X1X>X>X!.!.!.*X*XW.k.1.1.i.R S Z Y H l h I s.P.%XdXgXaXaXuX:X;X;X;XOXOXm.m.k.m.N.N.M.M.w.3.:.+.U U U _ +.:.1.s.z.z.z.B.f.z.x.K.^./././.%X%X+X+X#X+XoXoX/.Z.Z.Z./././.V.L z 2 ; ; ; > > - - : < 9 9 > : @ - : > 2 y z n ` h.V.V.z.k.p.+.+.3.8.1.8.M.|.OXaX1X;XOX-XOXk.N b B Z.jXLXKXIXPXPXLXjXJ.L z x F d.D.^ l 4 ; 2 Z Y ^ d.h.Y.wX9XJ.s.3.1.3.3.3.3.k.k.k.V.K.K.x.1.+.N 8.k.8.E.*X!.E.M.3.1.s.U.7XS.Y Z C T D.7X0XwXtXdXtXrXwX).P.K.K.K.z.h.f.p.1.k.V._./.W.8.>.>.7.l.9.5.M.(.(.(.OXQ.M.8.>.3.8.M.Q.+XfXyXZ.s.R x 2 ; 4 2 r H ( Y Z Z P <.R k 3 w h h h w j <.Z.$XP.V.Z.W.-XaXSXZXzX;X=XE.N.Q.m.m.B.k.m.Z.oXoX$X@Xs.n q - - < , , u u d d p 9 9 8 y g g m m M U p.z.K.OX+X<X<X;X+XOX%X+X/.V.k.s.1.1.<.#.z.P.Z.m.8.N.+X<X<XpXpXdXdXkXjXyX#X/.N.m.A.N.Z.&X<XpXrXpXdXjXjXhXhXdXrXwXwXU.Y.D.D.} H s s s s s C C n x V 7.(.>X>X;X*X;XaXyX%X&XZ.1.U N +.1.s.V.x.K.^._.9XuXuXrXyXuXfXyX/.M.8.:.>.1.:.:.3.m.m.M.e.w.m.Z.oX%XiXiXeXL.a.F n n n I ' { | g.G.H.0XH.Y.Y.G.f.p.p.s.s.+.N N +.1.3.k.Z.Z.Z.V.N.Q.;XxXaX5X1X XE.!.E.M.E.|.E.|.aXxXaX<X/.i.k 3 3 k #.B.",
"M.;XN.O.7.9.5.e.R.!.*X=X=X=XXX!.t.e.e.t.6.R.E.9.V.@XrXI.{ C 2 : , # + + # # # + # # + + + O .     O $ % @ @ : > : 2 w M a.P.$X%X<X|.w.8.8.8.o.V ,.5.5.5.9.E.R.M.6.>.;.5.8.M.V.Q.;X;X;X1X5X1XXX~.y.~.*X>X*XR.8.7.p.s.i.E R d./ x n U s.Z.oX;X;X;X:X*XOX!.!.Q.Q.V.m.s.3.3.3.3.,.;.,.>.:.<.<.<.2.<.2.<.<.s.B.P.U.P.P.K.K.^.).OX_./.OXOX;X;X;X+XQ.N.m.k.k.V.Z.Z.k.s.R F w 2 ; ; : > q 8 9 9 > , : - - e s e 2 q j n I a.B.B.V.z.p.+.+.1.3.1.1.M.E. X<X1X;XOX;X;XQ.>.V V :.$XgXgXBXLXBXiXL.` F L R i.d.D./ C 2 = 2 Z Y Y R d.Y.9X9XK.2.3.1.1.3.8.k.s.k.k.V././.V.1.+.N 8.k.8.E.*X!.E.9.8.1.s.J.Y.d.H H H } I.7XI.Y.I.Y.Y.b.h.J.P.P.U.J.z.f.p.1.$.j.V././.W.8.>.>.7.l.9.5.M.(.!.Q.Q.N.N.8.>.>.8.N.oX;XpX#XB.<.L z 2 - - = 2 l Z Z Z x <.V.P.<.k 3 3 3 h j U P.pX%XZ.k.l.(.uXxXDXxXaX=XOXe.N.Q.3.8.Q.V.k.N.#X%X$XP.` z 2 ; > s p u u < p p < < , 0 8 8 8 8 q 2 h P z./.%X;X<X;X|.Z.N.Q.Z.N.B.k.3.1.1.1.B.B.V.N.Z.N.N.N.2XsXsXhXrX[.L.J.k.k.3.3.3.3.A.N.w.C.oXP.].rXiXiXrXpXdXdXdXdXtXwXwXwXG.T C s C s C C L L M N 7.!.6X:X*X!.*XaXxXfXyX%XoXZ.M.M.V.Z.W.W.W.^._.yXuXuXyX;X#X#X/.Z.k.8.o.:.1.1.1.k.Z.Z.N.E.Q.oX$X$XrXiX0XG.T t 2 2 2 2 w z m D H J | D.g.n.G.h.h.h.z.B.s.+.B +.:.<.:.:.N.Z.N.V.N.oXpXzX1X5X:X~.E. XE.8.E.=XE.E.sXZX;X+XV.U h 4 3 c #.B.",
"W.Q.Q.M.>.o.>.9.R.e.R.!.*X>X*X~.t.0.0.6.0.u.R.8.Z.tXiXY.T 4 = o + + + # # # + + + O . + + + + +   O $ % % # , > > - - 2 j :.Z.%XaXE.8.8.,.O.O.,.6.5.5.9.R.~.R.9.t.O.;.6.8.e.Q.;XaXzXzX1X>X=X Xy.u. X:X:X>XOXM.7.k.z.f.R #.S.Y.i.P +.3.M.E.!. X X X XE.6.@.>.1.>.P.Z.k.>.;.o.o.o.V B +.<.s.b.L.C.C.m.3.3.s.Z.@XrX#XrX#X#X/.Q.OXOX;X(.V.W._.OXQ.k.@.+.@.1.3.$.$.1.U.H.d.F q ; : > q e a 8 : @ - : e s G D z r j j n R h.P.P.K.z.s.1.#.+.1.1.1.M. X;X;X;X;X;X;XQ.m.V V I <.v.B.K.@Xh.x 3 n b.L.Y.Y.} } / Z 3 4 w Z F L L E f.U.tXwXV.3.:.1.8.8.k.m.k.V.^././.^.k.+.N 1.8.8.E. X!.E.8.1.3.z.h./ Y Y ( D.8XY.D.{ H z w w z L i.B.U.wXU.K.z.f.$.p.j.x././.W.k.>.>.7.l.9.7.M.!.Q.Q./.Q.>.8.8.8.M.oX;XpXyXK.<.L Z r > ; ; ; ; ; ; 2 Z i.V.B.B.J.i.x h n ` v.@XdXgXpXZ.8.Q.;XvXFXDXxX:XOXE.E.M.,.>.N.oX/.N./.%XrX@Xs.L w q r D G G a < - 1 < < < , : 0 0 y 8 - = 2 M V.-X;X+X+X&XQ.N.w.3.m.m.B.s.U V <.K./.Z.m.w.'.,X3X.X.X,X2X&XC.a.F h h c V :.8.N.Q.Q.w.w.s.s.m.B.P.@XoX%XpXgXSXJXvXjXdXtXI.{ w r D t F L L M N %.l. XcX>X~.R.!.;XaXgXfXaXpXuXaX;XQ.l.W.W.l.j.l.W.-XbXOXQ.V.Q.V.k.1.1.N N +.k.V.m.m.m. X=X;XrXiXrX[.G.J D e : - - - - : : : > q e s C J ^ { d.a.f.B.K.B.k.$.%.B +.1.8.Q.Q.Q.Q./.OX<XaX1X Xy.E.E.e.e.E.E.E.|.1XZXZX;XN.+.c 4 4 h M <.s.",
"V.Q./.M.>.o.>.9.l.9.9.R.*X>X*X!.0.0.6.6.0.R.R.e./.tXiXI.T 2 = . + + + + + # # + @ + + + @ @ @ + O $ % % % , , > > > 2 h U m.&X;X;XE.8.,.o.O.;.e.>.5.6.R.!.!.e.5.&.O.O.9.R.Q.OX<XaXaX1X=X X Xy.0.0.~.>X:X*X!.M.7.k.k.p.U i.U.).J.f.3.7.l.W.!.!.E.0.y.R.e.8.7.1.:.:.:.:.>.>.>.>.>.8.m.m.m.b.b.b.b.C.A.A.C.].@X$X$X$X$X#XoXoXoXoXOXQ.V.8.>.o.%.+.1.7.1.+.+.@.@.1.k.J.L.Y.G.| T F D t t t y e q e e r C H H F F x z n I s.J.P.P.B.k.1.$.$.3.7.1.8.N.OX;XaX1X;X;XOXN.:.V V :.B.K.P.P.I h l a.0X0XY.G.S.} Y l 2 2 h z Z F L L i.J.U.U.P.3.:.1.3.8.k.k.k.k.V.^././.k.+.B 7.8.0.E.OX!.E.8.8.k.z.h.d.Y ^ ( D.H.} ^ C C r w w w z L { h.B.z.z.f.#.#.p.z.K././.W.k.$.@.7.l.8.5.M.!.E.E./.Q.8.8.8.8.N.+X;X;X@XB.R L Z r 4 < ; - ; 2 2 l R B.V.m.k.k.s.i.{ a.i.[.hXjX%XZ.M.N.Q.:XDXFXDXcX=X!.E.E.e.,.3.N.Q.Q.Q.+X%X@XB.` x r C H ^ [ ! s > - = = ; : > 9 e y q y m I a.V.).#X&X&X|.N.A.A.A.m.m.:.+.1.k.s.k.m.m.m.A.N..X3X3X3X3X3X&Xr.q.s.s.a.k.3.:.:.o.B V V :.4.4.2.v.B.L.K.m.Z.oXoX#XyX-X#XrX).J.R l z F C F Y E P %.@.R.*XcX>XR.0.M.E.#XpXaXaXaXaXaX:X*X!.W.l.5.&.0.R.*X-X-XW.7.8.k.7.+.B 1.1.8.V.Q.N.Q.+XOX;XpXrXeXI.| G a 9 , : : : : : : : : : > : : : e s D H I i.h.K.K.k.1.B B +.1.k.V.Q./.Q.Q.;XpXaX=X Xy.y.y.e.r.E.N.E.OXaXZXgX#Xm.U k 3 3 h M R i.",
"V.Q./.V.1.+.>.7.9.0.0.9.!.`.`.!.0.0.t.t.0.R.R.M.oXyXkXI.T q - @ # + + + + # # # , # @ @ @ : : : & & i i u 0 < > 2 2 j U B.+X;X<XE.N.8.o.V o.6.M.@.>.e.E.!.E.7.O.O.O.O.9. X=X;XyX%X%XOXE.E.M.8.t.5.~.>X:X*X!.M.k.k.k.1.U <.).tXtX/.l.7.7.E.!.!.~.t.9.e.0.>.>.+.+.B B :.3.8.w.M.M.Q.Q.Z.C.L.G.G.G.}.'.].&XiX$X$X[.P.P.Z.Z.Z.Q.Z.N.N.M.7.o.b b N +.3.@.+.+.#.#.1.s.a.n.L.I.I.G.g.| T J H F H H D D C Z H T / T F z x M ` B.P./.K.B.p.1.1.j.j.7.8.8.M.OXaXaX1X;XOX+XA.B k V s.oX@X@X{ n F h.0X0XI.I.G.{ Z 3 2 3 l l x x S L E p.L.P.oXm.1.:.3.3.s.k.k.k.x.V././.x.1.+.8.8.0.E.*X X XM.8.k.z.h.d./ ^ ( D.} H r y r r y q 2 w z L R i.h.p.*.#.#.p.x.^./.^.V.k.@.@.7.l.0.5.9.E.Q.W.Q.N.8.8.8.N.oX;X;X+XV.p.L Z C s a p < > 4 r x L p.P.Z.N.k.s.P.rXkXiX0XiXhXrXZ.w.M.|.OXcXFXFXxX:X XE.E.e.8.w.w.w.N.Q.OX;X%XP.<.n j z T |  . .^ C q ; = ; ; > q t D K K ' G.eXdXpX%XoXN.N.r.w.q.q.3.m.3.B B 3.B.Z.B.m.m.Z.&X+X,X2XmXmXmX,X'.q.2.v.L.P.P.B.3.:.o.B B V 3.3.2.s.s.m.B.B.3.m.N.V.M.M.W.V.W.x.s.P x L ^ H Y R i.#.+.7.R.*XcX>XR.0.5.8.N.+XOX;X1XaXaX:X:X:X~.9.&.&.5.R.(.*X;XQ.8.>.@.+.+.+./.Z.W./.OXOX<XsXaXpX%XP.b.[ s : : # @ # : , , : : : > > > : - X - ; 2 w x I h.P.).V.$.B N %.1.7.7.Q.OXQ.Q.;XaX<XE.~.y.e.e.y.y.e.e.E.;XxXxXpXZ.2.V M x 6 3 x U #.",
"Z.Z./.Z.k.3.>.@.8.7.7.9.R.!.`.`.u.6.;.5.e.E.E.N.+XdXdXI.J q - @ # @ + + # , 0 9 9 > - - : > e a d f W f d u < 2 4 l L s.&XpX<X;XM.e.,.O.V >.8.8.;.8.N.!.E.9.;.O.O.&.9.!.*X;X#X#X/./.N.N.M.e.6.,.0.~.:X:X*XE.M.k.k.k.#.N #.P.tXtX).x.7.7.R.!.*X*Xu.e.6.o.N V U <.2.3.3.m.m.M.N.W.N.V.B.L.L.[.0X0X{.{.{.{.{.{.L.n.a.a.2.s.m.C.B.m.V.k.1.1.8.3.>.o.+.+.+.1.3.1.$.1.<.` a.h.J.L.L.L.G.b.g.d.} { T T F S Y T { { T n j n I s.K.@X/.V.k.p.1.1.j.k.j.3.k.Q.aXxXaX;X;X;X&X2.k j _ K.rXdX0Xa.L I a.G.I.tXY.d.F l h l l j x x L L U <.B.P.#XN.3.1.1.3.3.3.k.k.k.x./._.^.j.@.k.8.0.E.*XOX XM.m.k.s.f.d.d.( ( ) ) C r s s t q 2 2 2 t F { i.S.f.*.#.#.p.z.K.^.^.V.j.@.%.1.l.8.5.9.W.M.M.M.8.8.8.M.Q.%XpX%XoXs.R x z z s A G ~ ! [ } { ` 2.m.Z.Q.V.B.@XBXJXJXBXeXb.3.m.N.Q.|.:XxXFXDX1XOXE.R.M.8.8.M.M.w.A.|.;X;X#Xk.N h l Z { } g.| T C w q 2 w w z C H / d.Y.[.rXdXdXrX&XZ.w.w.w.q.3.:.:.:.:.:.3.m.m.m.Z.Z.|.+X<X2X2XmXNXNXNXmX,X].].{.L.L.k.k.3.3.8.A.N.N.3.4._ B V I U U 3.m.N.M.l.l.9.l.l.7.1.U L { g./ T *.p.p.1.7.W.*XcX>X~.9.5.,.8.N.N.E.OX;X:X:X:XbX*XR.7.@.@.9.!.;X+XOXQ.3.B N +.k.#X/.W.Q.-X1XzXxXfX%XB.R F y > @ + + + + @ # # # : : < 9 9 < < : - - ; 2 r Y h.U.).V.$.%.%.+.1.>.o.N.OXQ.Q.;XaX;XR.E.y.e.6.y.y.r.r. XaXZXgXoX3.B b U U h 3 x R #.",
"/.P.V.V.V.k.$.B 7.7.7.0.T.W.!.`.R.0.t.0.R.E.E.Q.%XpXiXG.F q : : # @ + # 8 a a a e q > > q z F H ~ ! ! ~ f p 4 2 l x <.V.%X<X=X Xr.8.;.B ;.8.8.,.8.M.Q.Q.M.>.o.O.5.T.(.-X-X#X/./.P.P.Z.V.m.8.>.>.9. X1X1X*XE.M.8.k.k.#.N U k.U.).^.x.7.7.l.!.*X>X!.R.0.o.b v #.s.Z.C.C.m.m.N.Q.OXQ.P.P.[.0XqXqXqX{.}.n.n.{ ' T F m n F R a.B.B.B.B.k.k.m.V.V.8.+.+.+.1.s.k.1.1.p.<.<.<.i.h.J.U.@XeXeXwXU.J.h.a.i.*.R Y Y R { T F z x L <.B.P./.P.x.k.1.$.1.j.k.k.8.M.OXaXzXaX1X;XpXZ.B k M s.@XrXeXh.L x I g.I.kX0XY.G.{ I n x x x M L L L U s.K.$X/.m.3.1.3.3.3.k.k.k.x./._./.l.3.l.8.8.!.*XOX!.M.m.k.p.p.d.d.d.! A l A A C s q : - ; 2 t I } h.z.p.#.E %.p.z.K.K.^.V.7.@.O.@.l.l.5.9.E.9.0.8.>.>.8.N.|.;XpX+XZ.<.I k z C H ! ..8X8XqX0XJ.2.:.1.V.OX/.B.K.iXjXiX0X{ j V w. XOX XzXDXDXcXOXE.E.N.M.6.8.E.N.w.r. X-X*XW.1.v h x L { | | T F z z z n L U <.f.J.).wXkXdXtX$XoXC.A.A.A.m.3.,.:.B B B :.3.m.A.m.N.&X<XpX,X,X,X,X,XNXVXVXVXVXBXBXVXeX[.Z.V.V.V.Z.Z.Z.N.q.3.2.<.:.:.` U B ;.6.9.9.T.9.0.9.7.$.#.R h.G.d./ d.f.s.p.8.E.`.cX>X!.E.8.>.:.8.m.M.N.Q.*X:X:X:XbX*XE.5.o.,.N.OX;X+XQ.3.+.+.1.k./.M.l.E.*XcX5X:XOXk.N h 2 - @ . + . .   . O + @ @ # : , < 9 u u : : : 2 w L h.Y.).x.1.+.+.+.%.+.N k./.Q.E.;X1X=Xe.E.E.e.6.y.y.r.E.=XzXxX;Xm.N k k R #.k 6 x R i.",
"@XP.B.K./.K.3.%.7.7.7.7.l.T.^.(.!.0.5.0.E.R.N.OX%XrXwXg.D q 8 8 : @ @ : a G G J G C r t z L R { ....! G s r r 3 L R z.oX;X=X XE.w.>.o.;.3.8.,.o.M.Q.Q.Q.0.>.>.5.E.*XaXuX#X/.P.P.P.P.P.B.3.+.o.o.R.*XaX1X*XQ.M.k.k.k.<.U U 1.z.z.x.c.$.$.0.R.!.`.E.E.M.k.#.U i.J.B.C.C.N.N.Q.OX#X;X%XeXeX0X{.I.}.n.| ' D t y q q ; 2 3 z I a.G.J.m.Z./.Z.k.3.k.B.k.3.1.s.s.1.p.z.<.<.p.p.p.z.B.K.rXrXtXrX@XU.P.P.F.f.R E R ` R T F n L U s.B.P./.K.V.j.#.#.p.k.k.k.k.V.;XaXsX1X;X%X&Xm.U V _ s.L.b.R n n R g.L.0XwXeXeX[.b.i.R I I L N N M N <.k.P./.Z.m.3.3.3.3.k.k.k.z.Z././.W.k.V.k.8.E.*X!.E.M.k.3.<.i.h.S.D.! A 7 C H A e > : - ; 2 z T } g.i.#.S S P $.z.K.V.^.V.j.%.%.@.l.l.5.9.E.8.7.8.>.>.M.Q.OX;X;XQ.3.B M x F ^ } D.8XqXqXqX0XL.2.:.>.N.|./.s.<.a.a.` j w j U m.E.=X1XAXAXcX;XE.E.N.N.e.8.w.E.N.w.M. X*XE.7.%.b x L I } } { I x x F I <.2.B.P.wXuXjXvXdXuXwX/.B.v.q.q.Z.m.3.:.B B :.:.3.q.w.A.oX<XpX<XpX&XA.A.'.{.{.eXiXkXVXCXLXLXBXjX%X#X+XoX|.N.m.3.A.Z.oX$X$X@XK.B.V O.;.6.u.R.R.u.9.5.$.#.i.J.Y.{ ^ d.f.h.j.k.W.*XcX*X!.!.M.:.B :.8.8.8.M.!.*X>X;XcXaX=XN.>.:.q.N.pX+XV.3.s.k.3.+.l.8.7.9. X:X>X!.>.v 3 2 ; - . . O O O     O O + @ @ @ + @ # , , , : > 2 4 Z d.S.K.z.p.#.+.+.%.o.N 8.Q.E.E.+X;XOXe.E.E.y.r.r.y.y. X1XsXaXQ.+.k 6 c R i.P c x R p.",
"P.K.P.P./.K.z.1.1.7.j.7.j.l.W.^.`.9.5.R.R.M.E.#XpXrXL.` D t y e 8 : - > s ! }  .d.{ T L I R i.d.} ^ H r 4 2 r x *.z.#XyX:X*XE.e.w.:.B >.8.3.>.:.V./.OXQ.k.8.l.W.-XaXaX#X/.K.K.K.P.J.B.p.U b V +.M.OX:X:X-X(.V.k.k.k.s.<.<.1.s.c.c.=.%.$.l.W.~.R.M.M.Z.V.s.#.d.J.v.C.oX+XOX X/./.#X@X].L.b.| [ K D g q > : : - - X = ; 4 r F / d.B.Z.oXP.m.s.m.Z.V.B.k.s.p.<.<.p.<.2.s.p.1.<.1.s.K.P.).@XrXrXrXtX9XK.h.i.{ { R T T I L I <.s.V././.^.x.$.#.1.k.k.k.8.M.OX1XaX1X1X%X%XoXs.U :.s.B.a.I n L R i.g.a.U.wXeXeX[.L.b.n.s.<.U B N V B <.m./.oXZ.8.3.3.3.j.k.k.k.x.^././.l.W.k.7.E.OX!.E.8.8.1.#.#.f.S.D.( H A A A s s s s t t t F T { d.R E S v P p.x.K.V.^.V.k.%.%.@.l.l.7.l.W.l.0.8.>.8.N.OX+X%XoXw.:.V m L ` g.D.D.8XH. .| } a.2.3.8.N.Q.Z.s.U F z w ; q I v.N.N.=XAXAXxX1X XE.E.N.M.8.8.M.E.N.e.N. XOXR.@.N N U R R { { { R I U i.s.A.'.#XyXfXfXfXbX9X_./.V.m.q.q.q.s.2.<.<.<.1.2.3.A.C.'.&X<XsX<X&XN.,.B V I ' | H.}.H.H.qXBXCXjXkXrX%X%X%X%X&X|.N.N.C.oX@XoXP.B.v.B >.0.9.0.u.R.R.u.5.@.$.1.J.G.I Y *.f.f.j.l.!.;XcX*X!.!.N.;.b V o.+.>.8.l.W.(.*X:X1X;X&XN.A.A.A.&X%XoXV.k.k.1.%.7.8.9.9.~.XXXXR.o.c 4 ; ; - # $ % & % % $ + + + + + . . + @ # - , < < 2 r Z / h.K.x.j.$.+.%.+.@.>.8.N.E.E. X X Xy.y.y.y.y.r.y..X2X1X1XOXk.V c 6 k R p.i.L x P i.",
"B.J.P.U./.K.B.k.1.3.j.j.7.j.x.W.*X9.9.E.E.9.E.;XfXrXC.` m z t s q : - > C | D.H.Y.G.g.i.<.<.i.i.d.T l 2 = 4 h v f./.uXxXcXXXy.6.8.+.B 3.8.>.>.8.Q.OX+XOXN.M.Q.#XuXuX#XZ.z.V.K.J.B.h.p.#.k h b :.M.!.;X;X=XOXW.l.k.k.k.s.p.s.s.k.j.$.%.$.W.`.!.R.l.l.V.V.p.E { h.v.P.rXdXpXOXV.V.k.h.a.{ J t 8 : 0 : # @ @ - - - X X = - ; 4 C F B.B.B.K.P.Z.B.s.B.m.m.B.s.+.N N s.k.k.1.+.+.#.p.<.<.s.P.rXjXjXjXtX@XK.h.i.i.` ` ` R I L U <.B./._.).K.p.#.$.k.k.k.7.k.Q.;X;X1XaX;XyX#Xk.<.s.P.wXL.i.L x F I I I h.J.[.eXeXeX[.].C.s.<.U B M N :.2.P.%X/.k.3.3.s.3.k.k.k.k.V.^./.V.W.l.7.E.OXE.E.8.8.<.U R f.S.S.( ( H A A s G ! | | [ ' [ { } } / E S S P p.z.K.K.^.W.j.%.%.1.l.l.7.l.E.M.9.9.8.e.E.+X%X#XZ.1.B k n T d.D.D. . .! s 2 w M <.w.N.E.Q.M.s._ F j w w n 2.Z.Z.E.1XHXAXcX:X XE.E.M.8.8.e.N.N.A.A.Q.OXOXl.o.N +.<.#.E I ` i.i.i.s.B.oX&X=X1XaXuX-X^.^._.^.K.m.s.2.2.2.I U <.s.B.B.m.v.Z.%XhXgXhXpX&XA.I j 2 > > q t K ..K G | 0X0X0X[.eX%XrXrXpXhXhXpX,X%X&XZ.B.m.v.s.>.8.R.9.0.0.u.T.T.5.@.+.1.z.f.Z Y / p.f.k.V.OXaXxX*XE.Q.M.B k k b N +.:.1.8.W.OXOX=X<X<X<X+X|.'.N.;XsXOX8.+.%.@.7.l.M.l.R.!.~.E.3.v 2 = ; : 9 i i i Q i i 0 # # @ @ + + @ @ # , - : < e r F / f.^.^.z.$.+.+.@.1.k.m.N.Q.E.E.Q. XR.e.e.E.y.y.E.3X1X1X;XQ.1.M h h k U h.B.#.n L <.",
"p.J.P.K.K././.V.1.+.<.k.k.p.s.Z.OXQ.E.E.E.M.E.;X;X%XV.R x Z Z C r 4 ; 4 C ( g.S.h.f.i.<.<.p.k.B.a.L 6 3 6 v #.k.Z.-XaXcX=XE.e.e.8.B V >.M.8.0.M.!.OXOXOXoX+X%X#X#XV.p.p.B.P.P.J.i.L M E R U U 1.M. X=X:X=XOXE.9.7.1.k.V.k.k.V.k.3.+.o.o.&.9.~.*X>X!.W.Q.k.U R b.s.K.rXdXrXB.<.U x z w q 9 < : @ @ # # # + . . X X X - - : > e e w n ` G.{.[.[.{.L.C.v.3.3.w.6.,.B B U 1.z.z.p.#.#.#.<.p.h.K.$XpXvXfXyX).K.z.i.<.#.#.R L L R h.K.).).P.B.p.#.1.3.k.8.8.M.!.;XaX1X;XpXyX#XK.K.J.S.U./ S z h h j h n T a.b.P.@X%XrX].B.m.s.<.P M U 2.B.].P.m.3.3.k.>.1.7.j.j.z.K.^.^.W.9.9.W.(.Q.l.k.1.U L R g.Y.7Xd.E Z H Y J J [ [ | | ' ' | n.n.g.Z 3 z / f.V././.^.x.j.@.O.@.l.9.&.9.`.~.9.e.e.E.OX;XrXP.s.U L z T g.D.( A r r 2 2 3 k U 3.M.Q.OX!.M.+.c 3 h k k U m.'.|.3XAXGX1X;XOX!.Q.M.8.8.8.Q.Q.M.m.Q.%X%XV.$.v v N U +.+._ <.2.s.C.$XpXpX5X1X>X>X>X*X!.R.l.k.s.p.a.{ ' n <.2.m.B.m.B.P.$XiXjXjXjXeXL.' K y 8 - @ - : > 9 < e p s f ~ ..| | n.L.[.iXiXhXNXsX<X%X%XoXV.m.8.O.5.9.u.9.9.T.R.l.7.%.+.1.f.#.v L #.s.j.1.j.(.aXxX-XQ.W.V.<.N M I I T ` a.s.1.<.k.N.OX;X<X=X=XXXXXXXXX X~.0.5.@.O.l.Q.m.3.m.oXrXB.` w ; 2 y D G G f d d d d 5 1 - - , a f f a u # : < s C C T h.K.^.^.z.%.N +.s.P.B.V.Z.oX&XoXQ. X0.0.~.~.y.y.2XAX1XQ.k.U x l r z T h.b.i.L R h.",
"p.K.).K.K././.V.3.:.<.k.B.p.h.B.Q.Q. XOXE.e.E.;X=XOXV.+.L S Z C 3 3 4 3 l Y { d.i.` R <.s.m.s.s.#.P k k V +.k.N.OX:XbX=X~.y.0.5.:.+.+.8.k.0.9.E.!.OX=XOX+X%X%X&XB.B.B.z.B.s.p.<.<.L L i.p.<.<.s.M. X=X>X=X XR.9.7.>.k.M.l.V.Z.m.m.1.o.o.O.5.R.*X>X~.R.V.k.U U v.2.B.%XdXrXB.U x 2 2 > : < , 1 $ + + + + + . + @ @ @ @ - - - : > > q z T | H.{.[.].].C.m.q.w.6.6.:.:.:.<.1.p.p.i.p.p.i.<.<.s.B.P.rXfXvXvXyX/.z.s.f.p.#.E P R h.U.wX).P.B.s.p.1.1.k.8.7.8.W.OX:XaXaXyXyXyX).j.f.F.f.E Z z l x I F L T a.a.v.C.@X%X%X].B.s.<.P v M <.s.K.P.C.v.3.k.1.1.j.j.j.k.x.W.W.W.l.l.W.(.Q.M.k.s.<.L L d.I.eXf.E Z L T T T [ | | | | n.L.L.b.[ C w Z / h.B././.W.x.j.@.o.$.l.T.&.9.!.R.0.0.e.E.OX;X#XB.<.L L F ^ [ ^ C e 4 4 r l x L U +.8.N.OX!.l.+.b c x M <.B.Z.Z. X2XAXAX1X=X!.E.E.9.8.8.M.N.V.M.N.+X#XP.f.U v M U U +.+.:.2.m.Z.%XhXgXgX>X>X>XXX~.u.u.9.7.1.<.<.{ { | ` s.s.m.B.C.@XiXBXjXiX0XH.| K t y > : @ . X @ - : : , < 9 9 9 a a g m ] ` a.v.'.&X%X%X%X+XN.k.k.8.5.0.9.u.u.T.M.R.k.1.+.+.#.#.U P E <.j.j.1.k.(.uXfX_.W.W.V.p.#.R g.| ^ T T ` a.s.m.m.M.E.|..X=X>XXX6X6X6XXXy.0.O.o.7.m.k.2.h.U.eX@Xb.I w q w z D H ! ! ) ) ) A d e e s ~ ..~ W a , : < a C C T h.K.^.^.z.+.P +.1.B.B.Z.P.oXoX/.Q.!.u.u.~.y.y.XX5XzX=XN.1.U x z z F { h.g.R F R J.",
"*.z.K.K.K././.V.m.1.1.k.B.s.s.k.N.|.;X;XE.e.E.:XOX/.k.#.P L S Z 3 4 3 3 l Z Y R L L L <.B.P.V.m.U N N U 1.k.Z.OXuXcXaX XR.e.0.;.N :.k.8.7.8.R. XOX*XOXOX+X%XoXB.<.k.P.P.B.<.P M <.U <.B.J.p.i.3.M. X=X>X*X!.R.9.7.5.l.V.W./.#X/.V.8.>.>.>.5.R.`.`.R.M.V.k.U _ s.2.B.%XdXpXK.I w = ; ; : : # $ $ + + + + + + # , < < : - - - ; : - ; > y D [ n.L.C.].].C.m.w.8.8.3.3.2.:.+.#.$.p.p.p.#.R U U <.2.Z.#XdXjXjXyX).V.K.J.s.#.P E i.h.wX@XU.K.z.f.1.1.k.8.7.8.8.E.*XaXxXyXyXaX).$.E i.E S S z x i.J.h.i.a.i.` ` 2.B.].%XoXZ.B.s.R P L U 2.B.Z.Z.B.m.k.3.8.j.j.j.j.c.x.W.W.W.W.W.(.(.W.m.s.<.L x L Y.kXJ.d.Y L T } g.H.H.H.n.H.0XeX}.g.D r w Z i.s.B.^.W.W.l.j.@.@.$.l.T.&.9.!.u.0.e.R.OX;XrX/.p.L x Z T ^ ! C r 4 r C ^ / i.p.:.o.>.e.*X!.k.+.N N U <.Z.$XoXN.+XAXAXXX:XOXE.R.9.0.5.6.M.N.M.N.oX%X/.3.+.P N P +.+.+.<.3.V.oX%XhXgXgXsXXXXX XE.u.0.9.5.7.@.B V I ` b.L.v.m.C.P.%XdXBXCXiX[.| F y 8 : - @ + . . . + @ + # : , , , : , , : 0 8 y j m _ 3.Z.&X%XoXm.1.3.8.0.9.9.9.9.T.M.M.7.7.1.#.+.U #.<.#.p.j.k.k.V.(.;X;X(.V.^.^.k.p.p.J.G.a.T n N <.2.s.3.8.8.M. XOX=X>X6X6X6X>X~.u.5.o.>.3.k.s.s.K.rXrX[.a.n w 2 w z H ^ ( ( ( ( ) H H ~ (  . . .~ f , , 9 s C F ^ h.F.^.W.l.$.+.+.+.k.B.P.oXoX/./.N.R.y.y.y.y.y.>X5X>XE.,.U I F F F ^ i.g.} F z I h.",
"P #.z.z.K./.P.V.V.s.1.s.k.k.s.3.m.Q.+X;X XN. X1X;XQ.k.+.P L L Z r l C l l z L E R R <.B.P.oX].Z.+.N N +.k.Q.OXOXaXcX:XE.9.R.9.@.N 1.k.8.1.8.!.OX1X;XOXQ.Z.Z.m.<.s.B.B.k.<.+.U +.s.<.p.P.P.s.<.1.M.!.=X>X*X XR.9.9.7.l./.#XuXfXyXZ.N.w.0.5.5.u.!.!.~.W.V.k.<.` 2.s.A.#XhXgX@X<.h ; > > : @ @ @ $ + @ $ # , , 9 p a p p p e e < 2 2 > ; > q D ' | { b.P.P.Z.Z.N.m.m.m.3.<.#.#.#.p.#.#.#.#.#.:.<.<.m.k.m./.yXfXuXtX).P.z.<.U P #.i.K.).@X).V.s.1.1.3.8.8.8.8.9.!.;XaXaXaXfX#Xk.E S x v P E ` U.iX[.G.} I F n M _ s.B.B.B.z.h.i.R L L U s.B.P.P.V.m.8.k.k.j.j.k.c.x.W.W.W.W.W.(._./.m.m.1.M 3 l g.tXtX9XS.i.{ d.H.I.H.L.{.kXVXkXI.[ w 2 w L i.p.z.V.V.x.l.j.$.@.7.l.9.&.9.~.u.0.E.!.;X;X#XB.R x x L T T H D C H ( D.Y.Y.U.P.k.>.>.9.*X(.M.1.+.+.1.B.@X$XZ.|.=XAX5X.X XE.M.9.0.5.6.8.M.M.N.Q.+X+Xm.+.N P %.+.+.1.3.k./.#XpXpXfXhXpX&X+XE.6.6.e.M.0.@.o.o.+.:.2.s.b.B.B.P.%XhXBXjXiXeXn.[ D q > : @ . . + @ @ # @ @ + # # # # # @ : : # # : > > w m _ C.oXoXN.8.1.3.8.9.9.5.5.9.M.M.l.1.3.3.1.#.#.f.z.k.s.j.k.k.V.(.-X;XQ.V.Q./.k.s.s.B.B.B.<.P I P +.:.:.1.8.M.Q.Q.E.>X>X>X>X>XXX~.M.>.>.1.k.s.3.V.rX$X@XB.R h 2 2 w C H / ( ( ( ( ( ( (  .D.H. .~ d : : e G H H / f.x.W.W.x.j.#.+.+.s.C.oXoXP.P./.Q.R.E.~.y.~.>X5X5XXXe.o.N I I T T d.g.h.d.F l Z / ",
"v P <.s.V.P.P.Z.Z.k.1.3.s.s.1.1.N.E.E. X X X=XaX:X/.3.E P P L L l Z Y Y Z Z L R B.J.K.P././.oXoXk.+.N >.Z.OX-X#XyXuX-XM.0.9.7.o.1.k.k.8.k.Q.OX;X:XOXN.m.m.m.s.s.Z.k.+.V V U s.V.k.1.p.V.V.3.+.>.e.!.=X=X*X!.R.9.l.8.W.#XyXgXSXvXpX+XQ.8.5.&.9.!.!.!.Q.V.m.2.<.<.w.A.Q.%XgXpXB.n w q 8 : @ + $ % @ , u u u u p a a s d G G A s a e 4 2 > > q t D F ` h.C.P./.P.m.m.3.3.s.k.j.$.%.%.+.#.<.<.:.:.:.1.<.<.s.P.#XdXdX/.K.K.s.p.#.#.#.p.K.tXtXP.k.1.1.1.3.k.M.8.8.N.OX;XaXaXaXyX_.1.c k L <.a.b.rXdX[.g.T z x L I R ` a.p.h.h.h.i.E x L P 2.B.P.oXP.V.k.k.j.k.k.c.x.x.l.W.W.W.Q.(._./.m.k.1.M 3 2 Y Y.jXjXjXtX0XI.{.qXqXkXjXCXCXkXG.T 2 3 x E i.p.k.V.V.l.l.j.&.@.7.l.9.&.9.~.R.R. XOX;X%X/.s.M k x L H F F H ^ } D.8XI.Y.K.P.Z.M.M.R.*XOXW.8.@.<.k.P.oXZ.Z.+X1X1X3X3XE.M.9.9.8.0.8.e.M.N.Q.OXoXN.3.o.N O.+.$.1.z.W./.uXfXfXpXyX%XoXN.|.A.,.>.,.8.>.>.N +.k.P.oXZ.m.s.%XiXgXSXBXiXG.{ D y > : : : @ @ @ # , 0 u 0 , # @ @ @ + . + @ # # # : : : 2 j U C.Q.Z.M.8.8.8.>.T.0.5.5.9.l.l.8.1.1.1.1.p.k.K.P.V.k.8.3.8.E.(.*X:X(.W.Q.Q.k.1.1.3.m.m.3.1.1.:.o.V B :.3.8.m.k.8.!.!. X>X:X>XOXE.8.1.>.8.8.3.B.oX@X@XP.s.n 3 2 3 w Z Y / *.*.*.=./ ( } D.D.} ~ s @ - e J ( ^ / i.c.W.^.W.k.1.+.U s.Z.oXP.Z./.&X+X!.~.y.~.>X5XcX1XE.6.o.N R ` { d.S.G.G.g.L h h x ",
"x L R p.B.P././.N.m.3.3.3.3.1.<.N.M.M.E.!.OX:XaX;XW.$.U U U L L z L Y R Y E *.i.h.B.K.P.Z.oX%XpXQ.8.>.m.OXyXyX;X-X#XQ.k.7.>.%.N V.m.m.M.Q.OX*X*X XN.m.m.m.m.m.B.<.+.+.:.1.3.s.k.k.1.1.M.V.3.>.8.e.E.=X=X*X!.R.9.9.9.W.-XyXjXFXDXFXgX+XM.5.O.0.!.!.!./.Q.m.s.2.:.3.w.A.|.aXgXP.` j y 8 : @ # % 0 $ < p a p u p p e p A G ~ H G A r 4 2 2 > > > q w F ` a.J.P.P.B.s.s.k.B.Z.V.1.%.%.+.#.+.+.B B B V +.1.1.<.1.V.@XrXtXwXP.z.#.P v U z.wXtX).B.3.1.1.3.k.N.k.>.8.Q.OXaXcX:XuXyXZ.V +.+.s.B.K.$XeXJ./ H F { h.h.g.g.f.h.J.J.S.f.^ z L L R p.C.].P.Z.k.k.3.j.k.c.x.z.l.l.W.W.Q.(./.Q.k.s.1.P h 3 z / ).jXLXLXLXCXCXCXJXLXLXLXCXI.J w 2 z I i.p.p.k.V.x.l.l.l.&.@.7.l.0.5.9.R.R.E.OX;X#X/.z.U x x L R F F F H ^ } D.D.d.d.i.z.W./.!.OX*XOXW.8.1.8.V.oX/.Z.+XsXZX2X3X2XM.9.0.9.9.9.e.M.M.Q.OXOXZ.8.:.+.N o.$.j.x._.yXuXaXfXaX;XOXoXZ.V.3.v.v.4.B B :.3.m.m.m.N.Z.Q.+X%XjXjXjXiX@Xb.T z q > @ @ @ # , , 0 u u u u i u u , , $ @ + . + + # # # : - q n ` @XoXV.8.8.M.8.@.l.0.5.5.9.l.l.8.1.@.+.1.B.P.).@X/.V.8.>.8.M. X=XcX*XQ.Q.W.k.:.:.>.w.M.8.8.m.M.8.V B +.+.+.1.8.k.9.E. X;X1X:X-XOXQ.l.7.1.7.8.k.V.@X#X#XK.<.x w 3 h z Y *.f.S.F.F.*.*./ ( ( ) A a - - e T | / R <.c.W._.^.k.1.+.+.3.C.P.Z.V.oX+XOX*X!.~. X6XzX5XXXe.,.o.+.<.i.d.g.g.f.d.R x 3 3 l ",
"x v P i.B.Z.P./.N.N.m.3.1.3.3.1.m.w.e.M.E.*X;XuX(.k.+.U #.R L L x L R R #.i.h.z.s.s.k.k.m.Z.OX;X|.N.E.OXaXaX;X;XOXQ.M.k.1.+.%.@.V.k.k.Q.-XOXQ.Q.N.M.m.Z.B.s.2.2.V +.3.k.V.M.k.1.M.1.3.M.V.7.>.8.e.~.=X=X*X!.R.9.9.8./.#X#XdXDXDXFXSXaX+XM.0.e.!.!.OX(.V.m.k.<.U ,.6.e.|.<XgX%Xs.n z e 9 , 0 0 0 9 p a a p < < e e e r C H H ! ! C r r 4 2 2 > > 2 r F L R a.b.B.B.m.B.V.Z.V.j.1.$.1.@.+.B B B B V P +.U U U <.z.).).#X@X^.k.E v P 1.K.@X).P.k.s.3.3.k.M.8.>.8.Q. X>X1X1XaXaXOXV.Z.k.k.Z.P.oXK.a./ / g.I.7XG.d.i./ d.d.d.S.S.d.Y L L I ` s.Z.P.P.k.k.3.3.j.k.j.j.j.l.l.x.W.(./.V.k.1.<.<.I h h x R P.jXLXPXUXUXPXUXLXJXlXI.J 4 ; w L a.B.z.k.x.V.x.l.l.l.1.@.7.l.9.5.9.R.R.W.OX#X/.m.#.v h x L R F F F H ^ ( ^ ^ H Z L i.V.Q.OX*X*X!.l.8.l.V./.oXZ.&XaXxXsX2XXX=Xe.9.9.e.M.M.M.M.N.OX;XOXN.>.+.+.@.7.l.W._.uXfXuXyXyX-XoX/.Z.V.k.<.` 2.2._ _ 2.m.oXQ.N.m.N.oXfXSXjXiX[.b.` n y q > : @ @ @ , 0 i u i i i i u i i i i i i % $ + + + # : : 8 w ` B.%X#XV.8.0.M.9.@.9.0.7.7.9.l.l.k.3.3.j.k./.$XrXrXoXN.8.,.,.e. X:XcX*XE.Q.Q.k.>.>.,.E. XE.e.M.N.M.>.1.1.+.U U <.k.8.l.W.(.OX;X;X;X*X(.M.8.8.M.M.l./.OX#X@XV.<.x h h l Y i.F.Y.Y.Y.f.*.E S Z l r 4 ; ; w J { R E #.c.T._.(.l.1.+.:.:.m.Z.V.Z.oX+X|.*X~.!.>XzX5X*XE.6.>.+.<.i.i.i.f.i.R E L x x P p.",
"x x M #.s.B.V.Z.N.N.N.8.>.1.3.3.8.w.M.M.E.OX-X;XW.1.B +.<.#.P M v L E #.i.h.B.K.P.V.k.3.3.8.8.3.N.Q.+XaXxXaX;X;XOXM.k.k.1.+.1.V.k.1.8.OX;XQ.M.M.M.N.Z.oXB.` n m s.s.3.1.1.k.Z.OXW.k.k.W.W.7.>.5.e.~.=X=X*X!.R.0.7.8./.#X_.%XjXvXgXSXSXxX;XE.M.E.E. X(.V.k.k.<.V ,.6.e.|.1XZX%Xv.I F t a u u 0 , p s s p < > 2 < r r r s C H ^ ( H H C r 4 2 ; ; ; 2 r l z F } h.B.B.V.V.k.k.k.k.k.3.@.o.N N +.:.2.U M M <.s.s.<.#.p.K.).#X/.z.$.P #.s.P.@X/.V.k.8.1.8.m.8.:.1.N. XXX:XcXaX;X;XaXpXQ.V.P.P.P.B.2.{ d.I.eX7X/ z z l C Z H / D.d.^ L L L R a.B.P./.m.s.1.1.1.p.p.$.c.k.l.l.W.(./.V.k.1.<.p.i.M h h M <.L.iXCXLXLXLXLXCXkXI.[ r 2 3 l R B.K.B.z.V.W.l.l.l.l.1.@.1.l.9.5.9.E.M.W._./.V.p.L h h x Y { L F F T T ^ Y H Z Z L #.k.W.(.;X*XR.5.7.W.OXOXQ.Z.;XxXsX1X=X.XE.R.9.9.R.E.M.M.M.Q.OX;XOXm.:.+.:.j.W.(._.yXfXuX#X#X#X#XQ.V.k.k.<.a.' n ' v.L.C.v.2.m.oX;XpXaXaXfX@XI.g.I w 2 > : - : , 9 0 0 u u u i u u 5 , u i u i i a i % $ + + # 0 9 y K b.rXrX%XQ.7.5.l.9.@.9.0.0.9.l.l.l.k.k.k.V./.@XrXdXfX#XQ.8.;.;.8. X:XcX*XE.Q.E.M.3.,.6.XX5X=XE.e.9.8.k.V.V.s.+.P U <.k.k.k.k.m.Q.;XfXaX:X(.9.8.Q.Q.l.M.W._.#XoXm.P k h c P p.K._._.^.c.=.S c 6 3 2 ; 2 2 y F R I U #.j.W.-X(.l.@.+.>.B 3.V.m.N.&X+XQ. X~. X1XcX:X!.e.,.>.:.3.p.i.i.p.i.R P L E i.).jX",
"L x k x R B.Z.Z.Q.N.N.M.8.1.7.8.6.6.8.M.!.*X*X*Xl.7.%.+.+.#.U L L E #.p.s.z.V.P.V.k.3.+.N V O.O.,.E.;XzXaXaX;XOX/.1.k.V.@.+.k.V.k.k.W.OXOXQ.M.M.N.m.3.2.2.` I I s.1.1.k.V.V./.oX_.8.8.V.M.0.7.5.e.E. X*X!.R.9.9.9.Q.-XOXW.V./.yXpXgXSXgX<X;X XE.Q.Q.Q.V.V.B.p.B ;.;.e. X;XsX<XC.<.I F D a 9 0 u G A s r e e r r r r r r C H ^ ( H H A C A r 4 ; = ; 4 2 2 e C T i.s.B.B.z.k.k.l.V.k.1.+.o.o.+.:.<.R U U <.<.#.U #.<.k.K././.K.z.+.1.3.k./.#X/.V.k.8.1.>.>.1.3.8.R.~.=XcX1X*X;XxXxX;XQ.Z.oXP.s.U { Y.0X7Xg.Y C l C r r Z ^ ( ( ( Z F L L R s.K.P.Z.k.1.s.k.1.#.#.$.j.k.x.W.^.Q.Q.m.1.<.B.B.#.x h h M a.L.eXjXjXkXqXH.| F t q w l / h.P.)./.V.V.W.W.W.x.l.$.@.1.l.0.5.T.E.l./.#X#Xz.#.k 3 3 x R ` n n n F F C z z l Z L P +.l.(.;X*XR.0.7.M.OXOXQ.oX<XxXxX1X2XE.6.9.E.M.9.E.M.8.Q.OX;XOXM.:.o.1.m.W.(.-XaXuXyX-X-X_./.V.k.k.k.1.<.{ | | | a.n.L.].@X%XrXpXsXgX%XV.{ T z q 2 > : - : @ : u a u 0 , , u u u u 0 , , u u i a f f 5   , 0 f f y d.eXU.rXoXZ.l.0.0.7.7.l.7.7.9.l.l.8.1.k.V.oXrXpXdXdXdX;XoXM.>.>.8.!.=X1XXXE.E.E.M.3.>.0. X>X=X!.E.E.V.Q.V.k.<.<.i.<.U <.1.1.3.k.Q.#X;X;XyX;XOX XOX!.E.l.M.Q.OX#X/.s.U b k M s.K.K.x.^.x.c.=.E x 3 3 2 2 3 z F E ` <.1.j.T.^.W.l.k.3.:.B >.m.Z.Z.Q.Q.E. X*X:XcXcX;Xe.o.V >.s.s.s.s.h.f.<.i.p.<.R i.).vX",
"E L x k L s.V.Z.Q.Q.Q.M.8.8.8.8.8.8.8.M.W.(.(.(.W.j.@.%.+.<.<.<.U #.<.p.B.V.Z.Z.Z.k.+.b b b b V 9.E.=X1X1X;X;XOXQ.k.k.k.>.+.p.k.8.Q.uXaXQ.8.8./.Q.k.:.I I ' a.n.#.<.k.P./././.#X_.8.7.N.l.7.5.>.e.E. X*XOX!.T.9.W.(.OXQ.k.3.k.P.pXgXxXgXpX<X+XE.OXOX/.Q.V.V.s.+.;.;.e. X<XxXsXoXv.2.T F f a u p ~ H C r 3 r C C z z z Z F T T / ( ^ ! H H C r 4 ; 2 4 > ; : e y T ` p.h.z.k.z.V.k.k.k.8.3.1.:.:.v U i.i.U N U #.z.p.#.+.1.k.K./.1.p.k.z./.#X#X/.k.3.+.+.1.3.3.1.9.R.XX:X:X=X;XsXaX;XoXZ./.P.m.` i.G.U.Y.{ Z l 3 l 3 4 r A ! ( } Z F F L U i.B.].P.m.s.s.p.#.+.#.$.p.j.x.V.W.Q.Q.Z.k.s.B.K.s.L c h x L ` n.L.H.g.K y ; - ; q F { f.B./.)./.W.W.W.W.W.x.l.$.@.1.l.7.5.l.R.l.W.#X).z.R h 4 3 F / { n j j z z w w w l x v v P 7.W.`.*XR.5.9.E. XQ.Z.<XaXsX1X;X XE.6.9.M.e.9.M.M.M.Q.OXOXQ.8.:.:.3.V.-XyXuXuXuX-X#X#X/.Z.k.k.3.1.+.U I | n.L.n.a.C.{.hXjXBXdX%XoXm.<.z y > : - : - - : : : 9 a 9 9 u u u u u u 9 0 0 , 0 u a W W u @ , 9 G G D b.iXwX@XoXQ.M.7.5.8.M.9.7.7.8.l.l.k.l.oX%XdXfXdXdXdXdX%X+XQ.8.5.8.!.=X1X XE.E.E.8.>.>.9.~.=X=X*X*X;X#XV.V.B.k.p.p.i.R b :.V.Z.m.3.k.V.OX;XaXaXaX1X*XE.E.E.E.+XOXQ.m.>.B V B k.K.V.x.x.c.x.z.f.*.S l 2 w l x L R <.p.3.j.T.!.^.W.l.7.+.o.3.m.Z.N.N.Q.Q.*X>X1XcX1X X8.o.V +.3.s.p.k.z.c.f.h.z.z.f.p.K.tX",
"R L x h k U m.N.N.|.E.e.0.8.8.8.e.8.0.9.R.^.(.(.^.V.7.$.1.1.s.k.1.+.+.s.Z./.Q.M.1.o.b b b o.>.0.!.*X;X;X;X;XOXOXM.M.8.1.1.1.1.k.k.Q.;XaXOXW.N.Q.o.+._ _ ` g.b.G.h.K.@XwXP.B.B.Z.oX8.7.N.l.7.>.;.e.E. X*X*X!.R.T.(.(.Q.M.3.1.3.m.P.&X%X;X<XaX<X+X=X+XOXQ.Z.V.k.1.o.O.6.E.*XzXxX;X/.m.2.T F s s s T Y F C l z Z F z z x F L I R / } ( ( ^ ^ H C r r r r 4 < < > > t F I i.i.s.z.V.M.M.M.m.k.3.1.<.U U I U U R U P 1.<.+.+.$.7.k.k.k.k.k.l./.#X#X#XV.1.B B 1.k.s.>.5.e.!.*X>X1X1X;XaX<X%XoXoXP.B.i.h.J.Y.G.{ H C C r < ; ; 4 r H ( F z z F L R s.].oXZ.k.s.1.+.+.+.$.$.j.k.x.V.V.V./.V.k.B.P.K.<.k k x L { [.kXjXkX0Xn.F y y x / h.J.P./././.W.W.W.W.W.x.l.1.@.1.l.7.5.9.W.l.V._.K.p.L 3 4 h T d.{ L n j j z l h l x Z v v N 7.W.!.!.0.5.e.!. XE.E.ZXsX1X<X+XE.E.E.9.6.9.e.8.M. X X;XOXV.k.3.m.Q.OXuXuX-X-XOX(.W.V.V.k.p.1.$.<.#.+.2.n.G.L.}.}.[.iXjXVXhX$Xb._ m w > : - - : : : : > > > e e e a s d f f d a a e p 9 9 e s ~ ! a : e s H H T L.dXtX/./.Q.M.5.5.M.!.l.l.k.7.7.l.W./.OX%XpXpX%X$X&X$X&X+XoXN.9.e.~.=X:X!.M.N.N.8.>.>.0.E. XOXOXOX-X;X/.#X@XP.J.z.h.p.+.B N B <.s.k.k.8.V.OXyXaXaXaX;X X X XOX+X&XN.m.:.o.:.8.M.k.7.k.c.c.x.F.h.*.L x x x L I <.p.k.l.T.^._._.W.M.7.+.o.3.M.N.N.M.E.!.*X:XcXbX*XM.o.V V +.1.1.1.1.1.$.p.f.z.z.p.E P U ",
"R R L h h V 3.N.Z.|. Xe.8.e.e.6.e.8.7.8.l.W.^._.-X_.V.k.3.8.m.Z.s.:.+.3.Q.OXZ.8.O.V V O.>.N. X*X:X:X:X;X*X*XOXQ.8.V.3.+.3.3.<.s.M.Q.OX;XOXN.8.>.V U <.s.n.b.G.G.wXtXiX@Xh.#.p.V.@Xk.8.V.l.7.5.;.e.E. X*X*X!.R.R.W.W.M.k.7.3.s.s.m.m.C.&X,XpXpX<X+X+XOX/././.V.k.O.V ;.e. X1XxXaX#XZ.s.` I F z z F Y R Y L Z x F x x L L E ` 2.a.d.} ( ^ ^ ) ) A A A s s f s p 9 > q z F I <.s.k.P.V.V.k.3.1.1.p.h.<.M x L R U P N P #.1.7.7.1.@.l.k.k.k.Z._.#X#XZ.k.+.U <.3.3.>.;.0.E.!.=XzX1X=XaXsXpX+XoX/.B.p.p.h.J.Y.g./ Y H r 4 ; ; 4 4 A ^ H r w z n L i.P.@XP.V.k.1.+.+.+.#.$.p.j.k.l.V.M./.Z.k.3.B.).z.L l w w K H.kXCXLXjX0X| K F ` G.U.P./././.V.V.R.R.W.R.x.l.$.@.1.l.9.5.l.W.l.z.z.f.R x 3 4 Z d.g.i.I n j n F F Z Z L L L N %.j.W.~.~.9.9.R.!.E.E.=XDXsX=X=XOXE.E. X9.>.9.R.0.E.=XOX;XOXQ.V.Q.+XyXpXuX-X_.Q.W.M.k.3.3.1.#.<.<.1.s.s.C.n.a.n.[.kXhXiXeX0XL.g.I j 3 > > > > < 8 q q 8 e e q q > q C J ! ~ H G s s s s s s s G [ [ s : t D T T i.U.dXuXQ.Q.Q.l.5.7.M./.l.l.l.k.k.V.OX;XfXfXfXpX%XoXC.Z.Z.oX+XoXE.M.!.=X=XE.e.M.N.8.>.>.8.W.OX/.V.V.Z./.yXdXtX).J.B.J.B.m.+.k c V 1.8.8.1.8.m.V._.;XyXaX;X=X=X=X+X+X|.Z.A.3.,.8.8.>.>.7.7.p.f.f.f.f.d.i.I I L U <.k.Z.(.(.-X-X-X(.W.7.@.o.3.m.N.M.8.N.OX*X:XcX:XW.>.V V U <.1.<.+.%.P N P E #.p.#.v h 6 ",
"T R L h 3 V 3.A.Q.OX XM.e.M.e.0.8.6.7.7.l.W._._.uXuX-X^.x.m.V.Q.m.>.o.>.V.(.W.8.o.@.5.9.!.*X*X*XaXcXaX:X-XOXQ.M.>.M.1.o.3.k.1.k.Z.#X;XQ.>.V O.>.m.s.<.` { n.I.0XiXiX0Xi.L L h.#X@Xk.k.W.M.8.7.>.e.E. X*X*X!.!.R.R.M.l.8.3.1.<.:.m.v.m.C.&X&X+X+X+X%X%XOXoX/.^.V.>.O.O.9.E.:XxXcX;XQ.k.1.R L x z L E R E L M M L U R <.2.<.2.s.b.S.} ^ Y ^ ( ( ^ ! H ~ ~ ~ f a 9 - > 2 q l n U <.B.m.k.s.s.s.s.s.p.h.f.` M M U 1.+.U %.P %.@.7.l.k.j.7.k.M.Z./.#X/.V.s.<.<.<.<.1.>.9.R.~.=XcXcX=X1XsXpX+XP.P.V.p.<.i.h.L.G.} H H A A A s r r G ^ ^ r 2 w x x R B.P./.P.B.1.#.+.#.#.#.$.1.k.k.k.k././.m.1.z.@XP.i.I z 2 q F g.{.qXeX}.| T T g.Y.U.@X@X/.Q.V.l.l.W.W.W.x.l.1.@.1.l.l.7.l.^.x.j.p.#.S h 4 3 Y S.G.g.M k j n I T Y Y R R E %.1.x.^.~.u.u.u.E.E.E.OXsXAX1X=X=XOXE.E.!.e.5.9.E.M.!.;XOXOXQ.Q./.%XyXpXyX;XOXQ.M.k.k.3.1.+.+.+.+.<.s.z.B.Z.A.m.].iXhXiX0XH.| J D t q 2 > > , 9 e e e e a r t y 2 2 y F { T T J F z z z z F D F T } [ C 2 C I R <.B.#XyXyX(.Q.M.8.8.8.M.V.7.l.l.l.Z.#XfXgXgXaX%X#X&XZ.m.<.m.Q.OXOXE.E.OX:X>X!.M.M.N.8.1.1.k./.;X#Xk.+.#.p.).wXrX@XP.K.J.B.1.k.M.3.o.V V +.k.k.k.k.V.Z.#X%X1X1X1X2X<X=X+X&X|.N.M.r.8.,.;.@.@.$.<.p.p.h.b.G.{ ` E U <.x._.yXbXbX-X(.^.W.8.>.o.,.w.N.w.8.M.OX X>X:X!.7.V V V :.1.p.<.P N N b b b P #.$.E v v ",
"R { L w 3 V m.N.|. X XE.R.e.9.9.6.6.7.7.l.W._.-XuXfXfXyX/.V.N.Q.N.1.o.>.M.Q.Q.N.9.N.OX>XaXaXaX:XaXcXcXuX-X(.N.8.>.3.1.1.k.k.k.V.#X/.k.o.V o.>.1.k.2.<.a.b.{.qXkX0XI.i.l 2 k h.rX@Xs.k.Q.V.k.8.5.e.E. X*X*X!.~.R.W.M.l.7.@.U N V B B _ 3.w.N.N.|.%X<XpXyX;X#X_.W.5.O.O.6.M. XbXcX:X(.M.8.1.U M x R <.<.R L N U <.s.v.B.B.v.s.v.b.Y.D./ Y Y ^ / ( ( ( ( ~ ~ W u 9 - ; ; ; 2 w x M P +.1.k.B.B.B.h.h.h.h.h.i.R U U +.+.%.B %.@.7.l.j.7.7.k.k.k.V./.oX/.Z.s.<.+.<.3.7.0.9.R.*X1X1X>X;XaX;XZ.m.V.B.p.i.2.h.U.I.D.^ H ) ! ) ^ H G H ( ^ l 2 2 z n I <.B.P.oXZ.k.1.<.#.#.#.$.1.3.p.k.k./.oXP.k.V.@X@XK.h.T w w t J  .I.0X}.n.{ a.J.L.L.@X#X#X/.R.l.R.^.W.W.x.l.$.@.1.l.M.5.l./.x.p.#.E x 6 4 3 T G.I.G.U M n I ` { / / d.i.#.$.k.W.(.~.9.u.~.E.E. X1XAXzX<X X|.E.M.9.0.e.9.e.E.E.OX;X;XOXOXOX%XpXpXyX#XQ.N.8.1.1.>.<.:.:.:.<.<.<.p.B.Z.|.&XpXhXiX{.C.n.' g 8 > > > : : < u a d f f G G C C z 3 3 z R a.{ ` T L Z x x x L F T i.g.{ x w L i.i.s./.#XOXOX(.W.8.7.k.M.M.k.$.7.l.V.#XvXSXvX%X/.Z.Z.oX&XC.m.s.V./.oXQ.!.*X:X:X!.M.N.M.8.1.1.p.K.tX@Xs.M c x R s.P.@XtX#X@XK.k.M.V.M.3.+.o.o.+.+.:.3.m.B.Z./.;X2X<X1X2X<X+X+X.X|.A.w.,.;.O.V +.#.p.h.B.b.b.h.i.` ` <.k./.;XbXcXbX-X(.!.Q.l.>.o.o.3.M.w.8.M.!.!. X(.l.o.b b B <.3.s.1.%.%.O.N N P %.$.p.#.E P ",
"i.d.I w 3 U Z.+X&XE.E. XE.9.9.R.6.6.0.9.l.W._._.uXbXvXcX-X/.Q.Q.Q.8.>.>.8.Q.OXOX X=XaXcXcXcXcXcX:XbXcXuXOXW.l.7.>.o.>.m.8.8.N.oX;XM.O.b >.N.M.>.+.<.s.[.iXkX0XI.g.{ x ; = w i.U.@Xs.s.Z.V.k.8.7.e.E. X*X*X!.R.R.W.M.l.1.+.B N V b k V _ 4.4.w.N.|.&X;XyXyXuXyX#XM.@.;.6.9.!.:X6XaXOXW.l.k.1.P M #.p.k.s.<.+.#.<.B.P.@X%X$XoXP.P.[.H.T Z Z F Y ^ ( ( ( ~ W d u 0 : - ; ; 2 2 w h h k P <.h.B.B.h.J.h.g.h.J.B.<.M N %.+.1.1.$.$.$.7.7.8.l.l.k.k.Z././.P.m.<.+.<.3.8.5.5.9.~. X=X:X=X<X+XV.k.K.K.h.<.` a.U.0XG.} ^ ) ( } } ^ H ! | ( C 2 ; l F L M s.K.@X/.B.k.1.#.$.$.$.1.1.1.3.3.Q.OX#X/.P./.).U.h.T C t t D | H.| | ` { b.[.wXU.@X#X-X/.l.9.T.~.W.R.x.l.$.@.1.l.l.5.l./.K.f.=.P S 6 4 3 Y G.0X[.b.2.` 2.h.h.d.d.f.f.p.c.^._.*X~.0.R.~.E.!.2XzXAX2X=X XM.e.e.0.;.9.R.R.E.OX=XOX;X;X;X;X;X;X%XoXZ.8.3.>.:.o.B +.+.1.1.s.s.s.B.U.$X;X1XsX<X].2.] K y 8 : : : : : > u d W ~ ~ ! ..[ H H x w h L i.h.h.a.i.` I I I R i.` a.J.b.i.n k R z.k.V.-X-XQ.!.!.M.7.7.l.M.l.k.7.j.l.W.uXDXSXpX#XoXZ.oX%X,X%X&Xk.B.Q.Q.Q.!.*X;X:X!.M.N.M.8.1.1.p.J.9XwXh.x 4 ; h x <.B.@XrXrX@X#XV.7.7.M.V.k.1.N V B <.3.s.k.Z.|. X=X2X1X2X<X<X.X|.N.6.;.O.V V B #.p.B.J.b.b.g.` ` i.k.^.-XaXcXbXbX-X(.(.(.N.7.B V >.w.M.8.e.E.E.!.E.>.b c b U <.s.k.1.%.O.N N #.#.$.p.$.+.P P ",
"g.g.I w w :.oX<X+XE.E.OX X9.0.E.0.8.9.l.l.W._._.-XbXvXvXuXOXE.Q.|.M.8.>.8.Q.-X;XaXcXxXcX>X*X=X>X;XaXbX;X!.M.k.1.>.V 1.Z.k.8./.#XOX!.9.5.0.M.8.+.k.B.P.eXkXqXH.[ G s : o o w i.L.U.p.3.V.V.k.8.8.M.E. XOX X!.R.R.l.l.7.>.+.+.:.<.:._ :.:.;.] ;.q.q.N.+X%XuXaXuXyXOX9.9.R.R. X6XcXaX*XE.W.V.k.+.P P p.P./.V.s.<.+.P.rXgXSXSXgXhXdX0XG.T l w l Z F H ~ G d a 9 , : : - ; > > 2 2 2 w w j L R i.f.h.h.B.J.J.s.<.i.s.U +.+.@.+.+.@.1.7.7.l.V.V.k.k.V././.P.m.1.<.<.1.k.@.@.0.R.E. X;X;XaX#XN.m./.).B.U N R J.[.G.{ ^ ( } D.D.} ^ | D.( C 2 ; w L L k <.B.#X@XV.k.p.<.1.1.1.$.1.1.1.3.V.OXyX#X/.Z.K./.U.S.[ J D D '  .H.G.b.b.L.eX@XK./.#X-X/.8.5.9.W.W.W.x.k.1.+.1.l.8.@.k./.^.j.#.E S h 4 4 F G.0XeX[.B.2.a.h.h.g.d.S.h.z.x._.yX-X!.5.R.~.E.XXzXAXzX=X=XE.e.e.E.l.>.9.E.M.M.;X;X X;X;X;X%X#XoXZ.m.3.3.3.3.:.o.B :.1.2.s.v.m.B.[.rXdXgX<XoXA.2.] w 8 8 > : 0 9 , < p d f ~ ~ ~ ~ ^ [ T T n h k U s.B.K.C.B.s.<.<.i.p.B.B.K.@XP.i.M k 1.V.V.Z.uX;XW.W.R.9.7.8.l.M.k.k.l.l.l./.fXFXxX/.oXZ.B.m.m.v.2.<.k.B.Z.Q.Q.Q.OX=XaX!.M.M.M.3.1.<.J.Y.wXtXY.L ; o ; 2 h L p.U.wX@X#XOX/.V.M.k.8.8.1.+.+.:.:.+.<.k.e.E.OX2X1X1X2X<X+X+X.XN.w.;.o.V V U <.s.B.B.B.b.U <.s.P.#XuXbXxXbXbX-X*X-X-XW.8.N N o.8.M.8.e.E.R.R.9.O.c h b U p.s.s.#.N b b b N %.+.1.1.$.$.1.",
"H.a.I w j 4.+X<X2X.X|.|.!.E.l.l.(.j.$.l.V.l.W.(.(.(.aXFXDX:X X XOX XN.8.M.;XcXfXcXcXaX:X=X*X=X>X:X:XaX-Xk.M.Z.:.U 3.k.k.k.V.OX-X*XXX`.R.9.6.8.m.K.@XeXkX0X .G e @ @ .   o 4 { Y.U.s.3.V.M.k.k.8.w.E.OXOX*X*X!.9.l.7.8.1.V U V.P.B.<._ _ :.] ] 4.4.q.A.|.%XpXfXcX:X*X`.!. X=X5XzXcX=X!.Q.W.V.c.$.v <.K.rXtX/.s.U m.$XBXJXLXJXSXhX[.g.x 2 2 l l l l C l 4 > 1 : : < < < < < < < 9 9 > > q z I ` a.k.V.Z.Z.k.1.1.1.1.:.+.N B +.$.3.@.1.k.k.l.l.x.V.k.V.V.V.s.1.<.<.%.k.x.7.1.l.(.OXuXyX;XOX/./././.1.m k ` L.L.G.h.{ | D.H.g.|  .H.[ C ; ; r F Y L h.K.).@X/.B.s.2.1.@.+.+.+.$.1.j.x._.uXuX#XZ.V.Z.@XL.g.T m D J | {.I.I.[.@X@XoX/.;XOXQ.M.8.>.9.W.Q.l.7.3.1.@.1.k.l.7.l./.V.k.#.v v h 3 3 F g.eXjXpX&XB.b.b.L.Y.G.Y.Y.9XdXfXrXW.8.9.e.E.XXcXZXxX1X*XE.M.N.M.8.k.E.8.M.E. X+X;X+X|.;X%X#X/.V.s.<.:.2.:.B B :.,.,.3.,.q.m.Z.$XjXjXdXiX[.s.I j w 2 > > > > : - < p f G ! [ } ( H H ^ T L L j h V C.&X+X+XOX/.Q.oX/./.yXfXgXyXm.N N 1.j.l./.-XuXyXOXW.W.M.8.7.k.l.k.k.l.8.M.OXaXcX;XN./.Z.Z.m.U j k U <.k.Z.V.V.Q.OX*XbX!.9.W.W.j.1.j.h.B.wXtXY.Z ; = = = ; 2 l T g.L.@X#X%X#XN.8.6.6.0.8.>.%.b N <.k.7.0.M.E.=X<XsXsX<X2X2X=X.XN.,.;.V k V _ m.Z.V.k.1.3.m.oXaXgXfXaXaX:X-X(.(.(.W.l.@.O.@.8.0.5.9. XR.~.6.b k k M R <.J.B.U b c 6 c N b +.k.V.s.<.1.",
"G.` n j k A.2X<X3X.X|.|.Q.W.l.l.(.l.7.j.V.V.M.R.W.(.:XDXFXcX*XE.OX;X=XoXOXuXcXfXfXaXuX;X*XXXXX*X>X-X-X(.l.k.k.<.<.s.k.k.l./.OX*X>XXXy.0.5.9.Q.#XeX0XI.D.! s 9 : . + .   X e } I.@Xk.k.N.M.k.k.8.8.Q.OX*X-X*XW.0.k.7.8.1.B U s.B.L.b.a.2.2.4._ 4.,.,.q.w.N.Q.#X;XbX6X6X>X=X>X1XzX1X=X XQ./.W.x.l.+.3.P.%XyX$Xm.<.V :.s.C.].oXC.v.I m w w j x z l C F H ) ) ~ ~ ~ ! G d f f f d u 9 , > > q t n M 1.8.M.V.M.k.s.s.2.2.<.<.:.+.+.%.+.@.1.1.7.k.V.Z.V.Z.P.Z.B.s.2.<.$.k.x.j.$.j.V.^.yXuXaX;X/.W.Q.oXB.+.m M U 2.a.b.a.{ ' T [ | D.H.[ C ; = r Y / E z.U.tX#X@XP.B.k.1.>.@.+.$.$.p.j.z._.uXfXyX/.W./.oXP.n.{ ' ' {  .n.G.G.L.U.@X@XOXOXE.M.9.5.>.8.M.W.V.l.j.1.+.1.l.l.7.l./.V.k.$.M v h 3 h L g.0XkXKXGXSXpXwXI.7X0XtXkXjXjXuXV.1.>.8.y. X1XxXZXcX=X XE.W.M.k.7.8.M.;.6.N.|.;X<XaXpX+XoXN.m.s.1.<.<.U :.:.3.3.3.w.r.w.N.oX%XiXhXrX[.n.{ F w w q 2 2 q < > : - < d ~ H T { ^ Y Z Z F x j j j w k q.'.gXxXxXaXaXxXvXSXFXDXvX%Xs.V B 1.l.V./.-XyXyXOX/.W.l.7.7.k.k.k.k.k.M.V./.OXOX/.Q.k.3.1.<.U L n L <.z.Z.V.Z./.*X-XbX!.l.l.V.7.$.j.s.B.@XtXY.A ; = = = - 1 2 t H T L.[.rXrX#XQ.M.9.5.5.5.1.1.<.<.:.8.l.V.V.N.Q.OX;X<X1XsXsX1X=X.XN.B V k B w.Q.Q.M.>.8.Q.;XgXxXfX<X*X*X(.!.(._.W.l.@.o.@.5.5.5.9.E.E.~.8.O.b k M i.f.L.p.L V V k c c c V 1.s.<.1.s.",
"b.I j j _ ].sX<X|.N.E.|.Q.W.V.V.(.x.7.7.l.V.l.7.l.!.:XxXFXDXaX XOXaXxXfXpXfXfXuXuX;X;XOX X.XXXXX*X*X!.W.M.1.+.1.k.k.k.M.W.(.OX!.!.R.0.0.M.Q.%XtXwXY.| C > @ X . . . . . X s g.7X@Xk.k.V.M.k.k.8.0.E.*X*X*XOXE.5.7.k.3.<.1.<.<.s.L.L.L.v.2.q.q.4.4.4.,.,.3.8.V.(.aXbXbX1X1X=X2X2X=X=X XE.Q.W.^.(.k.1.1.V.pXvXdX%X2.<.B V B :._ I w w j F T { { ^ Y ^ / } } } } }  ...! ! ..) ~ f u 9 9 > > q w w v B 1.k.k.s.m.B.m.v.s.s.1.<.+.%.%.%.@.>.1.3.k.k.P./././.P.B.s.s.p.j.k.k.1.$.1.V.#XuXxXfX#XW.W.Q.oXB.:.k h j I a.g.d.| | H.0X0XI.( s ; ; C / d.R h.).yX#XoX+XoXm.1.1.1.1.1.1.p.f.j.^.uXcXfX-X_./.oX].L.G.n.g.g.g.g.g.b.J.P.@X#XOXOXE.M.0.>.@.1.k.V.V.V.k.$.+.1.V.l.7.l./.V.k.$.N v h 3 l L d.Y.0XDXDXJXDXjXkXjXCXJXLXLXjXU.+.N o.e. X1XzXZXxX:X XE.E.Q.l.7.8.8.8.8.E.OX=X=X%X%X+XN.N.k.3.1.<.<.<.+.1.w.w.3.w.A.|.&X,XhXhXiX@Xb.` z w q > > 2 q q r e > : : p ~ } T { / L F I Y Z x h h k k V 3.B.;XgXSXSXSXFXFXKXKXDX;XN.+.V B 1.W./.#X-XyX;XOX/.V.l.7.7.7.k.k.k.k.l.W.(./.Q.Z.V.1.<.<.<.p.b.a.U <.s.k.M.V.Q.OX*XbX!.l.l.l.7.$.p.s.B.@XwXY.H > = - - - - - ; 2 q T a.L.@XrX%X(.E.8.5.>.8.k.k.<.U %.@.>.7.k.N.Q.OX+X<XsXZXZXsX1X<X'.w.4.4.3.m.8.8.5.M.OXgXSXxXfX;X!.!.W.W.(.-X^.l.o.@.@.O.>.9.0.9.E.E.M.>.U k M f.Y.L.i.M +.:.B N k k V +.+.U 1.B.",
"i.n h m 2.,XsX+Xr.A.N.Q.Q.Q.^././.W.l.7.k.M.l.5.l.!.*X:XvXGXFXaX=XaXxXfXaXaXuX-X-XOXQ.Q.!. XXX*X!.`.M.9.M.>.N 3.m.m.m.V./.#X(.W.0.0.M.Q.#X%X@XU.d.[ D 9 @ . . . . + X X - C g.[.@Xk.k.V.M.M.M.8.9.E.*XOX!.!.l.>.@.k.1.+.m.s.<.v.B.[.[.C.v.A.q.4.] 4.,.3.8.8.8.M.(.OX*X;X<X=X+X.X=X=XOX!.W.W.*X-X#X3.V :.#XSXDXSX%XP.4.M k k k j m K T } g.G.G.G.Y.Y.G.G.S.g.}  .} ..........~ W f f d a e q 2 2 3 h M U <.a.b.B.L.B.b.s.1.1.1.3.B +.>.1.1.1.1.1.V.V.K.P.).U.K.B.k.7.j.x.j.+.$.x./.yXxXvXuX/.M.k./.$XP.:.j h n R g.L.0XeXjXCXkXH.H r ; 4 Y d.i.R f.).yXOXoX%X&XA.>.>.1.1.1.p.p.p.p.K.tXxXxXuX-X#XoXoX[.[.[.J.g.| G.b.b.J.P.@X#X#X;X(.M.7.@.@.7.l.V.x.l.j.$.$.j.V.l.7.l.^.V.k.1.P M h 3 h F { h.L.$XpXDXLXPXPXUXUXLXLXnX9X#.v B 1.E.=XcXAXzX1X=X XM.E.M.8.8.M.8.>.OX;XaX<XOXQ.N.A.m.m.k.3.2.<.:.+.3.k.m.8.3.w.|.,XgXgXhXiXL.a.n w 2 2 > > > q y t C s e < < s ! } { ` I x L f.h.i.j 4 3 M V V _ <.$XfXFXKXKXIXKXKXxX;XM.o.V V >.8./._.-XyXyX-X(.Q.l.l.8.8.k.k.k.7.k.l.W.#X#X_.k.#.p.s.s.h.U.wXL.` #.<.3.k.k.M.!.(.:X!.l.l.l.1.$.1.k.B.@XeXY.H < - - - @ X X - : > 2 z T h.U.#X#X#XQ.M.3.1.3.s.1.:.N b b %.M.Q.Q.M.Q.&X;XpXsXsXsXgXZXpX&XN.w.8.>.>.8.Q.;XxXSXxXaX;X!.R.l.l.(.-X(.l.@.$.@.O.@.9.M.5.E.E.N.M.1.b v h.Y.U.i.P <.s.>.:.U P P B N U m.$X",
"L w w M B.pXpX|.r.r.w.m.V./._._.V.W.V.k.7.k.l.8.M.Q.Q.(.cXKXIXFX<X<X;X%X;XyX%XOX/.N.8.8.E. X=X=X!.!.9.5.M.>.B 8.m.m.m.Z.OX#X/.V.k.B./.rXtXwXh.^ t e > - @ . . . # # - X ; D g.U.).s.s.V.M.M.N.8.M.!.*X!.E.R.0.O.@.7.+.+.V.Z.B.P.L.eXrX[.C.C.m.4.4.4.,.,.,.>.0.8.l.m.N.|.%X<X+X|.+X<X1X;X=X*X*X>XaX|.3.:.3.N.+X%XgXgXpXoXB.2.U M ' ' n.G.L.J.G.h.J.i.R T K D m F ^ [ ....! ~ W f f f d d p e < 2 2 3 w z F ' a.b.L.J.b.b.h.k.k.k.+.+.+.+.:.:.1.3.s.s.z.J.U.).U.P.V.k.x.^.x.#.+.k.V._.aXvXxX;XV.1.V.%XdX%XB.a.a.a.J.eXBXCXCXBX0X[ 4 ; ; r ^ d.i.E s.@XyXOX|.+X XM.>.1.1.1.1.p.f.j.p.z._.fXcXfXyX#X/./.@XrXrX[.J.a.f.p.p.z.P.#XyXuXcX#XM.1.%.@.k.V.V.k.j.1.1.$.j.x.l.7.l.^.V.k.p.U P c 3 h F { G.[.V.P.@XjXJXLXJXnXlXkXY.P k N 1.W. X1XzXcX:X=XOXOX8.9.8.>.9.E.M.>.(.;XaX;XOXQ.V.M.8.3.>.:.:.>.1.1.3.8.k.N.Q.&X,XhXgXiX{.n.I j q 2 > > q q y t C G ! H G G A H ( } i.<.M k L J.U.S.L 6 x h.P././.P.$XrXgXSXDXFXvXpXQ.8.o.b V @.9.E./.#XyXuXyX#XW.M.k.k.l.M.M.l.7.1.k.V._.#X/.z.1.#.s.z.B.h.J.U.Y.i.#.:.1.3.8.l.W.(.:X`.W.W.l.7.$.1.k.Z.tXtXY.^ r 1 1 1 @ X . @ @ : - > w F { J.U.#X%XoXV.k.1.1.1.1.1.%.%.+.1.8.1.>.N.N.oXOX%X<XaXgXZXZXsX;X|.N.M.M.E.OXaXxXxXzX1X;XOXE.0.7.V.(._.W.7.7.@.N @.M.R.5.M.Q.Q.Z.s.v x p.Y.wXJ.<.<.1.:.<.<.U L M N <.@XjX",
"h 2 3 U P.hXsXoXm.8.,.>.k./.#X#XW.W.W.M.7.7.l.V.W.Q.E.W.:XFXKXGXaX;X#X+X#X#XOXQ.M.8.>.5.M. X*X*X!.E.0.5.0.>.,.8.w.w.N.oX%XOX/.P.@X@X@X@XU.g.H y : - @ . . + + $ 5 5 1 - > F g.P.U.s.3.N.M.M.M.9.e.!.*X!.E.M.9.@.@.@.+.1.V.].P.@X@XeXiXrX$X].C.m.N.w.,.;.;.;.5.5.8.3.s.Z.&X,X,X+X+X<XzXZXxXcX6X:X=X;X+XN.o.V o.8.yXjXJXJXDXdX@XL.{ n.L.[.wXU.B.f.I k 3 3 3 2 q t | }  .! f p p p u p p p u < < < 4 4 4 q t D ' | g.b.J.L.J.B.s.1.:.:.+.B B :.3.k.<.<.p.h.J.K.P.P./.V.^./.V.1.+.j.x.W.#XfXvXfX/.1.k.oXfXSXjXdXtXiXjXJXLXCXkX0Xg.J 2 ; 2 l ^ d.i.#.z.oX;X+X X.X.Xr.1.1.1.1.1.1.p.p.p.z.K.tXfXfXyX#XP./.#XrXdXtX[.B.R R i.z./.yXfXfXcX#Xk.@.%.@.k.V.V.k.1.1.1.1.j.c.l.7.l.^.W.l.j.+.N k h h L a.I.iXP.k.<.i.J.U.Y.S.Y.i.x 6 c +.W._.=X1XzX1X*X X X X8.6.>.7.N.!.E.l.(.-X-XOXQ.W.M.l.1.>.B B B >.m.N.>.8.V.%XgXgXhXiX$XL.' n w 2 > q : > e s s G H ! ^ ^ ^ ( [ } } } p.<.V b U z.K.F.i.L i.tXjXDXJXjXrX%X@XP.oX/.V.3.o.O.V b O.5.R.E.OX-XuXaXyX_.V.l.8.k.l.V.V.l.8.7.7.W.#XQ.$.N +.k.K.U.U.L.J.J.h.p.<.:.:.1.8.M.W.(.-X*X(.!.M.7.1.1.k.Q.#XtXL.T r 1 < , , @ . . + @ - - > q z T a.B.@X@X@XP.B.s.2.2.k.k.k.+.N N +.1.k.M.N.Z./.oX;XpXgXZXZXsX;XOXOXOXOX:XxXxXzX1X;X;XOXE.5.@.7.W.(.W.j.j.@.O.@.M.M.5.l.Q././.k.P v R J.tXwXB.s.<.:.<._ I I U 2.P.iXBX",
"3 2 h s.$XdXhXoXm.3.o.B 1./.tXtX#XQ.V.V.k.7.k.Q.Q.W.N.Q.;XxXDXSXpX%X%X+XoXZ.M.k.>.+.o.8.E.OXOX!.E.9.0.5.;.6.w.,.3.w.Q.%X%X@X/.@XiX0XY.g.^ D q : @ @ + . + $ % % i p < - 2 F h.P.).k.8.M.M.8.9.0.6.~.=X*X!.R.9.>.>.o.1.k.B.P.@X[.U.U.@XiXiXiX&X&X&X'.q.,.;.;.;.;.3.3.v.m.A.'.&X+X+X<XsXAXAXAXxXxX=X1X1X+XM.,.:.:.3.Z.$XrXdXrX@XB.h.b.L.[.eXrXwXU.B.` M L I I _ g.H. .[ D e : < < < < p u < < 5 p e e > > 8 y s D ^ | g.J.L.J.h.s.1.>.:.+.+.U :.<.<.<.i.i.f.h.J.J.P.P./.@X^.k.3.3.V.V./.yXvXxX#XV.k.k.P.dXDXJXJXLXLXLXLXBXeXH.g.g.^ H C Z Y d.i.1.V./.+X+X.X|.r.r.M.k.3.1.$.$.p.p.f.f.z.K.#XyXyX#X/./.@XrXdXyX/.B.#.<.k.K.#XyXuXuXyXZ.1.%.%.+.j.x.^.x.z.j.$.$.p.l.l.7.l.W.W.l.k.#.P v k x L i.Y.iXyXP.i.P L Y Y Y x l h c %.V.#XOX:XcXxX1X*X!.E.R.9.5.5.9.E.E.!.!.-X-X-X/.V.l.8.1.>.+.+.+.:.3.N.Q.V.Q.%XfXgXhX$XL.` K w w q > > 2 > e s G G G ~ ! H ! ^ } } D.g.d.s.@.N B 1.z.z.f.i.*.z.).wXdXjXdXdXrX@XC.m.k.1.o.V V V O.t.R. X X;XuXaXaX;X(.V.l.k.k.l.l.l.8.8.8.>.l.W.l.+.+.2.K.P.wXdXjXkXU.h.p.1.:.+.1.8.9.R.!.*X*X*X*XW.k.1.1.8.Q.#X#XB.T r - 5 u u u $ + + . - : : : > y F I h.J.U.@X@XP.B.m.k.k.3.$.+.+.+.1.1.3.k.B.B.B.P.&XpXpXsXsXaX1X;X;X:XcXDXAXcX;X+X=X XR.>.O.@.l.W.Q.l.7.@.%.@.9.l.7.k./.OX/.B.#.v L h.tXkXwXP.B.B.C.b.n.n.L.eXdXdXrX",
"h 3 M B.%XdXrXZ.m.1.N b +.K.tX#XyXQ.V.V.M.8.8.Q.V.N.N.Q.#XyXaX;X#X%X%X#XQ.k.1.1.o.o.o.8.E.OX!.M.M.5.0.5.O.6.N.;.,.w.oXpXrX@X@XrX0XH. .J t > - X . + + $ % % & i p p < - 2 F h.P.@Xk.8.M.M.8.8.5.5.E.>X>X*X!.R.5.1.o.3.V.B.K.@XL.n.h.L.eXjXhXiXhX&X'.A.w.w.8.;.o.:.2.q.4.4.4.A.|.%X+X=X1XzXAXFXGXHXzX=X=X1X<XN.:.B +.U <.s.B.B.s.b.b.b.L.eXdXdXdXyXP.B.B.B.v.C.{.I.D.H q ; - : < : < p p < 5 p d p < : : : , 8 8 K J { d.b.J.J.J.<.3.s.s.<.U M k <.i.i.i.i.i.f.z.V.P./.@X/.B.k.k.V.V.Q.;XfXxXyXOXm.+.+.P.jXDXLXIXPXLXJXjXeXI.I.0X7XY.} Y Y R p.k.V.Q. X X.Xr.r.6.N.V.k.1.#.#.#.$.c.p.p.z._.rXyX#X#XOXOX#XyX#XZ.3.k.V./.#XyXyX_./.^.j.%.N N %.1.k.^.^.K.z.$.%.$.l.l.7.l.W.W.l.k.+.U N v x n U h.U.tX).h.L 6 4 4 4 ; 3 k U V.-X-X(.:XcXxXcX=X!.M.0.9.0.9.E.E.R.E.;X-X-X(.W.l.l.7.+.+.:.1.k.m.m.m.m.pXfXfXfXpX[.n.` n w q q q q > > e s G ~ ~ G G H C C H ( } g.g.f.k.@.%.1.k.z.z.f.K.).tXtXP.).rXwXP.].L.s.<.B V b V O.O.t.y.>X5X5X1XaXcXaX-X(.W.V.k.k.k.8.8.8.0.8.;.;.>.6.M.V.C.B.B.@XDXPXLXdXs.U 1.+.o.>.7.0.R.!.*X>X>X*XQ.l.1.1.8.W.#X@Xh.L 4 - 9 p d i i % $ . X - : - - : e z F T h.P.eX$X@XoXk.#.+.1.x.V.$.b N %.3.s.s.s.v.B.&X|.OX;XsXxXxXcXcXAXFXDXcX=X X XQ.9.@.O.O.8.W.W.l.7.@.O.@.7.8.7.k.OX#X/.B.<.v x i.tXdXdXdXrXtXrXrXeXiXjXJXDXiXC.",
"k M <.P.yXdX#XZ.k.3.B b %.V.tXrXOXOXQ.M.k.8.k.M.Q.W.V.Q./.OX#X#X#XoXoX/.m.+.V V V V ,.Q.OXOXN.8.M.5.O.5.9.e.6.,.w.N.+XrXiXrX@XU.[ G s > : @ X . . @ , i i i i i W f 4 - w Y h./.#Xk.8.W.M.8.8.8.6.~.:X>X X!.9.O.>.7.k.B.P.[.L.b.` n n b.iXkXkXiXhXpX&X|.E.R.e.9.;._ :._ ] _ q.N.A.N.|.=XcXzXAXAXGXGXHXAXzX<X+XOXZ.3.V k h k k k ` a.b.K.@XrXjXJXDXDXSXBXSXDXhXeXI.[ y > > > 2 r s s f G d p 5 5 u < , , - @ : : 8 a D [ } g.G.J.B.v.2.<.<.<.<.U x M I <.i.i.i.i.s.B./.P.V.z.V.P.oXZ.V./.uXxXcXuXZ.3.V V <.V.@XrXjXjXBXBXkXkXkXjXkXtXI.d.R i.s.k.M.N.E.E.E.r.r.r.oX/.V.k.p.#.#.*.z.z.z.s.z./.%XuX#XOX(.OX#XOXZ.k./.#XfXxXuX^.z.z.$.$.$.%.b N p.K.^.^.x.k.1.1.1.j.j.7.0.l.W.x.j.1.+.P M L U ` ` <.tX).h.U x x x x M L <.P.)./.yXxXxXbX:X>XOXR.9.9.;.6.e.R.e.R.!.*XaX-X(.l.@.@.+.>.k.k.k.3.1.m.oXpXdXuXdXdX@X` z z t q > > > > 2 e s ~ ! ~ ~ ! G r 4 2 w z T i.S.B.k.9.7.l.W.k.$.c.9XjXvXjXSXjXP.a.a.` N m k k b b o.6.R. X>XzXHXAXxXaX;X;XOXW.V.V.k.1.>.7.0.5.8.e.e. X=X+XZ.N.oXiXiXBXDXBXhXrX].3.s.V.>.b @.0.9.R.!.*X:X;XQ.8.$.@.9.E.(./.B.I q - < a W W i i % $ @ @ @ - : > 2 q q w F T a.B.P.].P.Z.M.3.1.j.j.j.1.N c b s.K.B.s.4.A.&X<X<X;X;X:XcXDXFXxX;XOX XE.E.8.>.o.>.8.E.Q.V.1.%.@.@.%.1.V.k.Q.#X/.Z.z.E 6 #.B.dXvXJXJXJXLXJXJXLXLXBX$Xn.2.",
"V B 1.P.yXfX%X/.m.1.B N +.x.tXuX(.OXQ.W.l.k.l.M.M.M.N.Q._.OX_./.oXV.k.s.:.V k c V o.w.OXOXQ.8.>.8.>.;.6.9.8.6.6.E.|.%X%X@XL.h.} G s < - @ @ @ + , 0 u i i i i Q W A 4 ; h E h./.#X8.0.W.M.8.8.0.0.~.>XXX!.~.9.@.7.k.k.B.P.[.L.g.K y 2 m | L.0XkXjXhXhX<X+X|.R.e.3.q.4.:._ _ 4.q.A.A.N.E. X>X5XzXAXAXHXGXGXHXZXaX|.N.8.3.2.<.B k I _ s.P.$XrXdXdXvXDXSXjXgXdX$XP.a.F q 2 q w w z H H ~ ! ~ d p p p u u 0 , : : : : > e C J { S.Y.v.s.s.s.s.a.a.2.<.R I L L U R i.s.s.s.s.V././.P./.Z.V._.aXvXcXuXoXZ.k.+.V V N U a.b.L.[.0X0X0X0XI.7XY.g.i.p.z.V.V.W.Q.E.r.6.6.w.oX/.K.z.p.#.*.i.f.h.z.z.z.P.#XyX;X-XOX*X;X;XOX(.OX-XuXyX_.V.k.p.$.$.$.%.N %.j.^.K.V.x.k.1.7.j.l.0.5.0.T.W.W.k.7.#.+.U U R i.h.J.P.J.p.P v x L R p.B.P./._.yXcXxXcXaX>X*XR.9.6.9.5.0.R.R.!.!.*X>X!.M.5.o.o.@.7.k.3.s.m.K.@XrXdXgXdX@XB.a.L w > q q > : > 2 2 r t A ~ ! ! ! H C r 2 2 2 3 x E d.z.W.R.T.l.W.c.p.z.).dXtX@X[.L.i.I k k k k V B o.;.e.OX1XzXAXFXFXAXcX;X*XOX(.V.x.x.x.k.k.8.0.,.6.6.e.E. X|.|.&X,XiXhXBXVXiX$XoXC.q.m.V.8.o.o.;.5.9.R.!.*X*XQ.l.7.7.5.9.Q./.B.R w : > p f W Q Q Q i < < - - - : > q > q t m I a.L.[.@X@X/.V.k.k.j.7.$.1.3.1.+._ <.2.3.w.Z.|.Q.|.;XaXuXxXxXxX1XOXQ.M.e.0.,.>.0.M.E.Q.Q.8.@.@.@.%.1.x.k.Q.#X/.Z.k.P 6 c P B.tXjXDXLXLXLXJXBXhX{.n.2.2.",
"3.s.m./.yXpX#X/.M.1.+.+.3.z.#XfXOXOXOXQ.M.w.M.N.M.M.M.V.Q././.Z.P.s.P V V V V V ;.8.Q.+X/.N.8.8.7.@.>.9.9.5.6.e.|.oXoXP.b.{ F C e < - @ @ : : : u u u i i i i d G G 4 ; l R z./.OX8.8.E.M.8.8.9.0.~.XX X~.R.9.@.7.k.B.K.@X[.G.{ w - X - q K n.0XiXkXjXjXsX;X!.E.N.A.q.3.4.4.:.4.w.A.A.N.E.E..X=X1X1XzXHXGXIXGXDXsX<X%X%X%X&XZ.s.:.<.a.B.oX#X$X/.#XyXdXrX@XP.B.s.I x w w j k x F T T ^ [ ! ~ f d d d d a 9 , # @ @ @ : : e D { g.{ a.b.b.b.n.s.a.h.i.U n x M U R <.<._ <.k.K./././.V.M.Q.-XaXcXfXpX;XoXm.U k h h h j n R a.g.d.} { D.G.h.p.s.z.V.W./.Q.E.w.6.6.8././.P.K.z.p.i.*.*.p.z.z.z.V.).#X;X;X;X*X;X:XuXaXuXaXyX/.V.V.k.<.1.$.$.%.%.$.x./.^.V.x.k.1.1.7.j.5.5.0.R.W.W.l.k.<.<.<.<.<.p.L.@Xz.f.#.P M P <.k.$XpXuXOXOXaXvXxXbX:X*X~.9.5.5.9.9.9.u.~.`.*X>X>X9.5.O.O.@.7.k.k.s.m.P.rXjXBXjXiXwXh.L l 2 - ; 8 8 > > q e r C H H ^ ( ( Y Z z z l w 3 3 h M i.z.-X>X`.^.(.k.1.k.z.).P.a.2.U n n w h k B :.m.Q.|.;XxXHXHXAXAXAXzX=XOX!.!.Q.V.k.k.k.l.l.l.0.5.6.9.e.E.N.N.&XhXiX{.iXiX{.a.` n.C.m.m.3.8.3.o.O.5.9.9.~.OX*X!.M.l.9.5.9.!.OXV.` z 2 > e a f W W W W f d < - - - : > > > q q w F g.L.$X#X#X/.W.x.l.7.-.c.^.z.<.N P ` 4.3.v.w.m.N.OX;X-X:XaXaX;X+XQ.m.8.6.>.8.M.Q.E.E.Q.k.>.@.+.+.1.z.m.Q.+XoXQ.m.+.c 6 b #.V.rXhXSXJXJXBXiX].v.2.q.C.",
"oXoXOX%XyX;X/.V.k.+.+.3.k.k.).xX+X=X+X|.N.8.k.M.N.N.M.M.V.V.M.k.z.<.M k V B 3.8.Q.+X;XOXN.m.M.W.@.o.>.M.9.;.,.E. XZ.m.i.I F r q > : @ @ : 9 a a a a u u u u u d G H w 2 z #.z./.#X8.8.E.M.8.8.0.e.~.XXXX~.R.9.5.7.k.P.@XwX[.a.F - @ @ - : > D [ H.[.kXBXvXfX=X X|.N.A.w.q.3.4.4.4.3.M.N.E.e.E.E.1X2X2X1XAXHXFXFXKXFXZXsX<X<XpXhXP.B.s.<.s.m.V.Z.k.B.V.B.s.s.i.i.U M k k m M N N I R ` [ [ ^ G f d f f d a , @ + : : @ - : e s D T { b.G.G.b.n.n.h.a.<.U I N N N N U 2.<.<.<.B./.Z.V.M.k.V._.uXvXxXyX+X/.P.m.:.M w 3 w h x F I T g.Y.wXU.p.p.p.k.V./.(.Q.8.,.,.>.k.V./.P.K.z.p.#.#.*.f.z.z.z.K.@X#X=X*X*X*X*X>XaXcXcXyXZ.B.K.B.<.$.$.#.%.+.7.V./._./.V.7.1.@.@.1.5.5.0.T.^.W.l.l.1.1.1.p.p.h.P.@XB.k.<.#.#.s.Z.oXpXgXfXyX;XcXcXcXbX*X~.T.9.7.5.0.R.R.u.R.!.*X*X*X9.6.5.>.0.l.m.k./.@XrXkXjXkX[.b.d.L l w q > e a a e a s C Z Y / ^ ^ / d.R z z L L L x h h M i.B.-XbXbX-XW.1.+.1.h.P.J.i.I n w j k B :.m.oX;XsXxXAXDXAXzX1X:X=X=X XE.E.!.Q.V.k.1.3.k.l.l.8.6.6.e.r.|.|.'.$XhX0Xn.n.| m w j ' C.].m.+.>.8.o.o.9.9.9.R.!.OX(.Q.W.R.5.R.!.OXZ.<.j 2 > e s a d W W W ~ G s < : - - : 9 8 8 > > w I v.].&X#X/.^.W.l.j.j.j.p.s.s.p.2.U U _ 4.3.s.m.N./.#X-X;X#X#X#X/.N.8.,.>.8.E. X X XQ.M.1.>.+.%.$.k.m.Q.oXoXQ.M.>.b c c c b P 2.b.C.].{.'.}.'.'.<XBX",
";X;X;XaXaX-XQ.k.k.+.B 3.k.k.P.fX;X;X%XOXN.m.8.8.m.V.Z.Z.V.k.1.#.L L N N U >.m.N.+X<XpXoXm.k.V.V.+.%.1.l.0.;.6.E.Q.m.:.n l w 4 2 - - @ : 9 a f f d d p 9 9 9 a d H H w 2 x <.V.OX#X8.0.E.e.6.6.5.u.~.>X>XXX~.9.5.7.V.).wXwXL.T w - : : : - @ : 8 D { L.rXgXgXaX1X=X X|.N.A.m.3.:.B :.m.M.e.e.e.E.*X*X*X*X=X1XzXAXGXGXGXSXsXaXsXgXpX$XB.:.U +.3.k.3.1.<.<.<.<.i.p.<.U B V V V B +.B _ ` ` { | T D s d f f a 9 @ . : : : : : : : : t F { g.n.g.b.G.n.n.s.a.<.U V M k I _ _ U U s.V.m.V.V.M.l.V.-XfXxXaX;X;XyX%XZ.s.M k h 3 3 h n R Y.tXtXU.p.#.<.p.k./._.Q.M.8.>.+.P s.P.).U.K.f.#.R #.p.z.z.s.B./.OXOX=X=X X X*X=XaXaX;XZ.B.P.B.<.#.+.+.+.$.7.V./._.Q.M.8.@.@.>.>.0.0.9.R.W.M.l.l.k.s.p.s.z.B.J.K.K.z.p.s.V.#XrXpXfXpXaXxXxXaX:XcXaX(.l.l.T.9.5.5.~.R.u.u.~. XXXXXe.e.e.e.M.N./.oXpXdXiXeX0XG.T F w 2 2 e a s s s f f G H H F Y R *.#.i.f.#.v x L R U L x k M <.z.-XbXcX-Xl.%.v P h.K.J.i.I m j m m.N.&XpXxXSXFXFXFXZXsX1X;XOXE.E.E.E. X XQ.V.j.$.$.8.l.l.8.6.6.e. X;XpXrXeX0XH.K e 8 - @ > K G.eXC.B +.8.@.>.9.0.9.u.!.!.OX(.Q.W.9.R.!.OXQ.<.k w w D G s 9 < u p H H H C r > : - 9 8 8 q > q m ' B.Z.oXoX/./.Q.W.W.j.@.1.B.B.a.' I _ _ 2.s.m.m.B.Z.oX#X%X%X%XoXm.8.>.>.8.Q. XOX XQ.N.8.1.+.%.$.j.m.N.Q.|./.W.8.+.N b c c k B <.2.v.'.&XhXNXZXGXIX",
"aXaX1XaX;XOXN.k.3.B B 3.m.k.Z.;X;X+XOX&XQ.N.m.3.3.m.Q./.Z.3.U V k L <.1.s.m.m.w.OX;X;X/.M.k.k.1.@.$.1.8.0.5.9.E.Q.3.N w 2 2 > > - - - > a f G f d a p e e s f G H Y l 3 v 1.V.#X-X9.0.E.M.6.5.t.u.~.>X>X>X~.u.9.7.Z.@XwXU.a.m > : 0 , : @ . . @ > y T B.rXgXxXxX1X2X=X X|.N.8.:.:.<.1.:.,.,.e.R.e.E. X X X X1XzXZXFXKXIXGXAXsXsXgXpXoXk.1.+.+.+.p.$.#.#.#.#.i.h.1.2.<.o.o.;.,.>.,.3.3.2.a.n.| K a s G G f u : @ : : , 9 9 < : - > w C J T } g.G.L.L.B.v.2.:.U B I M n I _ 2.2.1.1.m.Q./.W.V.(.-XcXvXSXvXpX%XoXoXC.v.` x w w j n R b.L.h.#.#.p.z.k.^._./.Z.V.3.+.b <.K.U.).K.z.#.*.R *.h.z.s.z.Z.oXOX=X=X=XXXXX*X=X;XOXV.m.B.h.<.%.+.+.+.@.7.V./.Q.W.l.5.@.>.>.6.0.0.9.T.R.l.l.l.Z.V.k.k.B.B.h.h.j.1.p.B.oXpXhXsXsX<XaXAXZX1X>X1X:X^.l.l.R.l.5.5.R.R.u.~.!.XX*X*Xe.e.e.e.N.oX%XgXdXiXeXH.| D t y w 4 > < p d f ~ ~ G ! ^ H F L R =.p.f.f.$.P L P E U U L x M #.k.-XbXbX^.7.N b M R i.i.' ` ` n.].%X1XxXSXDXDXDXFXsX;X+X+XOXQ.w.,.y. X=XOXQ.l.7.$.1.k.l.8.6.6.e.e.%XdXdXiX0X .G 9 @ . . . - D g.[.P.3.>.,.>.,.6.5.0.0.E.!.OXOX(.Q.9.R.!.OXQ.1.M j j J [ D 9 : < < C F ^ ^ H a < : > > 8 q y q z ' s.N.oXoX(.(.*X(.^.W.x.k.s.s.a.` ` ' _ _ <.2.s.k.s.Z.#XrXrX%XK.s.k.8.8.M. X=X+X XE.Q.M.3.+.#.=.p.k.A.N.Q.|.E.W.M.9.8.>.1.m.P.$XiXNXDXGXIXKXGXGXGX",
"xXzX1X<X=XOXN.8.1.o.o.1.m.N.Z.+XOX|.Q.|.OX&XN.m.8.m.V.B.s.:.U N U 2.p.s.B.Z.oXZ.|.&XOXN.k.k.1.B p.k.7.1.8.M.E.N.k.+.k 3 2 2 < < - : > e f G G G s a e e s G ! ^ T T z 3 M 1.Z.#X#X9.0.E.M.6.5.5.u.y.XX>XXX~.u.9.l./.#X@Xh.I w : > 0 : @ @ @ @ X - ; w I C.rXgXsX5X5X1X=X+X|.N.m.s.2.:.:.;.,.6.8.6.8.M.E.E. X=X1X=XsXHXGXIXGXHXSXZXgX%XoXZ.k.1.%.+.E E E P L *.z.V.Z.V.8.6.8.e.w.w.A.A.v.v.n.| K t s G ~ ~ f 0 , , , , 9 u e 9 > ; > 4 w t F ` a.L.L.C.C.m.3.4.:.` I M I U <.<.<.1.3.k.M.V.W.Q.Q.-XaXxXvXgXhXpXyXdXrXU.b.i.I n z j I i.<.U U p.x.x./._.^.^.^.k.+.b <.J.K.K.U.F.i.i.R #.f.z.h.k.V.|. X+X=X>X>X>X:X=XOXQ.V.k.p.i.i.P +.1.1.@.3.V._.Q.V.9.>.@.;.>.6.5.5.0.T.R.l.l.V./.^.B.s.s.<.<.<.p.k.V./.%XhXsXsXZXzXzXzXcX2X=X>X*X^.l.l.9.9.5.5.9.R.~.`.XXXX X~.e.r.y.E.OX%XpXdX[.L.g.T t q q e r r < 1 : u f W W ~ ! ^ Y F L #.j.c.K.x.z.j.$.%.E #.#.U L U p.K.-XuX(.j.$.%.v M N ` a.n.].[.iXBXNXAXHXDXxXaX1X1X+XE.Q.Q.Q.A.8.,.E.XX=X XM.k.7.j.j.k.k.8.8.e.y.M.yXeX0XI.} d , #       . X e ! n.B.N.8.,.6.6.;.O.5.0.9.E.OX*XOX!.T.~.`.OXN.>.V j j K T D e > < < w Z R { ^ G p e < : 8 t t y t n :.w.|.OXOX(.!.~.(.(._./.B.s.a.a.n.a.' _ ` <.<.<.<.B.@X@X@X].C.v.m.8.e.Q.=X<X+XE.E.Q.N.8.#.#.#.1.k.3.w.N. XOXOXOXQ. XOX%XpXjXDXJXPXIXIXIXGXZXNXAX",
"HXAXaX;XOXQ.e.8.>.o.o.1.M.N.Q.Q.Q.A.A.Q.+X%XoXN.V.m.3.+.B B +.<.K.B.s.2.V.%XfXpX+X+XQ.3.3.k.3.P k.x.k.>.8.Q.(.N.:.N h 2 2 e p p > > e s G ! H G e e e e s H ^ ( Y E x h M p.Z.-XOX0.6.N.M.8.6.5.u.y.~.XX`.R.u.T.V._.tXP.2.n q : : : : : : , : @ X X - w a.].%X<X2X5X5X1X=X+X|.Q.m.k.3.3.1.>.,.;.6.6.6.9.N.Q.OX+X|.|.+X1XHXGXGXGXHXZXpX;X;XOXm.1.c k v L x l E h.#X%X;X/.N.N.E.M.N.|.Z.m.v.n.2.K t C J ! ! G a 9 9 < , , 9 p p e < > > ; 2 y D T g.b.L.].P.C.v.2.2.a.a.U n M U s.3.:.+.:.k.V.W.W.M.M.Q.yXSXFXvXdXpXrXrXrXrX[.s.U I a.B.p.U P #.1.^./.).K.K./.z.+.v <.B.V.K.^.K.p.f.R R f.z.h.z.V./.|.OX=X;X1X5XcX>XOXE.V.k.<.i.s.%.@.3.1.@.1.V.OX/.Q.9.,.o.o.;.5.&.&.0.l.T.l.l.W././.V.s.U L L U B./.uXfXgXsXZXAXAXAXzX=XXX>X=X!.(.W.W.l.7.5.7.9.9.R.!.*X*X~.y.0.E.E.|.<XpXhX%X].G.a.K y > > > q e e : - @ : p d f G ! ^ T Y P #.x.^./.^.^.^.z.#.#.1.p.<.#.i.K.#XyX-Xx.%.+.+.P N <.B.].iXgXhXhXSXHXHXHXAX1X=X X|.+XQ.V.Z.m.m.m.Q. X2X2XE.8.1.j.k.1.j.8.1.8.Q. XQ.eXY.g.[ f #   .         . - A | s./.N.>.8.0.@.O.O.5.0.E.(.OXOX!.!.`.*XOXN.:.V h h n F D t e e 4 3 x R d./ H C s e > > t t q q m U 3.Q.OX!.E.R.9.!.(.(./.Z.B.b.n.b.a.2.` <.<.U I 2.B.K.B.B.B.L.C.m.e.N.OX1XaX=XQ.E.Q.V.k.<.#.#.<.s.3.8.N. XOX;X;XzXAXFXKXKXKXIXIXGXZXNXsX<X2XsXAX",
"sX1X;X=X=X!.6.O.;.O.o.,.9.N.oX&XZ.:.B 8.&X+XN.k.m.V.Z.V.3.:.<.1.k.k.k.N.+XaXsXsXaXQ.8.8.k.1.#.$.l.l.8.7.M./.Q.k.P k 3 4 r a < < 9 e s J ! T F Z l z F Y H Y / g.*.L c c N 1.W.(.OX0.0.E.M.8.8.6.0.y.~.XX~.~.R.T.(.#XU.i.F z q > e > : > 9 a 9 : X @ - : F L.,X+X3X.X.XXX1XzX1X*XQ.V.M.k.M.8.>.o.5.7.7.8.k.k.B.B.$X&X%X<XsXAXHXHXGXFXAXAX5X=X|.M.m.:.V M M x S #.P.#XfXgXfXpXpXfXhX%X$XrXiX@Xs.I w T | } [ [ G e e e p p a a a p < < < ; ; ; 2 w x J a.G.L.L.L.L.n.g.a.{ R I M M U <.1.1.3.k.m.V.W./.#XyXaXfXgXxXfXdXpXpXpXrXoXZ.s.s.s.<.+.+.p.z.V.k././.B.m.s.#.U V.V.k.W._._.F.i.^ / d.S.S.z.k.@X#XOXOXaXDXAX:XOX!.Q.M.1.+.+.1.B 1.k.7.1.k.V.Q.Q.E.M.,.o.o.;.,.&.&.0.T.R.R.l.7.1.+.M k k L i.B.Z._.;XaXxXHXHXAX3X2X2XXXXX:X>X(.k.l.V.k.7.>.8.M.0.!.=X>XXX X~.y.E.&XhXgXdX[.b.| F z e > : > q y e e > : - : > e e r z z l z Y #.B.#XpX%X@X#X#X@X).K.z.p.#.f.).uXuX^.7.1.>.:.1.3.oX;XsXZXZXZXFXFXMX5X5X1X=XOXQ.Z.V.K.P./.V.3.1.3.N.2X2XE.0.@.1.l.V.j.k.k.k.V.Q.m.G.| G 9 # +         . + X @ q F <.V.P.k.1.7.7.@.o.5.8.8.M.OX+XOX*X>X*X*XW.1.N c x n Y H H C a r 3 Z E *.*./ Y C r 2 : e s D t y n #.V._.OXE.9.5.R.!.!.Q./.oXU.P.P.B.2._ <.<.<.<.U _ s.L.[.P.L.P.m.N.E.*XaX*XW.(.W._./.k.<.<.<._ s.s.k.N.Q.=X1X1XAXHXKXGXGXDXDXDXBXNXNXNXsX<X+X&X",
"dXpX%X+XQ.M.8.;.@.o.o.,.M.N.oXoXv.V k U Z.$X/.N.oX#X%X#XZ.m.m.m.k.M.Q.%X1XaXaX<XaXQ.8.k.k.1.#.k.l.8.7.7.V./.V.i.M l w y r r < < < e G ^ { / I F x L L R / { d.h.*.P c c N 1.W.(.(.0.6.N.M.8.3.6.0.y.~.XX`.~.~.~.-X_.K.R x t y q e > : 8 a a a 9 - - - > F G.$X,X.X4Xy.4XXX1X:X>X*X(.Q.V.N.m.3.>.>.5.7.3.p.p.p.p.B.@XpX<X.X3X5XHXGXGXGXGXAX2X1XsX&XN.v.2.+.v v P V.oXdXvXDXJXLXKXJXDXDXDXSXrX<.k l { H.H.g.| J C s f f f f f d d p p e > ; - ; : q t J | n.H.L.L.H.G.b.d.{ T L M P U <.<.<.1.3.k./././._.#XyXxXDXFXgXyXyXgXgXpX$X].Z.s.U N U k././.V././.B.m.k.<.+.Z.V.7.T.(._.K.=.d.D.( d.S.B.k./.@X#XOXuXvXxX:XOXW.l.8.3.+.+.+.1.j.j.1.3.l.W.W./.Q.M.6.;.o.;.6.5.0.T.~.^.R.7.1.B b h h x R J.@XyXyX#X;XAXGXHXMXXXXX.X~. X=X*XW.k.k.k.k.8.m.l.0.M.!.*XXX X~.~.E.%XrXrXeX{.g.J D q > : : : > 2 q f s a e < > > ; ; ; 2 3 3 h x L B.#XgXvXvXDXDXjXdX/.p.#.h.K.wXrX^.V.k.3.:.:.m.&XaXZXFXFXFXxXcXzXMX3Xy.y.E.OX/.V.z.B.J.K.z.<.+.:.N.+X+XN.8.7.7.k.V.j.k.k.k.B.m.` K f 0 +     * *     O + @ @ > z R k.Z.k.3.7.7.$.@.7.7.8.M.Q.OXOX>X>X*X*XR.7.B k v L / { ^ G s r 7 S E / / ( ^ Y C w 2 y D D g t x P f.W.(.!.u.0.0.0.e.N./.$X@XP.%XB.:.:.v.C.v.` M I 2.L.@X[.L.C.M.N.E.-XbXOXl.x.l._.#XV.<.<.:._ s.s.m.V.OX;XzXZXGXGXGXDXNX,X,X,XNXhXhXpX<X,X|.'.",
"P.@XrXdXrXQ.3.o.o.o.:.3.B.P.[.].<.k 3 M m.$X%X%XZ.Z.P.V.k.3.3.3.V.OXpXxXxXaX;X+X<XN.8.k.k.1.p.Z.8.7.7.k.W./.k.U j w r C C a e e > e G [ } { T Y L L E i.h.S.S.h.R L c c N 3.W.OX(.6.5.M.M.3.3.,.u.y.~.XXXX`.!.(.#X/.z.L z w y y e > : 8 t f f d < - - > F n.&X,X4Xy.r.r.y. X=X:XaX:X;XOXQ.N.N.m.N.l.1.+.#.<.h.B.J.J.K./. X=X1X5XMXHXGXIXGXHXAXZX2X,X+X&XN.:.o.:.3.k./.pXSXLXKXIXLXJXJXSXdXJ.L 3 w ` G.H.n.g.| | ! ........~ ~ ~ ~ ~ d p e : - - - : y D J | n.H.I.I.Y.G.h.{ I L L P U U +.:.1.3.7.k.V./.OX#X;XyXvXSXSXvXdXhXgXSXgXrXZ.:.V B 1.M./.Z././.m.m.m.2.1./.V.7.l.(._.).d.Y.H./ / h.K.z.V./._.OXyXcXaX-X!.l.>.>.3.1.+.P z.k.1.1.k.W.Q.V.(.Q.M.8.;.;.,.6.9.u.T.W.^.W.l.k.%.V c c U h.wXdXfXvXFXDXzX1X=X3X3XXX X X*X*X!.R.7.k.k.8.m.Q.N.>.E.OX=X+XOX=X=X=XpX%XP.s.T m y q > 8 e e t t s s s s f s s e > ; 4 r z Z Y R R R i./.gXJXLXLXLXDXyXV.#.p._.uXuX#Xk.>.+.3.Q.;XhXgXsXZXFXFXAXcX6X>XXXXXXXE.e.8.k.B.P.B.p.#.P U 3.V. X=X XM.M.7.@.1.x.p.z.B.z.s.<.n 8 : +         O O O + $ , : > q n 1.V.V.j.7.7.$.7.>.>.8.M.N.|.=X:X>X*X*XW.7.%.b M R g.D.} ! A C Z S S S / d.d./ H z w y D D D D x v +.k.R.~.R.u.0.t.O.o.8.P.@X@XoX].Z.v.s.s.s.v.m.2.<.s.B.B.B.B.m.N.Q.;XaX(.$.@.7./.#XP.s.<._ _ a.s.B.Z./.;XzXAXAXZXNX,X].'.'.'.'.'.'.'.'.'.A.w.",
"g.G.[.rXrXP.s.U P _ <.s.L.[.[.L.` w ; w <.P.rXyX/.P.V.m.k.m.N./.;XaXgXxXsX<X+X|.E.N.8.8.8.3.k.x.>.7.l.W./.V.1.M x z z F G A A G a C J ^ { / I L x E i.h.Y.Y.Y.h.R v c c N 7.W.OX!.5.5.M.e.6.,.,.0.y.~.XX`.`.`.`.(.V.<.L l w t y > : : q s G G ~ p < = ; z g.&XhX.Xr.r.t.;.6.E.OXuXaXaX;X+X|.Q.Z.Q.N.k.3.1.p.h.S.J.h.s.z./.-X>X>X5X5XMXHXGXIXGXAXAXNX1X1X;X|.M.M.>.:.1.B.#XfXSXDXLXJXSXdXU.p.L w w F } d.g.n.H.D. . . . . . .......! ~ G s a < : - - : > e D [  .H.Y.I.[.I.b.i.R ` U P N N U :.1.+.1.k.V.Q./.oX&X%XgXDXDXgXpXgXSXgXpX#XN.3.>.8.k./.V././.m.k.k.<.1./.W.7.R.*X_._.F.Y.I.} / p.B.Z.k.V./.OX-XuX;XOXW.8.>.>.1.>.+.U V.k.1.p.K././.M.OXQ.N.8.,.;.,.6.9.u.9.9.T.W.(.OXV.k.<.i.J.tXdXjXvXFXFXSX;X.Xy.4X>XXXXX>X>X!.R.l.7.1.8.M.Z.V.M.8.oX+X;X;X;X<X<X%XP.b.` n w q q q q e e s s f D G G G J ! H C y 2 C Z Y *.f.d./ L U B.tXSXJXJXSXfXk.1.1.V.uXxXyXW.>.o.>.N.<XZXSXxXxXZXZXxXcX:X*X`.y.XXXX~.9.7.k.K.K.z.#.N N +.M.+X+X+XE.e.M.k.$.$.z.p.z.K.B.a.U z : +         O $ % O + # , 9 9 2 h U k.B.k.k.7.7.7.@.@.7.8.e.E.*X>X>X>X*XW.7.%.k v R h.G.D.} ! H S S S S *.S.S.d.Y z w y C D D D x x M +.9.E.R.R.9.t.V b V k.@XrXC.&X%XoXk.<.2.m.oXB.2.3.m.B.B.m.m.V./.;XuXV.N b #.K.tX@XB.2.` _ s.h.B.V.Z.oX;XsX<X<X,X].'.}.}.'.A.A.A.q.q.,.q.w.",
"D.| | | g.b.b.a.I ` a.b.I.0X0XH.T 2 o ; x a.L.wXrX@XZ.V.V.oX;XaXfXaXyX<X1X<X;XOX8.M.M.1.1.k.z.1.%.7.W.OX/.k.P v x Z F H ! ~ ! [ [ | } | / T Y L R h.U.U.U.Y.S.f.P v c b %.k.Q.(.!.5.5.M.M.3.3.,.0.y.~.XX`.`.!.(.V.p.U x z r y q > > > e s K ! ! s < = - y ` {.NX+X.Xe.;.O.o.6.M.*X;X1X1X<X+X.X|.8.w.N.V.B.h.i.R p.z.K.F.c.c._.>XMX5X3X5XMXGXIXIXHXAXMXZXZX2XXX X8.>.B o.3.V./.@XjXjXtXU.J.f./ F z x F I } n.H.D. . . . . . . .....! ~ ~ G f s e > > : - - 8 s G | g.Y.0X0XY.b.a.p.<.P M V N +.1.k.8.1.1.3.V.#XpXyXrX%XhXjXSXgXpXpXpX%XOXQ.Q.W.Q.W.M.Q.Q.M.8.3.+.<.Z.Q.9.W.-X(./.9XY.Y.G.h.i.k./.s.B./.OXOXOXOX!.l.0.>.>.>.+.+.<.x.j.p.z./.#X/.V.OXQ.N.8.,.,.,.>.9.9.9.T.W.!.#X;X#X/./.@XtXjXjXjXJXcXOXQ.E. XE.r.y.~.XX=X XR.0.7.8.>.8.Q.Q.8.8.Z.&X%XpXpXpX%XoXB.` I j q q q y t s s s s s D G G ^ [ [ [ ( H F x ^ { d.h.S.d.L h 2 h U p.b.h.<.U N 1.Z.yXfXyXV.@.O.e.+X<X<X<XsXZXFXDXZXaX;X X~.R.~.u.0.9.W._./.V.+.+.<.k.k.8.N. X XE.8.8.M.l.3.j.k.<.h.U.Y.a.I y + .         O % & $ . . , e r w 3 M p.z.k.k.k.7.8.@.@.5.0.8.M. X*X>X>X*X!.8.N c k L i.S.D.D.} / Y E S E *.S.S.d.Y C r t D D D F L v v P 1.l.R.R.u.9.O.b b :.P.rX/././.oXoXQ.m.1.1.2.m.].%X%X].m.m.V./.#XtXp.c 6 L z.tX@XC.s.2._ p.B.B.V.Z./.%XpXhXpX,X&X{.}.C.n.].].'.A._ ] 4.A.",
" .[ T [ g.G.b.g.T { g.n.Y.0X0XD.^ q X = q F g.U.wXU.K.Z./.#XyXyX;XOXoX+X;X<X;XOX,.w.k.>.1.k.k.+.>.l.(.#XZ.#.M x L L F T ^ ! ^ [ H.H.H.D.d.{ i.i.K.tXdXtXU.Y.h.d.v k c b %.k.Q.(.!.5.5.M.M.8.3.,.0.y.`.XXXX!.~.W.7.+.M x x z w 2 4 2 e t D J [ [ ~ < = ; w I ].SX2X=X|.6.o.O.@.5.W.!.*X;X1X2X+X X|.Z.A.m.s.s.p.p.z.z.c.c.j.c.x.T.y.XX6X5XMXMXHXGXGXHXHXAXAXMX3X+XE.8.o.V B :.<.<.p.z.L.U.9XtXwXI.{ L z x T | } [ ^ ^ [ ......! ! ~ ~ G G f f s a a 9 < - @ @ : 9 D J | H.I.[.Y.J.b.p.U N M N U +.1.>.>.>.1.m.Z.oX%X#X&X$XrXhXhXdXxXgXaX;XOX/.Q.Q.W.M.Q.Q.m.8.>.B :.Z.Q.e.!.-X_.K.tXY.H.I.Y.s.3.Z.k.B.Z./.OXOX!.W.9.0.7.>.+.+.<.s.j.p.z.K.)./.P.Z.oX/.N.8.>.,.,.>.7.9.R.!.(.(._.OX/.@X#XyXjXjXjXjXdX#X/.Q.E.e.t.;.t.y.XXXX~.9.0.0.8.>.8.Q.N.3.m.%XpXdXhXiX$X].a.I j w q 2 q y a a s s a e e r s C C D F T ^ { { } g.h.h.h.i.E l 3 3 l n L I L M V 1.V.yXaX-XR.>.O.6..X1XAXZXZXZXZXSXzX;XOX!.Q.W.R.0.u.R.!._.W.k.+.N U 1.k.M.N.Q.OX=X Xe.6.k.7.@.p.z.<.z.7XY.d.K y @ O O     O % % Q % . . - < r r 3 k U s.V.l.l.k.7.>.@.>.5.0.M.E. X*X>X;X(.l.o.b k v R d.S.Y.D.D.E E E E *.f.h.d./ H F H T J K J L M M B @.7.9.9.9.R.9.>.o.1.m.P.k.V.OX;X-XOX/.Q.8.m.Z.|.%X,X&XZ.B.K.P.).P.P 3 3 x f.wXwXP.b.2._ a.h.B.K.P.@X%XpXrX,X$X{.{.{.}.n.a.q.2._ ] ] v.'.",
"J T [ d.G.b.a.` R a.h.G.Y.0XI.D.! e X X > z | Y.wXwXwXyXdXuX#X/.k.M.Q.OX;X;XOXQ.8.1.>.1.8.k.1.+.l.M.Q./.k.P v x E L F Y H H D D  .D.H.H.G.J.P.U.tXdXtXP.z.f.d.E v c b N @.l.W.!.!.5.7.N.M.8.8.>.u.y.XX>XXX!.R.M.1.N k x x z w 2 r r C H T | | } ~ 4 ; 2 w n v.hXpX<XOXM.>.>.5.0.9.e.E. X=X1X2X3XsX,X|.w.3.s.B.K.K.c.$.$.c.c.-.@.O.r.3X5X3X3X3X2XHXGXGXHXHXAX5X2X=X|.8.o.B B V V M i.J.7XkXJXJXjXG.T z z F T H C J K K J H G G f G f f f a a a a a p 9 : @ X @ - 2 y F { G.Y.I.[.P.B.p.<.<.+.+.U b N +.3.3.3.2.1.m.P.$XoXP.P.rXgXSXxXfXpX#X/.W.l.W.M.Q.Q.8.3.>.B +.N.Q.e.!.*X(.V.wXI.H.7X0XL.m.3.V.V.Z./._.(.W.R.9.7.1.>.%.+.1.z.p.z.K./.P.B.V.oXoX/.M.8.1.>.>.>.0.T.!.*X-XOX(._.OX#XyXdXdXdXdXrXV./.;X#XM.O.O.;.e. XXX XR.R.9.6.6.w.M.M.m.N.oX%XdXiXeX[.G.g.K w 2 > > q t s e 9 : - - - - ; ; ; 2 w z Y { g.G.Y.d.i.i.E L x x l 3 w w w w h x U #X-X;X*XE.9.9.6..X=X1XAXHXGXFXzX;X XN.M.M.W.W.W.5.R.-X-XZ.$.B N s.3.k.m.M.M.!.=X;X+XM.6.7.%.+.p.z.i.h.7XY.} F e $ % $ $ O % i Q Q i $ . X < a r h h L 1.V.V.M.l.5.5.>.@.>.0.M.M.!.`.*X*XOXN.1.B b x S / S.I.I.Y.d.f.i.*.*.f.h.h.h.d.{ | d.| ^ T L M M P +.1.7.9.9.l.M.0.1.8.s.k.%.l.#XyXOX/.OX<XOX+XQ.M.N.|.|.].L.[.[.Y.g.l ; ; h d.U.wX[.C.2._ 2.p.b.L.].@X$X$X].].n.n.n.L.n.a.m m I ] ' 2.].$X",
"F F I I R R R U ` p.b.h.Y.0XI.D.A : X o = q J H.Y.I.wXdXdX#Xk.+.o.8.oX;X<X+XN.8.V.:.o.8.k.1.+.1.Q.V.V.m.1.M v Z Y F F H H C r q F T g.H.U.wXtXdXtXtXP.p.#.#.R v c c b N $.l.W.!.!.5.7.R.M.8.8.7.u.~.XX>X*X!.M.l.+.V h k x z w 2 l C H ^ } d.g. .! r ; 4 w z 2.%XpX,X&XQ.M.8.l.l.0.5.0.R.XX1X1X2X2X,X,X&X'.A.v.3.j.k.c.c.-.$.-.7.e.r.r.y..XXX2X2XAXHXGXGXHXAXAXAXAXaX|.A.,.o.V b k P R i.Y.tXwXI.G.R z j F F z w H H F D D C t s G G G f a e p a p u 9 , @ + . @ - > w F { G.0XwX[.U.J.B.z.s.<.U N B +.+.+.<.2.s.2.s.m.Z.oX$XoX].pXpXaXfXaX-XQ.M.Q.R.W.V.8.3.>.B :.N.Q.9.E.*X(.Z.@XI.I.I.0X$XB.+.Z.V.Z./._./.W.M.9.7.>.@.%.+.1.z.p.z.U.U.B.s.B.@XoXP.B.8.1.>.>.@.l.R.!.OXOXOX-X;XyXaXfXgXdXrX@X/.#XQ.k.8.,.,.6.e.~.=X=XR.9.R.9.;.;.M.E.,.3.oXrX$XeX{.L.{ ' D q - - - > a f f e : 9 < e e e r r r z x L R i.h.J.J.J.z.f.i.i.i.f.h.G.G.g.a.i.b.wXjXvXaXOXE.9.R.`.>X3X5XAXAXzXzXzX1X=XQ.M.8.k.M.M.l.Q.W.l.7.$.1.1.s.s.m.Q.+XOXE.!. X XE.8.>.1.@.1.K.K.i.h.7XH.{ D e # $ $ $ % % Q W Q Q $ o o 1 p r l h x <.B.Z.V.l.@.5.5.O.O.9.M.9.!.!. X*XOXQ.k.1.M x x E S.I.7XY.Y.J.S.p.i.h.Y.Y.Y.G.G.H.G.g.{ ^ x v L P %.@.7.8.9.9.0.7.1.8.1.>.7.7.l.(.-X;X;XOX+X+XOXZ.N.Z.N.m.[.0X0XY.{ 2 = ; w / Y.[.[.C.q._ <.<.s.B.P.[.[.].{.n.` ' ' ' ' ] ' ' ' 2.n.{.iXiX",
"L L M M N N U +.k.k.k.B.P.U.J.i.a 1 X X - - s | H.0XtXrXK.1.N b b ,.+XaX;XQ.8.3.k.1.>.8.8.>.1.m.Q.Q.M.1.N L S Z Y Y T T F y 2 > w r F i.U.tXjXjX).V.$.E E P v c 6 b %.1.l.W.^.!.~.9.7.l.l.7.1.7.9.~.>X>X;XOX8.+.N M x k z z x z Y ( d.d.h.G.G.} C 4 ; 4 w x <.Z.&X%X%X/.V.M.V.M.9.5.5.y..XXXXX+X3XmXmX&X&X&X'.8.k.l.l.j.@.@.&.0.8.,.,.w.E. X X+X2X1XAXGXGXGXHXAXFXZX<XOXQ.m.:.B P L L E d.S.G.S.G.a.I z w w x F T ^ T D t C F J ! ! G s a 9 u u u u u u , $ $ @ - - ; q F d.Y.0XU.U.U.P.P.B.s.1.1.+.U N N U <.<.:.2.2.s.B.oX@XP.#X#XyXfXxXfX-XW.#XW.l.M.k.k.8.o.:.N.N.0.E.;XOXV.L.0X0X0XeXiXP.:.k.Z.#X#X/.N.l.M.>.5.>.O.%.8.k.p.z.K.).J.<.L i.@X$XP.k.3.k.>.@.l.l.M.W.(.-XaXbXcXvXvXfXpX%XoXZ.m.V.k.1.>.>.,.R.=X:X=X~.e.6.5.5.6.8.e.e.8.N.%X%X].L.{ K D y > - - @ q a a s 9 : 9 p p s H ! H H T E R #.#.i.z.P.U.J.p.<.i.p.B.U.tXiX0X0X0XiXjXjXSXuX#XE.R.R.XX6XzXAXAX5X5X5X1X=X XOXE.8.8.l.V.V.V./.k.$.+.+.<.k.P./.V.Z.OX;XOX!. Xe.8.>.>.1.7.j.k.<.z.U.U.G.T l > # % % $ % Q W ) W Q 1 X o = < H z z x P p.Z.W.M.0.9.6.O.O.6.9.6.9.R.*X*X*XQ.M.k.P v c M *.h.Y.Y.U.@X).K.S.J.U.U.Y.G.S.D.D.g.} / E P P L N %.@.7.8.8.8.7.>.@.@.>.W.l.7.l.(.;XOXQ.oXOX&X&X|.N.A.A.eXeX0XH.Z ; = ; 2 Y Y.U.[.].m.<.U <.s.B.P.L.v.a.a.a.` ' n I ' ' n.n.L.].eXhXdXiX",
"<.#.+.+.:.>.1.7.M.M.M.V././.B.i.r 1 - - - - e G D.I.I.h.L h 6 6 o.M.;XaXOXk.3.8.1.>.8.m.8.:.3.N.Q.Q.k.+.M M L S Y Y Y F z w 2 2 2 w F i.B.P././.z.k.1.+.N k c c c N @.k.W.!.(.`.!.l.8.l.l.7.1.7.9.~.*X*X*XQ.8.B M k k j z F Y T *.f.S.S.L.U.G.} r 4 ; 4 3 l R B.oX%X%XoXV.l.l.M.l.9.9.R. X.XE.r.q.A.'.&X,X,X+XN.M.M.M.l.9.8.7.0.1.1.3.k.N.V.N.N.;X=X;X1XzXHXKXPXGXHXZXsX%XoXZ.m.<.U N L #.h.Y.I.eXI.g.I x x F T ` { T m z F } n.| ! f e 9 9 9 , u u u u u % $ + X - ; 2 z T g.L.L.L.U.U.P.K.B.s.s.3.<.+.U B B B :.<.s.s.v.Z.P.C.oXoX#XyXgXxXfXyX-XV.l.m.s.k.s.U +.Z.N.8.E.;XOXV.f.I.0X0XkXkX$Xs.<.B.#X%XOXW.9.0.>.>.+.+.1.k.s.1.z.U.).h.n k 2.@X@XP.m.k.l.7.@.8.7.8.R.OXaXxXvXDXfXpX%XoX/.Z.B.k.8.>.o.+.>.6.R. X;X*XE.9.5.5.5.6.e.M.M.m.Z.%X$XB.T m y q > - - : : e e e p 9 < p d f G ^ } d.d.S.p.p.<.#.1.B.P.).p.R P R p.P.rXkXkXkXjXjXjXkX@XZ.k.l.W.!.*X>X5X5XAX5X2X1X1X=X XE.>.>.8.V.Q.Q.V.V.j.1.1.p.s.s.s.B.P.oX&X+XOX|. X=XQ.M.1.>.1.7.3.1.1.k.K.U.h.Y l 4 , $ $ $ , d W ) ) Q 5 1 X X 1 A C Z Z L <.V.N.e.R.9.6.6.5.5.5.0.9.R.!.*X*X(.V.k.P v k v E i.S.J.).tXdXdXtXwXY.h.h./ F Z Z Y / / R R E L v N +.1.7.8.l.8.7.>.@.@.R.T.l.l.!.-XOXQ.Q.N.Q.&X%X&X&X$X0X0X0X| r = = ; 2 Y Y.[.@X&XZ.3.1.2.s.B.b.a.` I I ' ' g.a.n.n.C.L.].$X$X$XiXdXdX",
"s.s.8.8.8.8.0.9.l.M.M.V././.k.R r < - - - - : y J [ { x 4 ; 3 b N.OXaX;XN.>.>.8.+.1.m.V.8.:.k.OXOXQ.1.N v L Y Y ^ / / / T F n x 2 w F ` i.<.+.+.3.k.V.k.+.b b b N +.k.W.(.(.(.`.!.T.9.M.l.j.1.7.9.R.!.*XOXW.1.V k k k j Z I d.h.F.Y.U.U.@XU.g.Y 2 ; 4 4 3 h L s.].%XpX&XV.k.k.l.l.R.E.E.~. Xy.,.m m ] A.,X,X<X%X|.E.M.e.e.e.8.8.1.2.2.3.3.k.k.M.Q.(.OX;XaXxXDXFXGXGXGXDXZXpX%X%XoXZ.2.U U <.h.J.I.Y.a.I n L ` g.Y.G.{ z w n } H. .! s 9 9 9 , : , 0 u i u u $ @ X - ; > q C ` g.G.L.P.U.P.P.K.B.V.B.s.<.U P P P U <.2.a.s.B.B.B.P.P.P.#XuXfXxXxX#XZ.k.k.2.2.s.U :.Z.N.6.E.;X#XK.R S.I.0X0XeX%XoXk.P.#X;X_.M.0.5.@.O.o.>.k.k.s.p.K.wXU.E 3 3 ` [.[.P.B.B.V.7.@.7.9.M.Q.-XaXcXcXcXyXOXQ.N.N.m.k.3.>.N b N o.8.Q.OX*X!.E.9.5.5.5.6.M.M.N.V.oX$XL.2.w q > - - X - : s G a < e e p ~ ~ G H Y ^ d.h.J.K.l.j.1.k.Z./.).k.U M M U <.h.L.b.b.G.b.b.s.2.1.1.M.OX1XcXcXcXzXzX1X2X=XXX!.e.6.>.8.V.Q.V.k.1.<.p.p.s.B.K.K.K.P.$XrX%XoXN.E.OX;XQ.V.1.+.>.8.7.%.1.k.V.B.p.L h 2 < - X - < p ~  .) ~ d 5 = o = 4 C Z Z L #.k.M.M.~.0.0.u.9.;.@.5.9.u.W.*X-X-XQ.V.1.P v v v L *.f.z.).dXjXdXwXh./ L l 4 ; 4 l Y ^ R E P M v b N +.1.8.l.M.9.5.@.O.0.R.R.9.R.(.*XQ.8.:.1.oXpXpX%X$XeXqXH.D > - - = ; H G.[.$X%XZ.w.3.1.<.<.2.2.` ` ` { n.b.L.L.{.].[.iXhXdXiXiXpXiX",
"V.M.m.k.8.0.7.5.5.0.l.N.Q.Z.k.U r > - : - - : > y s D q = ; x s.%X<X<XOXw.>.:.1.:.1.k.M.8.1.N.;XQ.k.:.V M L E E Y *.S.S.S.a.` I j x L U L b b b +.k./.^.j.%.P P 1.k.W.OX-X*X(.!.`.R.l.M.V.j.1.7.9.R.(.OX(.V.<.M M M x x L R g.Y.F.Y.9X9XU.h.U z 3 r C Z l h x R P.%XhX%XZ.k.k.l.7.M.E.M.E.XX Xw.j 8 q I A.].&X,X%X+XQ.M.w.8.w.w.m.v.s.1.<.3.k.W.8.V._.;XyXyXyX;XGXGXKXGXFXZXsXfXgXpXoXm.<.<.<.a.g.i.R L L I a.G.eXY.` h 3 z { G.} ! f e 9 9 , , : , 0 u u u 0 # @ ; > > 2 t T } G.J.J.J.J.B.K.P.@XP.B.p.<.<.<.<.N P <.<.a.s.b.B.P.K.K.P.@XrXuXfX#XV.z.s.<.2.s._ _ Z.m.>.E.;X#XV.L { D.H.I.[.$X%X#X#XyX#XW.k.7.7.O.O.@.8.l.8.k.K.wXwXS.l = 2 { 0XwX[.B.V.K.j.$.l.W.W.!.OX-X-X#XOX#X/.M.k.8.8.3.:.+.N b b N 8.(.:X!.E.M.9.6.5.6.0.8.m.N./.%X@Xs.n 3 2 > - = X - e ! ! d e p d G ( H A C Z L L E $.^.W.l.l.W././.Z.V.#.v k k k k k j h h h h M <.k./.%XaXxXAXzXzXxX1X=X*X!.E.e.0.5.W.W.V.k.3.:.U R z.h.B.J.P.[.$XrXiX%XoXw.8.Q.OX|.m.m.3.o.@.k.k.>.7.k.V.x.$.N c 3 4 ; - > 2 < G D.( ( ) d ; = = ; C Z Z x U k.M.R.E.u.u.y.u.5.O.5.0.9.M.!.;X;X_.W.V.p.%.v c h L #.<.s.P.@XwXK.i.E l 3 ; ; 3 l F Y Y E P v c v P +.1.k.M.R.l.0.5.O.O.T.R.9.9.Q.OXOX+.k b s.@X$X].[.iXqX .e - ; > - ; Z g.U.$XOXN.6.8.1.:.U _ 2.n.b.G.G.G.G.L.L.].[.$XdXBXBXjXdXrX@X",
"P.P./.Z.V.l.l.8.7.l.M.W./.Z.1.L r > - - : : 0 8 y s s q 2 3 R J.pX;XOXQ.8.1.>.#.k.3.8.k.k.M.Q.OX3.>.U N L P E ^ ^ d.H.Y.G.b.a.` { ` R M h 6 6 c b %.k.V.c.$.#.#.j.V.(.-X-X-X`.!.`.R.l.R.x.k.1.7.l.~.(.(.(.V.<.M I M n x x L i.h.F.F.Y.z.p.U L I d.d.D./ Z h v R Z.%XpX%X/.V.l.l.7.l.T.9.R.=X=X|.' q X > n ` s.P.rXpX;X&X'.A.A.A.C.C.B.s.1.1.k.l.7.k.l.l.W.OXyXfXZXAXHXGXGXGXDXZXpXpXpX%XoXC.m.v.b.g.i.R R R i.i.U.b.I h h I h.Y.( ^ ~ s e > < 9 9 9 u u a u 0 , @ ; 2 2 2 y F { G.G.b.h.a.s.B.P.@X/.K.B.B.s.s.s.P U _ 2.2.a.a.v.C.C.L.K.P./.@X#X).B.z.s.<.<.s.` ` B.m.1.W.;X#XB.h H  .I.7XI.P.@XtXyX-XoXV.8.5.5.O.O.>.8.k.7.V.wXtXU.R 4 = w a.eXeX@XJ.V.^.l.7.W.W.W.W.Q./.OXOX/.Q.N.8.8.8.,.>.o.o.+.@.>.1.N.#XuXW.E.M.9.9.9.9.9.>.k.Z.$X@XK.U w 2 2 2 ; - ; e s ! ! f p s f G ( ! H Z L L S P %.W.W.(.(.-X-X/.k.k.+.V M M k k k k n L U <.s.B./.pXsXxXZXxXaX1X1X=X XE.M.l.l.l.l.l.k.1.+.<.<.s.s.b.B.J.L.P.@XeXrX].v.B V 3.|.oXm.3.k.s.>.+.7.9.0.5.l.W.l.1.N c 6 3 2 w l 3 2 A D. .D. .) p < > 4 A C Z x P k.W.E.e.y.~.u.0.0.5.O.5.5.9.!.*X-X#X/._.V.$.v c c L i.z.s.<.<.i.<.R R x l 3 3 6 Z Y ^ / E L v x v M P 1.j.l.l.9.9.5.5.O.9.R.9.7.E.OXOX3.b h n 2.h.J.[.qX0X[ > - < < ; 4 C { B./.E.e.t.E.N.k.8.s.s.s.a.b.G.L.{.[.$XrXiXrXhXgXgXgXgX%XZ.",
"P.).).oX_././.Q.W././././.B.<.M w 2 ; - 8 8 9 0 8 a g t z T S.wX<X+XE.M.8.8.1.+.V.k.1.8.V.Q.Q.N.o.B B N L S Y ^ D.Y.Y.Y.Y.L.L.b.I.G.<.M h 6 6 6 6 b @.k.k.j.j.k.k.V.(.-X:X:X*X*X!.T.l.l.x.j.1.7.l.W.(.OX_.Z.1.N I I n x h x L *.F.F.f.#.N N p.U.jXkX9XD.Z x L <.m.oX<X<X+XQ.V.k.l.l.l.0.M.OX=X%XI.G X X ; w F ` K.$XhXgXpX&X'.'.'.'.C.Z.m.1.>.@.7.7.7.8.k.Z.#X;X+X=XsXAXGXGXGXGXNXNXNXNXsX%X'.C.B.h.i.` ` i.` ` J.h.R M L i.b.Y.( [ ( G p < 9 e f d d f f a u 0 @ ; 2 q 2 w x F g.b.h.a.` <.s.L.B.P.oX@X@XK.B.s.2.<.<.<.a.2.` ` v.b.J.L.J.K.U.@XU.B.z.s.<.2.a.` <.B.B.1.W.;X/.h.; r ( 7XeX0XP.K.).oX#X/.V.8.@.O.O.@.7.8.k.k.P.tXwXf.h = = w g.eXeX[.K.K./.W.l.^.(.Q.W.W.Q.Q.Q.W.M.8.8.>.,.;.o.V +.8.N.Q.OX-X-XOXM.l.l.9.9.9.0.e.>.m.oX@XP.s.x 3 4 3 2 ; ; r G ! ! ! G p d s s H H Z S E #.%.#.$.T.^.-XuXuX-X^.7.1.+.+.<.<.U U U <.s.B.B.P.$XyXfXgXgXxXxXxX1XOX XN.M.l.8.9.l.W.W.1.@.+.1.s.v.B.B.b.L.[.0XeXeX{.]._ j 2 h 3.&XoXk.s.s.k.3.>.@.5.0.9.u.T.l.@.N b c c x L I Z h F d.S.Y.H. .) G d r C C Z Z U k.Q.!.0.~.~.u.9.u.9.O.5.5.9.R.!.*X#X_.#XZ.p.+.M M #.z.).s.N k c k x L R Y S Z Z Y ( D.f.*.L S x v v v $.1.j.9.9.9.0.0.O.5.9.6.5.l.Q./.Z.+.h 2 4 j { H.H. .D > - < < > 2 l I s.Z.E.e.6.y.E.Q././.Z.b.a.b.L.[.rXiXrXrX%X%XrX%X%XpXpX%X/.",
"i.p.B.K.).@X#X#X_.#X#X/.P.z.R x w 4 > > e g g 9 8 8 e s ^ D.0XtX%X|.e.8.>.1.3.3.V.k.3.k./.OXN.>.B V N N v l S / Y.7XtX7XwXiXiXrXeXI.p.U v b b b b O.7.l.l.k.x.^.V./.-X-X:X-X*X*X^.l.0.l.x.j.1.7.l.W.(.OXOXZ.2.I U I L x j x L *.f.-.=.%.N U J.kXnXlXkXY.^ L E <.q.'.+X%X%X/.V.7.l.l.0.9.R.!.*XrXqX .< X = ; 3 l I a.P.rXiXiX$X$X&X'.N.A.A.8.7.5.7.8.l.M.l.k.k.m.Q.|.+X<XsXZXHXGXGXGXDXSXZXsX+XoXB.a.` R i.a.a.<.b.J.B.s.<.<.s.h.D.D.} ~ s p a a f f f ~ X.~ f u - > q q q y t x { g.h.a.` R a.b.s.k.Z.P.@XP.K.B.B.a.2.a.s.2._ U i.a.n.b.h.h.J.U.J.h.h.h.i.i.a.` ` B.B.7.Q.yX/.i.= ; s D.0X0X[.@X/././.Z.l.1.@.o.@.7.8.8.k.Z./.).U.E 4 = ; w | eXwX@XP.).#X^.T._.(.(.Q.Q.V.M.k.8.5.>.>.>.o.o.o.>.1.k.Q.OXyXaXOXl.8.8.8.9.9.9.e.e.k.P.#X@XB.L h h 2 3 3 2 4 C ^ } [ [ G a s d e C C l Z E #.$.j.l.~.`.:XbXuX-XW.7.1.1.p.s.s.s.b.J.K.K.P./.#XpXvXDXxXxXfXaXpX;X|.N.k.k.k.8.7.7.j.j.7.7.k.z.B.B.C.L.I.0XeX0X{.L.a.] w ; ; j m.$X/.m.z.p.p.k.8.@.@.5.R.R.u.5.O.O.b b P <.h.s.<.E Y E S.Y.H.D.} ( ~ s A A F L R k.Q. Xy.E.~.~.u.0.5.O.5.5.9.9.W.!.OX#X#X^.z.j.p.p.s.B.P.<.k 6 6 h c x R i.d.d.d.d.S.Y.S.i.Y S S S v k %.+.7.7.9.9.0.0.5.t.t.5.6.8.l.Z.P.B.L 2 = ; Z { [ F y > > e p e e r L 2.Q.E.y.0.0.9.M.Q.oX@X[.P.L.[.eXeX@XZ.v.2.C.Q.+X%X%X%X+XZ.",
"C F ^ g.Y.U.U.).).@X@XU.J.h.R x w q 2 q t g g 8 y 8 y D | Y.tXtX+XE.M.,.>.>.7.k.l.k.8.V.OXOXM.o.B N N L k h z ^ d.U.wXtXkXBXDXjXeXU.B.i.#.+.%.N O.7.W.W.k.k.x./.(._.-X:X-X*X(.!.~.9.0.l.l.7.7.7.9.W.(.OXoXZ.2.B _ ` U L x v P *.=.=.$.$.<.1.J.tXkXkXkX7XS./ E U 3.A.|.+X%XOXV.1.j.7.7.l.W.E.OXyXqX .d 1 ; ; ; ; w z I n.].iXiXiX,X|.r.q.w.e.E.Q.7.0.8.k.8.3.k.m.M.N.|.|. X<XZXGXPXGXDXZXZXZXsXsX$XJ.i.<.p.h.s.<.<.B.P.B.s.<.s.h.0X8X .^ G G f f f f ~ .. ...~ f : q y t y y t t T } b.h.i.R <.s.<.<.2.k.B.P.$X#XB.2.<.2.v.2._ _ ` i.a.a.i.i.h.J.J.s.h.h.i.i.a.` ` C.B.3.Q.yXK.<.; = ; ! H.0XwXtXtX#X/.M.7.@.@.@.7.8.k.8.M./.).K.J.Z = = 2 w { eX[.[.U.@XuX_.W.(.W.V.N.N.N.N.k.1.1.>.>.o.o.o.,.8.M.M.M.W.;XyX/.>.7.7.8.0.9.9.e.e.V.@XrX@Xi.x h l 3 w 3 3 3 F / }  . .~ s s r 4 r C x Z E $.j.l.W.(.-XbX6X>X(.W.7.1.8.m.Z.P.P.%XdX%X%XyXdXgXvXvXvXDXgX%X&XoXoXN.N.k.z.k.k.7.@.O.O.l.W././.V.K.].eX0XeXqXI.n.' z q : - 2 I ].$XQ.V.z.<.#.k.M.>.O.5.R.R.9.O.O.b b N p.z.K.K.B.s.#.v f.h.S.d.} } ) s A H Y L #.k.E.!.!.y.~.`.~.0.5.5.5.5.0.9.M.Q.OX-X#X/.Z.V.V.k.z.V.k.B h h k k v L L p.U.9X7XY.Y.U.S.*.L Z L E L v N %.1.8.9.9.0.0.0.t.O.5.8.>.3.V.K.@XJ.z = ; l F D t q e e e a s r l L s.Z. XE.y.R.e.8.k.B.].wXeX[.0X[.L.h.2.U N +.m.+X<X;X%XQ.m.",
", < p s ! [ D.D.I.Y.L.L.P.B.R F r e > > s J D q q w w I B.rXtX#X/.V.8.>.+.+.7.M.M.l.M.Q._.W.1.N U I L x l l x L a.J.U.tXBXJXJXkXb.B.K.P.B.>.1.M.E.=X;X!.k.8.V.W.-X-XaXuXW.l.!.!.R.9.9.9.9.5.;.5.9.Q.OXOX(.Q.k.1.+.U P U P P U #.7.5.7.3.:.P ` h.G.H.I.I.G.{ L k B ;.A.|.OX/.V.z.p.j.x.V.M.M.Q.yXkXY.H 4 ; > : X @ > y m ' }.$X$X,X3X3X.Xr.6.w.M.Q.m.>.:.<.s.b.v.3.3.A.|.<XsX<X+XsXFXIXIXGXAX1X<XpXyX@XK.B.B.k.1.+.k./.oXV.1.:.R G.I.7XD.| | [ J D G G .. . .X.g - 2 y t D D t q F K i.b.b.<.:.<.V b V ,.N.oXQ.N./.N.m.m.3.:._ 4.B +.<.1.1.p.p.s.z.J.B.s.<.2.2.` I b.C.m.Q.OX/.z.2 = o r { Y.rXdXtX).K.k.1.$.@.@.V.k.3.k./.tXP.p.E l ; ; 3 x h.rX@XU.@X#X%X#X/.Q.oXA.3.3.m.C.B.s.<.B V U 3.M.M.8.M.e.M.Q.;XyXQ.1.k.>.>.>.6.6.6.E.yXrX@XB.L h l H 4 3 3 l x L #.i.S.D.D.} Y H F F S L L N #.x._.^.-X>X6X>X`.R.0.>.8.V./.oX&XyXgXSXgXgXvXFXFXFXfX+XpXpXyXoXk.:.:.<.J.h.<.U B o.O.5.5.R.!.(.#XdXrXU.0XqX8X .s : @ @ . - n C.%X+XQ.N.Z.<.B 3.N.,.;.e.!.~.M.>.b c N %.S.Y.Y.Y.K.K.1.b $.p.i./ { ^ C s f ! { R R k.E.!.`.y.y.`.!.9.5.9.7.7.5.8.M.Q.OX-X(.(.W.W.W.(.(.Q.8.B k k b V P +.p.J.@XtXdXtXwXwXG.T Y Y l Z I h x P 1.7.7.5.0.0.9.O.O.5.l.1.<.s.s.@XwXd.l 4 4 2 > > q s s r q 2 r l x R B./.oX/.Q.oX@XK.L.{.qXqXqXI.n.| H w 4 3 k 2.%XyX+XQ.N.N.",
"# $ , u d f G H | } i.a.p.2.I x a e < > s G D r w h x <.P.dXyX#XZ.z.j.1.@.+.8.N.8.M.!.(.(.l.@.N Y Y F C z x L R a.b.L.U.wXrXwXL.` v.@XrXoXN.Q.OXaXcX;XE.8.9.N.Q.-X-XuX-Xl.l.W.W.R.9.9.9.9.t.;.5.e.E. X X(.Q.k.>.1.+.+.%.N N +.1.0.6.8.8.:.N I { d.g.n.S.g.{ R I o.,.E.OX#X/.K.z.p.c.x.V.k.k.Q.;XdXU.R r 2 > : + # : : 8 g ' n.A.&X.X3X3X.XN.A.A.8.A.Z.B.2.<.` <.4.q.N.N.N.N.OX<XaXzXDXGXIXIXGXFXfXfXyX#X#X#X/.B.3.1.k.Z.oX/.k.U ` g.G.H.H.H.H.| [ [ [  .H.H.[ D q z F D D F D t D F ` s.b.s.2.s.:.B V B 8.N.Q.Q.OXQ.N.A.q.q.4.:.+.@.1.1.1.<.p.p.h.B.B.p.<.<.<.` I b.B.8.Q.-X/.V.v 3 ; 2 Y G.wXdXwX).x.j.1.1.1.1.l.k.k.k./.@XP.f.Z 3 ; ; 3 x z.tXtX@X/.oXoXZ.V.Z.q.q.v.v.v.v.a.2.` U U <.8.k.8.8.M.e.Q.=X;XQ.M.k.1.>.1.8.8.6.6.E.<XpX[.<.z l Z C r r 6 z P #.1.1.Y.7XY.d./ { d.i.R R P N +.l.(._.>X6XbX>X!.9.5.>.8.Q.aXsXfXfXfXaXZXSXDXSXsXaXyXpX%X#XP.V.m.s.v.v.{ { ` :.>.5.9.R.~.*XOX/./.rXwXY.D. .! a : @ + @ @ > T P.rXOXM.9.k.p.+.1.m.8.6.e.|.E.e.o.b 6 b P D.H.Y.S.z.j.$.N +.1.#.P I C 4 e s ! [ R <.k.!. X~.~.~.~.~.R.9.6.9.7.>.>.8.M.(.-X(.(.~.W.~.^.W.W.Q.3.V V B +.<.s.s.p.J.wXdXdXtXwXG./ T F w z L x v P #.7.9.9.9.9.5.>.;.>.7.7.3.p.z.U.7Xd.Z r 3 4 2 e t C C r w w z z z I h.U.@X@X#XrXiXeX[.I.H. ...! f q ; ; 3 S <.P.pXyXoXZ.m.m.",
"# $ # , , < 9 e t C Z L L L n x t e e q e s z t w x ` B.rXdXyX/.k.j.7.1.@.@.8.N.8.Q.*X-XW.7.O.v Y H Z x x L R 2.a.h.B.h.i.i.R E n s.rXjXgX;XaXSXFXxX*X9.8.l.W.Q.uX-X-X(.9.8.R.E.E.9.9.0.0.t.;.5.9.R.!. X!.Q.l.1.1.>.+.+.N N #.j.M.M.V.m.:.M n I T T T I I E R +.;.6.|.=X;X#XK.z.f.j.z.V.k.8.N.%XdX@Xd.Z e > : @ @ # @ @ : t K ] q.A.&X+X,X+X|.Z.8.N./.P.m.2._ :.4.3.m.3.:.>.A.|.OX+X;XzXFXGXIXIXFXDXgXfXfXgXuX#XZ.1.+.k.#XuXP.<.k M ` a.L.I.L.g.{ { g.I.[.H.[ T J T [ [ T [ ' J x m I a.b.B.m.m.m.>.B B >.k.M.M.Q.OX/.Z.A.C.v.:.1.1.1.1.#.#.p.p.p.h.b.p.<.2.:.U I B.m.8.W.-X(.^.z./ l 3 Z h.wXtX).K.z.1.$.1.7.7.k.k.k.V./.@XU.J.x 3 ; ; 3 M z.tXtX/.Z.Z.V.m.m.m.3.q.v.v.a.2.` ` <.<.1.3.7.7.8.9.M.M.OX1XOX1.1.V.@.1.l.E.M.e.e.E.;XrXB.x w Z Z l l l l S #.j.p.#.U.tXwXh.i.a.B.b.s.2.<.+.1.W.OX-X:XbX6X*XT.5.5.0.E.:XSXDXZXsXsXaXDXDXZXsX;X+X%X;XN.m.3.3.m.m.m.s.I R <.1.3.M.E.!.*X;X;XOXP.[.L.n.H p - .   . @ @ : t | @XrXOXe.6.1.z.j.1.8.e.w.e.E.N.8.N c 6 c S / d.D.d.#.#.#.+.$.p.#.L F r ; ; s ! ( R <.V.(.*Xu.~.~.y.~.~.R.0.l.7.>.o.@.8.W.OX(.(.^.~.W.W.R.l.#XQ.k.k.k.m.B.P.s.<.<.J.tXdXtX0XG.} / F 3 3 x x L P +.1.l.T.T.9.5.7.5.o.+.3.k.p.z.J.L.h.^ Z l r y t D H D r w w C z x Y g.I.eXeXrXrXeXI.H.| J s e 8 : X o = l i.@XpXhX%XZ.m.8.3.",
", , , , < : < > ; 2 r r l z z C r s s y e q y w j I h.$XdXdX%XZ.j.p.$.1.1.1.7.M.W.(.-X_.l.@.N v Y A Z Z F T i.a.a.h.h.<.v h l x n s.pXDXFXDXGXKXFXcXE.5.5.N.OX-XuX-X(.W.5.7.R.W.E.9.0.9.9.;.O.t.0.R.`.`.!.E.9.1.7.1.#.+.N v #.z.Q./.oXV.<.M n L x x x z k M R <.w.E.+X<X;X/.x.j.j.f.j.k.k.8.N./.tXwXJ.T t 8 : @ . + @ - : 8 y w V ] q.'.$X%X&X&X&XZ.m.m.C.C.m.s.2.<.:.:.1.3.3.3.m.Q.OX=X+X<XDXKXPXKXFXSXSXSXgXyX#Xm.+.3./.yX#XV.U I M I <.a.i.` U ` b.[.{.n.{ a.G.n.| | |  .| [ t z F ` b.B.B.m.k.3.>.>.>.7.7.7.V.OX%XQ.Z.].C.3.k.8.3.1.<.<.i.p.p.h.h.s.<.<.:.U P z.k.7.R.>X-X(.tXU.d.F R J.wX@XU.B.p.#.$.1.j.k.3.k.Z.P.).@XwX@Xi.x 3 3 x U z.@X@XP.V.m.m.8.8.8.m.q.q.4._ _ <.a.s.s.1.3.7.l.R.R.R.E.;X;XN.+.@.l.7.k.W.W.M.M.E.=X%XP.#.h h z Z r Z Z S E f.z.j.+.K.rXtXP.s.b.B.v.v.v.3.m.Q.OX:XaX:X>X`.R.9.0.e.E.zXDXFXSXzXxXZXHXDXxX1X1XaX<XoXN.3.3.3.3.m.3.:.V U ` s.s.k.M.E.Q.OX;X#X/.K.b.{ H > - .     . # , e F b.$X;XOXy.9.3.z.z.k.M.M.8.M.E.M.8.o.b 6 6 c l Y ^ Y S v +.p.p.k.p.R Y r ; : A ! / R <.V.(.*Xy.y.y.~.~.!.R.M.9.8.>.o.+.7.M.Q.W.W.W.W.W.R.l.l.OX#XyXyX%X$X$X@XB.<.L 2.J.P.J.J.g.g.d.Y 3 2 l Z L v P +.k.M.R.l.9.7.@.O.%.1.j.k.z.z.z.Y.h.R z l r C H T D y w w F C D T g.I.0XeXL.b.{ T D s y 8 8 8 : - ; 3 Y h.yXpXrX&XZ.m.3.3.",
"< < < < < < e e ; > 2 4 2 3 r C t s D C r q w h n i.P.rXdXyX/.m.k.$.$.1.k.k.8.k.#XOX/.V.7.+.N v Y H Z F Y R i.i.h.b.f.R c 3 6 x M a.%XSXKXKXIXIXcX X5.@.0.Q.-XyX;X(.W.l.@.7.E.!.E.9.6.6.6.;.O.5.0.~.`.`.!.!.l.7.7.1.1.#.E E f.P.rX%X$XB.<.L L L x x x x v P 3.N.OX=X1XaX;X/.k.1.z.p.1.7.k.m.M.V.#XeX[.a.D y 8 , + @ @ - : : > > q w m ' v.].$XrXpX&XB.m.m.C.m.v.s.2.<.<.2.2.3.3.8.N./.Q.Q.oXpXZXKXKXGXGXFXDXxX%X%X/.m.3.k.Z.%XfX$Xm.B b b V B B <.v.@XiX$XC.B.[.kX0XH.H.H.H. .[ t z m I a.B.B.k.8.m.M.8.>.@.@.>.k.OX;XoXZ.oXoXB.k.k.s.1.p.p.p.p.p.h.h.i.i.2.<.U U z.l.5.~.-X-X_.tXtXU.S.Y.@XwX).K.z.<.+.$.3.8.3.1.V./.oX@XwXiXiXU.<.x M <.s.J.P./.Z.V.Z.Z.N.m.w.q.4.] I _ ` s.v.s.s.3.k.M.!.!.!.E.=X>XE.8.7.7.7.l.M.M.l.9.E.OX:X/.<.x x x z l l Z Y / i.f.z.1.+.m.rXgXrXoX].Z.v.q.m.Z.&X<XaXsXsX*X!.e.0.9.E.OX;XZXFXFXDXxXZXDXFXxX1X=X+X+X XM.,.,.,.,.:.:.B B M <.a.b.B.Z.Q.oXOXOX&XP.v.{ K y > @ @ . . . @ : 9 t ' L.$X%X XE.R.k.z.z.V.Z.8.,.M.Q.Q.V.k.%.c 6 3 ; 3 l z l c P p.f.B.h.d.T C 2 e G ^ { R <.V.(.!.~.0.0.~.`.R.R.!.l.8.8.>.>.>.8.l.l.R.W.W.W.T.l.9.M.%XvXDXvXpXrXrXP.<.M M U L L R { D.D.^ C 3 3 z S x v P 1.l.l.l.^.7.%.%.@.+.1.z.j.p.s.K.K.p.L x z C H J D w 4 w H F F H [  .D.g.^ F y q 8 8 > : > > > 2 w Y f.K.rX%X&XoXm.3.3.,.",
"< < < < e e p p < < 2 > > > r C C D F F z w l x <.B.#XyXyXOXV.k.c.1.$.7.l.l.l.l.yX#XV.3.$.%.P S Y H Y T R { i.a.J.h.i.U l 3 6 x U a.].dXDXKXGXDX!.9.>.5.N.OX;XyX(.W.l.7.O.>.W.OXE.9.5.0.6.O.@.5.0.y.`.`.`.!.l.7.7.3.p.s.f.f.K.wXjXdX[.a.I L L M U R <.<.1.k./.#XaXaXaX;XOXV.p.$.p.1.1.k.m.M.M.m.oX$X{.n.J s a 9 , - @ @ - - - > 8 q q j I a.L.@XoX%X%XoXm.3.4.3.s.s.s.2.<.:.s.B.m.m.m.N.oX%X;X;XzXAXHXGXKXGXZX<X;X%XoXk.1.k.#XvXSX<XN.3.:.:.3.m.&XpXjXjXdXrXrXkXjXqX8XI.8XH.| ! D D m n ` s.B.k.M.M.M.8.@.O.>.8.8.Q.OXOXQ.oXoXZ.B.B.k.s.z.h.h.h.h.h.h.i.a.s.2.:.U x.l.0.~.>X-X_._.wXwX0XwXeX@XP.B.s.+.U <.3.3.1.8.V.@XoXU.@XiXiXrXB.<.s.J.P.P.oX/.Z.Z.oXoXN.m.w.] ] B ] 2.a.v.m.s.s.k.V.(.`.`.~.*X:X*Xe.7.M.M.7.l.l.9.8.9.E.OXOXm.N k M L z l Z Y *.i.p.f.k.3.+.k.oXfXjXhXpX%X&X'.|.%XsXZXsX<X=XE.M.0.8.E.=XaXxXcXZXFXFXFXDXxXaX=X=X XE.8.,.,.,.8.3.,.;.B B :.4.s.v.C.P.$X%X;X;X%XP.s.L w > - X . @ @ @ # : 9 e D | [.%X%X XE.E.V.z.p.k.V.1.+.M.OXOX#X/.z.E c 3 = ; 3 3 3 h v #.p.J.J.g./ D r s H ( { R 1.V.(.!.`.t.t.~.*XR.9.!.l.l.l.8.>.>.7.8.9.l.W.^.W.T.l.9.1.oXSXLXDXvXdXrX).<.x k h h h z R D.D./ ^ C w Z L x v P $.7.k.j.(.7.o.$.$.%.+.k.p.p.p.z.K.B.<.L x x F F x y w r H H G G G D s t s q > > 8 > : - : : - > z d.U.wX$XoXoXZ.m.3.>.>.",
"r r r r a a a s s a e > > < a s F F F F n x M <.B.@XpXyX#XQ.M.8.1.1.j.l.l.l.W.(.-X/.k.+.P P P P S Y / { d.i.f.h.B.i.R L S x S E i.b.P.%XfXgX;X!.5.>.5.E.OXOXOX-XW.l.9.@.b o.R.(.!.l.7.0.7.@.@.5.u.y.`.`.`.!.T.7.7.p.k.K.P.U.tXdXjXeXb.I x L U P s.B.K./.Q.Q.OX;X1X;X+X/.M.3.#.+.#.#.p.k.m.k.k.N.'.].].n.' D s a 9 , < u p < u p e q q q y n ` p.b.P.%X%X].m.q.v.2.s.s.s.s.<.1.2.k.s.k.m.Z./.oXoX X2XZXAXHXGXHXZXsXfX%XN.8.k.Z.#XgXfXgXgXpX%XyXgXDXJXJXjXdXdXiXeX0X0XH.I.H. .[ ! J H C z L a.B.V.V.M.l.7.1.1.7.l.7.k.V./.OXoXoX/.V.B.B.B.J.L.J.J.J.B.h.i.a.s.s.<.+.V.M.0.~.>X*X^.K.L.7XtXeX[.L.C.s.<.U U 1.3.8.1.k.Z./.P.B.L.[.eXrXP.B.P.@XP.P.oXoXZ.Z.Q.Z.m.>.:.V ] _ 2.a.v.B.C.m.m.M.V.W.~.!.!.>X=XE.0.7.M.M.9.l.l.8.l.Q.*XOXW.<.N v L E L L E *.i.p.*.k.V.k.+.@.k.OXfXjXjXBXDXBXgXNXZXgX%XQ.N.e.e.M.E.=XaXAXDXzXxXZXAXxXcX:X XE.E.N.6.;.;.,.,.,.,.4.;.;.:.3.v.B.C.P.@XrXrX%X].m.<.n w > - @ @ @ + @ # , u a s J G.eXrXOX!.y.9.V.z.#.P +.<.1.k./.oX%XrX@Xz.#.S 3 4 3 3 6 6 x U f.K.Y.h.| H s H H ^ { R p.Z.(.!.!.5.t.R.!.R.R.!.M.M.M.8.>.@.>.7.l.W.!.(.!.R.l.9.>.Q.aXSXFXDXjXyXP.U c c k h h x T D.d.( } Y l Z L Z v v +.$.7.j.l.j.c.j.$.%.o.$.1.3.1.1.k.K.k.#.x x x x z w w r H G C s e e > : e > : 9 e > , > > > > w I L.tXrX@X'.Z.C.m.3.4.3.",
"A C C C C C C C H A a < < e s C I L n L M M R B.oXyXfXyX(.N.l.8.@.7.l.x.l.l.W.-X_.Z.7.+.N b N P Z Y } d.d.a.h.B.f.R L L P E *.p.b.L.@X$X#X|.8.o.O.;.9.OX;XOX(.(.M.9.8.@.b N l.!.!.l.7.0.7.@.@.5.u.y.`.`.`.!.T.7.7.j.z.).tXtXkXjXiX[.` j j I <.<.B./.#X#X/.W.Q.(.OXOXQ.k.>.+.B P P +.k.V.k.8.8.N.C.].].n.' K D s < < d ~ ) ~ G G a a e 2 > 2 l n p.s.B.oX,X,X&XC.s.<.<.s.K.B.<.k +.1.k.s.:.:.8.N..X3X2X1XzXAXGXKXDXZX<XoXN.m.3.1./.;XDXKXKXJXJXKXKXIXJXdXrXiXeXb.D. .D.H.D.| [ [ [ T C w x <.K./.V.l.l.l.l.l.8.1.8.1.8.W.#X#X/./.B.J.B.J.U.U.K.L.L.J.h.i.s.s.s.2.+.V.W.9.~.*X*XW.s.f.H.qXqX}.n.C.<.U N U 1.8.8.8.k.Z./.B.h.b.L.[.rX@X@X$XoXC.B.P.oXZ.V.N.m.>.B V 4.q.v.v.2.a.B.P.P.P.V.k.7.l.!.*X:XQ.8.5.5.7.9.T.l.l.l.W.-XuXOXk.P U P L L R *.#.f.p.#.#.k./.V.+.N N k.%XjXBXDXKXKXKXDXSXpXZ.3.,.,.e.|.=X1XzXAXFXFXAX1X=X=X:X=X XE.6.,.,.w.e.8.,.;.:.4.,.3.3.3.3.].[.@XrXiX$XC.2.m w q 2 > > , 9 # @ . @ 9 d G G T L.iXdX+XE.0.5.z.z.E 6 b <.s.k.B.P.#XyXdXwXK.f.Y Z l l h h x P h.U.I.G.| H D T F R ` R p.Z.OXOXE.9.5.9.R.~.R.R.M.N.M.8.@.o.@.7.T.W.*X*X!.W.l.9.7.N.OXaXDXLXDXyXB.N h k M x h x R S.} / D./ C H Y L S L %.$.1.j.@.c.^.c.%.%.%.o.1.j.1.+.3.Z.Z.1.M k k x z z r z F D s e e 9 < > 9 : - : > > 9 a a s D T a.U.tX@XoXC.C.C.m.3.3.m.",
"^ H F H Z C C H H H C s a s G H L P U N M P s.P.;X#XaX;X8.>.8.7.7.l.l.7.k.(.-XOXW.k.$.+.%.%.P S R d.S.S.f.i.h.B.p.U L P #.#.i.h.[.iXpXoXN.N.8.V O.6.E.OX;X;X#XW.l.l.5.V b N k.-X(.7.>.l.7.@.+.O.0.u.`.`.`.!.R.7.k.j.k.P.tXtXtXU.b.{ I n M ` s.B.#X#X#X#X_.(.(.OXQ.V.k.1.+.+.+.+.3.3.j.k.M.V.Q.&XC.A.2.' I F D s < e s ~ ( ( ) ~ G f s a r r l h k M :.s.Z.|.oXoXB.J.B.B.h.s.s.s.<.:.U U <.3.k.8.e.|.+X=X=X1XZXHXDXDXDXSXgX%XN.m.Z.B.Z.@XrXdXiXrXiXrXwXI.b.g.{ ` J F F G J ! [ [ J D w w k U s./._.W.l.x.V.7.@.@.k.k.k.k./.#X/.k.U E i.U.wXU.U.wXtXU.h.s.p.m.v.s.2.B.Q.M.E.*XOXV.B.g.g.H.I.}.n.' U <.U +.m.8.>.M.Q.oXB.2.B.s.a.@XP.@X@XoXZ.B.Z.P.Z.V.k.3.:.:.:.:.q.2.4.v.C.L.].P.P.P.k.%.@.T.-X:X;XM.>.0.9.5.0.R.T.5.7.OXyX^.3.1.M U i.p.h.p.p.i.p.p.<.#.k./.M.+.b b N #.z.K.@XrXdX@XC.B.s.<.1.3.+X;XaXZXZXSXSXSXaX1X;XOX XE.e.6.8.,.,.6.6.;.;.;.,.3.w.m.m.m.Z.Z.$XeXeX@XL.a.I n 2 2 2 2 8 e a a f u # # u f G G J i.P.yXpXOXe.5.z.z.s.U v V :.k.V.m.P.tXdXwXP.P.d.d./ L x x x k i.J.[.I.g.T J T / { i.<.1.z./.OXR.5.5.5.5.O.0.!.(.l.8.N.l.+.o.7.9.l.W.(.*X(.T.7.8.7.8.V.#XuX#XP.B.<.L M L L L S E d.S.S.g.} / / ^ L Z L E %.+.$.$.c.c.c.j.$.%.N 7.j.1.@.3.M.V.k.1.P k h k n F Z r r 2 > > e e p s a p e 9 e a s D F T a.G.[.rXrX].C.m.q.m.m.C.C.",
"/ T T R Y Z z C H F C C C H H T L U +.+.+.1.V.#X;X;X:X*X9.5.5.5.0.T.l.7.l.(.-XOXM.7.%.P P E P v R { d.f.i.` R ` U P U #.<.s.B.P.rXdXpXP.3.>.o.V ;.9.!.*X;X;X/.M.M.8.>.O.V @.M.OXOX8.8.V.k.>.1.@.u.`.*X*X!.R.l.l.1.1.<.s.z.B.f.i.F n z n I a.B./.#X#X#X#XOX(.(.(.V.m.3.1.+.>.1.3.3.8.k.k.N.Q.OX+Xv.4._ n m z t t 2 2 r A ( ( ( ) ~ ~ G s r r w h 3 h k B <.m.C.].@X@XL.B.s.s.s.s.<.<.1.<.1.1.3.8.6.r.E.|..X+X=X1XZXDXFXGXFXZXaX%XB.s.` ` a.a.a.a.a.a.` T K n m m z r w r C C F F F z w w c P s.V.(.W.x.V.l.k.1.1.1.3.8.k./.#X/.k.k j L d.Y.I.wXkXtXU.B.s.s.v.s.2.<.B.Z.M.E.*XOXV.2.{ | H.}.H.' I B +.:.1.8.8.8.Q.Q.OXk.U s.B.B.P.@XP.B.m.C.P.P.Z.Z.m.<.B +.:.3.k.3.q.v.v.C.L.P.].B.p.N b @.W.-X-XV.8.8.8.9.7.9.R.l.9.W.-XyXK.1.#.L I i.h.J.J.J.z.f.z.z.1.1.s.1.B c c c v M L U i.` 2.p.<.P N s.oXfXxXDXFXFXZXaX<X X XQ.E.E.M.0.,.,.,.;.,.,.;.,.3.,.3.q.m.m.Z.&X%XrX@XP.h.R n h w 2 q q y s f G ~ W p , , p G H H F T h.oX%X;X!.N.V.B.s.<.+.+.+.:.s.m.P.).tXtXrX@XY.Y.f./ L L M k R h.[.wXY.d./ T R i.i.<.1.V./._.W.0.5.5.O.O.5.!.!.M.8.M.l.>.@.>.5.9.R.!.*X(.^.l.M.7.+.+.3.V./.@X#XB.<.U R R P L Y R { d.d.} } } { T L L P P %.+.$.j.c.k.j.$.%.%.1.3.1.@.1.k.M.k.s.<.N v x x n F w 2 2 > q e s s G f s e e a s G J [ g.L.[.[.@X].C.C.C.A.m.m.A.C.",
"L L R i.i.I F F F F F F H T ^ ` :.>.>.1.8.M./.-X;X:X*XR.e.5.O.5.9.l.l.9.R.(.OX!.8.1.+.N P P v x R R R i.i.<.U N N <.s.k.k.V.).@XdXiX$Xm.o.V V O.R.R.!.=X;XOXM.8.8.>.o.o.@.8.W./._.k.k.Z.k.>.1.7.u.`.>X*X!.R.M.l.>.+.U N N M k j j j z I a.C.@X%X;X;X-X#X#X_./.W.k.3.:.+.1.3.k.k.3.3.k.M.Q./.Q.N.4.I m j w w j z 2 2 r C ! ( ( ( ) ! H A C l l l h h h h k P 4.v.@X[.P.L.B.v.s.s.2.s.s.s.1.<.1.3.N.6.;.;.e.|. X|.<XsXSXGXGXGXDXDX%XL.2.I n n n n z j j w w w w w z w w y t z x x z l h h c V >.8.W.^./.V.k.k.8.1.+.1.3.k.V./.W.B.x w w x R g.U.tXwXU.J.p.s.s.s.<.` v.m.w.E.OX XV.I I [ | n.| ' ] B B 3.8.>.5.E.(.OX#X8.b U B.J.b.B.v.s.s.B.P.K.B.+.+.:.1.k.m.k.k.s.v.C.P.L.L.L.J.R k 3 c 1.W._.#X3.8.w.8.8.9.9.9.l.W.(.-X_.B.<.L x n I { h.J.J.B.s.K.P.s.+.B B V v v v k c h j n j j x U p.K.tXfXDXDXFXFXSXaX%XQ.OXQ.N.8.8.6.8.,.,.,.,.>.>.;.>.8.m.m.Z.Z.Z.oX$X$X@XL.a.L l 2 2 2 w y t D G G ! ! ~ p < - e s G F x L <.B.oX;XyXyX/.B.s.s.s.s.:.N U s.B.m.K.rXdXrX@X).L.h.i.R M h L i.L.[.[.J.a.` R <.<.1.s.V./.OXQ.8.>.5.O.O.5.!.W.N.M.k.8.7.>.O.@.7.l.W.(.`.!.W.l.8.+.N N +.Z.rXdX@Xz.p.#.#.#.E E Y Y Y / { } } { T L L P P +.1.@.1.j.j.1.$.+.+.+.1.1.>.1.7.k.l.k.3.<.U P L L L x x x C H J ^ ^ G G s t t s G H T } G.wXiXeX].C.C.A.m.3.4.4.m.oX",
"M P <.p.s.<.R R U U R ` i.i.i.p.k.8.8.M.E.!.OXOX*X>XE.0.9.5.O.5.0.9.9.u.~.!.!.M.8.>.B B P P P v x x x M R <.:.B 2.Z.%X#X/./.#XrXrX[.B.<.V k V 8. XE.!.;X;XQ.8.8.>.>.o.+.1.l.W././.8.k.Z.k.+.1.7.9.E.*X*X!.W.M.l.8.3.<.P m k k k I T a.b.P.$X%X;XyX;X#XOXOX/.Z.m.1.+.+.+.3.k.k.8.k.k.N./.OXQ.M.3.V m k j j j x x l l z F ^ ^ / ^ H H H C C C z x x c h 6 h k I U s.B.U.@X@X].B.m.m.m.m.3.1.:.:.3.8.,.,.,.8.M.N.N.|.+XaXZXDXFXGXGXDXjX@XB.<._ U U L n n n n K I T I I L L T I T L F F M M N o.@.1.l.(._.W.k.k.k.3.:.<.1.3.k.V.Q.P.{ x 2 2 3 Z d.Y.U.U.P.s.s.s.s.:._ s.w.w.R. X XV.P I T ' { g.n.v.;.V 8.9.@.5.E.R.OX(.k.B P i.h.h.<.v.Z.Z.m.2.<.<.U :.s.B.V.B.k.s.B.C.[.eXwXL.g.` w ; ; M z./././.3.m.m.8.8.e.9.5.T.(.yX_.B.s.R L z w w z L R <.#.+.s.m.<.V V V B U #.#.U N k k M <.<.i.K.yXvXvXDXFXSXcX<X#XOXQ.Q.W.N.8.,.>.>.1.,.>.3.8.>.>.+.>.k.Z./.$X%X$XoXP.P.a.R x w 2 2 2 w z C D G G G G G s < - - > e t z z j x U s.oXyXfXoXB.s.s.B.B.2.U V :.1.1.s.P.#XrXtXtX).K.z.i.P k x L i.B.J.B.h.i.<.p.p.1.k.Z./.#XQ.8.7.7.O.O.5.R.E.Q.M.8.8.l.7.o.5.7.0.R.^.(.!.^.9.8.8.+.N N k.#XtXtX).z.#.#.i.i.i.E n z F L T Y F x x M L P U <.+.@.1.3.1.1.1.1.+.>.1.1.1.3.k.V.k.k.k.1.+.P P U L F F F Y T T T F D C D H J ^ ^ T i.L.eXiX$XP.m.v.v.v.4.4.4.4.3.",
"U <.s.s.s.s.s.2.k.m.B.B.Z.Z.Z.V.Q.E.E.!.*X=X*X*X X*Xu.t.0.5.O.5.5.0.0.R.!.!.R.5.o.O.V N +.<.#.U L x k N <.m.m.3.oXpXgXfX%X#X#XyX@XB.<.B b k >.Q.*X!.!.*XOXM.7.1.o.o.>.>.1.8.V././.k.k.Z.k.$.1.j.k.V._.OX_./.M.3.k.m.m.s.<.:.<.s.L.L.[.rXrXyX;X;X;X-XOX(./.Z.k.p.+.+.#.3.k.k.k.8.Z.Q.OXOX+XN.>.B k k n M N M M M P U R i.d.d./ R T T Y F Z Z x x c h 6 6 h k M L I ` B.@XrXrX$XoXP.B.s.3.<.:.:.:.k >././.8.:.,.M.Q.|.=X1XzXAXFXGXKXLXDXgX%XZ.Z.Z.B.m.b.v.b.B.C.L.J.J.J.h.h.h.g.i.i.i.1.1.1.>.>.>.l.(.-X^.k.k.m.s.s.2.<.<.3.m./.@Xh.F 2 = = 2 Z { L.U.U.h.s.s.s.:.+.2.8.e.R.`.!.W.1.i.{ { i.p.m.V.3.O.>.9.5.9.!.R.W.l.k.j.%.P i.J.h.C.P.C.s.U N N B.V.B.k.p.p.z.P.P.U.wXtXiXI.{ w = = w a.[.@XJ.B.v.q.4.,.8.M.9.5.W.-XyX/.p.<.R I m w q w j x M M M U <.:.U ] _ 4.2.3.m.B.s.<.<.2.oXpXSXDXvXvXDXJXxXaXOXW.M.M.M.M.V o.:.3.3.3.:.:.>.8.8.3.1.1.k.V.P.@X%XrXrXoXB.s.l w 2 ; ; 2 r z H H D C C z z s e < : ; 2 r l z l h h k L p.P.%X%XoXZ.m.m.m.s.<.U B :.2.s.s.B.oXrXyXrX#XP.B.<.N M M N U <.s.s.s.p.s.p.1.k.Z.#X#XV.k.8.l.5.O.t.R.R.Q.W.l.8.M.8.o.@.@.5.9.R.!.(.(.l.M.M.7.B b B k.K._.#Xz.#.i.z.P.B.i.L x z x z w w l z M L M V N +.+.1.1.1.1.3.3.+.<.3.3.3.3.k.V.k.m.m.k.<.U U U U U L L L L F x x x F Y / { { { / i.G.U.[.].C.m.4.q.A.A.A.3.B V ",
":.2.m.B.Z.oX#X%X#X%X%X;X;X;X;X;X*X*X*X=X6XbX6X:X!.~.u.0.0.0.0.0.t.0.u.~.`.~.e.6.V V V o.3.m.B.s.P.J.J.P.rXhXhX<X+X%X<XpX%X/./.#XoXv.U V V B 8.OX X!.!.!.E.9.1.>.o.o.>.>.>.8.V.OX/.k.k.Z.k.1.j.k.k.Z./.oXoX/.m.1.3.m.Z.Z.Z.C.oX$XeXiXdXdXpXyX;X-X-X*X/.W.V.k.p.1.+.$.3.k.k.k.k.k.Q.Q.Q.Q.M.,.V k h x L U <.#.#.+.k.k.B.K.K.B.h.p.f.g.i.i.R E P L v v x c h h l j j m I 2.B.].$X$XoXC.m.3.3.3.3.:.:.1.1.1.>.>.3.3.M.N.|. X+X2XsXAXDXGXKXKXDXgXfXfX;X;X%X%X%X%X%XrXrXeXwXwX@XU.L.B.B.B.k.k.7.>.@.o.j.W._./.V.k.v.v.B.s.<.<.2.k.Z.@XI.d.z = = = 2 l S.U.U.h.s.m.m.1.<.8.l.R.!.XX`.!.1.p.p.i.p.1.1.>.8.>.5.0.e.!.*X!.l.@.7.V.$.P p.K.B.s.<.<.2.s.s.<.s.z.B.B.z.B.).tX).U.wXkXkX0XT 2 o 2 T I.tX[.J.s.v._ B _ 8.M.M.9.!.-X-XV.#.R { } | T F n F I U U :.2.s.m.C.'.].&X].&X,XiXiX$X$XrXpXjXDXFXFXDXvXxX-X_.W.l.l.k.3.>.1.1.<.:._ _ <.3.1.8.k.k.k.V.P./.#X#X#X@XP.s.P k 2 2 2 w r C F H H H H H F F Z F A C C C C C F F n n x k x I h.P.%X%X&XZ.m.2.2.s.2.:.:.3.s.<.2.Z.#XyXuXyX#X/.V.s.<.U N V U <.3.k.m.k.s.1.k.Z.#X#XV.k.l.N.9.@.&.9.R.Q.Q.M.l.l.8.>.@.@.@.5.T.!.*X-X!.E.l.7.B c b N p./.wXK.p.f.U.tXwXP.s.` T I F F F F I ` R I M V +.:.1.3.1.1.3.3.1.1.1.s.s.s.k.V.V.V.Z.V.k.<.+.#.<.#.U L L M x k j j x L R / R L L L R a.b.L.].$X].'.C.A.A.v.2.:.",
"k.Z.oX&X%XfXxXxXaXaXsXsXsXaXaX1X1X:X:X:X6X5X6X>X XR.u.y.u.y.~.y.u.u.~.~.XX~.y.e.;.;.,.8.Z.oX@XP.dXjXjXSXDXFXFXDX%X|.|.%XOXN.M./.oXv.U B :.w.Q.OXE. XOXE.9.8.>.>.o.,.,.>.>.8.Z.OX/.j.k.Z.z.p.j.j.B./.@X@X/.P.Z.B.m.Z.&X%X%X%X,XpXdXhXhXdXyX;X*X*XOX(.Q.M.3.<.<.<.p.j.k.k.k.m.V.Q.Q.Q.N.8.o.V b k v P <.p.k.z.B.B././.OX#X#X@X/./.U.U.U.L.F.z.f.p.p.i.*.E L Z l h w w h k I 4.B.].oXoX'.Z.Z.A.w.3.).s.V b +.3.3.>.,.8.r.e.r.E..X3XzXzXFXFXFXFXFXFXxXxXxXxXxXgXsXfXfXdXdXdXdXtXwX).U.P./.V.l.5.O.O.l.V./._.Z.s.s.b.C.s.<.<.s.k.B.P.tX7X} x 2 ; 2 3 d.L.U.h.s.m.m.3.3.l.R.~.`.>X`.`.l.c.p.p.j.j.&.&.9.9.5.5.R.*X*X`.R.@.7.l.1.1.z.h.p.` P U i.B.K.K.<.f.B.U.).@X).U.U.U.wXtXkX0XT q ; F H.0XeX0XG.a.n._ B 4.w.w.M.E.OX#X#XV.i.` d.n.H.H.n.n.b.b.J.L.P.].oX$XiXiXVXVXhXsXNXNXDXNXDXDXZXxXgXxXDXDXaX!.W.x.l.l.k.k.1.+.B.m.<.U B U <.s.3.k.M.M.Z./.@X).@X).B.s.<.M h 3 w l C H H ! ^ ^ ^ ^ ^ ( / / / / } } } } { / / R R R R F x n ` h.P.&X%X&XZ.m.s.m.m.3.3.3.3.3.3.m.V.OXyXyX-X#X#X/.Z.B.s.1.1.3.k.m.Z.V.s.1.s.Z.@X#XV.k.l.M.0.O.O.9.R.Q.(.Q.M.8.8.7.@.@.@.&.9.W.`.-XOXW.l.k.1.b b b #.V.).B.f.z.).tXrX@XL.J.b.h.a.} { a.h.b.p._ B B :.:.3.3.3.2.2.3.3.<.<.s.k.s.s.k.W.Q.Q.Z.V.M.k.k.1.<.U N N M v k L L L U R R Y L h h h x U v.].&XiX,X&XC.A.A.C.oX",
"%XpXfXfXfXxXxXsXzXzXxXxXzXzXzXcXcXcX6X6X6X>X>X>XXXy.~.~.u.y.XX~.y.~.~. X X~.E.E.E.M.M.Q.#X%X#X@XrXdXSXDXDXSXZXZXsX XE.;X;XN.M./.P.m.U B 8.oX;X#XW.OXOXN.7.>.>.+.>.>.>.>.>.k.Q.OX/.1.1.B.z.p.p.i.B.U.wX@XP.P.@X$X%XyXgXgXgXsXsXfXgXgXgXpX;XOX*X*X!.!.W.k.<.U U <.3.k.M.M.l.M.E.OX!.!.E.6.B V V N U <.s.B.V././.#X#X#X-X;X;XyXuXdXrXrXtX#X_._.).^.z.z.z.f.i.#.E L j j j k V _ 3.m.oX&X%X%X&XN.A.m.1.k.V.s.+.B o.>.>.,.w.w.e.r.E..X=X>X>XzXFXGXFXFXFXFXFXFXFXAXZXxXxXvXvXvXvXfXpXyXyXyX;XOX!.R.9.5.9.l.W.#X/.s.2.B.C.3.<.2.s.s.k.B.U.7XY.d.F l l z ` J.P.v.s.m.m.8.k.l.~.`.`.6X*X*X_.^.z.c.c.T.W.~.9.~.9.5.~.`.~.!.!.7.5.7.1.l.x.P <.s.s.s.<.<.k.K.@X^.V.V.^./.K.z.V.K.@XrXtXI.{ z w { [.eXeX0XL.a.C.4.;.q.r.8.e.!.*XOXOXZ.s.<.g.L.H.I.[.[.[.$X$XrX$X$X%XiXiXiXVXNXNX2X2XmXNXNXZXSXHXGXGXxX:XOXW.l.x.c.-.j.c.j.3.<.b B <.s.s.2.:.:.k.V.W.V./.#X#X/.z.i.U M x k k h l Z F Y ^ / / ^ / / d.h.S.h.f.d.S.G.Y.G.h.a.i.i.U R R M h h n R s.Z.%X%X&XZ.m.m.m.m.3.B :.m.m.3.8.Q.-X;X#X#X;X%XrX#X/.Z.V.V.V.V./.Z.k.1.7.Z.#X#XV.k.8.l.5.O.&.R.E.Q.(.(.R.0.0.9.7.5.@.&.0.R.!.`.(.V.l.W.Z.1.N N %.k.K.z.j.K.).).P.Z.Z.V.B.B.B.h.p.p.h.z.s.+.U +.+.>.8.8.8.8.3.3.k.1.<.3.k.s.s.k.V.V.Q.Q././././.OX/.Q.V.V.V.M.k.B.s.s.p.p.p.#.E l h 3 3 j I a.b.$X,XhXpX$X].].].",
"-X;X;XyXyXyXyXyX;X-X-X%X;XyXyXuX:X:X;X*X*X X X X~.~.~. XXXXXXXXX~.~.~.~.~. X X XE.E.|.OX%X%X%X#XyXpXhXpXaXsXzXzXzX1X;X1X=XE.0.8.8.e.M.k.V.#X-X#X_._.W.3.>.1.:.N :.M.8.5.W.E.R.!.(.k.1.k.B.i.{ a.B.wXiX@XL.].yXjXgXgXxXxXxXzXcXaXaXsXaXaX:X*X`.!.!.E.8.>._ _ ' ` 8.0.0.0.0.y. X>X>X XE.e.8.3.3.s.N.V.Q.(.OX;X;X;X;X:X:XaXaXaXaXcXfXfXfXuXuXyXyXyX#X#X_./.Z.V.k.k.>.:.+.B +.>.8.N.oX+X%X%X%X+X/.Q.N.M.e.w.8.8.8.,.e.w.8.8.9.M.Q.E. XXXXX>XcXAXAXAXAXAXAXAXFXAXAXAXAXAXAXAXxXxXcXcX6X1X:X>X*X XE.E.E. XOXQ.Q.Q.N.3.3.3.<.2.s.s.s.k.^._._.K.B.h.a.` C.L.C.v.k.N.l.7.7.T.`.`.`.*X*XOX#XP.J.K.^.^.`.`.u.9.0.T.(.T.l.*X-X`.0.O.5.E.W.1.3.s.m.k.k.k.V.l.W.(.(.(.W.W.9.5.M.N.oX%X#XZ.v.2.B.Z.oX$X$XoXP.V.M.N.N.r.e.0.y.XX X X!.E.Q./.P.].$XiXhXVXhXhXVXBXBXDXDXBXNXNXSXDXAXAXAXAXAXAXAXHXHXHXAX<XE.l.k.c.c.-.-.-.-.-.$.#.N U <.2.2.2.3.8.l.W._.-X-X(.V.k.N M x j j m n F U E #.#.#.p.p.s.z.z.K.K.U.).).).).@X#X#X@XP.V.k.k.3.+.U B N V b :.w.|.%XpX;X+XQ.m.N.Z.A.3.>.3.w.Q.V.V./.#X;X#X/.#X#X;XyX;X#X/./.-X(.l.8.M.(.(.(.W.l.l.R.0.O.O.l.!. X!.E.R.9.0.9.u.5.&.O.5.9.R.!.(.(.W.V.V.W.k.+.$.1.$.+.k././.l.l.R.!.`.*X(.W.W.W.W.x.x.x.l.j.7.5.0.l.l.l.l.l.l.k.1.+.:.<.<.1.s.m.N.Q.OX+X;XaXaX;X;X;X;X;X=X=X=X&XoX/.P.P.K.S.h.R L l h h v R 2.B.rXjXdXrXrX%XoX",
"W.W.W.W.W.Z.V.V.V.V.V.V.Z.Z.^./.Q.V.N.M.M.e.M.e. X*X*X>X>X>XXXXX~.~.~.~.!. X X XE.Q.Q.oX+X#X+X#X#X#X%X%X%XOX=X=XAXzXcX1XOXM.5.@.>.0.E.E./.#X#X#X#X).V.3.:.:.:.o.@.k.8.8.!.R.9.E.OXV.m.V.J.a.a.g.G.wXiXrX@XrXdXjXvXvXxXxXcXaXaX1X2X<X1X:X>X*X!.~.R.9.1.:._ ' ' 2.6.t.0.u.u.y.`.XX6X6X1X;X;X%XrXrX;X;X;XaXaXsXzXzX1X1X1X1XaXaXaXaXxXxXxXxXxXxXcXcXvXxXfXaXyX;X-X#X#X+XoXQ./.oX#X%X#X+X#X+X#X%X;X;XOXOXOXOX XOX(.oXQ.Q.Q./._.OX#XOX!.~.~. X:X5X5X1XcXcXcXxXxXxXxXxXzXzXzXzXzXzX5X5X5X5XcX6X1X;X=X=X=X=XOXQ. XOXQ.8.>.8.s.<.<.2.s.k.^._.(./.@X@X@X].$X$X].B.m.N.M.9.&.T.`.`.*X>X*X$X@XwXwXK.V.^.~.T.u.9.9.^._.T.c.^.(.*XR.6.0. X>X#XZ.Z.Z.Z.Z././.Q.Q.!.^.R.T.u.&.O.5.M.OX<X+XOX|.|.&X%X%X%X%X%X#XOXOX=X=XXX X~.XXXXXXXX=X:XaXgXvXSXSXDXGXGXGXLXKXIXIXPXPXPXIXKXIXPXPXPXPXPXPXIXGXGX3XXX XE.e.k.l.x.c.-.-.-.$.%.#.#.B.s.<.B o.>.N.OX^.*X-X-X-Xx.$.B c h k n n ' ` ` s.k.k.x.V.^./././.).#X#XyXyXuXuX-X;XyXyXyX-X#X_.V.M.8.1.1.>.+.o.:.8.Q.%XhXfXpX;XZ.N.Z.m.m.w.8.8.M.V.Q./.OXOX/././.OX;XyXaXaXaXuXaXaX:X(.!.(.*XOXW.l.l.R.0.o.@.l.!.*X*X!.E.R.u.u.u.0.&.&.5.0.T.~.-X#XW.l.l.V.k.1.1.@.%.@.l././.l.~.`.6XbX6X>X-X-X-X-X_.^.^.^.W.l.T.T.T.T.T.T.l.l.$.j.7.+.+.1.s.2.3.w.N.|.+X<XzXZXZXxXxXxXzXcXcXzXaXpXyXrXyXtXtXwXY.S.p.R P P P U 1.P.yXpXdXjXvXjX",
"k.k.k.j.p.1.1.#.$.<.p.p.p.p.p.p.<.<.1.1.1.1.1.3.k.M.N.Q.Q.E.e.9.8.9.0.9.9.9.M.M.8.8.3.s.k.B.B.B.k.z.V.Z./.oXOX=XDXDXxXaXOXR.7.O.O.9.OX-XOX_.#X#XtX^.k.1.:.+.:.>.>.7.8.N.!.R.0.R.Q.M.k.V.B.h.a.g.g.G.[.[.[.@X$X%XrX%X;X;X;X;X;X1X=X=X=X*XOX!.W.W.8.1.:._ _ 2.2.q.6.0.y.~.XXXXXX>X>X>X1XaXgXdXiXrXpXaXaXaXaXaXpXpXfXaXaXaXaXfXaXaXpXaXfXaXfXfXfXfXfXfXfXaXpXyXyX;XuXyX%X#X#X$X#X%X#X#X%X%XyXpXpXfX#X#X#X#X#X#X#X#X/.#X#XrXrX#X#X_.OX!.!. X=X:X:X;X1X1X1XaXcXxXxXvXAXAXAXAXxXxXcXcXaXaX1X1X<X<X<XpXxXaX+XOXOX%XoXZ.:.m.B.2.U :.2.k.^.^.^._.yXjXjXhXiXiX].C.m.m.8.7.&.u.~.`.*X*XOXoXB.eXtXP.V.(.~.0.0.9.W.(._.-.%.j.(.*X*Xe.6.R.OX#XP.L.B.V.K././././.!.W.l.0.0.&.O.>.M.OX;X;X%X%XpX%X%X%X#X#X#X#X#XOX+X=XXX X~.~.~.~.E.!. XOX%XyXpXhXhXhXhXhXNXDXGXLXKXPXPXKXKXFXGXGXGXGXGXGXHXAX3X.Xy.6.,.>.>.1.3.1.$.%.%.P +.+.<.k.w.8.8.0.e.!.`.!.(.-X-X(.W.k.1.1.s.k.B.L.L.L.L.oXOX#XyXuXaXfXfXuXaXfXfXvXvXvXvXvXvXvXvXvXvXvXxXyX;X#X#XoX/.Q.V.k.m./.%XpXgXgXgXyX&XoXoXoX&XZ.V.M.Q.#X#XOX/./.OX/.+XyXfXvXSXDXDXvXvXvXaXOX(.(./.W.l.l.M.7.%.@.l.(.*X*X X!.!.R.e.u.9.5.5.&.&.0.R.-X#X/.V.l.V.l.k.1.%.N @.V././.W.*X6XcXcXbXbXbXcXcXbXuXuXuXyXyX-X_.^.W.W.l.l.l.l.@.l.k.+.V <.k.3.3.8.M.Q.OX;XsXxXxXxXxXzXzXsXsXsXaXpXyXyXuXuXdXdXtXtXwX).^.K.V.B.m./.#X#X%XfXgXpX",
"i.#.#.#.#.E P P P P E R #.R E U L L I I I U U U U <.<.s.3.1.:.+.1.1.$.$.1.1.1.3.1.#.#.#.<.p.p.p.i.p.s.k.V./.-XyXcXSXSXaX;X#X^.7.@.e.*X:X;X#X_.)._.x.3.3.<.+.:.8.1.1.8.(.*XR.9.E.E.8.1.k.K.U.I.L.{ g.b.L.L.L.K.K.P.Z.Z.Z.Q.OX+X;X+X X X XE.W.V.k.1.:.B B :.2.q.q.e.E. XXX>X>XXXXX=X=X1XfXdXpXrX$XpXpXpX<XpX%X%X%X%X%X%X%X%X%X%X%XrXrXyXyXyXyXpXpXyXyXyXrXrXrX%X%X#X$X$X$X$X$X#X$X/.oX#X%X%X%XoXoX%X#X#X#X@X@X).).wXtXtXtXtXwX).).Q.V.V.V./.OX#XOX#XOXOXOX#X;XuXaXcXzXzXzXcXaXaX1XpX<XyX;XpXpXpXdXpX;X&XoXoX&X&XoXm.m.B.v.<.:.<.k.V.^.^._.rXhXhXiXiX$XoXZ.m.k.8.5.&.u.~.`.*X*X XB.{ G.I.I.@X#X!.9.9.Q./.^.z.S 6 N V.OX=XE.5.7.l.V.B.B.z.B.K.Z.K././.(.W.l.5.&.&.&.8.N.oX%X%X&X$X%XrX%X$X$XoXoX@XoXoXoX X XE.E.E.E.E.E.E.Q.Z.P.P./.@X@X@X@X$X%XpXdXjXSXFXFXSXxXxXxXzX1X1XsXAX2XXXr.E.r.,.;.o.+.+.B B B N B U :.:.3.o.,.M.E. X!.!.!.!.(.(.^.(.(.-X-XyXyXyXyXrXrXeX@XrXyXfXgXgXgXgXgXfXfXgXxXvXSXSXSXvXvXvXvXvXvXvXvXfXfXfXdXdXyXyX%X/./.@X%XrXyXpXpXdXyX%X%XyXyX#XoXZ.oX#X#XOX/.oX#XQ./.#XaXxXSXSXSXFXKXFXvXyX#X/./.V.k.k.l.7.+.1.M.Q.OX*X!.!.!.!.R.9.9.5.5.&.&.5.T.W./._._./.W.V.l.1.%.%.7.W././.OX6XbXbXbX:X-X:XaXbXbXfXfXfXfXfXfX-X-X_.^.W.l.k.7.7.l.k.+.U :.3.3.3.8.k.M.Q.OX;XpXpXpX<X<X<X<X;X;X<X;XOX+X#X#XtXtXuXdXuXfXfXfXuXuX#X%X#XoXoX+X+X/.",
"S.S.S.S.z.z.h.h.f.f.h.h.h.h.h.f.} } | | d.d.d.d.{ i.a.n.b.h.h.p.j.j.j.j.k.k.k.z.j.p.p.i.p.h.h.f.f.f.f.f.k.Z.#XyXyXxXSXvXbXbXuX_.9.R.OX:XuX-X_./.V.k.1.3.1.+.:.8.k.7.N.*XOXM.M.E.OXM.3.B.pXDXBXkXG.L.G.L.L.L.L.P.oXP.Z.Z.N.N.Q.|.XXXX XE.N.k.s.p.<.R U _ :.q.w.r.e.E. X X X!.E.E.E.|.|.oX].].L.C.C.Z.Z.C.C.Z.C.A.Z.C.C.A.C.A.C.C.Z.Z.Z.Z.Z.Z.Z.Z.C.C.C.C.C.C.C.C.s.s.k.m.m.m.m.m.s.s.k.B.B.m.s.2.B.B.B.z.z.z.h.h.S.z.z.z.h.h.f.f.<.<.<.<.i.s.s.s.B.s.s.s.k.B.K.Z./.Q.Q.Z.N.Z.Z.Z.P.K.Z.C.Z.Z.P.P.P.K.C.B.m.B.P.$X$Xm.3.B.m.:.:.k.c.x.^./.@XrX@X].$X].P.Z.Z.M.k.8.5.T.~.!.*XOXN.a.m D T H.eX#X/.Q.Q.$X@XB.*.6 4 6 #.V.+XOXW.Z.V.V.U.L.L.P.K.z.B.K./._.(.j.@.@.5.9.M.N.N.Z.oXoX].].Z.C.C.B.B.k.k.k.s.v.k.8.8.8.M.N.M.M.V.Q././.).)./._././././.@X$X#X;XyX;X-X-X*X-XOXoX!.OX=XOXE.w.,.;.;.;.:.>.:.:.V V ] ] _ 4.4.,.8.w.M.E.~.!.`.XX(.!.W.R.V.W._.#X/././././.@X@X$X#X%X%X%X;X%X%X#X%X%X%X;X;XpXpXpXrXtXrXrXrXrXrXrXrXrXrXrXrXtX#X#X@X$X@X@X@X@X$X$X$X$X$X@X#X@X$X@X/././.Q.Q.Q././.Z.Q./.OX;XyXyXyXuXfXfXyX_./.V.k.l.k.k.k.3.+.1.M.Q.OX*XE.Q.!.(.E.9.0.5.5.&.O.5.l.l.V./._.(./.W.W.k.7.k.Q././.-XaXcXaX-XOXQ.Q././.#X#X#X#X#X#XtXrX#X#X_._./.^.V.k.V.k.1.3.1.+.+.3.8.8.8.k.V.Q.&X&XfXhXpXpXpXpXpXpX<X+X+X+X#X#X#XrX#X#X%X#X#X#XoXoX+XoXQ.N.N.Q.Q.Q.",
"F.Y.J.Y.J.J.J.J.z.S.S.S.J.S.S.S.g.D.D.D.D.D.g.g.^ { } d.g.g.d.d.p.p.p.p.p.p.p.p.p.i.*.i.d.f.d.i.i.*.#.#.p.V._.yXyXfXvXDXvXvXbXfX(.!.!.-XuX-X/.Z.j.3.3.3.1.:.1.8.M.l.(.-XV.8.E.Q.OXV.8.Z.SXIXKXBXL.n.n.n.b.b.v.B.m.m.v.m.m.N.Q.|.XXXX!.N.m.p.i.{ { { ` <.3.w.r.N.Q.|.|.Q.E.M.M.M.w.w.3.3.s.v.n.a.v.v.v.v.s.3.3.2.v.v.v.v.v.v.v.v.s.s.s.2.a.2.<.2.<.<.<.<.<.2.<.<.U U U U U U U P <.:.U U <.<.2.s.<.<.i.i.i.i.p.i.i.*.*./ *./ *.*.R R ` <.i.a.p.p.p.a.i.<.<.i.s.s.m.m.v.v.s.s.s.s.v.v.s.s.s.s.h.h.n.b.B.B.v.m.P.rXpXZ.s.C.V.1.:.1.1.l.V.^./.@XP.C.v.s.s.m.m.k.8.7.0.l.~.!.*XOXm.` q : 8 [ I.P.Z.oX$XeX[.g.Z 4 = 3 L s./.#X#X#X).K.wX7XU.L.f.R #.z._._.(.j.o.O.&.9.M.m.m.B.C.].C.C.v.v.v.v.s.s.p.1.2.<.<.<.1.3.k.M.m.V.V.Z.P.P.U.).K.K.K.V.V.B.B.B.s.k.k.l.l.9.l.T.V.k.k.k.M.M.8.>.;.;.;.o.:.:.+.B ] ] _ 4.4.4.,.,.N.E.E.E.E.R.~.R.k.k.k.k.k.k.s.3.1.1.1.p.s.B.V.K.B.m.B.m.m.m.m.s.m.m.m.C.Z.Z.Z.Z.P.P.P.K.K.J.J.B.K.K.P.P.P.P.U.U.@XU.P.P.P.P.P.P.K.P.@X@X@XU.@X@XoX/.V.V.V.Q./.Q.Q.Q.Z.Q.oXOX/.Q.K.P.K.K.P./.K.k.z.k.z.k.p.#.1.k./.;X;XQ.k.W._._.M.8.5.>.@.O.>.0.M.M.V.Q././._.-XQ.(.#X;X-X-XaXvXxXaXOXQ.N.M.m.k.k.k.k.k.s.s.s.s.z.k.m.V.P.P.V.k.P.3.>.k.k.+.+.1.k.8.k.k.V./.oX$XrXrX%X%XiXiX$X$X+X&XoXoXoXoXoX/.K.Z.C.B.m.m.v.3.m.m.8.3.8.m.m.m.",
"E U E E R R R R E E P P P P U E H J T ^ T T T T T T T T T T T R #.#.#.#.#.#.#.#.R E E R R R E E E E U +.1.M.(.-X-XuXvXFXvXxXbXbX;X(.!.*X;X#XW.V.1.3.3.1.+.1.3.8.W.W.#XOX1.>.V.W.Q.N.k.V.jXKXLXiX` ' ` ` ` ' ` 2._ _ :.3.m.Z.oXOXXX XE.M.s.i.{ { { } a.a.3.w.E. X|.|.Z.A.w.q.w.w.A.A.m.v.b.n.L.C.C.C.C.C.C.C.B.v.v.v.s.a.3.v.v.v.B.b.b.b.b.b.b.v.s.v.s.a.s.a.a.a.a.2.i.<.2.<.<.<.<.<.R _ <.<.s.h.h.h.z.h.z.B.S.J.z.h.h.h.h.S.S.S.i.a.a.h.h.h.n.n.a.a.a.i.i.i.a.a.b.b.b.b.n.n.b.b.L.L.L.L.L.L.L.L.n.n.b.L.B.B.P.%XrX$XV.m.m.k.1.o.7.j.k.V./.$XP.B._ B B <.1.1.1.7.j.l.W.`.;X;XB.` > @ @ e K { v.C.{.0XL.( r = = 2 z R J.@XtX@XK.J.7XY.g./ Z h Z i.)._.^.l.7.-.7.7.k.s.s.s.v.m.B.B.L.L.P.P.P.P.K.K.K.L.B.B.K.K.P.P.K.K././.P.U.P.K.J.F.F.z.B.B.B.z.s.k.k.k.l.9.l.l.W.x.x.k.k.k.k.8.>.>.:.o.B B B B ,.,.q.q.q.q.w.w.N.Q.Q.Q.W.l.7.>.U _ <.<.2.<.<.<.i.i.i.<.i.i.f.h.<.4.<.<.<.<.<.:.<.2.2.2.s.s.s.s.h.b.B.b.h.h.h.s.h.h.B.b.b.B.J.P.J.J.J.J.J.J.J.J.B.J.U.U.U.P.P.P./.Z.V.V.V.Z.Z.Z.Z.V.V.V.P.P.V.B.).).)./.).#XwX).z.z.z.k.p.#.p.k./.yX;Xk.:.k.Q./.Q.l.7.>.@.@.@.>.M.l.M.Q.(.(.OX-X#XuXaXuX;XuXcXxXaX<X+XQ.m.8.3.:.<.<.<.R U U R <.<.<.<.s.B.B.B.z.B.k.k.k.3.+.+.+.7.3.j.k.V././.P.B.B.B.n.L.L.L.n.C.C.B.B.B.B.B.b.s.s.s.s.v.s.a.a.s.2.3.2.2.2.<.2.",
"R R R <.<.<.<.<.<.<.R U U U #.<.R { { } } } } } { { { { { { { { i.i.i.i.i.i.i.i.#.R #.<.i.<.R R U +.+.<.1.8.M.Q.OX;XcXFXFXcXaXcX:X*XOX;X;X(.V.l.+.3.3.+.+.1.k.s././.yX/.B B M.V.V.m.k.B.dXJXSXoX_ ' ` ` ` _ _ 2._ <.4.3.m.C.oX&X X~.M.k.s.i.{ { ^ } g.s.8.e..X=X|.N.m.,.4.:.4.q.m.v.v.v.a.2.a.a.v.v.v.a.2.2.2._ 2.` ` _ _ 2.2.2.2.a.a.a.a.i.2.2.a.a.2.` ` ` ` ` ` R ` ` R ` ` ` U ` 2.i.a.a.a.<.i.<.<.<.<.<.<.<.R #.#.*.i.i.i.i.i.a.a.a.g.a.a.a.a.a.` ` ` ` ` a.g.a.a.a.a.a.a.g.a.a.g.g.n.n.g.g.n.g.a.b.b.s.v.Z.%XrXoX3.3.N.8.V k.k.3.k./.#XP.m.B M V U <.<.1.k.j.l.W.`.:X;XZ.` : # + + 8 K { a.H.}. .G e = o ; 2 F h.[.tXwX9X7XY.d.^ Z 2 ; l i.K.K.K.x.x.x.l.7.1.2.2.2.4.4.a.v.a.a.a.a.s.s.s.p.b.b.h.b.h.h.h.p.i.p.p.f.h.h.h.h.f.f.p.i.i.p.p.s.p.s.k.k.l.l.l.l.x.x.z.k.p.1.1.+.:.:.:.B B B o.:.w.w.w.w.w.A.Z.Z.N.V.M.k.1.<.:.<.` ` ' T T ' ` { R R R R / / *.*.i.<.` ` ` ` ` ` i.2.a.a.a.a.p.p.i.i.a.p.p.a.i.i.i.i.a.i.i.p.b.J.J.J.J.J.B.B.h.h.h.h.B.J.J.J.B.z.k.k.k.k.k.k.k.m.k.s.3.k.m.B.k.s.B.B.z.s.p.h.h.p.z.B.B.h.i.<.i.s.P.rX#X1.V +.z.K./.V.7.>.>.o.o.@.k.8.M.OX-XOX(.(.;XaXaX;X;XaXxXaX;X%X%XoXm.3.:.:.:.<.<.` U ` 2.a.p.i.<.2.B.C.V.B.s.B.Z.k.1.+.%.+.7.7.7.k.V.Z.V.B.<.2.a.{ | | | | a.| { g.g.g.g.{ g.g.g.n.n.g.| | g.a.n.n.n.a.a.n.",
"a.a.a.a.s.s.s.s.m.m.m.3.3.,.3.k.<.p.h.h.h.s.h.h.J.B.h.h.h.h.B.B.B.B.J.L.L.B.B.b.s.p.p.s.B.B.s.2.m.3.V o.N.w.6.E.=X+X=XzXFXFXcX;XOX-X*X!.Q./.M.1.8.+.+.1.k.s.3.s./.#XrXz.c c 1.P.B.m.2.<.m.$X%X$Xs.v.v.s.2.2.2.2.v.v.C.C.].oX$X%X!.9.>.m.h.R H ^ g.g.a.2.M. XXXXX|.N.3.B V V _ _ :.<.2.2.2.2.2.2._ _ ' ' _ _ _ _ ] _ _ _ ] ] I I U U U U U U I I ` _ U I I U ` ` 2.<.R U U U R ` U R R ` ` ` <.<._ _ U U B P P U N P U R ` R U U I I I I I ] _ _ ` _ _ ] ] ] ] ] { ` ' ' ` ` ` T ` I F n I T ` ` ` ` R U R <.2.s.oX$X%XoXV.8.>.>.1.7.3.3.V.oXoXZ.s.:.M b N <.s.k.V.x.M.(.;XpX@Xg.8 : # # @ : t ] | [ G e , - - = ; t T G.0X0XY.D. .C ; = = = l h.Y.).K.V.^.#X_.l.<.:.:._ B I I U k M I M M L N x U R R I L L L L L L E R #.#.R R R i.i.i.R I R 2.n.C.].P.V.m.m.m.K.z.p.#.$.p.p.p.B N B U +.:.>.>.8.8.8.M.W.Q.Z.V.k.s.2.` ` ` ` { | | | | | | | | | | | | } } } } / ` { ` i.i.i.i.d.i.i.i.i.i.d.f.i.i.i.i.i.i.i.i.f.a.i.i.i.a.f.h.z.z.h.h.f.p.i.i.i.i.i.i.i.R R U +.+.:.:.<.<.<.1.<.:.:.<.1.<.+.U <.i.<.I L R <.R R 2.p.h.i.` i.s.P.#X#Xs.k c #.K.)./.V.k.1.>.>.o.>.8.M.Q.OX#X#X-XOX;XyX-X-XuXxXxX<X%X&X].m.<._ _ <.2.s.a.a.a.b.J.U.L.J.L.P.P.J.B.1.V./.k.1.1.@.N %.1.k.k.z.P.K.h.a.' n m K ' ] K K K [ [ | | | | | | | |  . . .| L.L.L.L.I.L.I.L.",
"s.v.v.v.v.v.m.m.3.w.w.w.8.,.8.8.8.s.k.k.s.s.k.k.B.B.z.z.z.z.B.B.b.b.b.v.v.v.s.2.2.<.2.2.s.s.2.:.m.3.;.;.6.6.6.r..X.XXX1XAXAXzX1X:X;XOXQ.Q.W.l.7.1.@.+.3.k.k.B.K.).).K.R 6 k p.P.K.B.2.:.2.m.C.m.s.v.v.v.v.v.C.L.].].].].@X$XoXoXM.8.1.:.R R ^ { g.b.B.N.Q.XXXX Xw.q.3.q.s.v.v.v.v.v.v.v.v.v.m.m.C.C.C.C.C.C.C.C.P.].C.C.C.C.B.v.b.b.b.b.b.v.b.v.v.n.s.a.s.v.b.b.b.v.s.s.a.a.p.s.p.s.s.s.s.s.h.s.3.3.3.3.3.4.:.:.:.4.2.s.s.s.2.2.4.4.4.4.4.4.4.4.v.v.q.4.4.4.4.2.n.a.g.g.g.n.n.n.h.a.2.2.a.n.b.b.L.C.B.b.s.v.m.B.Z.oXoXoXN.w.6.,.>.3.k.k.k.Z./.P.P.B.s.2.s.B.V.Z.x.l.l.W.OX#Xb.' 8 # + + # : 8 y f f f 9 , - - X - q F | G.D.} ( A 4 ; ; = = l d.U.@XU.z.z.^.W.m.V.B.m.v.v.v.v.v.2.a.a.i.<.<.<.#.R { i.{ ` ` / d.i.i.i.<.<.#.#.U R R <.R I I I ' ` n.{.].L.m.v.s.p.c.z.z.j.$.%.P %.+.+.+.1.1.8.8.l.l.R.W.(.(./.^.z.p.` I K K K K K K K K K K J J [ [ ( ^ ( ( ( ^ Y Y Y Y Y E R R ^ R R R R R R / E E E E E E E I E E I I I E R R i.i.i.R R E P L E R R R E E P L B B N B B B B B B B B U U U N M M I I M M U R U L I <.i.2.` i.B.].@X@Xs.c 3 v f.).).K.k.3.1.,.o.>.>.8.W./.OXOX-XOXOX-X-XuXxXxXaX;X&X'.m.4.V V M M M M I L I I ` R T T R ` <.<.<.p.B.V.k.7.7.1.o.B %.k.k.k.B.P.B.h.` I K T ' ' [ K J J [ [ ' ' ' ' ' ' ' [ [ [ [ [ [ [ [ [ [ [ [ ",
"v.v.v.m.m.A.A.A.w.A.M.M.e.e.r.e.8.l.l.k.8.8.k.M.l.l.k.k.k.k.z.B.B.n.b.n.v.v.v.a.a.3.v.v.v.q.3.4.w.8.6.,.;.;.6.6.y.y..X2XzXAXAXzXcXyX(.Q.W.l.8.7.>.>.>.3.k.B.P.tXtXU.d.h ; z h.L.[.U.L.b.v.C.Z.C.C.C.C.L.P.].$XiXrX$X@X@X$X@XP.m.3.k.<.V M R a.p.s.B./. X!. X~.~.;.,.3.m.C.C.C.C.].P.P.P.].oXoX&X].].oX].oX].].].oXoXoX].].].C.C.P.P.K.L.L.C.C.C.B.b.B.b.B.B.C.C.B.B.B.v.s.s.v.m.b.m.B.m.B.B.B.B.m.w.r.w.w.q.,.,.3.3.m.m.A.m.m.w.3.q.3.q.q.q.w.w.A.m.m.q.q.q.q.q.b.b.b.n.b.b.C.L.C.B.B.B.C.P.].oXoX].P.Z.Z.Z.Z.V.N.N./.|.Q.N.8.8.o.1.k.8.8.m./.oXoX/.K.B.B.m.B.B.B.k.V.Q.#X#Xb.' e # + + # : : : 8 a a 9 , 1 @ X - > y D ^ J G s > - ; 4 ; ; Z d.U.@XP.s.<.3.k.k.N.V.m.m.C.C.B.v.B.v.s.s.s.s.p.s.p.p.a.a.i.i.i.d.f.f.p.p.1.1.1.1.1.<.<.<.2.` ` ` ` n.L.L.L.n.a.v.i.z.z.z.p.#.E E #.#.1.1.7.l.M.W.T.T.T.W.W.^.W.x.p.i.R T K K K X.K K K K K K J J ^ ^ ^ ^ ^ ^ ^ ^ ^ R ^ R ^ / / / / / / ^ ^ ^ ^ R R R R ` R R R E R R U U E R ` <.i.i.i.i.i.` R R R R R ` R R R R U U U U U P P P U U U U U U P N L U R I U R R U L U <.a.a.i.h.L.wXwX@Xf.c ; 3 E U.).P.B.k.8.3.,.o.>.5.8.E.Q.OX-XOX(.OX;XxXDXxXaX;X&XZ.3.B k k k M m x n n L L L x n n M L L R <.s.s.k.k.k.k.1.@.N N 7.V.1.1.K.P.J.n.{ { | | | | | | | | | [ ' ' ' ' [ [ [ [ | | [ [ [ [ [ [ [ [ ",
"B.B.B.B.C.Z.Z.Z.Q.Q.Q.E.E.R.R.R.9.l.l.l.l.l.M.R.k.k.l.l.V.V.Z.V.L.C.L.n.n.n.n.n.C.C.C.C.A.A.m.m.w.8.N.w.V ;.6.t.r.r..X=X5XAXAXFXcX-X/.Q.N.7.>.>.o.>.1.k.k.V.@XdXtXY.Y = o z H.I.0X0XeXeXeXrXrXrXrXrXrXrXrXiXiXdX%X$XoXoXoXP.B.s.s.<.+.P U 1.k.k.M.E.OX*X*X X~.E.M.A.m.m.m.B.C.C.B.B.m.m.m.m.N.Z.Z.Z.Z.Z.Z.Z.Z.Z.m.A.C.C.Z.C.Z.Z.Z.C.B.B.B.v.v.v.s.v.v.m.B.B.B.B.B.B.m.s.s.s.s.s.s.s.k.m.m.B.B.m.w.r.e.r.r.w.,.,.,.,.3.8.8.w.w.8.>.4.3.3.3.w.w.m.w.q.3.3.3.3.3.q.v.m.m.v.s.v.B.Z.Z.Z.Z.N.Q.Q.oXoXZ.N.N.N.Z.Q.N.N.Q.Q.oXoXoXQ.w.8.@.1.8.8.3.k.Z./.Z.Z.V.B.s.<.<.s.k.m.V./.%XrXU.| a , + # , 0 : : 8 a a u , # @ X @ : q t D s e : - - > < 2 2 F h.U.U.J.s.1.3.k.k.N.m.8.m.B.C.m.s.C.v.s.v.s.s.k.B.B.B.b.h.a.i.i.i.f.p.p.p.p.k.k.l.k.k.k.m.B.C.C.L.n.b.n.a.a.a.a.n.b.s.<.R P #.p.z.f.p.p.j.l.W.(.(.^.W.W.T.T.l.j.j.1.<.<.` { | | | | | | | | | | | | d.d.d.d.d.d.d.h.h.f.h.f.h.S.S.S.S.h.h.f.d.d.d.f.p.p.p.p.a.i.i.p.a.p.a.p.p.h.h.J.J.J.J.J.b.h.h.f.f.h.h.h.h.f.p.s.s.s.s.s.s.s.s.s.s.s.s.s.s.s.1.p.s.h.s.s.p.a.i.a.a.h.B.B.b.J.[.iXeXU.h.x = 4 x h.J.U.V.m.m.w.8.o.@.>.5.l.E.OX;XOXOX-XcXDXFXxXaX%XoXm.3.B V b V <.R U U ` <.` R E R R R E R p.z.z.p.3.k.M.k.1.1.%.b >.M.+.#.V.K.[.L.G.G.G.H.H.H.H.H.H.H.H.H.H.n.n.| n.n.n.H.H.H.H.H.H.H.n.n.n.n.",
"L.L.K.K.P.P././.oXQ.E.E.E.R.R.R.9.9.R.R.E.W.W.W.l.l.V.W././././.L.L.L.}.}.{.{.].].].].].C.C.C.'.w.8.N.e.o.;.6.t.6.e.E.XX1XzXAXFXaX(.W.W.M.>.o.o.o.>.8.k.m.P.wXuX7XD.A = o r H.8X0X0XkXkXhXhXiXpXdXdXgXgXdXpXrX%X@X@XoXP.C.m.s.2.i.P L 1.k.3.7.8.!.!.`.XX>X>X*X X:X;X%X+X&X$X@X$X$X$X&XoXoX XOXOX&X&X%X+X+X+X&X&XoXoX&X+X+X&X&X&XoXoX/./.P.Z.V.V.Z.Z.Z.P.P./././.P.K.Z.Z.V.B.B.B.B.B.V.Z.Z.C.P.Z.Z.Q.Q.|.Q.N.A.M.m.A.m.N.N.N.N.N.k.m.m.M.M.M.N.N.M.M.M.M.M.N.V.Z.Z.Q./.Z.N.Z.oXOX;X=X=X=X=X*X=X=XOXOX XOXOX=X+XOX+X+XOXOXOXQ.M.3.3.>.>.>.8.k.V.Z.V.P.P.K.B.B.B.K.J.K.P./.#X#XL.} a 0 $ # # : 8 a a f a 5 1 @ @ @ @ - 8 y s a > - - - ; 4 > 2 J G.[.[.P.K.P.oXoXQ.Q.N.N.Q.&X&X].C.&X].P.P.P.Z././.P.K.L.J.b.b.h.h.b.h.s.p.7.7.9.9.9.8.l.l.Z./.P.L.L.n.| { g.n.n.g.2.U L L R p.F.K.z.z.z.c.W.W.(.*X(.(.^.W.W.l.j.j.k.k.k.b.b.L.G.C.n.n.n.n.n.n.n.n.J.B.J.B.J.J.J.J.z.z.z.h.z.z.J.J.J.J.J.J.z.h.h.h.h.h.h.h.h.p.p.p.s.p.s.p.s.h.h.h.b.b.b.b.b.h.h.h.h.h.h.h.h.h.g.p.s.s.s.s.s.k.k.k.B.B.B.B.B.m.s.s.B.B.B.B.B.B.h.v.B.B.B.B.J.B.P.@XiXeXwXG.Z ; ; 3 R S.).U.m.3.3.w.>.;.@.>.0.E.OX;X*X;XaXSXFXDXxXaXOXN.k.1.+.B +.1.z.p.i.i.h.z.h.i.i.f.h.p.i.#.s.B.z.s.3.k.m.k.3.7.1.N o.8.1.<.k.h.@X[.U.I.I.I.[.0XI.I.I.I.L.L.}.}.C.L.C.L.L.L.L.L.{.{.I.L.L.L.L.L.",
"L.L.L.J.K.K.K.Z.V.M.M.l.R.E.R.R.T.l.l.l.R.W.W.V.V.Z.^./././.K.J.L.L.}.}.{.{.{.{.{.].].L.C.C.].%Xm.m.V.M.,.;.6.6.e.e.E. X:XbXcXxX-X/.M.l.8.>.O.O.o.>.8.k.V.).wXwXD.) r = o e .. .8X8XqXkXiX$X].oX$X#X%XyXyXrX#XoX$X$XoXZ.k.<.<.<./ F L h.Z.8.5.u.~.~.~.XX>X:X:X:XzXxXxXxXZXjXjXgXSXSXSXZXxXxXxXcXsXsXsXaXaXfXaXaXaXaXaXsXaXaXaXfXaXaXaXyXyX;X;X%X%X;XyX;XyX;XyX%X#X#X#XoXoXoX/././././.oXoX&X#X#X+X+X+X+X%X&X+X&X/.oXoXoX/./././.OXOX_._./././././././././._.#X#X%X;X;X;X;X;X1XaXcXcXcXzX5X6X6X6XcXcX1X1XcXcX1X1X;XOX X XOXQ.N.8.m.>.o.+.8.k.m.M.Z./.@X@X@X@X@XeX@X@XoXoXoXP.h.T e 0 , # @ @ 8 s s a p , $ 1 1 @ @ - : 8 a 9 : @ X - ; : > q T G.0X[.@X@XrXpXpX%X;X=X;X;XpXpX%X&X%XpXpX%X%XyXyX#XoX].P.P.U.U.U.L.U.P.V.k.7.5.5.5.&.&.5.0.l.M.m.v.2.2.` g.b.b.g.` n n I 2.h.J.F.z.K.K.^.^.^.^.^.(.(.OX(.(.(.(.(.(.(././.Z.Z.C.C.m.A.v.A.C.C.C.Z.Z.Z.Z.Z.Z.K.K.^.K.K.B.J.B.J.B.J.J.K.K.K.K.K.J.J.B.J.B.B.B.B.z.h.h.h.h.h.s.s.p.p.p.i.a.a.a.a.a.a.i.a.a.a.a.a.i.{ 2.i.<.<.2.1.s.s.s.1.s.s.s.s.s.s.s.s.s.s.B.B.B.v.B.s.s.s.B.B.B.P.wXiXkXtXG.Z 2 ; ; Z d.wX@XB.3.,.,.>.>.@.;.5.M.!.*X;X:XxXFXFXxXaX:XV.k.1.>.+.+.3.B.V.z.h.h.B.J.J.S.S.F.F.z.f.p.h.z.B.B.k.k.k.k.8.3.8.@.N o.1.3.1.p.P.P.U.U.I.I.I.0X0X0XI.I.L.L.C.}.'.'.C.}.C.L.].P.P.P.P.Z.K.C.B.B.",
"d.i.i.i.i.i.<.1.+.$.7.l.W.^.^.W.R.l.7.7.7.l.l.M.Z.Z.K.V.z.p.#.R | | | | n.n.g.g.` { a.` ` a.L.$XP.V.m.m.M.,.;.6.e.M.E.!.-X:X:X;X(.W.l.>.>.>.;.O.>.8.k.V./.rX).J.( r > 1 - < ~ !  . . .H.L.b.v.v.m.m.V./.@X$XoX/.#XoXZ.m.s.<.U U Y T i.z.l.9.y.~.~.~.~.XXXX X*X>X;X:X1XaXfXpXrX%X%X%X;X;X;X=X*XXX;X;X;X=X=XOXOXOX;X;X;X;X;X;X;X;X;X;X;X;X-X#X#XOX#XOX#X#X#XOXOXOX/././.Q.Q.N.V.N.M.N.V.V.Z.Z.Q.Q././././././././././././.^.^.^././.(.(./.^._.^._.^.^.^.^.^.(._._.(. XOX=X:X1X1X:X1X6X5X5X6X6X6X6X5X>X=XXX=X>X=X*X XE.M.N.Q.OXQ.N.N.>.o.+.1.8.k.k.V.P.@X@X@X@XU.P.[.].K.V.Z.B.a.T s u u $ @ @ : e e 9 < , 1 u i , : : : 0 8 0 : : @ - : < e t J | b.B.C.P.P.'.oX&XOX=X;X<X<X;X&X&XZ.%XpX%XyXgXfX;XoXP.P.P.[.[.[.P.U.P.Z.M.9.0.0.0.0.0.0.0.0.5.>.:.:.<.a.a.a.{ ` T I _ 2.b.J.L.K.F._._._._._.^.^.W.Q.oXoXOX!. X*X*X*X*X*X XQ.Q.N.M.N.N.N.N.Q.Q.Q.Q.N.N.W.W.W.Q.Q.Q./.P.P.P.P.P.P.P./././.oXoXoX/./.).).).P.P.P.K.K.K.K.B.B.B.z.z.h.f.h.h.h.h.h.h.h.g.h.h.h.h.h.h.s.p.s.s.s.s.s.s.s.s.s.s.s.s.s.k.B.s.s.s.m.B.s.s.B.s.1.2.s.B.B./.rXiXjXkXH.H 4 ; = 3 / Y.@XP.m.,.,.6.>.@.@.,.9.E.!.;X;XaXxXSXcX;X;Xl.8.>.+.+.@.k.K.x.z.z.z.K.K.J.F.F.Y.Y.F.F.z.x.K.K././.k.8.k.k.1.>.8.O.b 3.k.+.s.B.J.P.U.U.Y.I.0XwXwX@X].P.Z.'.'.'.'.'.'.'.'.].'.Z.Q.Z.V.V.M.M.M.",
"H A A Z Z Z z x v P $.x.(.#X(.(.W.l.>.@.@.1.j.k.K.K.B.f.i.L z w y t t s g z t t y w z j j F a.L.U.U.z.B./.1.o.8.M.M.M.Q.OX-XOX_./.^.l.@.o.5.5.o.0.0.k.V.#XyX).f.H 1 = 1 : < a d f a s K ' ' ` 2.<.1.3.m.Z./././.oXZ.s.1.1.<.U L F { h.s.8.M.OX>X~.!. XOXQ.M.V.@XP.Z.V.B.b.s.a.a.s.v.B.B.V.N.m.k.B.B.B.m.m.k.s.s.m.m.B.B.Z.K.P.P.K.V.B.B.B.B.B.B.B.B.B.B.B.B.s.s.s.s.s.p.a.<.2.2.` ` <.2.<.a.s.p.s.p.p.p.p.p.h.h.f.f.p.p.p.p.p.h.p.p.f.z.z.x.F.K.z.z.z.j.j.k.z.k.k.8.m.Q.OXOXOX X!. XXXXX X~.~.XX~.E.e.8.M.V.V.B.B.s.s.m.P.&X&X|.N.,.o.:.>.1.3.k.V.P.).@X).J.p.` a.a.i.i.s.h.i.T G d u , @ @ - > > > : < p Q Q p 9 > : : : , 0 0 : : e s s s G J T ` i.i.<._ <.m.Q. XOX;XOXoX/.P.2.oX%X#XyXvXvXyXP.P.L.J.L.L.J.G.L.K.V.V.R.R.R.~.~.~.~.T.9.5.>.+.1.p.p.` I n K I v.m.m.v.v.B.).wX).#X#X_._.(.^.V.Z.Z.P./.Z./.OXOXOXOXOX#X#XOXOX/.Z.Z.Z.Z.N.N.M.M.N.N.V.Q.Q.Q.Q./././.P.P.P.P.P./.oX@X@X@X$X$X@X@X@X@X@X@X).U.U.P.U.U.P.P.K.J.J.B.B.b.J.J.L.J.J.J.L.L.L.I.U.[.[.U.P.K.K.K.B.V.B.B.B.V.P.P.K.Z.P.@XK.B.B.V.B.m.m.B.B.s.s.B.B.K.@XrXkXBXkXG.H r ; o 2 H S.[.@X/.m.,.8.>.@.@.>.8.E.E.;X*X;XzXxXaX*XOXk.7.>.+.+.>.k.P.k.s.s.h.z.z.S.F.F.F.K.K.K.K.Y.K.K.wX@XB.3.k.k.1.+.V.o.c 8.k.+.k.z.V.P.U.U.U.[.wXwX@X[.U.P.].oXoX'.C.C.'.C.Z.P.P.P.Z.Z.V.V.B.m.k.",
"u i u , , : > > ; 3 L z.P.P.V.k.8.@.N b b N 1.K.J.J.S.{ C 2 : : : : : , 8 8 > > - ; > 2 4 z { H.I.wXU.B.k.V.M.1.8.R.E.E.Q.(.Q.V.K.k.1.7.@.O.5.u.5.R.E.Q.oX%XK.` y : X - < , , u < , < < e e 2 2 h h k :.m.oX%X%Xm.3.1.3.1.P P #.1.1.>.1.m.P.P.J.G.` z t D J G s D D f s s s s s s s s f D D D D s t t s D D D s s s D D D s s s D f s s s D D D C D G G G K G D f f s s s s s s a a s s s s s s s s s f G G G G s s f f f f f s D C D H { } d.{ { R R R <.<.R U M L U <.i.s.s.2.1.3.8.8.8.8.8.,.4.:.I j w e < < < p s G d.[.rX$Xw.r.8.;.o.,.3.8.k.P.V.B.B.P 6 z w r l z z z z z C r e < p 4 < ; 2 2 4 A ! ) A A s s 9 0 , 0 0 0 , e s D f s a e p e r 4 2 2 l R k.Q.OX%X#XP.z.p.1.B./.@XyXgXhX$XG.[ H ! ^ H C C T I U 1.8.R.u.0.0.u.R.9.1.+.#.i.i.<.` U U _ 4.q.,.,.6.N.|.|.N.N.P.Z.B.B.z.s.p.i.a.a.a.g.g.b.b.G.G.Y.Y.U.I.U.L.J.J.B.B.B.B.b.C.C.b.b.n.b.b.C.C.B.b.b.h.h.h.h.b.b.B.B.B.J.J.J.J.J.b.J.Y.J.b.h.b.J.B.h.h.B.J.J.J.B.n.n.L.L.L.L.L.L.L.L.L.G.L.L.{.{.L.[.[.K.V./././._./.V.V.Z.P.oXoXP.K.P.P.oX/.P.P.U.P.P.@XwX@XwXeXeXkX0X .s > - = ; r / Y.wXwX^.k.@.7.8.>.+.>.8.9.OX-X:X:X;X-X!.M.>.>.:.:.3.m.B.B.K.J.h.f.g.d.i.i.i.i.p.h.Y.Y.Y.Y.Y.Y.L.z.s.3.3.k.m.8.+.+.+.>.8.k.3.k.P.@X@XJ.J.U.J.J.J.J.b.b.b.L.n.b.b.G.b.b.n.g.b.b.g.g.g.g.g.g.",
"% % % % $ # - - > z { L.U.V.k.8.7.@.O.%.N B $.z.U.Y.g.J e : @ # # # # # : , : - @ - - - ; 4 ! D.7XwX).B.s.m.M.8.8.M.W.W.Q.Q.Q.V.x.k.3.7.5.&.5.9.0.R.!.!.oXP.s.F 2 > > 9 < : # # , , < < > ; ; ; w k U m.].oX|.Z.m.<.+.1.<.U #.1.>.6.8.m.P.[.Y.D.J s , : 9 u u # , , , , , , , , # # , , 0 0 0 0 0 0 , , 0 0 , , , , , , , , : # # # , , , , > > : < 9 9 9 9 0 0 0 0 , , $ , , , , , , , 0 0 u u , , , , , 0 0 0 0 0 0 0 0 0 0 0 9 9 e s G ! ! J T T I I I R I I T L F x n L R ` <.:.:.:.:.:.:.:._ I n q : - .     . X : H H.eX$XN.e.8.,.;.:.>.3.k.B.V.P.K.#.6 3 ; ; 2 2 2 r z C ! H A r 4 4 p s A l l H ^ Y Y ^ J G s a u i i i 0 y t a a 9 9 < : - ; ; = ; l / /.Q./././.^.z.*.#.s.B.K.$XpXrX[.T a > > < > - : w z P 2.M.E.R.e.e.6.,.>.k.k.p.R P R <.<.4.4.q.q.r.r.r.E.|.|.|.Z.s.2.` I I I F F F F H F F K K K [ [ [ [ } } { { ^ ' ' ' ' ' ' ' [ ' ' ' ' ' ' ' [ ^ T T T T T ^ [ [ [ ' ^ ^ ^ ^ ^ [ [ ^ T T T T T T T ^ { { { T ' ' ' ` { | ` ' | | ' | | | | g.g.b.L.L.U.#XyX_.^.^.W.l.k.m.P.oXP.P.P.@X@X@XP.J.J.h.s.b.J.b.b.G.n.H. .J e - - - : e A d.U.9X^.x.1.1.7.1.1.1.8.8.(.-X:X;X-XOXE.M.>.;.:.<.s.m.m.B.U.J.f.{ E T Y L I I I R / { } ( } d.d.i.<.<.1.3.k.s.3.:.%.@.>.8.>.7.V./.K.<.L L R R R R T T ' ' [ [ [ [ [ ^ J J J J J K K K H K ",
"% $ % % @ @ - - e J G.[.P.z.p.1.1.@.@.+.+.+.p.z.U.G.| D > @ @ # @ @ @ @ # - @ X X X = = = ; r ( I.wXwXJ.s.k.l.k.8.l.R.E.W.Q.V.l.j.j.1.@.5.0.0.5.R.R.!.OXoXv.L w > e e > @ @ @ @ , < < > ; ; ; 4 k B m.oX&XoXN.w.3.:.B :.<.<.<.p.>.8.Z.oX[.L.g.[ e > @ @ # # @ . . . + @ @ @ @ @ + + @ @ @ @ @ @ @ @ # # # @ # # # @ + . + @ . . + + @ # @ : - - @ @ @ # # @ @ + + + + + + + @ @ + + + + @ @ # , # # @ @ # @ @ @ # # # # # # # # : : : e s G H H J J J T T R ` ` R T L Z n F L U R R _ _ :.:.:.:.` ` K z e < # .   o o - F Y.iXiXQ.w.3.8.3.:.:.3.k.1.B.).P.f.v 3 2 ; ; ; 2 w C H ! ^ ! A r d ~ ( ( ^ Y ^ ^ ^ / { } ! G G ~ ~ W f a y y 8 > : : : - - ; ; ; 3 Y h.oXQ.Z././.K.f.E U <.p.k.P.%XoXB.x 2 o o X o X = w F i.V./.Q.E.R.9.6.>.>.1.1.#.P M U <.s.m.q.q.w.N.N.Q.oXoXP.Z.B.I n w 2 2 2 2 q > > > > 8 8 0 0 9 9 9 e e e r r e e e e y y e e g a e e y y y y y y e e e e e e r r y e e e e e e e e e e e e e e e r r s s s r t t t t t t t t t t y y y t z D m I a.b.U.tXyX_.W.W.l.7.+.:.m.P.P.P.P.oX@X@XP.B.a.I n x n n F F D D D t > - : 9 < > 4 Y S.)._.K.k.7.7.8.8.>.>.8.Q.#X;X;XOXQ.M.8.+.B :.s.m.m.v.B.[.b.` F z w w w j w w r z s r r C C C F M P :.1.3.k.k.1.%.o.@.7.+.>.k.P.B.U h 4 3 3 3 2 2 q q q q 8 q q e q q q e q e q e q e q ",
"5 % $ $ # - > e C d.I.@XJ.s.1.3.@.>.1.$.+.#.s.K.Y.g.T r : @ @ # @ @ @ @ # # @ @ @ - - ; - - e H S.I.wXP.z.k.k.k.7.l.M.M.V.W.M.k.1.7.7.@.&.9.9.5.!.!.(.#XK.` j q e a e @ . @ < 9 p s s r 2 2 h x 1.m.P.&XoXZ.m.3.:.B B U 1.<.i.p.1.N.oX@XL.g.T C > , : : # @ @ . @ @ @ # : : : # : # @ # @ @ @ @ + @ # : : : , 0 @ + . . @ # @ @ , , 0 0 9 9 < < < < < , : # @ + . . . . + @ # # # @ @ + @ @ # $ , , , , , , , , # # # # $ $ # @ @ @ - > e s f D G H J T { { } } R / { { ` R I L L U ` 2.2.2.<.` i.i.{ ^ ! ! ~ d - - - e / [.rXrXoXm.3.m.m.1.:.3.k.:.k./.V.B.k.L l 4 2 ; ; 2 r r r C A A A G ( D.D.d.} d.{ / / d.d.T H ! .. ...~ G g y > : - : : q 2 4 2 l L h.).P.N.V././.Z.<.N #.<.s.m.P.$XZ.2.j 2 o o - 2 z F d.G.U.@XoXZ.M.9.8.8.8.>.N V V U :.1.s.m.m.m.m.m.V.P.).@XU.h.R F w 2 - X X X - - X @ @ # # : # # # # # @ @ @ - @ - # : : : : # # : # # # # # # # @ - - @ - @ @ @ - - - - - @ - @ - @ @ @ - : - @ - - - : : : - - - : : : - - - - - - @ @ @ - - - q y F { J.).)._.^.x.7.o.N V :.8.B.m.m.Z.).@XP.J.i.F 3 ; ; ; ; > > : > 8 : @ - u 9 > 4 C *.J._.).V.5.5.9.l.>.>.8.Q.#X;X;X/.V.k.1.B B <.B.B.s.s.L.L.g.F w 2 ; > > > > : : : : - - - ; 2 w j n U <.3.k.k.3.@.o.o.@.>.>.3.B.K.s.x 3 ; ; ; ; ; : : : - : : : : - - - : : : > > > > > ",
"i 5 # # @ - < C ^ G.wXU.s.1.3.k.+.>.1.+.#.p.J.U.G.} H e : @ @ @ + + + @ # : : - - : e e > ; > r { J.wX@XK.k.k.8.7.l.M.M.M.M.k.7.@.7.5.&.&.9.u.0.!.!./.P.h.L w q e e : . @ 9 s s s C C l w h P p./.oX#XoXZ.m.3.3.U B U <.p.i.i.<.m.Z.oXL.a.T C e : : : # @ @ X X : : , , > , : : , , : : @ @ @ @ @ @ # : : : : : . . . + # , , , u u u u u 9 < , 9 9 9 0 0 0 0 0 + + + + + @ @ # , , $ # # $ , , , , 0 0 9 0 0 0 , , , $ $ + + + + X @ @ : > 9 9 t s G J ^ [ [ / I R d.d.d.i.R L F L I I R R R R / / ^ ^ [  . .| s t z T J.tXtX/.#Xm.3.m.m.<.:.1.1.+.m.P.B.K.P.i.Z z 4 2 ; ; ; ; ; 4 r A H ) ( } d.d.d.g.d.i.i.p.f.R Y ^  .H. .^ ^ F t 2 > > > 2 r r r l x #.B.).V.M.M.Z.Z.k.<.#.p.s.B.P.%X%XoXm.M w ; 2 w T G.0XwXeXeX@XK.k.k.k.1.3.1.+.N V B ,.k.m.m.m.m.m.Z.P.P.Y.Y.Y.d.Y r ; - X X X X @ @ @ @ # # # # & # # + # # # # # + + + + + @ + # + + + O O O O O O O + + + + + + + + @ + @ + @ + @ + + . . . @ @ @ + . + @ @ + + + . . . . . . . . X . . . . . . . X - : q F d.z.K._.(.V.7.%.N V o.o.3.3.1.k.K.@XU.U.J.R w ; = X X = = = - 9 : X X , < < e r Y d.K.tXW.5.5.9.9.>.>.l.(.-X;X#X/.V.3.:.N :.k.K.B.s.h.L.G.{ z > - - - - - @ @ @ @ @ @ X X X - 2 w n U 2.s.s.8.3.1.>.o.o.8.>.@.s.K.K.i.x 3 2 ; ; > > > : : : : : : - - - - - : : > > > > ",
"u : @ @ - - r H g.Y.U.B.1.1.3.3.+.:.1.<.1.z.U.U.S.{ C < : @ @ + @ @ + @ # , , , : 9 s d e - ; 2 H a.U.wX).V.k.8.l.M.E.R.M.M.k.1.>.5.5.&.t.0.u.u.!.(./.h.R F t y 9 > - - 9 f f s r z z k k M p.K.@X#X@X/.V.3.:.o.B U :.2.s.p.p.p.P.P.L.a.T D y 9 : - - # @ @ - 1 9 e e e e e 9 > 9 9 < > : : : : , , , , , , @ @ . + @ : 0 u u a u u u u 9 < , , : : : : , 0 0 9 0 0 , # # @ @ @ $ $ $ , , , , , 9 9 9 u u 9 9 u u u u 5 % $ $ + @ @ @ @ @ @ - : 9 a D H ! ! ^ T / R i.d.i.i.i.i./ I L F F I R { ^ / ( T T | | | { { a.P.tXjXdXtX#XZ.k.k.3.+.U :.:.<.m.Z.V.Z.V.i.I H z w 4 2 ; ; ; 2 4 A ) ^ ^ Y T R { p.p.p.s.z.z.i.E R g.D.g.( { T C r w y t z C F F L U s.V.P.Q.k.8.8.1.+.<.k.k.m.Z.$XpXhXpX%XZ.s._ U i.J.@XiXeXeX@XK.B.k.k.k.#.E N B :.3.8.8.M.M.M.m.m.V.P.).U.Y.d.^ A 4 ; - X X X @ 1 , , , i 0 0 & & # & & # & & 0 0 & # + + + + + $ $ $ % + O O O O O O O + @ $ $ $ $ $ $ @ @ @ @ @ @ @ + + + + + $ $ $ $ $ $ $ + . . + + . $ $ $ $ @ $ , $ $ $ $ $ @ $ @ @ - > t Y d.K.wX_.W.k.>.@.o.o.o.1.1.1.k.B.P.@X[.0Xb.T z 2 - - - : > e a p , : , < p s C Z E F.).~.u.0.9.9.5.9.W.#X-X#X/.Z.z.1.U U s.B.J.B.h.b.G.D.T y - = = = X @ + + + @ @ + . . @ - : q z I ` s.3.3.3.7.1.>.o.8.1.@.1.B.K.h.` l r ; ; ; : : : : # @ @ @ @ @ @ @ - : , < < < < ",
"9 : - < e y F } Y.U.U.s.1.3.3.:.U :.<.<.s.K.U.L.d.T r : : : , : 0 , # # , 9 u u p a G G p : - > C R J.@X).V.M.l.M.W.E.E.M.M.8.>.@.5.0.9.0.t.0.R.!.OXP.<.F z t e < - - 9 s s s t w z x M U 3.V.OX)./.V.k.3.>.+.B +.:.2.2.a.s.J.P.P.L.a.I z y e > : : - # , 5 p a s s s f f s s a a e e e e e e a d a u p a u , @ - , p a a a d f a a u 9 9 9 9 9 : : : : : , 0 9 a i u 0 , , , , # , , u u u u u a s f f a a u u u u u u u 5 5 % # # # @ @ @ : : > e a s D G ! ^ / *.*.*.d.d.h.h.g.d./ T Y Y T ^ / ( } ^ T ' { { a.s.B.@XdXfXuXtXK.B.k.<.#.U +.<.2.k.s.s.Z.Z.m.s.g.{ H Z C C s r 4 4 r C F Y Y Y L I R i.s.s.k.V.V.s.#.#.f.h.h.d.d.R F Z C F H F T ` i.<.s.Z./.Q.V.8.1.1.:.B +.3.s.k.B.P.$X%XpXdXhXpX%XoXoX$X@X[.[.P.B.h.s.s.<.<.#.E E :.k.M.M.w.r.N.N.N.V.B.B.J.D.( A < ; = = - X X @ # 5 i i i i 0 0 & # # # & & & 0 0 0 0 0 0 $ $ + + + $ & & & & $ $ $ $ $ $ % , u u u i i i u 0 , , $ $ @ @ $ , , 5 5 5 5 i i u 5 $ $ + % % % 5 5 5 % $ 5 i 5 5 5 5 5 , % $ @ @ : q z F d.U.^.^.W.M.8.>.@.o.:.>.3.k.k.B.K.U.eX[.Y.g.J y > : q t D f a p u < < p A C C Z *.x.!.~.u.0.5.9.E.*X;X#XOXZ.B.s.#.N s.B.B.h.B.L.Y.g.{ D 2 - - - - @ @ + + + $ $ + + @ @ - : q t F T 1.3.k.8.7.1.>.>.%.1.j.1.p.s.h.f.F r > - - - : - , # @ @ @ @ @ @ : : < 9 u u u u ",
"e > 2 s F F { G.U.@XP.s.1.3.1.B U +.<.1.z.P.K.h./ Z 2 - : 9 u u d p u , 9 p a d d f ~ G a : - > x I h.U.).Z.V.M.W.E.!.W.N.M.8.>.@.t.9.R.0.t.0.R.R.OXP.R z t s 9 9 - - e s s t x l x U <.k.V.(.-X#XK.p.#.+.+.+.+.:.2.s.2.a.b.U.eXL.b.` z q 2 > : < : # # , p d ~ s C G G G G A s s r a r s s C G f a a a f s 9 - < a f f f s f f a a u 9 9 9 e e p 9 < , , , 0 9 u u u , < < , < : , u d f W W W f f f f s a 9 9 9 u u u 5 5 5 , , # # @ @ @ - : - : : > 9 e f H T E R *.d.d.d.d.d.d.d.d./ T F C ( d.D./ I I ` ` _ U :.k.Z./.^.^.f.s.p.R P +.<.1.V.P.<.U V.oXZ.Z.J.g.^ H H H H G r r l C Z Y ^ d.R R <.p.p.3.k.Z.V.j.$.1.s.B.B.h.d.R Y F Y T T R ` i.h.s.V.oXOXQ.8.>.1.8.3.o.N B 3.3.s.m.m.Z.%XhX;X<X<X;XpX%X$XP.m.s.<.<.<.U M k R p.z.V.m.8.w.e.r.N.|.oXK.z.p.*.A r > = X X X X # @ @ $ u i a a i 0 , # # # 0 0 0 & 0 0 0 0 0 u 0 & # # # & 0 i i i i 0 i 0 & & u u u a d f f f a a u u 0 , , # 5 u p p i i d d W d a u , $ u i $ 5 5 $ $ + $ $ i i i i i u 5 , @ @ : < q r Y h.z.K./.W.l.>.>.>.o.>.8.k.s.s.s.B.wXwX0XI.d.C 2 > > t s e 9 u u , < p A A C Z R p.!.~.~.0.5.M.*X:XyX#X/.B.z.s.R v B.P.B.i.B.wXI.| F r ; - - : > : $ $ $ $ % % $ @ # # : : > y D K <.3.k.k.7.>.1.8.b >.x.k.<.<.p.h.{ H r : : : < , u u 0 , , , , , 9 u p d f f f f ",
"; 2 r F T { h.L.@XK.s.1.s.k.1.o.1.:.+.<.B.).J.d.Z l 2 - - 9 d f f f W f d p a f ~ ! ..G > - - 2 w F i.J.)././.V.!.(.Q.M.8.8.8.>.>.9.R.0.t.0.~.!.(.V.1.L z C s s < : : e s s r l x U 1.3.l.Q.OXOXK.z.p.+.N N +.3.2.<.<.s.K.@X@X@Xh.R x y q e > : - : < < p d d A s t s C C D C C s s s s C D G H f f f s a a a a f ! ! G f G G f a 9 9 9 9 e a s s s G s a 9 , : : 9 a a p 9 u p p f ~ ~ ~ ) ~ ~ G D D s t e 9 > < , , , , 5 5 5 , , , , , : : , : : : : : e s G Y Y R / *.d.d./ S.d.d.d.d.} ^ Y ( ( ( / R U U _ B B o.>.k.k.c.z.p.i.R L #.K.K.<.B.s.<.2.Z.oXoXP.Y.D.{ ^ ^ ^ ~ G H H ^ ( f.S.h.f.i.s.p.<.3.M.M.k.8.7.$.k.Z././.K.p.L x L / R T I R R p.P.%X%XOX|.V.k.k.k.>.>.:.V B +.:.3.m.Z.P./.+X<XaXxXsX<X+X&Xm.2.U V N U _ <.i.p.s.B.Z.Z.N.A.|.|.Z.m.p.R S l 4 > - - - - - : 9 9 9 i u i 0 9 9 9 < < , < p a < > , : : > 9 a a u 9 : @ : 0 9 u u a f a a i u a s s f f f f f f f f f f a e < p d G G d s d d d a p d f a , - @ $ , , , # $ # $ , 5 u u u u u # : : > 2 r l x <.k././.W.8.8.7.8.1.>.:.1.k.k.h.h.U.wX0XY.g.T t r r e e e 9 u 9 u < e C Z z E j.R.`.`.y.9.R.*X:X_./.Z.k.1.#.#.#.P.J.J.J.L.J.g.{ C 2 - ; < e p a u % % $ % 0 i i u 0 , , > e t x U :.3.8.7.1.7.8.N 3.k.<.#.s.B.h.G.} C 2 : : < 9 u i d d p u u u p a d a d f d p ",
"2 w x I i.p.B.P.P.B.1.1.3.3.1.+.3.1.1.s.B.K.z.R Z z 4 ; ; e s f f G ~ ! ~ s s f ......! e - - > r n R z.P././.W.!.(.E.l.8.8.1.@.5.9.9.5.0.u.!.!.!.k.U x C C s p < : < e e 2 w x U 1.k.V.Q./.(.Q.z.i.R R #.<.<.2.<.1.s.B.P.P.P.J.E F w y y s e : - : < p d s s s r r r r C C H H C C C C C C F H J G G s t s G ! G ! ! ! [ [ G s a e e q e r C C H H ! H f e 8 8 9 e s s a a s G f ~ ! ! ! ..! ~ G D D t y e 8 > : : - : , < u u u 9 u 9 9 9 9 9 9 9 , : : , 9 e C Z L E / / / ^ / / d.S.S.S.d.d.S ( ^ / R P N B V :.8.3.+.+.j.K.z.h.R x L s.P.P.s.s.2.m.P.&XoXP.b.g.} { } [ ! H H ( D.7X9X9XK.z.p.s.s.1.k.W.Q.W.l.9.9.M.(.#X_./.#.L x L E R Y I E R i.Z.&X+X%X;X#X/././.m.8.k.>.k k b 3.Z.oXB.1.+X;X1XaXaX1X1XaX&XN.:.b b U 3.B.B.z.B.V./.+X%X%X|.Z.s.<.L z 6 4 ; - - - - : 8 9 u u a f a a 9 0 > < p p p d s A r e e 2 > > > q s a e > : : > > 8 e a a a a a g f D D D D C t t C C D D D D D D C A A H H H H H G s s s s a 9 > @ : < 9 9 , , , : , , 0 u 9 u u 9 9 > : > 2 3 w L <.B.Q.Q.V.k.k.8.>.:.+.:.1.k.B.p.J.[.[.U.L.h.{ C t y q > < < 9 < : < C F Z L +.R.~.`.!.R.!.*X;X/.Q.V.s.<.#.<.s.K.B.J.J.L.b.d.^ r > = - < e a d u u 5 5 u i i u a u 9 : > e t x P +.3.8.8.8.7.7.>.>.1.3.p.<.h.J.L.g.T r 2 : < < d W ~ ~ ~ d f f p s s p p p p e ",
"h x U i.z.B.P.P.P.k.3.8.3.+.+.>.1.3.8.k.V.B.p.P x x w ; ; e s f f G ! [ ~ G G !  .D. .J e ; > 2 x n E p.V././.Q.(.!.W.9.7.>.>.+.0.0.5.5.9.!. XOXW.1.V x C A s e p p p e e w x R s.B.P./.OX/.V.k.h.R L R s.s.<.:.<.s.Z.oX).V.s.<.x w w y C s e : - > a s A C r r 2 2 w r z F H T T Y F C z z C Z D C t y r D ^ g.J D D T | { H C y y y q y z Z H T ^ ^ ^ K D s s G G G G G G ! ( ^ } ..[ ( ! ! G F D z z z t y q > > : : < < e p a a a a a a a a a a u 9 , : : : 4 h Z Y / { { { ^ / d.f.S.F.F.F.F.f.*.S v M +.<.:.:.+.+.:.1.1.p.i.f.h.f.i.p.h.B.v.B.P.$X$XoXZ.m.I T ^ ^ ^ ! H G }  .S.Y.J.K.K.K.K.K.V.k.l.W.W.R.R.M.R.Q.(./.V.j.P P L L L Y L n x n L <.k.N.oX%X%X#X#XOXM.8.m.,.>.o.V B 3.s.2.:.N.Q.OXOXOX=X1XzX<XOXN.8.3.3.m.m.P././.@X@X%X%X%XB.s.R x 3 2 2 > - @ - : 8 8 e a a g g f g a 8 8 > 4 r A A A A F Z Z Z l 3 2 2 q t t w w q 2 > > 2 2 q q q y g D F F F n x z w w w j z x F I T R Y Y Y Y Y F Z z z z C D C y 2 > : 8 a s s a e e > 8 9 9 e e e a d p < : ; 2 2 3 z L i.B.P./.Q.V.8.1.:.o.B +.3.m.2.k.B.K.U.@X@XP.R H z q > ; : < < : e F Y L x v 9.~. X*X*X*X*XOXV.V.V.3.+.+.s.V.B.z.z.J.S.f./ F w ; = - < e a d p p u u a a d a ~ f e : : 2 r C L +.1.k.l.8.7.1.k.%.%.s.k.<.i.P.U.B.i.F r 2 > < d d ~ ~ ~ G A A s G G f a a a e ",
"V U 1.k.V.P./.P./.k.k.k.1.o.o.1.:.3.m.m.V.k.#.v l l w 2 2 e t s G G ~ ! ! ! } H.H.D.[ t > ; q z F n L #.z./././.(.!.R.8.1.>.@.@.8.6.>.0.E.OX XE.7.+.v x Z C a e d f G A C F { J.K.P.oX$XoXZ.s.<.p.{ R i.b.h.2.:.s.B./.@X/.k.P x j j l z z r 2 : > e s G A C r 3 w r l l C Z Y / { { ^ Y z r l l w w w r F T } d.F w w F ^ T F F z t z z x Z F L L Y R / T T T J { | | [ ( ^ [ } } } } ^ J H H D F F C F F F D z r y e e e e e a s s d f G ~ ~ f f f f a 9 , : : > 2 r Z Y / d.h.d.i.*./ *.i.f.S.9XY.f.%.S v E +.<.U N U <.s.<.U <.i.J.@XP.p.<.a.P.@XrXrX$XB.<.P j x F C C s A H  .D.D.d.R #.$.p.K.K.V.V.V.W.W.R.R.R.!.(.(.l.@.N P i.p.R E E L z h w h k V U k./.#X#XyX;XQ.e.A.8.N.M.3.B b b B 4.3.m.V.N.E.E.=X1X1X1X=X+X.X'.r.w.oX#XyXpXrX@XJ.h.` T z q 2 > < < : : > 8 y g g g g D D m g y q q 4 3 l Z Z S S S E R R L l h w l z z z l z l w w 2 3 2 2 2 q t m L L n x j h w w w w h h x n I R *./ E Y Z l 6 3 l z F H F t w q y C H K G C r y y y r e y y s C G s 9 : : 2 y t l x L i.B./.@XoXV.k.1.+.N U 1.k.3.s.k.m.V././.@Xz.g.T C r > : : < > r F I L v b O.9.!.*X;X-X(.E.M.V.M.3.+.+.k./.x.x.z.z.h.i.L z w 2 ; ; > e p a a a s s f G G G ..G e - - > r C v B 1.k.M.l.8.>.M.+.B 1.s.<.i.J.Z.Z.B.i.Y r 4 < < p s G A s s r C H ^ ! G C C s ",
"1.3.k.k.V././.Z.k.7.7.8.>.o.@.8.,.8.M.M.l.1.N c c k h 3 2 4 y r A H H ^ ^ ^ g.H.g.} J t 2 2 w C F x x P p.V./.Q.(.E.M.8.1.>.>.1.k.3.8.N.OX*X!.l.O.b v L F r 4 < a d f G H { J.U.@X@X@XoXK.v.<.` i.{ i.h.b.h.s.s.m.Z./.Z.k.%.b 6 h z z z r 4 2 > 4 r C H Z z l h x z l l l Z Y / h.g.d.T Z w 3 w w 3 w F / i.R F h 3 l Y R L F L F F L L L L L L L L R { { ` T T } g.g.D.g.d.} } / T H F F C F F I Y Y I I I F x z z t r t z C C G f G ~ ! ....! ~ ~ G f e > : : : 2 2 r z F T { d.i.i.#.E P %.#.=.p.z.x.z.=.v c x P #.<.U U <.s.B.p.p.h.h.i.s.L.@XwX@XB.<.V k k j z z r e r A ! ! ( d.d.#.E N N $.1.k.V.W.W.!.!.`.`.!.E.M.8.+.B 1.K.P.B.i.R F l l w w h h k U 3./.OXaXfX%XOXOXE.,.8.w.3.B V V B U 1.k.m.M.E..X>X5X2X3XXX.X.X.X.XOX%XyXyX@XJ.{ Y C r > ; < p a a e e a g g f D D K K K m z t w w l Z Z Z x S S E %.#.p.#.M k k M L L L L L I I Y F F z w w w z L I L M x j h h w w h h h h x L R F.f.E x 6 6 z F T Y F F x r y t F J ^ ^ H C r w l z l r r t C F ! s e : ; 2 y z r l x L i.B.U.@X/.Z.k.>.o.+.>.8.1.1.8.8.9.M.Q./.P.J.g.^ H s e e e 2 w x L L v b b >.W.OX-X-X(.N.M.M.k.>.o.@.k./.V.V.x.z.p.P x h 3 2 > > 8 a s s C C C H ^ ( ^ ! ^ G e ; - ; r C v N +.8.M.M.8.>.k.1.+.U #.<.p.p.k.m.Z.B.i.L l 4 4 4 r C C l r w w F / / Y F Z z ",
"1.8.l.k.l.Q.W.l.o.+.>.@.%.@.7.l.8.e.N.N.M.1.N 6 b v x h w w r z C H / g.d.{ { g./ [ T K m j z z x z x L <.k.V.W.Q.R.9.0.1.>.1.8.s.3.m./.OXOXE.9.N b b L Z r 4 e f G G H / G.U.@X@X).P.P.B.a.2.i.' { } g.h.s.B.K.V.V.x.j.$.N b 6 h j z z w 4 4 e r C H Y L x z z Z Z Z z z Z ^ d.Y.Y.S./ Z l l z x h x L R E x 3 3 k E a.f.<.E I I I R R R U L L E #.i.p.i.R I L T / d.h.S.g.d.{ F x z x Z x F L R *.i.i.d.R L n x x x x x F F F G G ! .. . ...! ! ~ G s e > : - > 2 2 2 2 2 l z L #.f.f.p.%.P N N +.j.x.K.z.=.E S L E E R ` ` ` h.<.R i.p.h.B.U.@XK.s.M h 3 h k x x x r 4 e A ! ! ^ ( R E %.o.@.$.1.c.V.W.W.W.!.*X(.R.9.8.,.8.m.P.@XtXU.h.R L x x j h w h h k V :.1./.%XOXOX+X XN.r.q.m.m.m.:.V N P +.>.8.e.y.~.4XXX3X5X2X2X3X2X+XOXQ.m.<.L Z C 4 < - - < a d f f f G G G K K K [ T K K n n n n L S S v x v S N %.$.k.1.B V I <.p.i.*.i.d.h.S.h.d.i./ L z x Y { R U L n x j h h j j x k x n U *.Y.f.Z 3 4 l ^ S.S./ C y 2 2 w z T / { / Y Z h 3 l l z l l l Z F ^ H s > ; : q t t r l z L i.J.U.#X/.V.8.1.>.>.7.>.5.0.9.9.9.R.OXK.J.h.d.( H G C r y w z M N V b b @.M.(.OX(.Q.N.M.k.7.@.@.>.l.W.W.W.x.k.#.P c 6 2 2 2 2 r D G G L L Y ^ { d.{ { H C 4 ; ; 4 r C M V o.1.l.M.l.7.7.8.$.N P p.f.<.>.8.N.P.B.i.S l 4 3 l l l l w 3 h Z R i.i./ R L ",
"@.8.9.8.l.W.M.7.O.>.>.o.o.7.l.8.w.e.E.E.Q.l.%.c N E E L z Z Z Z Z Y d.S.g.{ { i.} d.g.d.{ I n z x n L R p.k.Z.Q.W.9.5.5.>.>.7.m.s.s.V.#X-X(.E.R.@.N b L Y Z C C ~ ~ ~ H ^ S.U.U.U.P.P.P.b.i.a.b.[ T ' { { a.b.K.V.V.k.j.j.$.@.P x x Z F F C r r r Z ^ / R L v v L L L S L R f.J.9XU.S.*.S x L R R U P U P M k h M R h.h.h.p.i.R R R R R R #.#.#.p.h.J.J.h.<.L n x L R i.i.i.R E z x x L L x x L R i.S.J.J.f.i.<.R E U L L L I I J ! [  . . .[ ~ G G f s e 9 < 9 e t t y q 2 3 w n #.z.K.z.1.%.%.$.@.@.$.c.F.F.F.f.E Z L R a.' I U U <.a.s.h.b.B.L.b.` x w 3 h n M L Y F C a f G  .( Y Y E 1.l.W.x.x.x.W.W.l.T.~.OX!.E.M.M.N.Q.OXuXtXtXU.h.R L T T F x n x h h h k b +.M.N.|.+X|.sX+XN.m.Z.Z.m.<.U U P B o.;.t.t.t.y.3X5XMXMX2X3X=X Xw.+.k h r d p p 5 , , u a W X.X.~ J J ' J J T T T T R U U U E E L S v v N %.@.j.V.k.+.B :.v.L.Y.S.S.Y.Y.Y.Y.h.g.d.T F F / g.g.a.{ I L n x j x n L L L I i.h.F.*.l 3 l ^ S.Y.d.Y C y r q t C / *.d.d./ Y Z Z Z Z S Z Z Z S Y } ^ H e : > q C z z z x F R S.U.#XoXZ.M.k.8.7.>.O.>.0.R.u.0.u.!.Z.J.h.i./ Y H C C z z x L U B N N 1.V.Q.Q.W.W.W.l.7.@.@.5.9.9.9.W.x.x.j.#.P c h 3 l r r C J ! ^ E E R #.i.i.{ / C r 2 ; ; 4 A Z L V N +.k.N.M.8.7.k.3.B P <.i.+.,.6.N.Q.P.z./ S l l l l l l h 3 h L E i.i.p.i.#.",
"O.>.8.8.l.W.M.>.@.8.k.@.+.k.M.8.8.e.E.E.OXQ.7.N P #.<.R L L L L Y E *.d.d.i.d.G.J.J.J.G.a.` I n L L R p.k.V././.M.8.>.>.>.>.7.V.s.k.Z.#X#X/.Q.Q.M.%.b L R I F H A G G C Z / h.J.P.P.[.U.G.a.a.H.{ T I I I ` s.B.K.V.k.z.V.^.x.z.R L L I { R Z w l F / d.*.E L L Y E E Y R d.Y.wXwX9XY./ S S *.h.B.h.p.<.U U U R p.B.B.p.p.b.B.p.<.R R U R #.p.p.z.B.P.U.J.p.U L x Z L E E E L x Z Z L R R S l l L i.L.9XU.U.L.L.z.h.p.` R I I L T ^ |  .D. .^ G s s s r e a s s t D H F x z l j U p.K./.V.j.1.1.@.@.@.$.j.c.-.=.=.=.R L M n I _ U <.2.<.<.a.s.b.B.h.a.U M k k x E i.d.d.( H G G } } d.h.K.^.^.W.^.^.W.^.W.T.~.*X!.*X;X;X=X+X+X;XvXyX@XP.h.R I { g.} ` ` R L k c b b o.8.M. X=X+X+X.X|.'.N.Z.V.B.k.1.+.B o.@.O.O.0.y.y..X.X3X3X2X1X;XN.:.k h r r G ~ d u - : a ~ X.J J J J [ [ [ T I R R <.R R U R R #.E P P %.o.7.x.^.V.3.:.8.P.U.Y.J.J.Y.Y.Y.h.d.d.{ T Z F / g.J.b.a.` R L n n n L I I I ` p.J.h.E Z S d.Y.Y.S.T F Z H T J F F *.f.f.f.f.*.R E S P E E S S E R } | T C 2 2 z T D F F F L ` J.U.#X/.Z.V.M.l.0.5.O.>.u.~.u.t.0.!.^.K.h.d.R F x z Z F L L U #.#.+.+.k.Q.Q.M.M.W.Q.k.@.O.O.7.T.l.7.T.l.l.3.+.N v k z Z Z C F ^ [ ^ E %.%.R #.R E L l w 2 2 4 3 C S P N N o.8.N.M.l.8.k.3.+.+.#.<.+.6.0.M.Q./.B.p.E Y Z Z Z z x c h c x L P #.i.p.#.",
"N +.3.V.Z.Z.V.M.k.W.M.>.+.k.l.7.8.w.E.OX;X;XQ.3.3.1.p.p.#.M L R L E E #.*.f.F.U.wXtXtXU.J.p.<.R R P k.K.z./.#XV.k.k.1.+.+.1.3.1.@.V.(./.W./.#X;XoXk.+.P ` i.` I H H C r w z I i.L.U.U.L.L.L.J.s.b.I j k _ <.:._ <.B.@X@X@XtXtXtXJ.p.#.i.f.f.E x l n ` a.h.i.R L L E / i.h.Y.wXtXdXU.i.L Y / h.U.wX[.J.s.s.B.U.rX@X[.B.<.<.B.L.B.p.h.p.<.#.p.h.z.K.).wX).U.K.p.U L Z l z S L Z l L R i.h.d.L h 3 x R J.7XwXtXtXtXwX[.L.h.i.{ { d.D.g.d.D.g.^ Z z q w r z z C F H F I I I L U 2.h.K.P._.).K.z.j.j.=.p.p.#.P N %.#.p.j.z.#.b c v U R R <.2.` ` a.v.b.b.B.B.s.:.U U p.J.Y.Y.S.d.Y l d.*.f.K.wX#X(.(.x.l.j.T.(.^.E.*X*X!.*XxXDXxX1XaXfXpX@XB.U n I g.G.J.J.h.1.+.o.N V ,.,.r.;X=XE.|.|.OX=X<X+X|.N.M.Q.M.7.o.b b %.$.k.8.3.6.r..X3X2XsXgXpX/.2.V k j z F F C q : e t g m K J T T L S L Y E #.#.<.#.U P %.#.1.+.N +.k.^._._.W.V.W._._.).K.U.).K.h.*.R Y E Y Z l z R d.U.@XU.b.i.` R I U R R R i.B.J.J.p.i.f.U.tXwXh.I x x R G.J.g.{ i.h.f.z.B.z.$.+.+.%.%.+.+.U U #.d.G.D.{ D w w F R L P R i.z.K.)./.Q.W.V.M.l.8.>.O.O.5.9.R.9.0.0.l.K.J.f.E x l l h x L R p.*.U #.p.3.Z././.V.V.V.l.7.N N 7.W.l.7.l.8.8.k.8.>.N M n n x F T / ^ T ^ E E #.p.i.P x x h 3 3 w l C A Y P O.@.@.7.l.N.Q.Q.8.1.k.#.v %.l.6.0.M.V.V.z.f.i./ / E S S P N M v c c L #.#.U U ",
"M P #.s.B.V.V.Z.V.M.k.8.8.8.8.8.8.m.Q.+X;X;X+XV.k.3.p.s.1.U P U *.=.p.=.=.p.F.K.wXtXtXtX@XB.<.P #.1.V././.)./.V.k.3.>.+.1.1.3.1.9.^.(.(.W.Q.#X#X#XV.s.<.<.<.<.U L L Z z w l x F i.G.[.[.[.[.L.B.m.4.V V B U U _ a.b.J.J.U.wXtXtXtX).K.z.h.p.<.U x n I a.L.G.a.I R R i.h.U.[.7XU.f.R x x x E h.U.rXiXdXdXdXdXjXjXrX[.s.U U s.L.[.).wX@XU.P.).tXtXtXtXtX).).).P.J.Y.S./ S x x Z Z S Y *.S.Y.f.E z l Z { Y.wXtXkXkXtX0XG.i.{ i.h.Y.G.g.{ { R F l w 2 w l x L I / i.R <.<.<.s.k.P.@XrX#X)./.K.z.f.p.f.f.j.p.1.$.$.1.1.1.1.1.1.+.+.N M U ` <.` ` ` ` 2.s.B.C.Z.B.k.k.B.J.Y.Y.U.Y./ l L E h.)._.^.x.j.7.j.0.T.^.l.l.!.(.M.9.E.=X1XzXxXfXrXK.<.M n ` L.wXU.B.s.s.8.8.8.e.|.|.E.+X XA.Q.Q.|.OX+X+X X|. XR.R.9.7.1.$.#.%.E #.<.3.w.A.|.|.pXgXgXfX&XN.3.4.V I I I F F C z w j j x x S S S S E #.p.z.B.k.3.$.+.$.1.1.$.k././._._.(.(.-X-XyX_.K.z.z.p.#.E E *.R E x l z E i.U.rXrX@XP.J.B.s.<.<.<.` s.J.P.U.P.U.@XrXwXP.i.U U h.U.U.P.U.P.B.B.h.B.P.Z.k.1.>.7.1.>.@.<.p.z.J.Y.g.F z z n R p.i.<.p.B.#XyX#X/.W.M.M.N.l.1.@.@.@.5.9.l.M.R.E.Q.K.h.R v l x x x S P #.p.p.#.$.k.Z./.#X/.l.k.k.k.1.%.O.7.l.k.7.l.9.l.W.V.k.:.N M x x F R } { ^ E E #.*.f.z.p.#.U k j h x F Y Y R $.7.l.W.V.N.N.N.M.M.M.8.1.$.p.k.e.y.E.Q.Z.s.*.R *.d.*.R #.<.<.#.p.#.#.#.#.#.E E ",
"<.U U #.p.B.P./.Z.k.7.l.l.7.>.8.8.M.Q.oX%XyXyX%XZ.k.p.s.s.1.+.P p.p.f.f.p.p.f.z.K.@XrXtXrXP.i.P <.V.K./.#X).Z.V.k.:.o.1.8.8.3.8.W.(.OXQ.W.W./.#X#X@XP.k.<.<.<.<.R I L Z x z h w n ` J.[.wXwX[.P.m.3.:.:.B I U :.s.b.h.h.b.U.wXtXjXdXdX@XJ.h.p.p.I M L a.[.eXL.a.p.i.` i.b.b.a.R x x n I ` i.G.U.@XrXdXjXjXdXiXrX@XC.<.U P <.B.wXdXjXvXjXjXJXJXJXJXvXdX@X@XrXdXdXkXtXU.d.L z Z Y Y Y / S.7X7XY.d.x z l F g.Y.I.Y.Y.g.R T T g.I.0XY.g.R L x l h h 3 l n I i.a.h.B.s.s.B.B.P.@XyXdXyX#X/.V.z.k.1.+.+.+.<.1.3.1.>.@.+.@.1.8.k.3.<.U x I R U _ 2.2._ ` 2.v.Z.P.oX/./.).K.L.U.0X7Xd.Z 3 L h.)._.k.$.@.@.7.l.T.W.7.7.E.*XE.5.;.8.Q.|.Q.Q.k.<.M k x ` G.wX[.P.P./.OXOX=X;XaX+X|.|.M.8.M.A.M.N.Q.&X+X;X;XE.R.e.9.M.k.$.%.v P U +.:.2.m.N.OX;XaXsXsX;X X|.r.3.:.4.s.i.U M k k j j c x S S S S E f.K./.P.V.k.s.3.8.k.M./.;X-X-X-X-X-XuXuXyX/.z.p.R P P #.i.J.z.i.Y z z Z I i.J.wXrX@XP.b.2.<.i.i.a.B.@XrXrXeXiXdXtXP.p.` R p.eXdX[.L.eXrXU.J.J.K.@X#X_.W.N.Q.W.M.k.V.P.tXiXI.{ x x I ` i.h.J.K.).rXuXuX-X_.W.l.l.M.l.>.>.8.8.8.7.l.R.Q.Q.Q.z.R x l x L P E E #.p.f.p.1.f.x.oX#X#XZ.k.k.7.3.+.%.@.1.7.7.j.8.9.M./.OX/.m._ M x x L i.S.g.d./ *.#.*.f.J.z.z.s.U M x L R { { i.p.W.(.-XOXQ.N.M.8.Z.Z.1.#.z.F.j.E. XOXoXV.1.#.E h.S.J.J.K.P.P.V.K.z.z.z.p.#.E P ",
"B.a.R U <.h.K././.V.k.k.l.8.8.1.8.m.N.Q.oX%XpXpX#XV.s.p.k.s.<.U $.f.z.z.z.1.#.#.i.s.J.P.P.B.<.P <.K./.K.#X/.k.k.3.+.+.8.M.8.8.V.OX-X(.W.l.l.Z./.%XrXtXK.1._ <.s.i./ I I R I n l h n ` b.U.wXwX@XB.m.m.3.:.U _ <.s.b.b.f.f.G.U.@XdXdXjXdXrXP.C.B.<.P N ` P.iXiXeXb.` n x x n j w j n ` n.b.a.i.a.B.C.K.P.K.B.B.B.B.s.<.2.<.U <.C.dXjXJXJXLXLXLXLXLXSXdXwXwXrXdXdXkXkXtXU.h./ / { *.R R i.Y.wXwX0Xh.T z w z F L F F x x I g.[.eXiXL.i.L x k h k x L U i.h.B.J.L.P.K.K.K.@XrXrXyXrX/.Z.k.1.:.+.+.+.V V B :.8.3.>.o.o.>.k.8.>.:.1.s.U <.U M I 2.2.` _ <.2.s.V./././.@XK.S.J.I.Y.d.F 2 x f.K.K.1.$.3.&.l.W.W.R.>.>.W.uX;X!.8.>.,.o.V U V k x v M I ` h.L.@XpXfXaXaXaX;X+XQ.N.M.3.>.>.,.,.>.8.N.+X+X+X X.XN.M.e.8.3.1.#.#.U P L U p.B.V.N.Q. X=X<X1X2X=X XN.M.N.N.8.>.:._ P L P S P P P S P #.B.@X%X%XoX/.Z.P./.#XuXfXgXfXyXyXyXyX#X/.j.#.P M L R h.P.rXtXwXJ.i.L x x I a.P.@X@XL.h.a.2.s.B.P.@XdXdXdXwXrXeXP.a.R <.s.U.iXdXU.P.eXrX@XU.P.P.#XdXfXfXaXaXyXyXyXdXdXdXdXJ.R x T h.h.s.s.).yXfXfX#XW.W./.M.M.M.8.1.8.8.l.l.k.k.M.Q.Q.l.p.E x h x E i.p.<.#.1.f.s.k.k.z.K./././.Z.M.k.7.3.N @.7.1.1.7.l.j.l.l.V./.#X/.s.I x x I g.Y.G.d.d.E S P *.z.B.B.V.s._ N U i.d.h.f.x.(.yXuXOXQ.M.A.w.N.m.:.#.k.x.k.!. XOXQ.k.#.#./ J.U.9XwXtXtX#X@XP.K.K.B.s.#.+.#.",
"G.d.I L E p.J./././.V.1.7.M.l.5.8.m.V.V.N.OX;XyXyXoXk.3.k.k.k.1.3.z./._.K.p.P V k b M P U U U U s././.Z.#XK.1.1.:.+.1.M.M.1.k./.#X_.W.l.7.7.M.Q.#XyXyX@Xs.<.<.b.h.i.R i.a.f.i.E x x n R b.[.@XrXoXQ.N.m.s.<.<.U <.i.h.h.a.a.J.U.P.#XfXSXSXdX@XP.m.4.U U 2.].iXjXiXeXP.b.s.a.a.a.L.L.[.@XL.a.R U s.2.2.2.2.s.s.s.2.:.U _ B k V U z.U.rXdXjXDXSXjXdXrX@XP.P.[.@XeXtXiXtXeXI.Y.h.a.g.i.R I R h.7XtXiX[.b.' F n n n n F { L.iXjXkXeXh.R x k k x P R p.B.K.U.U.U.).@X@X@X@X@X%X@X/.V.k.3.>.o.N V o.;.B B ;.,.A.M.8.,.,.8.m.8.1.:.1.3.<.i.R N I ` ` I U _ :.<.s.Z./.Z.U.J.f.i.i.{ I F l F i.p.<.+.1.l.l.W.^.W.W.7.>.N.-XcXcXOXM.w.>.V B V k M L I L I R B.rXgXfXyX;X;XoXm.8.m.8.3.:.o.B B B >.m.N.Q.Q.+X+X.X|.N.r.w.k.s.p.#.E S E *.p.k.8.9.M. X=X2X1X5X2X=X>X=X XE.e.V.V.m.k.j.j.-.-.$.%.P +.k.#XgXSXjXgXgXgXvXDXDXSXSXfX;X#X_.Q.k.1.P V M M N P s.J.@XeXdXiXwXG.` L n M U ` U U ` 2.b.P.eXiXjXjXdXeXJ.J.h.` I R n.U.iXeX[.U.U.[.[.@X@X]./.#XfXDXFXFXDXDXFXJXDXjXrX@Xi.P L i.B.K.P./.yXaXaX-X/.l.l.l.l.W.M.@.@.M.Q.M.k.k.B.P./.P.p.P x l z R f.h.p.#.<.p.k.k.k.V.Q./.P.P.Z.Z.V.k.1.+.N 1.k.1.1.k.l.j.l.8.k.V.#XrXP.<.n x L i.b.S.d.*.v c v E s.B.P.@XP.s.R R i.h.J.J./.-XuXyXOXN.A.A.Z.m.4.:.<.p.z.Z.OXOX!.M.>.U U *.J.U.wXwXtXtXrX#X).P.P.P.V.s.1.1.",
"{ T F x L R h.K.P.#X/.8.1.M.R.8.>.8.M.M.N.Q.#X%XfX;X/.k.k.m.k.k.k.Z././.k.+.b c h h h h c M U 1.V.)./././.V.3.1.+.>.k.M.k.8.M.#XOXW.k.1.>.1.k.Z./.rXdX#XB.s.s.h.J.g.*.d.h.J.h.i.R n k n <.b.P.@X%X%X+XZ.m.k.1.U M P 2.a.a.a.n.L.m.Z.yXvXDXSXhX%XoXC.2.B I :.].iXBXDXDXDXBXjXhXjXBXhXeX].v._ I U B B U <.2.s.v.v.2.:.I M k h k k N ` p.B.P.].P.B.p.2.2.s.s.s.s.b.U.U.U.U.I.U.Y.b.b.h.{ I n I h.U.iXjXjXkX0X}.H.L.I.[.iXBXJXBXeXL.U b c k N +.s.B.P.@X#X#XtXwXtXtXrXtX@X$XoXK.k.2.>.>.>.;.O.O.;.,.;.;.4.w.N.'.N.m.C.m.3.m.Z.V.s.+.<.<.R ` <.` M j U _ :.:.s././.P.B.p.` R L F C F F L R ` R +.1.V./._.(.(.(.k.1.l.#XxXSXaX#XOXQ.V.k.+.M M L I L N R m.@XrX#X/.W.Q.V.<.1.m.s.1.<.U B B +.:.3.k.V.V.oX+X,X,X&X'.A.A.m.k.f.i.*./ E E +.>.6.e.E.E. XXX=X5X5XMX5X6XXX XOX_.OX_.(.^.^.^.j.$.N N 1.Z.pXSXDXFXKXLXKXKXLXDXgXyXoXZ.M.1.o.N V V V B V M N _ p.B.[.iXkXeXU.b.U M k h h k ` b.iXjXBXBXjXdX[.B.i.R L n L ` L.wXeXJ.a.G.J.a.a.J.P.P.K.P.%XSXFXKXFXLXKXLXSXyXZ.s.:.+.<.s.Z.#XdXgXvX;X/.W.(.(.M.7.9.E.l.@.>.V./.k.s.k.K.).U.B.<.L Z Z Y f.h.*.P P <.s.k.k.M.Q.(.OX/.Z.V.V.V.3.+.N +.1.j.7.7.l.l.7.j.7.1.k./.pXrXK.U n x L ` <.R R x c v E p.B.@XdX@XB.s.p.B.P.).tX;X;XyX;XQ.N.A.N.oX3._ <.s.1.B.#X=XOXE.1.B V P R J.U.wX@X@X#X#X#X@X).@X#X@XZ.B.k.",
"Z F Z x x L <.s.).#XOXV.k.k.l.l.1.8.l.M.V./.OXOXaXaX;XQ.M.M.V.l.k.V.V.k.:.V b b V V M k k N s.Z.@X/.)./.z.z.k.1.+.3.k.M.k.m.Q.#X/.k.>.@.@.1.k.Z.P.#XyXrX/.B.s.B.z.d.#.R i.i.i.R R M k k M P s.K.#X;X;XoXZ.V.k.<.B N U a.s.a.a.s.m.Z.&XpXgXSXBXgXgXpXoX3.V V :.m.C.].iXhXiXiXiX$X{.n.` ] V m m V I B B U <.4.<.:.:.U B V V V B V M I I I U _ U I n m n I U I I I i.i.h.G.L.L.L.b.G.L.J.a.R I R a.L.iXBXJXBXVXBXBXCXBXCXBXjXeXn.U V k b B 3.B./.$XrXyXyXrXrX#X#X#XrX@XP.K.B.s.3.>.;.;.;.;.,.,.6.w.w.w.w.N.|.oXoX].P.v.a.s.J.P.z.<.h.#.R a.s.` n k _ 2.2.2.B.oXoXV.s.R I I F z z x n F I ` p.s.B.P././.^._.-XW.1.7.Q.yXvXxXfXpXyX%X/.s.P P <.<.<.U <.1.k.V.V.k.8.3.1.N <.m.:.B :.+.1.1.1.1.p.k.V.K.[.{.$X$X&X'.'.C.Z.m.k.f.f.=.*.E N B ,.,.,.6.6.6..XXX>X5X5X5X6X6X:XuXuXuX-X-X-X-Xl.7.+.B o.1.V.&XdXBXDXDXSXSXgXhX&XZ.3.3.>.B V V B U <.2.:.I M I P _ a.L.eXiXiXrXeX[.L.L.L.].iXBXDXJXBXjXiX[.n.` I n n n I ` n.L.b.R L ` R x n U 2.2.2.1.k.oXyXpXfXfXfX%XoXm.<._ 1.m.V.Z.#XxXSXSXaXOXW.R.W.!.M.7.9.5.5.0.M.M.k.3.k.B.P.P.b.i.I L S L *.f.i.S c v #.k.k.M.N.(.OXOX/.V.k.m.k.:.N b 3.1.1.3.k.k.1.%.@.1.1.1.V.#XrX@Xs.P k k M L L L M v M P U 1.K.%X/.V.m.B.P.@XrXdXyX;X;XOXN.N.N.N.C.:.V <.m.k.Z.rX!.E.0.o.N b M U h.L.P.P.K./.#X%X#X@X#XyXpX#X/.P.",
"z Z F F z x U <.@XoXOX_.V.8.0.N.>.8.l.M.Q.OXOXOXaXcXaXOXW.M.V.M.V.M.k.>.o.N +.:.3.s.s.<.:.<.Z.rX#X/././.p.k.x.+.>.k.k.k.k.V.oXOXV.7.@.+.>.1.k.Q.Z.@XyXyX#XP.B.B.h.i.R E R R L x L v x k h h N s./.#XyX#XoXQ.Z.m.1.U P 2.b.v.2._ C.Z.Z.oX%XpXvXSXFXDXhXN.B k b B _ 2.v.}.].'.}.C.2.] V V ] _ _ 2.s.2.<.:.:.:.U B V B U B :.s.s.<._ U I m m m m j n k k n n k j m j n ` b.L.L.J.b.L.[.wX[.b.` I K ' L.iXVXVXVXJXLXLXJXjXiXL.a.n j b b V 1.Z.#XyXdXfXfXfXyX#X@X).).@X/.B.s.2.<.2.3.o.o.;.;.w.e.r.r.N.N.'.oX&X%XrXrXJ.b.h.i.i.h.J.P.P.i.U s.s.R M I <.s.m.m.Z.#X/.k.<.I M I I n z x j z I g.P.[.@X).Z.W.W.#XuX/.3.1.>.V.yXvXvXjXfXdX@XB.<.s.B.K.B.s.U U +.1.k.k.1.+.N k #.k.N b +.<.B.B.z.k.s.z.P.wXwX0XY.L.].].oX|.&XN.k.p.c.F.f.=.L B U _ B o.,.6.E.y.y.4X>X5X5XzXcXcXcXbX:X-X-X-X(.W.l.>.o.B :.3.C.&XrX,X%X%XoXC.3.:.o.o.o.V N o.B :.m.C.m.:._ :.B V I _ v.[.iXhXjXBXBXJXJXJXJXLXJXJXBXeXL.v.` M k n L I I ` ` a.` n n n x w w m V B B V V 1.m.m.Z.Z.m.1.U B B +.3.Q.;X;XaXDXDXxXOXOXOXE.l.9.9.l.9.O.O.E.(.k.>.1.V.P.U.B.` F x Z S L R =.E c c M +.8.m.M.E.OX=XOX/.B.3.s.3.+.N N k.3.$.3.k.j.%.N N @.1.+.3.P.rXrXP.<.m c k b v V P P N V b M 1.Z.B.m.m.Z.oX#XyXfX;X;XOXQ.N.m.m.m.q._ V :.s.B./.%XM.0.>.N N V N U R i.p.s.p.m.P./././.#XpXfXaX%X+X",
"S.g.i.{ ` <.<.<.s.Z.OX/.V.8.l.M.8.7.8.M.V.N.Q.(.OXaXxXaXQ.9.M.Q.M.8.1.1.k.Q.oX+X@XoXP.Z.V.Z.P.).K.#X).k.1.k.k.+.1.8.8.8.M.oX#X/.k.3.+.%.@.k.k.3.B./.rXyXyXyX/.k.p.i.i.p.<.P v v v k k v k h c b 1.M.OXyXpX%XP.B.Z.C.2.I V <.v.s.4.q.m.N.Z.&XpXgXGXFXDXsX%XZ.M.m.4.4._ _ _ 4.2.4.4.q.C.&X,XhXhXgXoX/.V.m.3.1.:.+.:.1.k.Z.oX#X&XoXC.B.v.s.2.2.<.` _ _ _ _ _ _ U I n I a.B.U.@XeXrX[.[.[.].L.b.a.` K ] ' n.n.n.n.n.C.n.a.I n k m M :.3.N.OXyXaXxXxXxXfXyX#X#X/./.P.V.B.s.s.s.2.:.V ,.w.M.N.e.r.e.r.|.,XhXrXrXeX[.b.T z w z / Y.U.U.wXB.p.p.i.R <.s.<.2.m./.#XoXV.3.V M M I ` ` I F F m n ` L.@X@X/.Z.^._.#X#X/.k.1.3.k.V.$XfXjXpXP.s.J.wXdXjXjXdX%XZ.k.3.1.8.8.>.B N N E P v c P 1.p.p.s.z.K.K.K.U.7X7X7XH.b.B.Z.+X&X&X&XQ.l.k.z.z.b.a._ I I :.3.A.,.6.e.y.y..XXX6XvXFXFXvXbX>X>X6XbXbX-X!.M.3.:.B 4.4.4.] _ ] _ ;.B V B ] 4.,.w.w.A.N.Z.Z.Z.Z.Z.C.v.4.I V I <.v.C.rXhXSXJXJXDXBXBXrX[.B.2._ I I I n _ a.2.U I M n n n M I I I I B U B V B U :.:._ 4.<._ V V B 1.m.oX*XaXZXFXZXaXOX!.;XOX7.5.R.M.O.O.5.R.R.k.8.k.V.#X@XJ.R x j F I S S S S v v N P 3.7.k.Q.!.!.E.Q.Z.B.s.s.<.N U 1.z.3.1.k.x.j.+.P N N $.j.k.k.P.dX@XZ.<.N V U +.+.1.<.U b c b V N B s.Z./.+X;XfXaXOXOX XN.M.A.m.3.U :.:.<.m.%X%X/.l.5.o.N V V k k M M M k v N +.1.k.N.OXpXgXgXDXLX",
"J.b.h.i.i.<.<.<.:.k./.OX/.M.l.l.M.8.8.8.l.M.Q.OX/.;XaXaXOXQ.N.M.Q.N.N.N.Q.OX#X#X/.P.P.P././.@X@X/./.Z.z.p.$.$.3.k.k.8.k.Z.#X%XOXV.k.>.+.>.8.k.k.V./.#X#XrXrX@XK.z.h.h.z.h.<.U R P N M M b c c b N +.k./.#X#XoXZ.P.B.2.<.U U :.<.:.,.,.w.A.'.+X;XxXSXDXSXgX;XQ.N.A.A.A.A.A.A.A.A.].&X$X,X,X,X,X%X&X&XoXoX/.N.Z.Z.Z.N./.%XyXpXpXrX%X$X$XoX].].P.C.P.C.L.C.P.C.C.C.C.C.P.$XiXjXjXjXjXhXdXiXdXrX$X[.C.}.C.n.n.a.a.n.b.n.b.v.v.m.C.Z.Q. X;XfXxXZXvXvXgXaX#X/./.Z.V.k.s.<.U U :.2.3.8.8.w.e.e.N.E.E.|.<XgXgX$XJ.g.T C ; = = 3 / Y.9XU.z.p.p.h.p.R P ` 2.m.Z././.l.1.+.b V P <.a.h.b.b.G.` m n ` s.h.s.V./._.#X#X/.B.k.+.U U <.B.B.p.<.M h.tXjXdXrX#X#X/.k.1.>.1.3.1.+.+.#.#.U M c v E f.p.p.z.K.).P.U.D.( G C z I v.&X,X=X+XOX XQ.M.8.a.` ` I n M U :.k.w.8.8.e.y. XXX6XbXcXcXcXcXbXcXbX6X>X*XOXoXQ.Z.'.N.A.A.q.q.w.A.A.A.A.Z.&X%X<XaXsXsXxXsXsXpXpXpXpX%X].C.m.v.v.v.$XiXpXhXpXrX%X$XC.C.v.2.4.2.v.m.C.].@XP.B.v.v.a.s.v.m.B.C.C.P.P.m.m.m.m.m.m.s.3.2.3.3.2.3.m.|.+X+XaXDXGXFXzX*XE.:XM.>.9.E.9.>.5.R.R.M.8.7.8.Q.#X@XK.i.L x x n L L P P P P E +.1.k.k.M.E.OX XE.M.Z.s.s.s.<.b P z.k.3.3.k.k.1.$.1.N P #.1.p.s.K.%XrX@XB.1.1.8.k.k.k.k.3.+.V V V b :.8.N.Q.=XaXaX;XOX XQ.M.N.Z.m.3._ 4.3.v.Z.%X#XZ.8.>.+.+.+.U N V V V M V b b N V o.:.8.Q.+X;XxXDX",
"B.h.p.<.+.U P N +.3.Z.OX#X/.M.8.W.l.7.1.7.8.E.(.Q.OX;XaXaX;X!.E.N.Q.Q.|.oX/.oXoX@X#X#XrX%X@X@X).#XV.k.V.k.P +.k.V.k.k.M./.%X#X/./.M.8.1.>.>.3.k.V./.).)._.#X#X#XK.J.F.K.z.z.s.z.z.p.<.#.+.N b b b V o.3./.#X%X%XoXm.k.B.k.+.B :.3.,.,.3.A.Z.|.&X+XaXSXGXFXxX;X&X%X,X,X<X,X,X,X,X&X$X$X&X&X'.C.C.%X;XpXpXhXfXfXfXpXpXhXgXxXZXxXgXBXNXBXNXBXgXhXhXgXgXgXgXgXgXgXgXBXhXdXhXDXJXLXJXJXJXDXDXDXDXDXDXBXBXhX$X{.].].$X{.$XrXrXpXgXjXSXxXZXSXDXDXDXSXvXfXyXoXV.k.s.1.<.:.U P U :.3.N.Q.m.w.e.N.|. X=X;XfXjXdXB.Y l 2 = o o = l d.U.9X9Xi.<.p.s.i.P N U s.Z.@X/.m.>.+.+.B +.s.B.P.[.eXeXkXG.F h k N L M 1.k./.%XyXrX).P.1.M h h c h h k h R U.rX#XP.W././.l.1.+.1.3.p.1.<.#.#.#.P v k v s.#.#.p.K.P.B.f.A 4 = o = 3 M <.N.E. X=X2X=XE.e.2.2.` ] M n m M 2.1.>.>.8.e.R.R.~.`.*XbXcXvXcXcX6X6X6X1XaXsXsXsXhXsXpX<X,X,X,X<XpXpXsXxXSXFXGXGXGXGXGXGXGXGXGXKXGXDXSXNXpX%X].C.C.'.'.C.C.A.m.m.Z.C.C.'.oX$X,XpXBXSXSXhXpXrXpXrXpXpXhXhXhXgXgXgX<XpXhXhXrX$X@X].C.P.].$X%XpXgXZXxXFXKXGXxX;X!.E.*X5.o.M.Q.7.@.9.E.R.8.7.8.V._.#XV.1.N k x M M v R E E U #.1.p.k.k.M.Q.OX*X XR.8.V.p.i.s.+.v U K.p.p.k.j.1.#.p.x.%.%.%.#.1.p.B.P.yXrXoXV.V.Q.(./.N./.P.B.s.1.+.B k.k.N.OX1XzX1X X X!.E.M.Z.Q.m.4.:.v.Z.Z.oX+XoXV.1.1.7.k.M.m.3.<.:.<.<.<.:.+.+.+.o.o.>.8.N.|.;XgX",
"#X#X#X/.Z.m.8.3.1.7.V._.#XOXW.l.W.M.8.>.>.8.M.Q.Q.OX;XaXzXaX;X=X;XaXgXxXfXaXfXgXjXjXjXjXdXrX@X).rXV.j.V.k.+.+.k.V.M.M.Z.OX#X/.V./.V.k.8.1.+.1.m.k.V./././._.rXtX).K.z.z.z.z.B.K.).K.V.B.z.s.1.+.B B B <.Z.#X%X%X#X/./.oXQ.k.3.3.w.w.w.w.A.Z.|.|.OX<XZXFXGXDXxXaXZXSXSXSXSXSXSXBXgXNXNXNXgXgXgXsXfXsXgXZXSXDXDXDXSXSXSXSXDXDXDXSXDXDXFXGXGXDXDXDXDXDXDXDXFXJXDXDXJXDXSXSXDXKXKXLXKXLXLXLXKXKXKXLXLXLXJXBXBXNXSXDXDXDXDXDXDXFXFXFXFXFXFXFXDXZXgXfXpX#XZ.s.1.<.+.+.+.<.2.s.3.s.m.N.N.N.N.|.=X<X<X;X#X).z.L 3 2 = = = ; r ( F.9X9XK.p.<.<.<.U N U 2.B.P.@X/.k.1.@.@.8.m./.%XdXdXkXkXkXI.` x j x k h V +.m.#XfXfXyX@XB.P h h 3 3 3 k x L i.J.).#X#XOX/.V.k.3.7.k.k.z.<.#.#.#.#.E v v p.#.#.<.z.z.<.L 4 = o o = = 4 3 V o.w. X=X2XXX.Xm.v.2.2._ U I V V V N :.8.8.8.5.u.u.~.`.6XbX5X5X5X5XcXzXZXSXSXSXSXSXSXZXNXZXZXSXDXSXSXDXHXFXGXFXGXGXGXGXGXGXKXKXGXGXGXFXDXZXsX<XpXpXpXpX<X<X<XpX<XpXpXpXsXNXZXSXDXFXFXSXSXSXDXDXSXSXSXSXSXSXZXZXgXZXDXSXNXhXiXiXiXiXpXhXgXZXSXDXKXKXFXxX=X!.!.OX8.M.E.8.7.8.M.N.8.7.0.M.Q.(.Q.V.+.V b b V N P M #.#.#.1.p.k.k.k.k.Q.-X;X*X XM.8.m.p.<.#.U U p.B.p.s.z.j.1.$.j.x.#.%.%.#.<.p.k.m.$X#X#X/.oXOX;X;XoX%X%X#XoX/.V.m.V.Q. X;XzXzX2X.XXX XE.Q.Q.N.k.:.:.m.oXoXoXQ.N.w.7.8.M.Q.OXoX/.Z.Z.P.oX&X&XoX/./.N.N.N.N.N.N.|.%X",
"xXxXcXbX:X*X(.Q.N.V.V./.#X#X/.Z.V.M.k.7.5.7.9.9.!.OX:X:X:X:X1XaXxXxXSXSXSXSXDXJXJXJXDXjXdXtXtX@X@XZ.k.k.p.1.3.k.k.m.V.OX#XOX/.V.Q.N.m.k.1.:.3.k.3.k.V././.).#XyX_.^.z.p.p.z.K._.tXrX#X#X#X#X/.Z.m.s.4.3.Z.oX#X#X%XyX;XOXOXOX_.Q.N.C.Z.Z.Z.Z.|.+X%X;XaXxXDXGXGXGXKXDXDXDXDXDXFXJXDXDXFXKXKXLXKXLXZXZXSXSXDXDXDXFXDXDXDXDXDXSXSXSXSXDXDXFXFXDXDXDXDXDXFXFXFXFXFXFXDXDXDXDXDXFXFXFXLXFXLXKXKXKXKXKXLXJXJXDXDXDXJXLXKXKXFXDXDXDXFXFXDXHXDXSXZXsXpX%XoXZ.s.<.+.+.#.+.<.s.m.B.m.s.k.k./.oX%XaXaXfX;XOXk.1.v 6 3 2 4 4 l H / S.Y.K.F.z.f.p.<.#.P P <.v.B.Z.P.P.V.M.l.l._.OX#XpXjXjXdXeX[.U.a.L k x M V U U :.B.@XrX@XP.p.L M L L x x L I R p.K.#XuXuXaX-XOX/.W.Z.Z.V.V.p.1.#.#.#.#.P v P +.<.1.s.s.#.v 6 3 4 4 3 3 4 4 c V >.E..XXXXXXX|.N.w.q.m.k.s.1.v v N @.k.l.8.@.9.u.u.~.~.XX>X6X5X5XAXAXAXHXDXDXZXSXSXDXSXDXHXGXHXHXDXDXHXDXAXZXAXHXHXHXHXHXFXGXDXHXHXGXGXGXDXSXHXGXGXGXGXGXGXGXHXHXHXHXHXHXHXHXHXGXGXFXFXFXGXFXSXSXDXSXSXZXZXZXZXSXDXDXSXBXBXBXDXBXBXBXSXSXDXDXIXFXzX=XE.Q.E. Xo.N.Q.3.>.m.W.M.>.7.l.(.-XOXM.@.N N %.+.1.1.3.3.s.s.k.k.k.k.8.1.k.OXaX:XOXE.R.8.3.s.<.M P s.B.p.f.s.k.p.p.p.p.p.$.$.#.#.<.s.k.k.P.&X%X;X;X:XcXcX;XhXgXhXuXuXyX;X#X;XaXxXAXzX1X2X1X>X>X*XE.M.k.3.s.Z.#X%X+XQ.N.M.M.V./.#X;XpXpX;XpXhXjXBXSXvXvXxXZXxXsXsXaX<X<XaX",
"cXcXcXcX6X>X*XOX*XOX/./.#X#XOX/.l.M.l.8.7.8.7.5.E.!.*X*X!.!.*X1X1XaXaXfXfXfXvXSXDXDXjXdXdXtXtXtX/.K.z.1.1.k.k.k.k.V./.#XOXZ.V./.Z.Q.N.k.1.3.k.k.3.3.k.V././.).rXtXwXK.f.p.z.^.).fXfXfXfXfXfXfXyX%X@X].C.oX$X%X%X#XaXaX#XOXuXuXOXoX&X%X&XoX|.&X;X;X%X;X<XxXDXKXKXFXDXSXSXSXSXDXDXSXSXSXSXSXSXSXSXZXZXZXZXZXZXZXZXSXSXSXSXZXxXxXxXgXgXNXZXSXSXSXSXNXZXZXSXSXZXZXxXgXxXSXSXxXxXSXSXSXSXSXDXFXFXFXSXDXDXDXDXDXDXSXSXDXSXZXxXxXSXSXSXxXZXxXsXpX%X&XoXm.s.#.U U U #.<.s.m.m.m.m.m.V.Z.%XyXfXgXfXyX/.V.k.+.v k x Y Y H ^ / d.h.z.k.j.1.p.s.s.s.i.<.s.s.B.B.V.Z.Q./././.;X-X-XpXgXdXwXJ.J.J.h.L x U s.B.V.3.U N +.<.i.<.x M R B.L.f.` R L ` S.U.).#XyXaXaXaXuX-X#X/.P.K.V.z.1.U U +.U M b U 1.p.p.k.p.U #.U R <.i.#.#.#.#.3.M.Q.E. X.XXXXX|.r.N.Q.Q.W.V.k.j.1.7.l.W.W.l.R.~.~.~.~.y.XX6X5X5X5XAXAXAXAXZXZXSXDXDXDXDXGXGXGXFXFXFXFXFXFXHXFXHXHXHXHXHXHXHXFXFXFXGXGXGXGXFXHXHXHXHXFXHXFXHXGXGXGXGXGXGXGXGXKXIXIXKXKXKXKXGXDXDXHXFXFXFXFXHXDXDXDXDXDXDXJXLXLXLXJXDXDXDXFXGXDXzX;X XE.E.M.w.8.>.>.1.k.N.V.k.M.M.Q.OX#X/.l.>.o.>.l.W.W.Q.Q./.Z.Z.Z.V.k.8.7.8.W.;XaX;X!.E.M.l.1.s.R M R B.B.<.s.s.p.1.p.k.p.$.p.p.$.#.<.s.k.k.Z.+XaXaXaXzXxXxXsXgXxXgXfXfXfXfXaXxXZXHXAX5X5X5X5X5X5X:XOXE.V.N.@XrXpXfXaX=XOXOX-X-XyXaXfXvXSXSXDXDXJXJXLXJXFXFXKXKXKXKXKXGXGXGX",
"zXbXcXcXbXbX6X:X;X-X#X#X#X#XoX/.k.M.M.k.8.8.7.@.9.E.*X XE.y.E.E.=X+X#X;XyXaXfXfXtXtXtXtXtXtXtXtXK.V.k.1.1.k.k.k.m./.#XOXk.:.1.V.N.oXoXk.3.m.k.1.j.1.1.z.K.^./.#XuXuX_.z.k.V././.yXfXfXfXuXfXuXyXrX$X$X$X$X$X%X%XOX#X-X*X*X-X*XOX&X$X%X$X&XoX+X#XOXOX/.OX;XaXxXvXfXdXhXpXpXfXfXfXgXgXgXgXfXfXpXpX<X<X;X;X;X;X<X<X1XsXsXaX<X<X;X<X;X;X<X<XpXpXpXpXpXpXpXpXpX<X;X;X<X;X;X;X;X;X;X;X<X;X;XpXfXaXaXfXNXNXNXNXhXpX<X<XpX<X;X;XaXaXcXaX<X<X,X%X&X|.Z.B.2.<.U U R <.p.p.s.3.m.m.Z.oX#X%XpXpXaXyX#XZ.k.8.7.$.+.#.i.i.d.d.^ { i.i.<.>.>.7.k.z.B.z.B.B.v.s.B.B.V.V.Z./._.(.-XOX_.#X#X@XJ.p.h.J.h.R R z.@X#X#XV.<.b c k x M M R J.wXtXwXY.J.d.i.h.z.V.W.(.*X-X-XyX-X_././.)./.V.1.N N U +.U b U <.<.1.k.k.1.m.A.Q.#XrXtXrXuXtXyX-X#XOX XXXXX.X.XXX.X X!.!.(.-X_.^.^._.*X*X`.!. X X~.~.~.XXXX>X6X5X5X5XsXsXaXsXNXZXZXZXZXAXZXAXAXAXAXAXAXZXzXzXAXAXAXAXzXzXzXAXAXAXAXHXAXAXZXAXAXAXAXAXAXAXAXHXHXHXHXHXHXGXGXGXKXKXGXGXGXGXHXHXAXHXHXFXHXHXHXZXZXZXNXSXDXDXDXDXDXDXSXNXgXZXZX1X=X XE.Q.N.8.>.m.:.+.3.V.m.k.m./.(.OX(.(.Q.E.M.M.E.(.-X;X;X>X:X;X;X#XQ.k.8.8.M.-XaXaXOXW.W.M.8.1.R U R p.z.h.i.s.s.p.#.<.s.z.f.$.p.p.#.#.s.z.m.V.+XfXsXbXcXcXcXaXgXgXfXpXfXfXfXcXzXxXAX5X2X3X5X6X>X>X:X=XQ./.oXyXyXyXaX;X;X=X*XuXuXuXfXgXgXSXSXSXDXDXDXDXDXFXFXGXGXGXGXKXGXGXGX",
"XXXXXX*X*X*X*X*X-X-X;X;X;X#X/.Q.9.R.M.8.7.8.7.>.8.E.OXOX!.e.9.9.e.9.k.M.W.Q.K.V.P.U.U.U.U.9X7X9XP.z.<.<.1.1.k.V.P.@X#X/.+.k N s.P.rX#Xk.8.V.l.%.k.1.$.j.V.K./.).uXuX#XK.x.V.^.V.W.#X#X/./././.Z.P.].].].].].oXoX#X/./.#X#XW.W./.Z.C.Z.C.Z.Z.Z.V./.Q.Q.Q.(.OX/.Q.oXoX$X$X$X#XoXoX$X&X#X#XOX+XoXoX&X|.Z.N.N.Q.oX+XOX+X;X%X+XoX|.oXoX&X&X&X&X$X%X%X$X$X$X&X&X&XoXoX+XQ.N.N.Q./.Q.N.oX/.Z.Z./.+X#X%X$X$X,X,X$X&X&XOX+XOXOX+X;X;X;X=XOXOX&XoXZ.m.m.s.s.<.<.<.i.s.h.B.3.3.A.Q.+X;XpXhXpXuX#X/.k.1.@.@.+.%.1.p.p.i.{ d./ { i.<.+.+.>.8.V.K.B.k.z.B.B.B.V.V.V.V.V.V./.(.(.(.W.W.Z.V.k.p.s.B.B.k.B.#XdXyX/.P.s.N h 6 h x p.P.wXrXtXdXtXtXtXJ.<.1.V._.(.~.W.!.(./././.).#X/.V.1.V v U <.<.M U +.P +.k.k.1.8.M.OXaXfXfXfXfXvXxXuXyX:X1X2X3XXX>X5X1XXX!.!.*X-X-X:XuXuXuX:X-X*X*X*XXX XXXXXXXXX>X>X>X=X=X=X+X+X+X=X=X+X+X=X=X=X=X=X=X=X=XOX X XXXXX=XXXXX.X.XXX=X=X<X1X1X<X=X X X X X X=X2X1X1X1X1X1XsXZXZXAXZXAXZXsXsXzXzX1XzXzXzXsX1X1X1X1X<X;X+X%X<XpXiXiXiXhXhX<X&X|.|.OX;X*X XE.M.8.>.:.1.8.m.k.k.k.M.V.Q.!.OX(.Q.Q.Q.OX*X*X*X>X:X6X6X6XcXaX;XE.8.8.M.(.aXcX;XQ.V.W.M.1.1.N N p.B.i.i.h.p.f.p.#.#.f.z.z.#.p.p.#.#.s.m.m.m.oXpXaX:X:X:X:X;X1XaXaX;XaXaXaXaXaX1X1X1XXXXX>X>X X!.*X*XOXOX#XOX/././.Q.E.Q.Q.OX-X-X-XyXyXpXhXhXhXhXhXfXgXxXZXxXsXsXsXsXsXsXzX",
" X X X XOXOX(.(././.(.(.(.Q.Q.E.~.u.e.M.8.>.>.k.m.k./.#XW.E.E.9.9.9.9.l.k.k.z.z.G.G.Y.Y.Y.7X7XY.h.<.#.1.s.s.B.K.J.P.U.h.x 3 h Y G.I.@XP.V.l.9.9.9.5.>.k.z.h.S.U.rXdXrX/.k.l.W.(.(.l.k.V.k.s.B.b.C.B.v.v.m.C.Z.V.V.K.K.V.K.B.z.z.B.b.b.B.B.B.m.m.V.N.m.m.m.N.Z.Z.Z.Z.Z.Z.Z.Z.Z.Z.Z.Z.V.B.B.B.V.Z.B.B.B.B.B.V.Z.K.^./.P.P.P.P.P.P.K.K.Z.Z.C.Z.Z.Z.C.C.C.C.C.C.C.N.M.e.M.M.m.m.B.B.B.v.s.m.B.Z.V.B.C.{.].].C.B.C.Z.N.Q.OXyXaXaX;XOXQ.Q.N.m.8.3.3.s.U _ <.i.s.b.J.B.Q.E.E.OX;XaX;X-X/.Q.l.7.+.%.N N U R R R R R #.#.R E P P +.+.+.+.$.<.<.<.<.p.s.s.1.z.V.z.k.x.x.l.l.l.W.(._.W.k.3.V.W.W.W./.;X;X#X/./.Z.k.:.U <.a.[.wXrX#X/./._.yXyX_.l.7.9.R.!.!.`.R.W.(././.#XP.P.B.s.:.U U +.:.s.B V U <.+.:.k.7.M.!.*XOX(.(.OX;X;X=XOX X|.E.E.E.!.!. X X!.!.E.(.(.Q.Q.Q.Q.Q.Q.Q.Q.Q.Q.E.E.E.E.~.~.E.~. X X X X X|.|.Q.Q.|.|.|.|.|.Q.E.E.E.Q.|.E.E.~.~.~.~.E.!.E.E.E.|.|.|. X XE.Q.E.Q.!. XOXOX=X=X+X,X+X,X,X,X,X+X+X+X+X+X+X=X=X=X*X*X*X*X*X*XOXOXOX X+X+X+X+X&X+X+X&X&XOXOXQ.!.*X!.9.5.8.1.o.>.1.8.0.8.M.E.E.>XXX X!.(.OXOX+XOX+X=X>X>X6X6X6X>X>X=XXXR.8.M.OXaXaX#XQ.V.V.k.+.o.+.1.3.s.s.f.i.S.i.L l S p.x.x.z.k.<.U s.s.1.3.B./.-XuX-X-X-X:X>X>X*X*X*X*X=XXX X X X.X XE.E.E.E.E.E.R.R.W.W.W.Q.W.W.x.x.V.W.W.Q.Q.W.^.^./././.@X@XoXoX&X&X+X+X+X+X+X+X+X+X+X+X",
"Q.Q.Q./././././.V.M.M.N.N.E.E.E.~.y.u.e.8.1.1.s.s.s.V././.!.!.R.0.0.8.k.k.z.h.h.g.D.D.D.H.H.H.G.p.<.<.s.s.v.B.L.L.J.G.T w ; 2 C D.I.0XU.V.l.T.u.u.5.5.k.z.p.D.Y.@XrXrX/.l.l.W.(.W.7.7.k.s.s.b.n.2.<._ :.4.2.s.p.h.h.h.h.h.h.f.i.a.a.n.s.s.s.s.s.s.s.s.s.3.v.v.v.b.b.B.B.b.b.v.v.s.s.s.s.s.s.s.s.h.a.p.p.p.s.z.z.z.z.z.z.h.h.h.h.s.s.s.s.s.s.v.v.s.s.s.s.s.s.3.3.8.6.6.8.3.2.a.i.a.a.a.s.B.B.m.s.a.a.n.v.v.v.A.N.OXOX;XaXaXyX%XOXM.M.k.8.3.3.1.<.<.<.<.<.s.b.L.Z.oXOX=X;X;X%XOX/.k.3.+.P N N N L P Y I Y L P E U P P P P +.#.#.+.v M L U U ` <.<.R <.<.#.p.s.k.1.p.j.x.(._.^.l.l.W.(.(.*X-XaX:X-X#X#XOXP.V.Z.].$XdXrX#XP.M.l.W.(.*X(.R.T.R.~.!.!.~.T.W.Q.W././.Z.s.s.2.<.:.U U U <.B N +.<.:.1.k.3.l.W.W.W.W.W.Q.Q.Q.E.Q.N.N.M.M.M.M.N.V.V.V.M.M.M.M.M.M.M.M.M.M.N.V.V.V.N.V.N.N.N.N.E.E.Q.E.E.E.N.N.N.N.N.N.N.V.Q.Q.N.N.V.N.N.N.M.e.M.M.M.E.E.Q.N.N.N.N.V.N.N.Z.m.V.V.V.V.W.Q.Q.Q.Q.Z.'.'.'.'.'.'.'.'.'.'.'.|.Q.Q.E.E.E.E.E.R.E.Q.E.N.N.E.|.|..X.X.X.X|.|.OX+X X XE.E.M.8.1.1.1.3.8.8.l.M.E. X*XXX X!.E.Q./.oXoX%X%X=X=X>XXX6XXXXXXXXX XR.e.E.=XaXyX+XZ.B.B.s.+.B o.>.3.s.p.f.d.d.Y 6 3 x p.K.V.z.s.<._ s.s.2.s.k.B././.^.W.W.W.W.R.R.R.E.R.R.r.r.r.M.M.e.w.8.8.8.8.0.0.8.8.8.8.l.l.j.j.j.j.k.k.k.7.7.7.j.k.k.k.z.s.k.s.s.s.m.m.N.N.m.N.N.M.N.N.",
"s.s.s.s.s.s.s.s.V.V.B.m.M.N.N.E.~.~.y.e.8.w.k.3.2.k.k.V.OXOXQ.Q.k.8.8.k.B.B.b.h.g.D.D.n.G.H.H.G.<.<.<.s.v.v.C.[.I.b.[ t - X - < ^ D.7X).^.M.T.u.u.5.5.k.s.i.d.h.K.$X%X/.M.l.W.!.(.7.7.k.p.<.a.a.a.2.2.2.a.n.b.b.b.b.J.G.S.S.S.h.b.b.b.b.b.B.B.B.B.B.m.v.v.v.b.b.L.L.J.J.b.b.b.b.b.h.n.n.n.n.b.b.g.a.a.i.i.p.p.f.z.h.h.p.a.i.i.a.i.<.2.i.i.a.s.p.s.s.s.s.s.s.s.s.3.3.3.2.<.i.{ { | | a.a.h.h.s.a.a.` 2.2.m.C.Z.Q.;X;X;X;X;XOX/.Z.8.3.>.>.>.>.>.>.k.k.k.k.B.K.oX$XoX&X%XpX%X$X].P.<.<.R U I E R { { { / ^ / / / / { / R #.i.i.i.i.` ` ` ` ` ' ` I <.` U U R <.R P P %.p.^._./.W.x.l.(.-XaXcXcXbX:X;X-X#XOX#XrXfXjXjXdX#XZ.M.l.l.l.W.W.E.R.R.~.!.!.&.O.5.8.1.3.B.s.s.m.B.B.s.<.U B U U +.+.+.<.3.k.p.k.k.k.z.k.k.k.B.m.V.N.N.A.m.m.m.m.V.V.V.V.B.B.B.m.m.k.k.k.k.m.B.B.B.V.V.B.V.V.Z.Z.Z.Z.Q.Q.Q.Q.P.P.Z.Z.Z.V.Z.Z.P.P.P.P.P.P.P.P.Z.V.V.V.V.Z./././.P.K.Z.J.K.P.P.B.B.B.B.V.Z.P.Z.Z.Z.C.A.A.A.A.'.C.C.C.C.'.'.'.Z.Q.Q.Q.Q.Q.W.V.V.N.Z.N.N.N.|.|.|.N.|.|.|.|.&X+XOXQ.M.8.M.k.<.1.B.B.B.V.V.V.Q.!.OX*XOX(./.P.P.[.[.[.].oXQ.E.~.y.y.y.~. X~.E.y.!.;X;X;X/.V.k.s.<.U N o.1.p.s.f.d.d.^ l ; = 6 R h.z.J.h.i.i.a.` I i.b.b.h.z.z.c.c.c.j.j.8.8.8.3.3.3.w.w.m.m.s.s.s.2.3.3.3.3.3.1.3.3.3.p.p.p.p.p.p.1.3.1.1.1.p.p.p.f.h.p.p.p.p.s.s.s.s.s.v.v.m.m.B.B.",
"` ` ` ` ` ` R R i.<.<.:.:.1.8.M.E.~.~.e.9.N.M.1.s.B.s.k.#XOXW./.m.3.<.<.a.h.a.{ | | | | a.g.a.a.<.<.3.3.v.B.P.[.[.| D > @ X @ > C } Y.U./.W.T.9.9.5.5.7.p.i.d.h.B./.%XOXV.9.l.^.-Xl.k.k.<.P R ` a.a.a.a.g.g.h.h.g.g.h.h.h.h.f.d.g.n.g.a.s.s.p.s.p.s.s.a.a.a.a.g.n.b.g.g.g.a.a.a.a.a.a.a.a.a.a.a.a.} { ` R #.i.i.*.i.i.R R ` ` ` E U E R R R R #.p.p.p.1.s.2.2.2.<.<.<.<.2.{ } | [ { | } | { { ` a.` :.2.m.|.OXOXaXaX1X;X|.N.m.m.k.>.o.o.+.1.8.k.m.m.V.Z./.+X%X%XoX].].P.B.v.a.a.` ` T ' [ { } } } } ( ^ ^ ^ ^ [ { { { / / { ^ ' | { | ' ' K m m I I I n n F I L U +.p.K./.Z.k.k.l.(.aXxXvXxXcXaX:X;X#X#XyXfXgXvXgXhXyX;X-X(.M.8.8.8.l.M.R.E.E.!.O.O.@.%.V V U P U <.B.B.s.<.U U B :.:.U B +.3.k.h.h.p.p.s.h.s.p.s.v.B.B.B.B.m.m.m.B.B.B.B.B.B.B.B.B.k.s.k.s.k.k.B.b.B.B.B.B.B.m.B.B.B.B.B.B.B.B.B.b.b.b.b.b.h.b.B.b.h.h.s.s.h.z.s.s.p.p.f.h.B.J.J.z.h.f.f.h.S.S.a.a.a.a.p.s.s.s.s.s.s.s.2.2.2.2.q.v.v.v.v.v.m.m.B.B.B.m.m.m.k.s.2.2.3.3.q.w.w.w.w.A.E.|.|.&XOXQ.V.k.3.s.s.<.a.b.J.K.P././.Q.Q.Q.Q.Q.Z.V.J.J.Y.L.L.L.J.B.m.e.e.y.y.y. X~.E.E. X;X;X+XZ.m.s.1.<.U +.:.1.p.p.d.d.D.^ l ; = 4 x *.f.Y.G.d.d.n.{ T | n.d.} d.*.i.*.#.*.#.R R ` ` _ _ 2.2.a.a.a.{ { { ` <.` <.R R R R #.#.#.#.#.#.#.R <.<.#.R <.i.i.d.d.d.} } } } a.a.i.i.a.a.a.a.s.s.",
"D D D m F F F F x x k k V B :.6.E.~.~.e.e.N.M.3.3.B.1.p././.Z.oXB.s.` I ' ` [ ' T J I I I I U _ 3.3.,.,.q.A.].[.L.' y : @ @ # , e H S.U.P.Z.l.9.0.5.5.3.p.i.i.g.h.P.#XOXW.9.l.W.(.8.3.s.U k n L T ' ' ' T T T T R R R R R R R E R ' ' U U U U P U U I I I I I I T T T T T I T I T I I I I I I I T T I I L L P E E E E E R T R R P P P P P P P P P P P P P P P P U U R ` ` [ [ [ ^ [ [ [ [ ' ' ` <.U P <.m.|.OXOXaX1X=X|.M.8.3.3.>.>.o.+.>.8.w.m.8.M.Q.OXOX=X=X%XrXL.a.R K n z j D D F K J J J J H H H H G D G G G H F D D F K K m m m m m g g y j z m m z j m I s.s.B.P./.V.k.3./.#XfXxXbXuX-X-XuX;X-X;XuXfXxXxXfXaXaXaXcXaX*XW.8.8.8.M.M.E.!.OXe.5.>.+.b k P N k N #.1.1.1.<.<.+.1.$.B N P $.p.h.h.a.a.a.g.a.a.a.s.b.b.b.b.s.s.p.p.p.p.s.p.h.h.p.p.p.i.i.i.p.i.i.a.a.a.a.i.i.i.` ` ` ` ` { { { ' ' ' I I I I I I I I I I P P U L L S S L Y / / / ^ ^ Y Y Y ^ ^ I I I I L I L P P P I I I I I I I I I I U _ _ _ _ _ _ _ U U U U I I I V V V V V ,.r.Z.|.|.&XQ.Z.s.h.p.<.` a.h.a.B.P.@X#X#XoXQ.Q./.P.K.J.Y.G.H.H.H.H.G.b.s.s.B.V.y.~. X X~.!.OX=X;XoXZ.m.3.<.#.U 1.1.<.i.d.d.d.D.A 3 ; = = 3 Y d.G.H.D.D.H.D. .H.H.D.g.g.g.D.g.d.D.g.g.d.g.d.| | | | | |  . . . .} { { { { R R R d.i.i.i.i.i.i.i.<.` ` ` { { { } } } } { { | | } { { { } a.a.d.d.",
"[ [ [ [ [ { { { i.i.<.<.:.:.,.8.R.~.~.R.e.M.k.k.3.3.<.1.V././.@X[.L.n.{ { | | | | { ` ` ` <.2.3.A.w.8.,.q.C.].}.| D : @ @ # $ @ : C { J.P./.V.9.7.7.1.1.1.i.i.a.h.V./.OXQ.l.l.W.(.7.1.k.R x L R g.b.b.b.b.g.g.g.h.h.h.h.h.h.h.p.a.a.a.3.s.s.<.<.i.a.i.2.` { { { { | a.} } } { { { { } a.a.| } { a.i.i.<.<.<.i.i.p.p.p.p.h.h.n.n.h.f.f.p.p.p.f.f.p.p.p.p.p.p.p.p.p.a.a.g.n.n.D.n.| | | | | { | a.s.1.2.m./.;X1X1XOXE.e.,.;.;.B B B o.1.k.M.M.M.8.E.Q.*X:X:X=X*XOX@Xb.R n x x x z F F J J ! ! J H ! ! ! H H J J H G H K K J [ |  .' ' ' ' ' ' ] K K K ] K m y j K 2.<.v.P.@X@X@XoX#XyXuXyX_.W.W./.*X*X-X;X;XaXaXcXaX1X;XuXcXxXcXaXQ.Z.N.M.N.Q.OX=X6.o.+.o.V U s.s.<.1.s.k.k.k.s.s.1.1.$.%.N N +.<.p.d.g.i.i.i.a.a.i.i.a.p.p.a.i.i.i.i.i.i.p.i.p.p.p.i.i.i.i.i.i.i.i.2.a.a.a.a.i.{ { { { | | d.d.a.{ { { ` ` { { a.i.i.i.2.<.<.<.i.*.*.*./ *.d.f.S.S.D.D.d.d.D.D.g.a.{ { a.i.i.i.i.<.<.<.<.<.<.<.<.<.<.2.2.2.2.2.2.a.a.a.a.a.a.a.2.a.a.a.2.2.4.4.4.3.A.Q.|.|.Q.N.k.<.h.p.R ` h.G.a.L.U.@X$X/.M.1.>.1.i.i.d.{ } | } [ | [ T T I <.3.R.~.XX X!. XOXOXOXQ.V.k.p.<.#.<.s.s.i.i.d.D.} ^ < 4 ; ; ; 2 Z } D.I.H.D.D. .|  . .| [ [ [ | } [ [ [ [ [ [ [ [ [ ' [ [ | ........^ ^ T T T Y Y Y T I R E E R R R I I I I T T T ^ ^ ^ ^ ^ ^ ^ ^ ^ { { { { { { } } ",
"{.{.0X0X0X0X0X0XI.[.@XP.m.8.w.e.y.R.E.E.e.8.8.k.s.<.1.s.s.K.).).eX[.{.L.G.H.H.H.L.L.C.B.B.m.Z.N.N.M.e.w.A.'.C.n.K y # # # % O . @ 2 H i.J././.l.9.8.7.3.<.i.i.i.s.k.Z.OX_.W.R.Q.(.7.7.B.1.L R a.I.[.@X@X[.[.U.U.P.P.P.U.).).U.P.C.C.Z.C.Z.Z.V.V.Z.Z.V.B.B.B.L.L.B.B.B.B.J.J.J.J.G.J.J.L.L.G.J.G.b.b.h.h.h.B.B.B.K.J.J.J.K.K.K.K.P.K.K.K.K.K.P.P.)./././././././.K.L.P.L.L.L.L.L.H.G.n.g.a.d.b.B.P.Z.Z./.OX=X;X=Xe.,.O.V V V B B B 1.m.N.N.V.Q.Q.;X;X:X:X>X XE.R.s.i.U L L E R R { { [ [ [ [ [ { / } } } } } | { [ [ [ | | H.{.qXkXqX0X}.H.| | | [ ' | ' K z z n U R s.P.rXiXdXfXrX#X_.Z.j.$.k.^.!.`.*X;X*X*X=X;X:X=XOX*X1XxXxXxXyX$XQ.N.Q.OXOX=XO.V V B U 2.B.B.P.K.V.V.K.V.z.f.p.$.#.$.%.N P #.i.a.h.a.i.i.p.h.p.p.p.p.p.p.i.i.i.i.p.p.p.p.s.s.h.s.s.p.p.p.s.p.s.s.s.s.s.h.s.a.b.b.b.b.G.G.G.G.L.G.L.L.L.L.P.P.P.P.P.K.P.P.P.P.K.K.Y.Y.U.U.7X7X7X7X7X7X7X7X7X0X[.{.[.P.U.P./././.P.P.K.K.K.K.P.Z.Z.Z.Z.C.P.P.L.].P.P.].].].].].[.[.[.[.].oXoX&XN.|.oXQ.N.N.8.:.<.<.i.i.a.b.J.J.@X@X#XoXV.7.O.O.b v x x Z Z C D ^ ^ H F z x L U e.~.XX X X XOXOX/.V.k.k.1.+.#.<.h.a.i.d.D.D.! s = = - ; - ; y H D.7XI.g.D. .| | H D D s D D D D f G A C D D D D D D K G G ! ~ ! H H F F D C x z x x x x x v v M n m n n n F F H H H H H H H J T T T T T R R T R ",
"| g.n.n.b.G.b.b.i.s.B.m.8.,.6.8.e.M.E.E.M.>.1.V.k.1.s.z.<.z.).K.@X[.[.[.[.I.I.Y.L.L.B.B.m.N.N.E.E.R.M.M.N.oXC.2.m q : # u % O   X : z { J.@X/.V.l.l.k.3.<.<.i.#.s.s.V._.OXQ.Q.(./.1.3.B.1.N R p.2.s.B.B.m.v.s.s.m.B.B.B.V.B.B.m.w.w.m.w.8.8.8.8.k.k.k.s.s.3.s.s.2.2.2.s.s.s.s.s.2.a.s.s.s.a.a.a.s.s.2.2.2.s.k.k.m.k.s.s.s.s.s.s.B.B.z.B.B.V.V.V.P.P.P.Z.Z.P.Z.Z.K.L.J.B.B.b.b.n.b.b.h.a.2.2.s.B././.Z.V.N.M.9.8.6.o.V V V ;.4.:.2.m.V.Z.N.Q.+X;X1X:X:X*X!.e.5.>.+.#.#.%.E P E R i./ R I T T / { R / d.i.i.i.{ ` ' ' ' ' | n.{.qXVXkXiX0X}.n.| | ' K I ' ' I K I i.i.s.L.@XeXrXrX@X/.x.p.+.P j._.(.*X:X:X*X X X X X XE.OX;XcXxXxXgXrXoXZ.oXoXOX X,.o.+.:.:.2.s.<.s.1.<.p.k.z.k.1.p.+.#.j.1.P N #.i.s.b.h.s.s.h.B.B.B.B.z.z.k.k.k.1.1.1.p.p.p.s.s.k.s.s.p.p.p.f.s.s.s.s.s.s.s.s.s.h.h.h.h.n.n.b.b.b.b.B.C.C.C.Z.Z.Z.Z.V.V.V.V.V.V.Z.V.K.K.K.P.P.P.K.K.P.U.U.U.U.U.{.{.].L.K.K.Z.Z.Z.Z.Z.V.V.W.W.Z.V.V.V.V.B.B.B.B.C.Z.C.C.P.P.P.].{.{.[.[.[.@X$X+X%X+X+XQ.M.k.>.+.1.U <.h.J.b.J.U.@X$X#XOXE.M.9.9.7.f.h.f.h.h.S.D.g.g.} T L Y R p.9.~. X X!.*XOX X/.V.k.s.<.+.R <.h.i.{ g.H.D.G < X X X - - - > t / U.0XG.G.I.I.H.n.n.D.n. .|  . . . . .D.D.g.g.g.n.n.H.H.H.H.H.H.H.H.H.S.S.g.g.g.h.h.s.p.s.k.z.B.B.b.b.b.b.G.G.Y.Y.Y.Y.Y.Y.Y.Y.Y.L.L.L.J.J.J.J.L.",
"a.a.g.a.a.a.a.p.s.k.k.8.8.6.6.6.9.M.V.V.M.k.8.3.3.k.k.p.#.p.z.P.U.@XeXwXwX[.I.I.[.P.B.B.V.V.M.l.E.9.9.Q.oXZ.3.I q > > , $ . + $ X - q F g.P././.V.m.k.s.s.s.i.i.p.3.l./._.Q.V.Q./.1.3.k.p.R R <.B :.3.3.k.N.m.3.8.m.m.m.m.m.M.M.8.8.w.w.e.e.e.e.0.9.e.8.8.8.3.3.8.w.8.1.>.8.k.3.3.3.2.2.1.1.2.1.<.:.:.1.1.3.3.3.3.3.3.k.8.3.3.1.k.z.z.B.B.B.V.B.Z.Z./.oXoX].Z.C.P.K.C.B.m.k.k.k.Z.V.s.<.:.2.m.P.oX/./.V.k.6.;.o.6.;.V V B :.q.m.s.k.B.P.oX%XyXyXyX;X*X XR.6.O.O.O.%.@.$.$.-.j.j.=.#.#.#.p.f.f.f.p.f.z.z.z.s.p.s.s.v.v.a.a.n.].eXBXCXBXiX[.L.n.a.g.{ ` ` ` ` 2.i.a.n.B.P.@XwX@XP.B.s.f.p.%.v p.#XW.*X:X>X*X>X>XXX*X!.E.!.OX=XaXgXdXhXdX%X+X|.Q.|.1.1.8.2.U U <.R #.p.p.1.p.K.K.k.$.1.p.1.$.#.%.N +.1.k.k.3.k.V.Z./.oX/.Z.V.W.W.V.k.k.k.k.8.8.k.k.k.k.k.V.V.k.k.k.B.m.V.V.B.V.B.m.m.B.B.B.B.B.B.m.B.A.Z.C.Z.m.N.Q.Q.N.M.M.M.M.W.E.N.N.V.W.V.N.V.N.V.Z./.P.Z.V.B.Z.].C.C.C.B.V.V.V.l.l.l.W.W.W.W.W.V.V.M.M.m.m.m.m.V.Z.Z.Z.Z.Z.C.P.L.I.[.@X$X$X#X+X%XOXQ.N.k.:.:.:.B +.1.s.m.Z./.@X#XOX/.Q.!.!.~.~.(././.).U.U.U.U.7XU.S.i.R R #.1.E.~.!.*XOXE.E.OXV.3.1.k.p.U R h.a.i.d.H.H.} p X . . X - - - : q i.f.B.L.P.L.U.U.L.G.G.G.H.H.H.G.H.H.H.H.Y.Y.J.B.J.J.L.Y.Y.I.7X0XY.Y.U.Y.L.J.J.P.P.P.K.V.Z.Q././.P.].oXoX@XU.U.U.wX9X7X7X9XwXtXtXtX@X).oX#X#X#X$X",
"[.[.[.[.[.[.U.U.U.P.Z.V.N.N.E.E.Z.P.P.Z.V.m.k.k.k.k.j.3.1.p.z.z.V./.tXuXtXtXwXU.U.U.K.K././././.W.M.M.W./.B.` n 2 > : < , $ . $ @ - 2 C { b.P./.B.m.k.k.s.s.s.p.1.1.k.V./.Q.V.Q./.1.1.k.1.U #.<.>.w.Q.Q.oX+X+XoXOX+X+X#X+X+XOX+X|.|. X X XOXOX*X*X=X*X X|. X|.Q. X X XQ. XOXOXoX/.oXoXoXoX/.Z.Z.V.V.V.Z.Z.C.C.C.Z.Z.C.Z.Z.Z.Z.C.P.P.P.P.P.P.P.P.Z.C.C.P.].].].'.oXoXoX#X%X;X;X;XQ.Q.M.M.N.N.Q.Z.@X@X/.Z.M.8.6.,.o.O.B ;.,.3.m.m.B.B.P.@X@X$XoX/./.N.k.8.,.>.>.7.j.j.l.l.T.W.W.W.K.x.x.x.^.^._._.^.^././././.@X#XoXoXoXP.Z.oX&X%XeXiXiXeXwXeXwX@X[.U.P.B.i.<.p.z.B.J.J.J.J.K.J.z.s.#.E E E P #.V.W.-X:X:X:X6X:X>X*X X!. XOXOX#XrXrXdXgXgXhX%XQ.N.1.>.k.2.U #.i.<.z./.wXwXtXuX#XK.j.p.$.1.p.1.#.N N %.1.7.7.k.M.W.#X-XyX#X#X-X-X#X/././.Z.Q./././.V.V.Z.V.Z.V.V.V.V.N.Z.Z.Z.Z.N.V.Z.Z.Q./.Z.Z.Z.N.Q.N.N.E.N.M.M.R.M.R.M.e.e.e.9.9.e.e.e.M.e.e.M.e.w.M.N.N.N.m.A.m.A.A.C.C.m.m.M.l.l.l.l.W.W.W.W.V.V.N.N.M.N.N.N.V.N.N.Z.Z.Z.Q.oXoX@X0XwX@X$X#X#X#XOXQ.M.m.3.<.:.+.:.1.8.m.M.Z.oX%X+XoXQ.E.!.!.!.!././._.#X#X#X@X@X).K.z.p.#.+.$.1.R.~. X X!.!.Q./.M.3.1.1.p.#.<.p.a.a.g.n.D.~ < X @ . . @ : > > q L #.h.B.z.z.z.B.h.s.a.a.n.n.g.g.g.g.g.a.p.s.1.1.3.p.k.h.h.h.h.h.h.h.p.p.p.p.s.s.<.:.+.+.+.+.>.>.3.3.2.2.s.s.i.i.p.p.p.p.p.s.k.k.k.k.k.M.V.V.M.k.",
"P.].].U.U.[.U.U.wX@X@X/.Z.oXoX#X@X@XU.P.J.B.k.k.k.7.1.1.p.k.k.k.x.K.).tXwX).U.Y.L.Y.U.U.U.).).@X/.K.K.K.B.i.L j 2 > < 9 < 1 @ @ - - : q F i.J.P.B.B.B.m.k.s.s.p.+.+.1.k.W.Q.Q.Q./.1.1.k.p.#.i.p.>.M. XOXOXOX+X+XoXoXoXoXP.P.P.P.%X&X+X%X;X:X:X:X:X:X;XOXOX+X+X+X*X=X=X=X:X1X;X+X/.oX&X&XoXP.Z.B.C.C.C.B.B.b.b.v.v.v.v.b.C.C.Z.P.P.P.P.L.L.L.C.C.L.L.].].].].].oXoXoXoXoXOX X X X!.E.E.!.*X*XOXN.B.B.B.m.s.3.>.>.o.;.;.>.3.m.B.C.[.wXrXiXrX@XP.B.v.s.<.:.:.1.k.B.x.x.W.W.^.^.^.^.^.^.^.^._._._._.(._.(._._.#X;X;XyX;X;X%X%X+XOX+XP.wXtXwXtXtXtXrXtXtXtXK.1.#.f.K.).@XU.B.h.p.p.p.i.U L P i.p.i.#.W.(.-XuXbXcX6X>X!.E.e.M.N.m.Z.].rXiXdXgXhX%XQ.N.>.>.k.1.U #.p.#.z.@XdXjXvXjXuX/.K.j.$.$.j.j.$.%.N O.@.5.5.8.l.M.(.OX-X-X-X;X;X#X@XoX)././.oX@X$X@X$X@XoX)./.).oXoXoX#X#X#X#X+XoXoXoXoXOXOXOXOXOX=X X!. X X!.!. X!.!.!.!.!.!.E.E.E.E.E..X.X X|.|.|.|. X|.|.|.|.|.].].].].oX/././.(.(._._.(._._._.OXoXoXoXoX&X#X#X#X#X#X%XyXpXpXpXiXrXrX@X#X#X#X-X(.M.1.1.3.<.<.+.1.8.M.M.V.Q.#XyX#XoX/.Q.!.OX*X;XOX#XyXuXuXyX#X#X/.^.c.7.@.@.$.7.u.~. X!.E.E.Q.W.k.3.<.<.<.p.p.p.a.g.h.g.^ a - @ , @ . @ : 9 9 q l P s.K.K.B.K.P.J.B.B.b.L.L.L.b.L.C.B.B.m.k.8.9.9.9.l.l.x.B.k.s.z.s.s.p.p.s.p.1.k.s.3.3.3.3.3.3.m.m.B.B.B.B.z.z.z.z.z.z.k.k.M.M.l.M.M.E.Q.Q.E.M.",
"b.C.J.J.L.L.L.L.L.Y.b.b.b.B.C.L.Y.Y.G.J.B.B.k.k.3.1.1.1.j.k.k.k.x.V.V.V.z.p.i.{ / d.S.S.S.S.Y.Y.Y.Y.G.g.{ F z y e e e u < 1 1 1 > : : > w I h.P.K.K.V.B.k.s.1.1.1.+.@.7.M.W.Q.Q.OX3.3.k.p.<.p.k.>.e.|.OXQ.m.m.v.B.b.b.b.b.b.b.n.L.b.m.B.oX#X#X#XOXOXQ.M.N.Q.|.Q.E.E.!. X!.!.Q.Q.oX/.Z.C.B.B.B.b.b.b.b.n.n.n.| | | | | | g.n.b.G.H.H.G.G.G.b.b.n.n.n.b.b.L.L.L.L.K.Z.V.V.N.M.R.R.!.!.!.OX*XOXQ.V.a.a.2.2.<.:.:.o.8.3.>.>.3.B.P.@XeXeXeXeXwXP.b.h.i.i.a.a.a.a.i.i.i.p.p.f.j.c.c.c.z.z.z.x.K.K.K.x.l.V.W.W.W.W./.(.;XOXQ.OXOXOXE.Q./.wXtX@XK.K.K.).wXtX).V.$.$.z.).rXrX).z.p.<.i.i.i.#.R R f.J.f.P x.W._.-XbXcX:X Xy.8.,.,.1.2.B.P.$X$X@X$X#X+XQ.V.>.1.k.3.U #.p.#.p.K.tXtXdXtX@XK.K.z.p.p.p.f.-.+.O.O.&.5.7.7.7.l./.OX#X#X#X#X#X/.@X[.@X[.@XwXwXwX@X[.U.U.P.P.U.P.@X@X@X@X@X$X$X#XoX/.OXOXOXOXOXOX*X X X*X*X X*X:X=X*X*X*X*X=X=XXX X+X+X+X+X+X+X+X+X+X+X+X&X&X&X&X&X[.{.$X$X@X#XrXuXyXyXtXtXtXtXtXrX$X$X$X%XrXrXiXiXyXpXdXfXfXdXpXrXrX%X#XOXOX(.(.!.l.1.1.1.<.2.<.3.0.M.V.P./.@X@X@X@X/.oX@X#X;X;XrXyXyXyXyX;X#X/.W.W.l.7.@.@.&.7.9.!. XR.M.E.Q.M.k.3.<.+.<.z.h.p.p.h.G.d.G : - - u , @ @ : , 9 a w M i.J.).@XtXtXrXwXwXwXeXeXeXeXeX%X%X#XOXOX!.!.`.!.~.^.(././././.P.V.B.B.B.B.B.V.B.m.m.m.m.m.m.C.C.J.B.J.J.J.J.K.J.K.V.V.V.V.V.!. XOX;X;X;X*XOX",
"I K I I T T T T H H H K J K J J ^ ^ [ } h.B.B.k.1.7.7.7.7.7.k.l.l.M.M.k.p.U z w y s C G G G H ! ! ! ! G s a a t f s a 9 , , 5 5 p e : ; 2 z { G.P.P.P.B.k.2.1.1.3.1.1.1.k.M.Q.N./.3.1.k.p.<.p.s.3.N.oXoXm.U n n n D D D D G G D D D D K { b.P.P.P.Z.m.3.3.3.w.3.:.8.M.N.m.k.m.V.C.b.2.I n z z m D s s g g g a g g a a g s f D G D D D D D D D D t D D F F D m z j k m B :.k.Q.!.OXOXOXOXQ.V.m.s.` ` ` ` ` <.<.:.k.3.3.3.B./.%XtXeX0XL.n.| ' T T F K T T T F D t F F K T T R R R R R R #.i.i.#.#.P 1.l.Z.Z.V.V.V.Q.k.7.8.M.N.N.W.V.).).J.#.E f.).tXtX_.K.x.x.^.tX_._.^.j.#.#.=.*.p.p.R L E h.h.*.z.c.W.(.:X*X!.R.9.6.,.,.<.<.s.L.[.P.C.Z.Z./.Q.W.1.1.k.3.+.#.p.#.p.B.J.B.h.p.h.z.J.J.z.f.$.#.=.p.@.O.O.7.7.7.7.k.k.k.p.U P U R I ' [ { [ { | | | | | { ' ' [ { { a.| { { i.h.B.K.oXoXoXoX|.Q.Q.Q.R.R.R.R.M.9.M.E.E.E.E.N.Q.Q.|.&X&X&X&X&X'.C.m.q.v.v.v.v.v.v.C.n.n.n.n.a.g.n.J.L.L.L.L.L.Y.Y.G.G.G.G.G.G.G.L.L.L.L.L.L.U.U.U.L.B.oXOXOXOXOX!.~.R.T.9.7.1.<.<.i.p.k.8.m.Z.@X@XP.J.Y.Y.Y.L.Y.Y.Y.L.U.U.K.B.V././.Z.M.l.7.@.O.O.&.5.9.!.*XR.M.E.W.k.3.1.#.+.i.z.h.p.p.h.h./ r - - < p u , : : : 9 s t z L i.L.wXwXwXwXwX[.0XwX0X0X[.].oXOXOXOX*X`.`.`.~.R.R.Q.(.(././.P.K.B.B.B.B.h.B.b.b.b.b.b.b.h.b.b.G.S.S.S.S.S.J.z.z.h.B.B.V.Z.Q.OXOX;X;XOXOXOX",
"> > > : : : > : : : > > 8 8 8 8 9 9 p F { h.K.Z.k.l.l.7.5.7.5.7.0.9.W./.B.R w ; - - - : - # , , , , 0 , , 0 u f f f a , , < u p f s e : > y T a.L.P.P.V.k.2.1.1.k.k.7.>.1.k.N.Q.Z.1.<.k.1.+.#.<.s.B.P.P.a.z 2 ; - @ @ @ # # # # @ @ : 8 s [ n.Y.[.L.b.2.<.<.:.B M B :.1.<.<.p.b.h.{ F y ; = X X + + + O O O O O O O O O + + + @ X X @ - - - - @ - - : > > : : - X = 2 k :.m./.OX;X;XOXQ.k.1.<.<.` ' ` ` ` 2.2.2.:.1.k.Z.@XrXrXrX[.H.} F z y y y y y e q q q > 8 8 8 8 y a y t t t t t r z z l l h N s.K.P.V.z.k.j.%.B @.k.l.V./.K.).K.#.c 6 P K.uXtX).^.^.^._._.K.K.c.$.%.#.#.#.*.*.Y h h L d.S.z.z.x.(.OX!.R.9.,.,.,.3.<.U I ` b.m.B.Z././.Q.W.7.1.k.j.+.#.p.#.h.h.i.U k h c v <.h.J.z.p.#.#.f.@.O.O.$.j.j.j.z.#.U x 3 ; ; ; ; > > 8 8 8 8 8 8 a a y y a a a a y y q y z F ` i.K.P.P./.Q.N.N.M.9.9.9.9.>.o.o.>.3.3.3.3.3.q.m.m.].].].].n.2.' n j j j m n K K K K D g g g D F H H H H H H H H H K K K K K J J J J J T Y Y Y T R N.E.!.OX`.~.u.0.5.5.>.1.<.` { h.B.V.V.K.P.G.a.T T J ^ ^ [ [ ^ J T I I M R B.Z.V.k.8.7.@.O.O.&.5.u.!.OX!.E.E.M.k.1.+.#.<.p.s.h.p.p.p.i.Y r ; < p f d p 9 : @ 8 s D z z L d.S.S.f.d.d.d.d.g.g.g.a.<.1.8.M.E.R.T.u.u.u.5.0.l.W.V.V.B.J.J.B.p.<.R R { } | | | | | | [ [ [ ( ( ( ( / T I L L R <.s.v.Z.oX+X+X+XoXoXoX",
": : : : : : : , @ @ + + @ # # # # @ - e F i.B.K.x.l.0.7.5.7.5.5.5.9.Q.oXP.g.K y @ @ + O O O O O   O O + + # & 0 i a i , : u a d ~ G s q > q Z R B.J.K.V.m.s.3.s.7.k.7.@.@.8.N.oXZ.1.1.m.p.+.#.#.s.b.L.L.| t - . # @ + O $ % $ O O O O + : a ..D.0XI.n.{ { a.` I I n N R ` ` { | H.D.| ! s 9 : @ + O O O O O O * O O O O $ $ $ $ # 1 , , , , 1 - - - - - - - : : t D { b.U.@X#X%XoX/.V.k.1.<.` ` ' [ ' ' ` a.a.s.2.s.Z.$XrX@XP.J.} T D q > : : : : : : : - - : # + + + # # # # # : @ @ - : : : > 3 M h.U.P.B.s.p.#.P N $.j.k.V./.@XU.z.v ; = k z.wX).^.K.F.x.z.c.c.c.-.%.%.$.#.%.S P L x h Z { Y.S.z.x./.(.W.M.e.,.,.,.:.B n m n ` 2.m.Z.Z.Q.Q.W.7.7.l.7.%.#.p.#.h.f.i.M 3 = ; 4 k R J.K.z.<.#.p.p.%.N #.f.p.p.h.h.g.T r > : : : : : 0 0 0 0 0 0 # # : : 0 0 0 , # : : : > e t x ` i.b.C.P.Z.Z.V.V.l.7.7.7.+.N V U U _ ` 2.` ` ` n.H.L.L.H.| ' K y q q 8 q q q 8 8 8 8 0 8 8 > < > > < < 9 p u u 9 9 0 0 9 9 e e e e e 2 2 r H { M.R.!.`.!.R.0.&.&.O.+.<.s.a.g.b.P.P.U.L.d.J t e > > < 9 9 9 < > > q 2 q n a.J.B.k.8.1.@.@.@.7.7.R.~.!.!.E.M.k.k.>.+.#.s.h.p.i.h.p.i.E x 4 ; < d ~ f a 9 , : 8 a s t r t A H F C l l l l C C s z j b o.,.9.9.0.5.&.O.O.&.9.M.k.3.p.h.b.a.I z w y 2 q q q 9 9 9 9 9 < > > > 4 2 2 ; ; ; 2 w z I _ P.oX%X%X%XoX].P.",
": : - - - @ @ @ @ + + + + + $ % , # @ : z R h.V.W.l.5.&.0.9.9.5.6.8.M.N.P.C.g.[ 8 : @ + + O O O   O O + + + # # 0 u 9 , , u d d ~ ~ G e > 2 z I h.B.J.B.z.s.k.k.1.k.j.+.%.8.Z.oX/.3.3.V.k.#.#.#.z.b.L.I.n.D > @ + O   O O O O * O O O   . # d ! 8XI.H.g.h.b.s.2.a.I L R { { ' [  . . .| ! f 8 # + + O O O * * * * * O O $ % % % $ $ 1 , 1 1 # @ < , : : - < e e ! | G.0XeX@XP.Z.B.s.:.<.<.i.` ` { { { { a.s.n.b.P.[.@XeX@XL.a.T y e > - - @ @ @ @ @ @ @ @ @ + + O O O O + + + + + + . X @ - : : l I J.U.U.B.i.#.#.N P 1.k.k.x.).).J.<.h = = v P.K.K.K.B.z.f.p.p.j.j.-.%.$.$.#.P 6 x E ^ Y L { S.F.z.K._._.W.M.N.M.3.:.U n j n T R <.s.k.m.V.W.(.7.7.l.7.%.%.1.U p.h.p.U 6 = = = 3 L z.U.K.p.#.#.c.%.P #.p.i.i.d.G.g.T y : - - @ + O + + + + + + + + + + # + # # + + @ @ @ @ - - y F ` n.P.].@XoXP.k.1.k.z.s.U v V N U ` ` ' ] I ` d.G.Y.H.D.| [ D t e 8 8 > : @ # # : , : # @ @ X @ @ # # , & 0 # # # # # # # # : : - = = 2 H h.M.R.~.!.~.R.0.5.@.o.o.1.m.B.B.B.U.wX[.G.F > @ + . .   . . + + + @ - : > x g.L.B.k.j.3.1.+.>.1.8.R.R.!.*X!.M.8.k.+.U #.z.z.<.<.h.p.R F l 4 4 p d ) W a u 9 , 0 9 9 9 < < < < > ; ; = = ; ; ; ; ; 3 h N >.8.5.5.&.O.O.b O.7.k.3.+.*.d.g./ z > - - @ @ @ - @ # # # - - @ @ @ @ - - ; - ; 2 w K a.b.B.P.$X%X$X].C.B.",
"f e : : : @ @ @ @ # # @ + + + + $ @ @ X > Z i.V.(.W.0.5.9.l.8.@.>.8.9.M.Q.oXoXB.I q X @ $ $ O O   + % 0 , # @ @ : : : < < p s s ~ ! J C q q z F ` s.B.C.B.B.k.k.k.$.j.k.+.1./.Z.Z.m.m.M.8.+.@.7.7.V.P.K.a.F q : @ + + + $ $ O O   O       . , p D.H.G.J.z.s.3.1.s.<.U U ` ` T I T H.H.D.0XD.D s : # + O O O * * * O O & % % 5 5 5 i u u u , , : - : 2 q w z T d.G.L.wXiXrX@XJ.b.<.<.<.<.U P U R k.k.1.1.s.B.K.P.[.0X0X[.H.[ z q - X X X . . X + . .     . + + + + + $ $ # # # @ + . . - - X : t T i.U.U.i.f.h.L v 1.k.1.k./.OXx.B.#.v 3 = ; U wXP.B.p.h.J.J.a.I I R i.p.<.+.N M E } H.H.G.h.i.i.f.K.).)._.^.B.s.<.1.R M I h.n.R U U U $.c.x.W.W.l.7.j.j.@.@.>.:.U p.J.f.Z ; = = = l i.K.P.z.1.<.p.#.R R i.d.i.d.H.H.D.K q - - @ . O O + + + O O     + $ $ $ $ O O + . . + . + @ > e D T d.G.[.eXP.B.s.s.p.k.k.k.f.#.L x x L ` a.*./ i.f.Y.U.Y.Y.D.D.} H r > > 9 @ + @ # # # $ $ @ # $ $ + O O O $ + O O O O # 0 + 0 > - 2 I z.V.R. X X8.3.m.m.:.B :.>.>.6.u.~. X#XL.g.J e @ .     * * *         $ @ # 9 G n.Y.J.k.k.s.1.<.<.<.1.M.E.!.OX_.W.k.1.+.1.s.i.<.a.a.i.i.Y l 3 w C G ~ ~ ~ Q i i 5 $ # , , , $ @ # : , : - - > > ; ; 2 6 N 8.V.N.M.M.M.>.o.N 1.k.k.p.i.d.d.} H e - - : @ , , 5 $ $ $ # @ + # u u : - : - q D | G.[.eXeX$X$XoXC.v.3.3.s.",
"s 9 : : > < < 9 9 u u , @ + + $ % $ # - ; z *.z.W.W.l.7.8.l.8.>.7.8.9.e.E. X|.N.<.z > : , 0 % $ $ 0 u u p u < < < < 4 r a r s s G J J H z r z z L i.J.K.B.B.k.k.c.7.7.1.@.3.V.Z.Z.V.V.M.8.O.O.5.7.M./.P.s.L w : : # + + $ % % $ O + .     . @ < ! ( g.b.B.k.1.1.<.<.<.<.#.` R ` R { G.G.G.H.g.T a 9 0 # + O O O * O $ & i i 5 5 p p p p u < > > q q w x L i.B.P.wX@XU.P.J.B.p.<.#.<.<.U U U <.s.1.7.7.k.V.).@XwXI.Y.G.| J s > - @ @ @ @ $ # # # @ + + + + + $ $ & & i i i 0 0 , : @ @ - ; ; r Y g.b.L.h.<.i.p.U U s.k.k.m.OXOXQ.j.v 6 6 c P p.U.B.J.L.b.a.i.i.a.g.| R L V N N P T T { D.G.G.i.P s.K._.).).P.J.h.p.i.U L R h.h.i.p.<.#.#.-.x.^._.l.7.9.9.@.@.,.;.:.p.L.L.h.Y 3 4 = 3 Y h.P.B.s.:.<.p.i.R E { i.} G.G.D.^ s q ; @ + + + # & $ + O O O + + O $ $ $ $ $ O + + + + @ @ - : q t K | G.L.L.b.B.B.B.z.f.$.#.#.#.R E I L R #.#.*.=.f.S.Y.Y.S.d./ ( H s < , , : # - : , , , u i i & & $ O $ + O O O + # # g 8 8 j a.P./.Q. X!.E.e.3.<.<._ 2.2.3.6.0.y.XXXX/.g.J y > +     * * * *         O $ $ 9 ~ H.U.P.k.s.3.<.<.<.i.p.M.N./._./.V.s.<.<.s.s.i.<.i.a.i.i.Y l 3 l H ! ! ~ ~ Q d i i i 5 5 5 % % $ $ # , @ - : > 2 ; 2 3 v +.M.V.m.8.8.m.:.:.1.m.B.s.i.i.D. .^ s : @ . . . + $ $ $ $ $ @ + + @ 9 9 , : 8 s J D.0XiXiXiXeXoXZ.C.m.m.3.2.4.",
"e > - > e p s f f d d u # + + # 0 , , - ; w L 1.k.x.W.l.7.0.8.8.7.k.8.9.N.Q.oX/.m.` C q 9 a i 5 u u d f f G A A s C C A A C s s s D J ^ T F z l x <.J.K.K.V.z.k.j.l.7.$.3.3.s.B.V.Z.Q.V.7.@.O.>.9.R./.P.s.I w > > : # # % & & i % $ $ . . . X - < C ( S.J.z.1.+.+.<.<.#.#.R #.i.<.L f.Y.g.Y.wXg.( ~ a 9 & + O O O O & i Q Q Q d d r a r e q q w m n L <.B./.#XrX#XU.B.p.<.<.U P U U +.+.#.<.1.3.1.3.k./.@XtXwX@XG.} J t 2 - - X 1 1 , , , , , , , , , $ $ # $ , i i i a a u u 9 9 : - : 2 r H d.Y.U.B.` #.<.<.<.1.k.m.M.V.Q././.#.k 6 M f.J.J.J.h.J.L.b.i.` a.n.g.} I M b V U #.{ T ^ g.Y.Y.s.U k.K._./.^.K.z.f.z.<.U U <.p.h.p.B.k.1.1.j.x.^._.c.5.0.0.@.@.,.o.<.s.J.@XtXU.d.Y 3 3 l R z.Z.m.3.+.z.B.U M R i.` h.G.S.} ^ D q - @ # , i i i # @ $ $ $ + + $ $ % 5 % % $ $ # @ @ @ @ X X - q G T n.n.b.L.P.J.h.p.i.p.p.h.f.2.L k L P E E E R *.f.Y.S.S.S.H.D.( H f a 9 : - : < u u u f W Q i & % % + O + $ # # 0 f y z n.rXrX#XOX*XE.e.w.3.U U <.s.m.m.8.R.!.`.!.h.J q - @ +     * * * O O O O   $ $ , 9 ! H.Y.J.3.3.3.<.<.<.i.s.k.M.Q./.Q.m.1.+.1.s.s.<.<.i.i.i.i.P x l Z T ( ^ ~ ~ d d Q Q i i 5 u u u u 0 , # @ - > e 4 2 r Z 1.k.V.V.8.>.>.8.:.3.V.V.s.#.#.i.g.} A : X @ @ . . . . + $ % $ $ @ + # 9 u 9 e t [ D.0XkXjXiXwX[.Z.m.k.3.3.3.1.:.",
"q > > e s s A G A f s 9 : @ # , u , : : ; 2 c P 1.x.W.M.7.1.8.k.k.k.8.8.M.Q./.oXP.J.{ C s f f u 9 e s G ~ ! ^ ^ ! ! H H C s s s y C H ^ { T F l x E h.K.U.P.K.z.j.x.7.+.k.k.:.k.B.P./.Q.k.@.@.>.9.M.Q.Q.s.I z q 8 : # # $ 0 i i i u , @ . . . X - e H } S.f.i.#.+.+.+.+.#.#.#.#.i.R i.h.i.S.U.G.8X .! f u # + O & & & i d Q Q A l l l l l z F L ` 2.s.B./.OXOX/.B.m.s.<.:.U U U U U :.<.<.<.<.<.m.V./.@X#XU.J.g.T C q ; - - - : < < u u u u < , u u u u , , , u a Q a a a p 9 9 9 : ; > r C ^ S.U.@Xh.U i.<.+.1.s.3.8.M.V.N.Q./.1.+.<.z.K.K.B.B.B.h.p.p.h.h.g.i.T T E R +.+.+.<.a.i.d.G.U.U.V.k.x.K./.K.V.z.f.<.k.<.<.1.i.<.p.B.B.s.s.k.l.W.W.W.0.&.0.0.@.@.>.:.<.1.B.@XdXkX9XY./ S h v 1.V.N.m.1.k.k.+.P U <.<.i.h.S.g.} ( C 2 - : , 9 a a u u 9 , , , , , 9 u u u u u u 0 , , < , : @ - : e s D T { b.Y.L.J.z.z.f.p.i.i.<.R P v S %.%.%.E #.*./ f.Y.Y.G.S.S.I.( ! C e > > > < p p d W W i i i % + + # i i 9 9 D J n.[.eX@XoX%XE.e.8.,.>.:.:.2.3.k.m.N.Q.(.Q.m.T t - @ @ +     O O % % & % % $ $ u u a J g.J.k.3.1.3.1.<.<.<.p.k.M.Q.Q.V.k.<.+.1.s.s.<.<.i.p.i.#.L x F I / ^ H s s s d f d d p u p d W W a , @ - : e r 3 l Y i.^.Z.V.k.8.>.>.>.:.k.V.B.p.U R i.} ^ r = X > 9 @ @ . . @ , u i i 0 , , 9 a e a s [ n.[.eXwX[.L.J.B.k.3.1.1.:.:.:.",
"e q e s C C C C C s a e < > 9 9 , , : : 2 4 6 b #.l.(.W.7.>.1.k.k.k.j.k.k.M.Q.oX#X@XJ.T H H G p 2 2 r s H ^ ( } } / ^ H D s s t r C F T ^ T L x x L #.h.P.@XP.z.k.V.7.$.k.p.+.s.k.Z././.l.7.7.7.0.T.W.Z.s.P z y q : @ + @ 0 i Q f d u , @ . . X X - a H ^ { d.p.#.#.%.%.$.$.#.#.*.f.*.#.h.h.f.U.qX8X .~ f 0 & # # & 0 i a d s C c b v v N U <.s.m.B././.Q.M.8.8.3.s.s.1.+.B :.1.<.<.:.:.1.3.m.B.%XrX#X@XP.a.T z w 2 ; - - : < p u u u u u 9 < , u p d d u u p d W f d a p 9 < : > 2 4 r Z Y { h.B.P.h.<.s.s.+.2.3.1.8.M.N.N.N./.V.V.P./.P.B.h.p.h.p.i.i.i.{ R I H Y R p.j.3.1.<.a.h.G.Y.B.B.Z./.W././.Z.x.k.1.+.+.@.k.m.s.+.1.P.v.s.s.k.l.W.W.^.7.&.7.7.@.@.>.:.1.3.B.).tXdXkXdX).f.E P 3.V.N.w.M.,.:.1.1.+.+.<.<.i.h.S.S.d.T z > - - < p f G f p p p p p s s s f f f f d a a a p p 9 9 , : : : 8 y D [ d.G.Y.U.P.z.p.#.#.<.<.<.P S N P %.#.#.R E i.h.S.h.S.Y.7XS.g.{ T C r 4 4 e e p a a i i i $ + + 0 a f G D [ G.eX@XP.P.].oXm.k.3.+.>.8.8.8.3.m.P.oX@XP.h.T y > @ @ .       $ % i Q i i % $ , u a C T h.B.s.1.>.1.>.>.>.1.3.k.N.Q.Z.m.3.<.+.<.p.p.<.<.p.p.i.P L L E R / F C r r s s s d d d d W ~ ..! f 9 - : e z l l L f.Y.#XW.k.1.8.8.3.>.8.k.k.s.<.<.<.i.Y Z 4 = - e e < - @ . X , p Q W a a 9 9 e e e t K | G.I.[.L.J.B.s.8.3.:.+.+.3.m.",
"r r z F F C C Z C l r r s s s s e : : e r 3 6 c %.k.W.W.k.7.1.7.k.k.p.j.k.k.V.oX#X#XP.h.{ ^ H Z r w 3 w z Y / d.d.} / T F D D C C C Z F Y Y L L L L L #.K.@X).x.c.x.c.1.p.1.<.3.3.V././.V.M.k.8.0.T.W.V.s.U n t e > @ . + , i Q ~ d a < @ . @ - . X - < s ! } S.h.p.#.#.p.j.p.#.#.z.=.E F.h.*.7XwX7XD.( G a 0 0 # # 0 8 e s C Z S O.+.1.8.k.V.Z.Z.oXoX/.N.8.>.+.k.m.3.:.B B :.3.k.3.1.1.m.Z.#XrXdXrX[.b.` n w 2 ; ; - ; : e p p p u u 9 9 9 < > p p d d d f G ~ ..~ f a e < > 4 4 r C Y / d.h.h.s.z.s.p.s.s.1.3.8.8.M.E.Q.Q.E.oX%XoXP.K.P.V.s.R R i.i.R L z Z Y / / i.p.3.3.p.p.<.h.J.J.s.3.M.Q.(.(._.W.l.k.7.1.N %.k.m.3.>.k.oXC.B.s.8.k.W.!.`.5.&.7.7.@.+.>.:.8.k.V.^._.tXfXvXtX).V.V.Q.Q.M.8.|.,.o.,.8.:.+.<.#.i.f.h.S.S.d.^ l 4 > 4 r G ! ! C C G H H H H G ~ ~ ~ ~ ~ f d d a d d a u , : - : > e D T d.Y.I.K.J.z.s.<.<.#.#.$.%.b b N E #.#.i.R E R f.b.z.h.L.L.J.h.d.R H Z r a r p p 9 u u # # # u f ! ^ { I.tXeX].P.$X@XC.s.k.3.:.>.M.M.8.k.Z.@X@X[.H.T s : @ @ + .     + & i i i u $ @ . - e s H { B.V.m.1.>.5.>.@.>.1.1.k.N.Z.Z.m.3.1.<.<.i.i.#.<.p.i.#.v L P R R Y Z z l C C A C C A G ~ ) } ..! A e > y C Y L Y i.F.9X_.V.1.@.8.l.8.>.V.M.k.1.p.s.p.i.Z l 4 ; : > > > : - - - < p f G f s a e e q q y t F a.L.[.U.B.s.<.1.1.:.o.:.m./.",
"t r z F L F Y R ^ H Z F T ^ ^ J s e e D Y x h 6 N 1.V.V.l.k.8.1.k.j.p.j.3.7.l./.#X#X#X@XJ.i./ / L x h h c L R i.d.i.i.{ { J K F T Y H Z Z Z Z S L x x v p.P.).K.V.z.x.k.#.$.s.s.<.k.Z./././.V.l.0.T.W.V.k.U M m t q - X @ , d W ~ ~ G p - @ , u , : - - < s } S.S.h.p.p.p.p.i.*.R #.#.i.f.i.i.S.Y.D.} ! G s 9 0 : : : 8 y C Y R 1.j.W.W././.oXoX/.Z.V.m.k.3.1.>.,.>.:.o.:.:.>.,.3.8.m.Z.&X%XrXiX[.G.` F w 2 > ; ; ; : < p d d p e e 9 9 9 8 < > e r s A H ! ^ ^ [ ! G a < 2 2 2 l Z Y { f.S.J.z.k.p.k.k.1.3.m.m.m.N.Q.|.OXOX|.Q.&X].B.m.k.s.<.R R R E L Z Z Y / f.d.p.p.1.1.p.s.<.a.b.J.B.w.6.0.W.Q.^.M.k.8.7.1.O.@.7.7.1.1.l./.$X].Z.N.N.W.!.!.5.&.5.7.@.@.1.:.1.k.V.V.V.K._.tXyXyXyX;XOXE.M.e. X0.;.,.8.>.+.+.+.1.f.h.z.J.S.h.^ A 3 4 l H Y ^ Y Y Y T T I I Y ! ! ~ ~ f s p 9 u p a p u 0 , < > > 8 e t F / g.h.J.K.K.z.p.<.1.1.$.%.P N P E E #.E E #.p.h.p.<.z.B.K.K.K.S.f.*.Y H A s e < < , 0 0 0 a G ^ d.h.tXwX)./.@X$X].C.B.p.<.3.k.M.R.E.Q.OX@XI. .! f 0 # @ + . . . + 0 i Q d i , @ X . > r F T i.K./.V.5.5.5.>.@.@.>.>.m.N.Z.Z.m.s.1.p.<.p.p.*.*.i.#.P v L E R P L L L Z F H H C C H H ( } } ^ C r w w F R d.i.f.F.^._.V.k.1.@.7.k.8.8.V.M.k.1.p.k.p.R l w r l e ; ; 8 e e a a p s s A G D s y e y t z w z I h.U.U.K.B.1.1.1.:.+.>.l.Q.",
"l l l x L Y *.f.f./ Y R d.h.d.{ H t t T { L c 6 N #.k.l.x.l.k.3.z.j.p.j.3.1.k.Q.oXoX#XyX_.z.p.f.s.+.b c c v %.#.#.i.a.g.g.| [ T / ^ Y Z l l x Z S x h x R z.U.K.K.k.V.x.+.+.k.s.+.s.V.Z./.#X/.l.9.T.W.W.k.#.L n D y - X @ < d ~ ! ^ ! f < , p W f p , @ - p ) D.S.h.h.p.i.*.*.i.R x R h.E E i.R ( / ! A C t q 8 8 8 8 q z L i.s.W.(.-X-X;X%X#X$XZ.s.<.:.<.k.k.k.V V V :.8.m.3.:.:.3.Z.%XhXpX%X].a.T w > - - ; ; ; > 2 e s G G f e e q 8 8 q q q e y C C ^ ( } } [ ! C r 4 2 3 3 z L R i.z.K.K.B.z.1.k.k.+.1.N.N.m.Q.OX XOXOX|.N.B.P.P.s.<.U R <.i.L h l Y d.h.h.d.d.p.p.$.p.p.p.f.g.b.L.oXQ.0.O.l.W.M.k.7.7.7.7.7.7.7.@.@.1.l.V.rX$X$X&XOXQ.E.9.5.O.5.7.@.+.1.:.>.8.l.l.l.l.x.V.-XuXaX;XOXE.E.!. Xy.6.;.,.6.>.O.+.1.j.s.z.K.K.Y.d.( Z l Z Y Y Y / R R R E E E T H H G D s e : - - : : , , , 0 u 9 8 > : > q z F d.J.U.U.J.k.p.k.#.1.c.j.$.P N v c P p.s.s.<.i.<.1.k.V.K.^.K.F.F.i./ Y Z r < ; - 0 0 9 t F Y i.F._.K./.#X@XP.C.].J.<.U k.W.l.R.OX-X;X@Xg.! a 0 $ # @ . . + @ 0 a W W W d < - X X 4 C I R p.K./.V.5.5.5.5.@.O.@.>.m.Z.Z.N.m.s.s.s.p.p.p.=.=.*.E x v L E P L L L E Y Y T Y F F Y ^ d.d.} H r 2 3 l I i.z.z.F.^.^.^.k.j.1.1.7.8.8.k.M.m.k.1.1.p.#.L 6 3 l F C ; ; y D K ! ! H D C D D D D t z D F F n n L 2.J.@X@X/.k.8.1.>.>.1.8.k.",
"I L L E #.p.z.F.z.J.K.K.J.h.i.i.H J T T R R v h c N 1.V./.W.M.k.j.z.k.$.@.k.V.V.Q.OXyXyX#X/.x.k.V.8.%.b b N +.1.f.p.f.h.G.G.d.| { / Y Z l l l z l z l h S i.Y.wXK.K.z.p.1.1.$.1.1.+.1.k./.@XZ.k.0.T.W.W.l.1.P n n t > ; : p G ~ ^ ( ^ G p p ~ ....~ f d < : d } ^ R { d.i.R I R d.l z R F x I R *./ Y H H C t q t z F T i.B.K.P._._._././.P.Z.B.s.s.s.a.i.` R U :.>.3.,.:.3.m.Z.P.oX$X$X@XC.2.I D q > > > : ; ; ; > a G ~ ~ G C t e q q q y y y q w l H d.D.d.{ d.^ Z r 3 3 6 x E #.f.z.z.V.z.p.k.k.k.3.1.3.k.V.V.Q.E.OX+XOX|.N.m.s.s.s.s.R U U x L R i.d.d.i.d.S.F.F.z.-.#.U L h z Y b.P.N.e.u.(.(.7.@.l.5.O.7.O.5.7.7.7.l.l.k.C.].$X$XoXN.M.R.5.5.9.7.o.+.1.+.1.l.N.V.l.k.x.W.W.V.W.OX=X=X*XXX X~.e.t.;.,.>.;.>.+.%.1.j.z.z.z.f.f.*.S l 6 x S E #.p.#.P M P R { ( J t 2 > 2 e s p p 9 9 u p a 9 8 : @ : e y q Z L R f.B.V.V.x.j.p.p.1.$.#.+.P P P P U U +.#.#.1.1.1.j.z.x.K.^.K.J.S.d.} ^ C r a 8 q F R E S P c.V._.#XP.m.2.<.` a.B.V.W.W.(.(.-X).h.J a 0 % % u u , # + + 0 a ~ ..~ s e ; o = r x E <.s.V.Z.V.5.5.5.&.O.O.5.5.M.N.Q.Q.V.k.k.k.s.i.p.z.f.E S x P L P P L v L R *.R E R Y L Y / f.f.i.E h 3 x ` h.h.K._.9X9X^.c.j.k.l.l.7.>.k.(.7.8.k.3.p.1.E c 3 l Y R H z r z T | n.H.g.{ { } [ T F F F I L L x x L #.s.B.V.V.m.k.1.o.%.>.1.1.",
"i.i.i.p.z.B.K.).^.)._.).P.B.s.i.I I R ` i.R L c c b #.k.Z.Q.V.k.k.z.j.1.1.k.k.l.V.OXyXyX-X_.^.x.R.9.>.N b N @.j.j.f.p.f.h.g.g.D./ ^ Y z w 3 3 h z Z z l l E S.U.K.K.z.z.p.p.1.1.3.#.+.k./.#XZ.k.9.T.~.W.l.1.P M Z l 2 > < s H ^ } } ^ H s G !  . ...~ W p - p ! ^ T T | { T T T T w z T x z F T E E Y Y Z Z C n n T h.L.U.).).@X_./././.P.K.C.b.a.g.a.{ ` ` ` ` <.3.3.3.k.B.oX%XdXrX@XL.v.` M z y > : : - - ; > r r C G H H H H z z t t t t l l x l l z Y d.h.h.R Y Z x l h x E #.p.z.z.z.x.k.j.k.k.j.7.j.k.m.M./.Q.|.|.|.Q.M.w.m.<.I <.h.s.U k U R i.i.i.i.i.i.f.S.z.z.j.p.P l ; ; r ` B.M.e.E.!.Q.7.>.M.7.O.5.@.5.5.7.9.l.9.>.` n.L.oX].N.N.M.5.5.9.7.o.+.1.:.1.8.M.l.7.1.7.k.l.8.9.E. XOXOX=XXX Xy.0.5.5.,.>.o.o.@.1.j.p.z.K.F.F.f.E c 6 6 c S E #.E N P #.s.R T C w 2 2 r r G G G f f d a a a e 8 - - > e q r z F U i.z.K.K.K.x.k.1.#.#.1.1.#.U N b v V P U +.+.1.j.z.x.x.K.^.K.K.Y.J.S.{ T D y y F E P P +.$.k.^./.B.2.U I R i.s.B.V.^.(._.Z.s.I s 9 i i i W W W a , , e f ! ..^ C 4 ; = 4 l L R <.j.x.V.M.5.5.5.&.O.O.&.5.l.N.Q.Q.Z.m.k.k.p.p.h.S.i.S Z S E L x x v L i.h.i.*.R R R L E #.z.z.p.L h c U p.J.P._.rXyX_.x.c.j.k.l.k.7.7.l.Q.7.8.3.3.1.$.P c 6 Z R d./ F x F { n.[.0XU.L.J.J.b.g.R I I I L n x k k V <.m.P.oXQ.M.1.+.@.1.1.+.",
"i.s.B.K./._.yXuXyX#X_._./.P.k.2.R ` <.i.i.i.P x c k P 3.V./.Z.V.k.j.p.7.3.3.8.k.k.OXyX-X#X-X-X(.R.R.9.O.O.O.@.k.k.f.i.R E T / { Y F Z l w 2 2 3 l Z Z l 3 l d.Y.U.K.K.z.z.f.p.1.3.#.+.3.Z./.P.M.T.T.!.^.l.1.%.L x z w 3 r H ^ } G.g.T F G !  .H. . ...~ p - e G J K K J J J K J F w w F m z F T E E E Y L L I R a.L.wXrXrX@X).).rX#XP.J.B.v.a.a.{ { ` ` ` ` { i.<.3.s.B.P.@XrXdXdXeXb.` m w q 2 > - - - - - : q H H F F H T T T F x x z j j j z L x x x L i.f.S.Y S x l c x P <.s.z.x.z.k.x.k.j.k.j.p.j.x.V.V.k.oXOXoXE.N.w.8.3.B.a.` ` ` U M M i.i.p.p.p.p.p.p.f.f.z.F.K.z.Y 3 o o ; n <.k.M.!.E.W.7.1.l.8.o.@.>.@.@.7.R.W.7.N w D { J.P.Z.N.e.0.5.9.5.o.+.3.1.M.l.8.@.%.o.>.8.M.0.>.6.e.E.OX;X XXX.Xe.6.6.,.>.o.o.@.>.>.1.k.^.K.F.F.#.v 6 6 6 v v N b b P p.K.E F l 3 3 w z C T J ! ! ! G s e s s s > - - > q q q w l Z R f.J.).K.J.z.f.p.p.p.<.#.P V v v V M <.+.+.+.#.p.x.K.K.K.^.).).U.Y.h.a.I n L L M N %.1.k.^./.B.2.U B U R 1.k.x.^.(._.k.R l > 8 i W X. . . ...f a s H [ d./ C 3 ; 4 l x P #.<.k.V.V.l.7.7.5.&.&.&.&.5.9.M.Q./.W.k.k.s.i.h.S.h.E Z Z Y Y z 3 6 x Y i.h.i.i.p.p.i.#.i.h.z.z.1.V k U k.V.P.#XuXuX-X^.x.l.j.j.7.7.8.l.M.M.7.3.3.1.$.#.S c c S i.h.g.I F n a.G.eXiXdXrXrXrXU.L.h.p.i.<.R P P V b V U 3.V.Z.OXZ.8.>.1.3.1.o.",
"B.P.@X#XrXyXuXfXuX-X_._.OX/.k.1.:.<.<.p.p.#.L v c v N #.k./././.l.7.1.k.k.3.3.k.3./.;X#X#XuXaX*XE.R.e.9.5.@.@.7.j.#.E S Z Z F F z z z z l w w w l F F w ; 2 T G.U.U.U.K.z.j.1.1.1.#.+.1.k.V.Z.Z.T.~.!.^.W.7.+.P v x z z F / d.S.Y.i.F z H ^  . .....~ f < ; e H J H G F K K K J D z x F F n I R i.#.#.P P R p.B.P.oX@X@X$X@X#X#X#X/.V.h.s.a.i.` ` ` ' ' ` { a.s.s.s.B.oXrXiXrXeXL.g.I t 2 > > : : , , , : - 2 s ^ H F Y R { i.i.E U L n x x M L L L L R <.p.p.p.*.P x v v P #.p.V.K.K.x.k.l.k.7.j.j.j.j.c.x.V.V./././.Q.m.3.>.1.b.a.R I M L R p.i.p.p.s.s.s.s.h.h.f.f.K.wX).*.3 o o X w R k.R.!.N.M.8.>.1.>.%.@.7.@.@.7.(.`.l.N ; : t T b.P.V.8.8.6.0.>.o.+.3.:.k.l.l.8.>.@.>.1.0.8.6.8.M.M.M.E. X=X;X XE.M.9.8.>.@.O.o.o.+.7.V.x.F.F.c.#.S v c b b c 6 6 N j.K.R L h h x x F F Y H T ^ ( H r 2 s f G e : - : 8 q q 2 2 w z E *.h.B.K.P.K.h.p.#.<.<.<.<.+.P V k U U R R #.$.=.p.j.z.K.^._.).).U.L.a.U P P N P +.1.m.P./.Z.k.1.:.P U #.3.z.K._.wXS.R w ; : a X... .8X8XD.! C D K } G.i.L x 3 3 x L U #.p.k.V.V.l.7.7.7.5.@.&.&.O.9.E.(.(.W.l.k.f.p.h.S./ Z l A H Z h 3 h z L R i.R i.p.s.p.#.f.B.V.V.1.b b 3.P././.#XuXyX_.x.l.x.j.j.7.>.8.W.M.8.1.7.7.1.1.#.S c c L i.h.f.R n n ` v.].iXdXdXfXdXrXrXwX@XP.B.s.<.U N N N +.1.k.M.oXQ.m.3.3.3.1.+.",
"rXpXdXdXuXyX-X-X;X*X(.OXOXOXM.>.<.:.<.p.i.E S v S v P +.k.Z./.OXM.7.1.k.M.k.3.m.1.Z.OXOX#XaXbX:XE.e.e.M.E.9.7.1.$.%.v v S L Z Z l z F F F F C C Z T T r = ; F g.L.U.U.U.K.j.p.$.#.$.1.<.1.s.B./.T.~.`.W.W.7.+.E P L L Y { S.Y.Y.G.{ Z l C J ^ [ ~ G s e ; ; r H ^ J H G H T T H z F F F F L I <.f.#.P P #.s.K.].P.Z.Z.P.#X%XyXyXB.k.s.<.i.a.a.a.` ` _ ` <.s.v.B.L.P.@XrXiXeXG.a.K D y q > > > > < , < u > : e D ^ Y L U <.p.s.s.s.p.#.U P U #.<.L P U <.p.s.i.<.z.#.v v #.p.z.x.^./.W.l.k.8.k.7.$.j.c.c.c.x.^./.W././.V.8.>.+.+.h.I z Z i.h.h.h.p.s.p.s.k.s.s.s.p.i.p.K.tXtXg.l - o o 4 i.V.W.!.k.k.k.>.B o.@.1.3.@.$.l.(.-XW.#.2 @ = w i.P.Z.8.0.>.5.>.o.+.3.:.+.8./.#XOXV.>.o.o.>.8.N.N.8.>.,.M.OX;X<X;XOXOXOXM.>.O.V o.o.>.7.k.z.K.K.z.p.P v v b 6 6 6 b p.K.R M k x L L L L L F Y / { T z 2 e s G D e : : > q q q q 3 r z Z L #.h.K.U.J.h.p.p.s.s.s.<.R P N j n ` a.f.i.%.N p.j.k.x.K./.).#X/.B.s.<.U U U <._ s.B.P.V.k.1.>.B o.+.1.c.K.9XtXU.d.r - : e f ....H.I.D.^ F F I p.J.h.#.L l h S E #.$.p.k.V.V.l.7.7.7.>.@.O.&.&.9.W.(.(.W.k.p.p.z.S.d.Z 3 r C H C l 3 w l z Y / L E #.#.#.#.<.k.V.M.>.N B N.oXoX;XyXaX-XW.l.l.W.j.7.$.5.l.R.l.7.>.7.k.j.p.$.P b c v #.h.p.` U U <.s.C.$X;XpX;X;XjXjXjXdXtXoXV.k.+.o.V N N +.k.M.V.Z.Z.m.3.3.3.3.",
"rXrXrXrXrX%X#XOXOX(.(.*X;XOXE.8.1.:.+.1.#.L v S E E E U 1.k./.OXW.l.8.l.M.m.m.m.3.m.N./.-XaXcX1X Xy.e.E. XR.7.7.k.p.E S Z l 6 3 C F ^ } } | [ ^ {  .^ y = - y T G.L.U.U.K.z.p.=.#.$.1.<.+.<.B./.~.~.`.~.T.7.$.#.R R E { d.S.Y.Y.i.R F x Z F H G C s < ; ; 2 z H ^ ^ J H T ^ T F l L F z L L P i.1.+.B +.3.Z.@X#X$X/./.oX#X#X/.V.k.s.1.:.:.<.<.<.` _ <.<.s.m.V.P.eXeXeXeX0XG.T z 2 > : : : > > : u u u u 9 e s H T L L U s.m.V.V.V.k.3.1.1.p.s.s.+.U P +.s.s.s.<.p.P v N $.z.V.Z.W./.V.k.8.8.8.1.$.j.c.c.c.x.^._././.Z.M.3.:.B B i.T T d.S.G.f.i.h.s.s.s.s.2.:.U R R i.J.tXtXg.C - o o C S.).(.W.k.3.3.:.N B 3.1.1.1.7.l.(.-X/.z.G : o ; Y J.Z.k.>.>.,.>.o.:.3.:.1.k./.OXOXQ.N.m.8.,.:.;.o.;.8.M.>.m.Q.OXOX;X;X;XQ.8.o.o.>.,.;.>.k.x.^._.^.z.#.E S N v 6 c S =.F.R v x L U L v M L P R i.i.#.L x 2 y G H D q > > > e t s r r r r l Z R i.f.z.L.U.B.h.p.<.#.#.<.<.I K I I E R #.#.#.$.$.1.j.k.V./.yX#X/.m.2._ I M U 2.B.Z.Z.k.7.1.%.o.+.#.c.K.9XwX7Xd.C : - 8 g K ^ } D.g.{ I U U s.B.z.p.#.L x P #.$.1.p.z.K.K.k.j.j.7.@.@.O.@.&.T.~.!.(.W.k.j.p.z.S.E 3 ; r ! ^ F l 2 2 2 w L / R E U R #.#.<.k.M.9.>.o.1.Q.#X+XfXfXuXOXW.l.l.l.l.7.&.7.l.9.7.7.1.7.k.7.1.$.%.N v v E p.p.i.s.s.v.m.C.oX+XOX|.Q.;XyXuXdXuXyX#X#XQ.m.1.%.N %.1.k.m.Z.oXZ.k.2.k.m.",
"].P.Z.P.oXOX/.Q.W.W.!.*X;X=XE.e.8.>.:.1.#.M S P i.#.#.P U 1.V.OX!.E.M.9.M.V.m.s.m.2.k./.;XaXaXaX=X XE. X XM.l.l.^.K.f.E x 3 3 3 F T g.H.I.H.H.H.D.D.( q = = 2 z } h.P.U.K.z.j.j.1.$.#.+.+.<.s.V.T.~.~.~.T.7.1.$.U P E R d.d.d.d./ R R T Y F C z r e > ; 2 l F T / ( ^ Y Y / R Z l R L c v P E p.1.1.3.k.V./.#X#X#X#XoX/./.V.3.+.k.k.1.:.+.+.B B :.3.3.w.M.E.Q.OXwX0XY.G.{ F r 2 > ; - : < 9 9 9 p i i d d s G ^ T L L U s.V.Q.Q./.V.x.V.^./.Z.k.1.+.P :.s.B.s.<.P N P #.k.x.Z./.V.Z.M.8.8.8.>.1.-.c.c.x.K.^._._.).^.k.3.1.:.+.U / d.Y.7XU.G.f.h.B.B.m.m.k.1.B V L E i.J.tXwXd.C - X < } 7XwX/.W.k.<.1.<.N <.k.+.1.7.k.l.x.W.^.U. .f X = Z h.K.V.>.>.,.>.+.1.k.:.k.B.V.V.V.Z.oX&XoXM.>.B V B 3.N.:.1.8.k.V./.+X+XoXN.8.e.e.8.,.;.k.z.K././.K.z.p.#.#.E E S E f.F.#.M M U #.P L U #.<.p.s.s.p.#.E w r C J J s 8 > > e G H A r 4 4 3 l z Z L / h.L.L.B.h.i.<.<.<.a.g.| F z z L #.f.%.+.$.@.@.1.7.l.-X-X#XoXB.2.] V ' a.C.P.Z.M.j.7.>.@.%.#.f.Y.7XwX7XD.H q - > q g F T { i.i.<.+.<.1.k.p.<.p.#.P E $.1.1.p.z.K.K.z.j.7.7.7.@.@.&.&.u.~.!.!.W.l.k.j.h.h.Y ; = C } D. .H z r l z L R Y L v L U #.p.k.l.0.8.8.Q.OX;X;XxXaX-XQ.R.l.0.7.l.7.7.T.l.5.>.l.7.8.7.@.#.#.$.#.P P P #.<.<.s.B.C.Z.'.OX+X XE.e.V.Q./.#X#XyXuXuXyX#X/.l.7.>.1.8.m.Z.oXC.m.m.m.m.",
"rX$XP.Z.P.Q.M.8.8.l.E.*X:X=X!.M.M.1.>.1.#.N L #.p.i.#.P N +.k./.*XOXE.9.m.N.N.3.V.1.1.Q.;XuXyXaX1X=X XOX!.M.l./.W.K.F.*.S l Z Y F ^ G.0XtXtX0X0XH.D.T 2 = - 2 t T i.J.U.K.B.z.z.j.$.P U <.s.s.k.T.T.~.~.l.7.1.1.N L L L Y Y Y Y R i.g.g./ F z r 4 2 ; ; w F / { / ( / Y ^ / E Z x *.P c S E R s.s.m.Z.oXoXoXoX$XK.K.K.B.k.p.<.<.@.+.+.+.:.<.:.:.3.3.8.N.N.Q.OX#XP.G.} F z w 2 2 e e < 9 p d f W d d d d ~ ~ ^ | { I L P s.Z././.rX#X#XtXfXfX#XP.1.:.:.s.Z.P.k.+.N +.p.x.K././.#Xx.V.M.8.7.5.>.@.j.j.c.K._._._././.V.3.+.+.1.1.1.f.d.h.I.kXdX@XK.z.m.m.m.8.>.B V v U p.P.tX).d.l = ; ~ 8XkXtX^.V.k.U <.<.#.s.B.+.+.j.l.k.7.l.W.).I.! 2 ; z i.K./.1.@.1.>.>.8.k.1.1.k.V./.OXQ.Q.M.M.M.Q.Q.M.1.+.+.z.k.k.3.k.Z./.(.Q.E.E. X!.e.6.,.3.k.B.Z.P.P.K.V.p.p.*.#.#.*.c.F.<.P N #.#.P U 1.p.p.k.k.s.1.1.1.x l z J T D y q e C ! ! G e > ; 2 q r r l C I { L.L.J.z.h.p.i.i.d.} ^ T F F L L #.<.1.3.1.1.7.j.7.V./.#XoXP.B.a._ 2.C.P.Z.k.3.1.7.>.@.#.f.J.7XwXtXI.{ t > : 8 q x F I R <.<.<.<.<.p.#.#.p.#.R #.$.1.1.3.z.K.K.k.7.7.7.$.@.@.@.5.9.R.~.^.W.l.z.z.p.f.F = = C D.8XqXY.} { d.} / R l 3 3 h L #.1.k.l.0.8.Q.OX;XaXaXaX%XQ.V.R.l.7.&.l.7.l.!.R.@.@.M.k.k.1.%.N +.1.p.#.%.E E U +.2.m.N.V.Q.&X;XOXE.8.Q.W.W.Z.Z./.#X#X#X#XyXyX#X/.Q.V.V.Q.oXQ.N.Z.m.m.",
"P.P././.V.k.k.7.>.9.E.*X;X*X!.R.6.5.>.>.:.1.s.s.J.B.z.1.+.+.3.M.OX XE.w.6.w.M.M.8.8.M.M.Q.-X:X;X1XzX1X XE.Q.W.k./.).K.f.*.E E R L R h.wXdXjXkXeXG.{ H r r q 4 2 F I i.J.U.P.V.k.j.@.+.@.3.s.1.1.R.u.R.!.W.l.1.$.#.U v h h l Z Z / d.g.g.g.{ F w w 2 ; 2 Z d.d./ ^ Y Y / / E L S Z L L c c P h.B.Z.Z.|.%XrX%XoXB.C.B.h.f.f.i./ R U U +.+.<.<.<.<.s.B.P.).).K.B.h.{ T t > ; : e a a a d d W ~ ~ ! ~ G G A G ! [ } } { I L R h.@XtXjXkXjXjXSXjXtXV.<.3.m.Q./.N.8.>.V s./.#X#X#X#X/.V.k.7.7.8.0.5.@.8.k.k.k.W._.(./.(.l.@.@.1.1.3.8.k.z.K.wXjXdXU.Z.M.E.M.8.m.3.U I L U s./.;X!.>.b = n Y.tXtXtXZ.3.h.` R { i.i.p.s.z.1.V.V.%.@.R.W.P.s.v 6 b s.K.V.1.1.1.1.>.+.>.>.1.k.W. X*X X~.y.y.E.!.!.W.x.f.=.f.c.z.z.j.j.l.V.!.!.!. X X~.y.0.M.m.m.N.Z././.P.B.s.1.p.<.#.s.K.k.k.1.%.%.7.k.k.V.V.M.8.k.Q.M.1.k h h R i.L h w w C ^ [ ! s > @ : : 8 q q y z F i.h.F.Y.Y.F.f.=.*.=.f.f./ T F n ` ' ` U _ :.3.j.p.k.z.^.#X_.K.k.k.B.Z.Z.Z.C.v.1.7.&.@.1.s.h.J.U.wXU.h.L 3 ; : > 2 l F / d.d.d./ / / E x x U i.p.V.k.1.k.V.V.V.M.8.8.8.7.1.$.$.$.l.R.OXOXQ.M.k.k.p.L l 3 2 2 ^ 7X7XtXtX0X[.U.h.I z 3 ; h E p.V./.M.9.M.Q.;XaXxXxXaXOXM.M.M.9.0.8.@.8.W.W.8.>.1.8.k.1.+.+.+.1.k.z.#.%.P %.$.7.l.l.M.W.OX;XyX%XV.1.M.l.l.l.l.V.V.V.B.P.#XyXyX;XOXOXE.E.E.Q.Q.Q.E.M.",
"B.B.B.k.s.1.3.3.1.k.E.*X*X*X*X!.M.9.7.>.3.s.z.B.@XtXtXP.p.+.1.8.Q. X XM.8.8.M.M.>.e.R.9.l.OX:X;XaXcXaXOXQ.Q.Q.V.V.P.).K.h.p.f.h.p.z.).tXdXrXwXU.S.g./ Y F C r w C F { G.P.P.V.k.j.1.+.@.1.1.1.1.9.u.R.E.!.W.k.3.#.#.L h 3 3 l Z T R / { g.g./ Z z l 3 l Y D.D./ ^ Y Y R / Y L S x L L x x R B.K.%X+X&XoXoXoXoX[.2.` ` { d.i.d./ R +.#.#.<.<.<.i.B.J.U.U.U.h.` I z y q > > 8 9 a f f Q W ~ ! ....! J H H H T { } } { I Z x R L.iXJXJXLXLXJXdXK.p.s.V.#XOXQ.8.o.o.3.V.@X#XrXrX#XK.x.c.7.$.7.7.7.5.8.M.M.l.M.W.W.l.$.o.o.7.k.k.3.1.k.Z.U.rXjXtXV.M.e.~.u.0.e.3.U U I <.k.!.>X~.t.b 6 <.@XrX@XP.l.3.b.a.` i.i.i.i.i.z.k.x.k.o.@.0.e.E.8.O.b N k.Z.x.1.1.3.3.>.O.o.>.5.8.R.!. X XXXXXXXE.9.R.(.tX_.Y.%.=.F.F.x.c.j.7.l.u.~.~.`.`.~.~.E.N.N.N.Z.oXoXOX/./.V.k.#.U <.z.x.W.W.8.7.8.l.M././.V.M.Q.OXQ.3.b c k U #.P c 6 6 z T ^ ~ a , @ : 0 8 8 8 q y z z L d.F.Y.Y.F.F.-.=.=.f.S.g.' K q w n ` a.2.<.<.s.k.z.x.^.^.^.x.V.^././.oXP.B.1.7.$.@.$.1.s.B.P.rX@XV.#.l 2 ; ; 2 w F { g.g.d./ ^ ^ L l h L i.s.k.k.8.M.V.N.N.M.6.8.8.3.1.$.$.$.M.E.OXOXQ.m.3.1.M h 3 2 2 2 C } I.tXjXjXjXiXG.T Z l h S p.V.Q.Q.M.8.M.Q.;XaXxXxX;XQ.M.M.M.M.8.8.o.M.Q.l.1.8.8.>.1.>.:.1.s.k.B.B.z.j.-.$.j.l.W.W.W.(.-X;XyXoXk.+.@.>.7.k.k.k.p.a.h.B.K.@X#X%X%XOXOXQ.E.E.OXOXE.M.",
"z.s.1.+.B U +.>.7.l.E.OX*X*X*X*XE.9.7.>.3.k.B.K.rXdXjXyXK.3.1.1.M.|.OXE.e.8.e.M.>.M.N.8.7.Q.-X;X1XcXzX=XQ.Q.V.V.V./.tXwX).K.F.J.).tXtX@XJ.p.i.g.S.G.S.g.{ H C y l Z R f.J.P.V.k.k.3.1.1.+.%.+.8.0.e.E.E.(.-X/.k.p.p.#.Z 3 3 h Z T I I / g.S.d.L F Z Z Z / S.D./ / E R / R Y S x x v L x L i.L.U.].oX&XoXC.B.v.s.s.p.i.<.i.{ / R i.1.1.<.i.p.p.f.J.Y.Y.Y.g.T l 2 ; : > > 9 9 9 u u u u a d ~ ~ ! ! ^ ^ ^ T T { d.{ { T z 3 z g.wXtXjXnXjXwXh.R P z./.yXOXl.>.>.e.oX#X#X#XyXyX).V.k.j.$.@.@.7.7.9.M.M.N.N.E.W.l.l.%.%.+.k.Z.V.k.p.p.B.L.I.0Xb.R +.l.E.y.0.e.3._ _ I <.m. XXX~.t.O.N B.rXwXK.m.k.k.s.i.<.i.p.i.i.<.z.Z.k.+.o.@.>.5.E.M.1.o.+.k.V.x.$.1.3.7.+.V O.>.1.8.M.M.M.R. X=X*XE.l.k.V.)._.).F.z.c.$.#.$.7.l.7.9.u.~.~.~. XXXOX|.E.N.Q.|.OX#XOX#X#X/.3.B +.1.W.-X:X-XQ.Q.(.OX;X;X+X%X<XaXQ.>.V N P U U L c 6 z F ^ [ ! f 9 0 0 8 8 8 8 8 q y 2 w Z / S.Y.Y.Y.F.c.c.f.f.h.{ ' K m m m I ' ' 2.<.i.p.p.z.K.^._.^./.).@X$X@XC.2.-.$.@.+.<.2.m.Z.#X#X/.s.L w > ; ; w L } g.g.d.} E L l w h U p.B.k.k.V.Q.Q.Q.M.8.>.>.7.1.$.#.#.@.M.R.!.(./.V.3.<.L x z L / { } D.Y.wXkXjXjXdXL.{ / ^ E / z.@X#XOX8.8.Q.OXaXxXxXaX;XQ.M.M.M.8.8.6.o.W.(.8.>.8.8.%.+.1.k.V././.Z.B.K.z.j.j.j.l.W.W.l.W.OX;XyX/.k.<.+.+.<.p.p.p.a.d.i.a.a.n.B.K.P.oX+XQ.N.Q.OXOXQ.N.",
"s.<.+.N b b V o.8.M.W.!.!.!.*X>XE.9.1.>.8.k.B.B.P.tXfXdXrXZ.k.k.w.N. X|.E.M.e.8.M.9.8.0.8.M.(.:X:XzXxX1XOXQ.V.k.k.V.@XuXdXdXuXtXjXjXwXz.L k x L g.G.Y.G.d.H C r w z L i.B.K.V.V.k.k.k.3.%.B +.k.5.9.R.E.OXuXyXK.z.z.s.#.S h h z E R / d.h.S.{ F Y Y Y / d.S.D./ / E R / R L x x x x v L R h.U.@XC.Z.Z.C.m.s.<._ B.b.s.<.<.` R R i.p.s.h.h.h.h.h.G.h.d.^ F w ; - : : , 9 9 , : # + @ @ - : < p s H T { } { { { } g.g.d.F w w T G.7XwXwXL.R M M U #X#X#XV.7.8.E.;X;X%X#X+X#X#X/.V.j.j.1.$.$.7.j.l.8.e.E.E.!.E.R.l.7.1.3.k.V.K.B.b.i.g.d.} ^ x h V k.!.E.0.e.8.<.` U 2.N. X!.y.t.O.8./.tX).V.B.M.k.<.<.<.<.s.k.k.s.s./.k.N %.>.o.>.M.E.M.k.k.l.V.z.$.1.k.8.+.V O.5.8.k.k.1.o.+.l././.OX#X/.z.s.B.P.wX).z.#.%.+.j.V.1.7.9.9.u.R.!. X XQ.Q.N.Q.Q.OX#X/.#XyX;XQ.3.+.%.W.*XcXxXcXaXaXcXaXxXxXZXxXpXM.B :.s.k.<.N M x h Z Y ^ [ [ ~ f a 8 8 q q q q q y 2 2 3 l S ( S.F.^._.^.z.#.E R g.L.n.' m j g K ' ` #.#.#.1.j.V.^.K.^././.#X$XZ.s.j.&.@.+.+.<.s.V.OX#X/.x.#.n w w 2 z I d.S.S.g.d.L z w h M i.B.B.k.V./.OX/.Q.M.8.>.>.1.1.@.+.#.@.l.M.W.(./.Z.s.#.U L L g.7X0X0X0XU.7XU.[.eXeXwXY.7X7XY.J.P.rX;XOX>.8.Q.;XxXxXaX;X;XQ.N.M.M.8.>.>.5.N.Q.8.>.7.7.>.1.k./.yXuXrX/.V.K.x.c.7.7.j.l.W.l.W.-XyX#XZ.s.<.U U U E T { } g.| | | d.g.n.b.B.V.M.m.N.oX+XoXZ.",
"R U U N N N B o.k.l.R.W.E.!.*X:XE.9.7.7.k.V.B.k.z.K.tXdXdXyX/.Z.M.A.Q.|.|.E.m.8.OX8.>.l.M.k.W.;X;XaXxXzX;X/.M.k.<.1.B.tXvXJXJXJXjXuXP.<.v h h x I d.g.D.} T F C w w z E h.K.V.V.l.l.k.7.+.%.+.k.>.9.M.M.OXfXfX#XK.J.z.z.p.Y l h L ` f.h.S.f.R F L R d.d.S.S.S./ / R R / R L x x x x v E i.B.U.@XrXP.s.:.<.2.s.v.U U U U U :.<.s.<.i.p.h.J.h.g.d.| ^ D e > - - - > , , , $ # @ + + @ # - - : 2 e F I i.g.d.{ T Y T ^ T F w 2 w z Z L L L E i.K.tXpX#XV.8.0.N.OX;X;X;X+XoX/.Z.V.V.j.j.j.j.j.7.j.k.8.e.R.E.!.E.R.M.k.k.s.s.b.b.n.g.| } ! C e ; 2 M m. X!.9.e.w.2.<.` s.N. X~.y.0.0.N.oX@XK.V.V.l.1.+.+.:.1.k.B.V.z.p.Z.3.N >.>.o.>.8.N.Q.W.V.V.x.k.1.7.k.k.@.O.o.8.k.M.k.+.c h v #.K.wXdXdX@XK.L.P.V.K././.V.k.1.+.1.1.7.8.8.M.N.Q.Q.Q.E.E.!. XOXOXOX-X;X;X_.V.k.>.7.R.;XxXGXGXGXFXSXDXDXZXaX|.8.B B.@X@Xs.P M L v L L Y ^ ! J G f t y y y e q q q q 4 4 4 4 C ^ / c.K.^.F.p.#.i.p.a.{ ' ' K g g g { <.#.R R #.1.p.z.x.V.K.).@X/.V.x.j.7.1.+.+.1.m._._._.V.p.U n z z n R g.G.G.S.d.Z h 3 x i.J.K.V.k./.-XOX(.Q.M.8.>.>.1.1.@.+.#.@.l.R.Q.(./.V.1.U x h x R G.7X0XI.U.J.i.<.v.[.iXiXkXlXlXkXtXrXQ.8.>.M.OXcXxXaX;XOXOXE.M.M.8.8.>.>.M.M.M.M.8.>.8.M.Z.oXuXgXjXpX@XK.^.K.x.j.j.l.W.!.(.-XuXaX#Xk.+.U x x F F F H ! [ | | |  .n.n.G.b.p.s.B.C.K.K.P.].",
"P U +.<.:.:.1.1.l.l.9.M.R.OX>X:X!.R.8.l.Z./.V.s.h.B./.rXdXdX;XoXQ.N.N.|.OXE.M.8.OX8.>.M.V.8.l.OXOX1XxXxXaXOXV.k.<.+.#.z.tXjXjXjXP.K.z.<.U v h 3 l F T { } { T H w w l L i.B.P.Z.V.l.k.j.1.+.1.7.1.9.l.l.Q.yXfXfX@XV.z.K.P.p.L h L i.J.Y.L.h.R F Z R h.S.Y.S.d./ E E R / R S z x v x x R p.B.P.U.U.B.<.<.<.s.s.2.N B U :.:.1.3.k.s.h.b.G.G.g.} [ D t > - X @ : 9 0 , $ # + # $ $ u u u 9 e e s C T <.i.g.i.T x l w x H T J H J T Z L R i.L.wXdXfXP.m.1.8.Q.;X;X;X<X+XOXoXQ.V.x.V.j.j.j.j.c.k.c.8.e.6.y.E.R.9.8.8.k.B.B.B.J.b.d.[ ^ ~ p : @ o ; L B.OX X0.9.w.3.2.2.v.Z. X X~.~.~. X#XoXB.m.m.8.o.>.>.1.1.k.x.V.x.j.k.3.1.1.>.>.8.8.M.W.Q.W.V.l.k.1.3.k.k.>.o.+.8.m.B.s.P 3 ; 4 h d.g.Y.eXiXkX$X].s.B./.oXoXV.3.:.1.:.:.1.3.k.m.M.M.E.E. XOXOXOXOXaXaXyX-XOX(.W.M.@.>.M.:XFXKXKXKXFXFXZXaX|.N.M.N.$XrXrXB.<.#.i.i.{ / T T J ! ! ! K D D t t y q 2 > > 2 2 e a r l Y E i.F.).^.z.i.<.` { | ' X.g g K L L L U #.#.<.p.k.z.V.P.)./.^.W.W.l.k.1.:.>.k.OX-X-X^.k.+.M n n L R h.I.I.G.d.z l x R J.P.P.Z./.#XyXOX/.Q.M.8.>.>.1.1.@.#.#.$.M.Q.(.OX/.s.U b x k x I g.G.G.h.d.P x M <.C.[.wXjXJXLXJXdX/.>.o.8.Q.;XxXxXaXOXQ.OXE.M.8.8.8.5.8.E.8.k.N.M.8.m.oX%XuXgXjXfXrXoXP._.^.x.l.j.l.^.`.(.OXuXuX/.3.+.1.j F T / ^ J J H G G J [ |  .D.n.a.h.J.J.b.b.J.L.",
"<.<.s.k.k.k.k.k.l.8.7.9.R.*X>X>X*XE.l.l.W./.V.k.h.B.K.@XrXrX%X#XoX|.|.+X+XQ.N.N.V.M.k.k.k.k.l.W.OX=X1XzXxX;X/.V.k.1.+.E #.p.s.s.<.1.p.p.<.L h 3 3 l F { d.} / T r w w x R B.P./.^.l.k.k.k.3.1.1.8.8.8.8.M.OXaXvXyXP.B.P.).B.<.U U i.J.U.P.z.R x x R S.Y.Y.S.d.E E E R / E S x x L x x R f.B.J.J.<.<.i.p.p.i.U B <.1.2.3.3.3.3.m.J.J.G.g.} T F C > : - @ @ # 0 u 0 , $ $ % 0 i i W W ~ ~ G H ^ { p.i.i.i.<.I z w z F | H.7X0XeXkXkXjXjXjXdXwXP.B.:.:.7.W.;XaXaX;X1XOXQ.Q.V.M.k.z.j.p.$.p.j.z.z.k.e.r.y.E.e.6.,.1.B.K.L.G.G.g.[ G p 9 # + .   - T B.;X*X0.9.m.3.<.<.s.N.|. X X X XOX%XoXB.s.3.1.o.5.6.0.5.7.l.V.V.l.1.k.V.8.>.1.8.>.8.M.W.W.V.k.k.1.1.7.7.1.+.:.3.m.B.s.P 3 = = ; r C H g.{.eX$X&XZ.Z.Z.m.m.B.Z.Z.3.<.:.<.s.k.s.3.8.9.E.Q. XOXOX*XcXxXxXaX;X-XOXQ.6.;.,.E.;XzXZXZXSXxX<XOX|.|.%XpXpXrX@XK.J.K.U.U.Y.h.{ T ^ [ | | T J H H H G C s > 2 < < e e e e t z F i.J.K.K.f.J.h.g.{ ' ' [ ' z z j n U <.i.i.#.1.p.s.k.V././.^.^.W.V.8.>.1.M.(.*X-X_.l.#.N n n F R G.wXwXY./ Z S #.z.P.K.P./.%XuXyX(.Q.Q.N.8.>.>.1.1.$.$.$.$.l.Q.OXOXV.:.v c M U i.g.h.h.g.{ l 6 h k <.v.b.b.wXtXjXkXP.1.o.o.N.OXaXxXaX;XOXOXQ.M.8.8.8.8.8.M.N.M.M.M.M.N./.%XfXfXgXdXrX@XP.P._.^.W.l.j.l.W.(.R.E.-X;XQ.3.1.B.L { h.G.g.| [ [ D D F K J ' [ { { a.b.b.g.g.b.b.",
"h.B.V.V.B.k.k.k.l.8.5.8.R.*X*X*X>X!.9.8.V./.V.k.s.B.K.P./.oX#X#X+X&X+X;X+XQ.N.Q.7.V.Q.8.1.k.V.k.OXOX;XaXxXaX#X/.Z.k.#.V k b P +.1.s.z.z.p.U x h 6 l L { g.g./ H z w 3 h E z./././.l.7.k.l.k.3.1.k.8.7.8.k.W.yXSXjX@XV./.@XK.z.s.i.h.J.U.U.B.R h x i.L.U.Y.S.*.Y Y Y R / E Z x Z L x v R h.h.h.B.i.i.i.<.R R <.<.:.<.s.s.s.3.m.B.L.G.g.^ D y > : - @ @ @ # , u u i i & & i i Q W .... .....} D.Y.h.s.<.<.<.E x h w Z / g.D.D.7X0X0XwXtXiXrXP.z.1.<.3.V.OX;X:X:X;X1X|.e.M.N.l.7.1.j.$.#.#.p.z.x.l.e.e.y.E.M.6.3.k.V.P.Y.g.| [ D a # @ . + @ . : T J.;X*X9.9.M.3.<.` 2.m.E.~. XXXXXQ.&X/.s.<.1.1.>.5.6.9.5.7.M.W.W.V.@.k./.8.+.8.k.:.1.k.V.W.V.l.k.1.$.1.3.1.+.:.1.s.B.h.R r = = = = < s J [ n.{.$X$XoXC.m.m.C.C.].B.s.<.<.s.h.p.<.>.6.M.E.E.Q.OX*X;XxXDXSXcXaX;X!.E.6.;.6.M.E.OX;X1X+X|.OX%XpXgXSXgX%XP.P.@XrXtXiXI.G.{ I T T { } ^ T T ^ ( [ ^ ! t e e > : < 9 e y t D F I *.h.K.f.f.p.i.| | | [ K n z x L U U L L #.<.#.#.k.V.^._.^.^.Z.k.3.8.M.E.(.-X*XW.1.N M k x R J.tXwXY.R x E h.P.K.B.V.oXaXfXyXQ.V.Q.N.8.>.>.1.1.1.$.$.1.k.V.OXoXM.+.b c c L i.f.h.i.R L 6 6 h V 2.m.v.a.f.h.J.B.#.b B e.OX;XaXxXaX;XOXOXN.8.>.>.8.8.M.Q.8.N.V.k.m./.%X;XgXgXdXrXoXK.Z.P.#X_.^.x.l.l.~.`.W.!.-X;XV.:.:.B.i.h.Y.Y.b.g.d.g.{ ` T I K K K I T ' { | g.g.n.n.",
"wX@X).B.1.s.V.8.k.1.5.M.!.!.`.*X>X!.W.l.V.V.B.k.R U R v./.$X#X&XoX&X+X+X%X<X%XZ.8.M.Q.V.k.1.7.M.Q.OXOX=XcXDXxX/.V.k.k.s.P h c P B./._.k.+.U U L h x F I R T F Z w 2 ; h i.P./.Z./.W.l.k.k.x.k.+.k.k.8.k.k.Z./.#XvXjXyXZ.V.).@XK.J.B.U.tXwXp.L x M i.K.U.J.i.Y L E R / R S x S R L x L i.h.i.R i.J.i.v k L <.s.s.<.<.1.v.Z.].Z.b.g.| J y > - - : @ @ + . # i i i i i i i Q W W W ~ .. .8X7XI.H.h.p.<.U L L n x l z x F z r z ^ g.a.` I n M P <.s.V./.;XaXaX:X;XOXE.e.0.6.8.k.k.j.p.$.#.=.z.K.K.l.r.y.E.E.E.M.N.P.@XL.g.^ f e , # + + + O . + 9 D J.#X*XR.9.8.1.<.2.<.A. X~.XXXXXXOXZ.m.<.<.1.>.>.5.9.5.6.Q.*X/./.k.k.k.j.8.k.8.>.:.<.3.k.M.V.M.l.@.@.@.>.@.:.:.<.s.C.b./ l = o o X X - : e K | C.{.&X$XoX'.C.C.].].[.P.b.2.` i.k.M.0.>.>.8.M.Q.(.OXaXSXFXFXFXcX*XE.e.8.6.6.,.,.8.N.Q.OX;XfXgXgXgXrX@XK.C.wXjXdXtXU.Y.G./ z l F / Y Y ^ / } } }  .! G a 8 : : , 0 0 8 8 y j F R i.c.c.c.f.f.i.{ { g.} T n z j x n U P L U #.1.j.k.x.x.W././.Z.N.8.l.*XbX-X^.l.1.V k n U b.wXeXL.R L p.U.U.V.V.oX%XaXyXOXQ.W.N.M.8.>.>.>.1.1.$.#.+.x.Z./.Z.3.B b k x L i.p.i.T n x c b v N s.$X].s.L k h h h k ,. X=XxXSXaX;XOXOXQ.N.M.8.>.8.8.N.Q.8.Q.Q.k.8.oXgXFXvXpX$XZ.s.1.s.B./._._.^.W.l.W.!.(.OX(.Q.N.m.1.U s.B.B.s.s.B.Z.B.B.B.C.b.<.I n n m D F K T { g.H.",
"@X@X@XV.1.s.V.8.8.8.7.9.R.!.*X*X>X*X^.W.V.V.B.k.<.R <.s.K.P.P.Z.oX&X%X%X<X<X%XQ.M.k.k.k.V.V.k.8.l.E.OX;XaXxXfX#XZ.V.V.B.<.V V <./.V.k.k.s.1.U L x v L L R { { { H l 3 h i.P./.Z.Z.Z.Z.V.l.k.j.3.7.k.k.k.k.m./.#XdXfXuX/./.#X#X@X/.U.@XrXP.<.x x L i.L.U.z.#.L L Y R R L z l Z Y L x L i.p.<.R <.#.#.#.#.i.p.p.s.s.s.B.B.B.b.s.{ T G s > : : @ @ @ @ # , 0 i i i i i i i i i i i u d !  .D.g.i./ L M x k k k h h w l z w 2 2 r x L M P U <.s.m.V.%X%X;XyX;X*X(.Q.R.e.6.6.8.k.k.j.1.$.$.f.z.x.x.k.N.r.E.E.|.Q.Z.P.n.a.T s 9 : @ + + O O O O + e F J.#X*XR.l.8.1.<.2.<.A. X~.~.XX XQ.m.s.s.1.:.>.5.>.9.9.l.Q.Q.Z./.^.V.k.3.8.l.8.>.:.:.1.k.l.M.l.l.@.>.>.>.>.:.<.<.s.J.b.T s = o . . @ # - : q m I a.A.{.$X$X].].C.C.L.P.P.B.h.s.<.:.3.k.k.7.7.8.M.Q.;XaXxXSXFXFXDX1X XE.M.8.;.o.;.>.3.m.V.Z.Z.Z.B.s.B.B.L.U.[.J.a.b.Y.I.J./ L Y / S.f.d.d.{ { { } [ J G a e 9 u 9 0 0 8 8 y g F L *.*.=.f.c.f.f.d.R { } a.{ I x h j M R <.#.#.<.p.j.7.k.V.].oXQ.N.R.*XuX-X^.x.1.B h h x i.wXiXU.p.#.h.K.B.B.Z.#XyXaXyXOXQ.M.M.8.8.>.>.1.1.1.1.#.+.V.Z./.V.3.B b k k L <.i.i.E L x b N P +.8.Z.oXK.` x h k U ,.A.+X=XaXxXaXOXOXQ.Q.M.8.>.>.8.M.N.N.m.w.8.m.+XgXSXvXgXrXoXB.s.2.s.B././.(./.W.W.!.!.!.OXOXQ.N.m.1.+.1.m.V.V.Z././.N.V.Z.Z.B.s.<.<.2.{ ' T K T ' [ { ",
"U.P./.K.s.k.V.k.7.8.0.7.9.!.*X*X>X*X(.W.W.V.k.p.<.R U s.B.Z.Z.Z.Z.oX&X%X%X%X#X/.Q.V.m.m.V.V.k.7.5.e.Q.;XaXaXaXaXoXQ.Z.Z.m.<.<.k./.$.B 3.V.z.<.R R P L F T { g.h.{ C 3 h <.K././.V.V././.x.1.3.V.3.k.k.k.3.k.Z.#X#XaXfX;XOX#XyXyX@X@X@XK.s.M k M <.z.U.U.h.#.P L Y / R Z l x L L x v E i.i.E U <.E #.f.z.s.p.s.h.J.L.L.L.g.{ I K t 9 : : : : @ . + , u u a a i u i 0 # # # # # # : < s H ( { T L x x M L L L n x x x z l w w z x I U <.m.P.@X#X%XfXpX;X-X#X(.W.e.9.0.5.8.k.k.k.p.$.p.j.k.k.k.z.m.A.r.N.Q.oXoXB.s.I F y > @ + + O + . . O + # a J J.#X*XR.9.8.1.<.a.<.m. X!.~. X!.M.3.<.i.p.:.>.8.>.8.M.W.Q.k.j./.yX/.l.7.7.l.8.>.<.<.<.1.8.l.l.T.5.7.5.>.>.:.1.1.s.J.b.^ s - . . $ $ $ @ X @ : q m ' n.].{.{.].].C.C.C.P.@XP.B.1.+.1.3.3.3.1.1.1.8.V.OX%XuXvXFXGXDXxXaX=XQ.8.:.o.B B B B B B B N N <.s.h.s.2.I n i.b.L.L.h.p.p.f.K.F.f.*.R Y Y T [ ^ J D g a a y 0 0 8 8 y y w j Z S #.=.f.F.c.f./ i.h.G.g.{ K n j n L I U R #.<.#.#.#.s.C.].P.N.W.-XbX-X!.W.j.+.k 3 3 I P.tXwXJ.J.J.B.z.B./.;XpXuX#X/.V.l.8.6.>.;.>.1.3.3.1.$.#.V.Z./.Z.1.N b k v P <.i.<.U L M N +.7.k.m.m.Z.oXs.L k U Z.+X+X.X;XaXaX;XOXOXQ.N.8.5.>.>.8.M.M.M.m.3.8./.fXxXgXhX%XoXB.2.<.:.2.B.K./.(.(.W.W.(.*X!.*X*XE.M.8.1.:.1.k.W./.OX*XOX!.E.Q.|.Q.Z.m.Z.C.G.b.g.` ' I T ' ",
"B.B.P.P.k.s.k.8.1.k.9.>.0.!.*X`.>X`.!.W.V.k.1.#.R L N U s.B.Z.].m.A.Z.|.oX&XoXoXOX%X;XoXV.3.7.k.7.8.N.OX;X;XaXxX;XoXZ.Z.Z.V.k.s.k.+.+.k.V.V.z.h.i.R L L Y R { d.T z 2 h R P.@X/.V.V.W._.V.$.1.Z.k.k.k.k.3.k.M.Z./.yXxXaX%XOX;X;X$XZ.s.U V k P <.P.@XwX).z.#.U P E *.R x l Y R Y x L R i.i.U U <.$.1.p.p.p.s.J.U.I.Y.H.g.[ D t e , @ + : 9 9 # + @ 9 a f f f a u u 9 , # # # # @ 9 9 e D ^ { / E L R i.h.b.h.i.R ` R L L I i.h.b.B.C.P.@XrXpXfXgXpX%X/.Q.Q.Q.E.M.0.6.7.8.k.k.3.1.$.p.k.k.p.3.m.Z.Z.Z.Z.Z.Z.v.<.I z y > - @ + + + + + + + $ , s T J.%XOXM.l.8.1.p.a.2.m.OX`.!.!.E.1.p.i.<.<.1.1.1.1.m.Z./.k.N B V.yX#XZ.8.7.8.8.8.1.<.<.1.7.l.R.R.9.9.7.1.+.:.<.s.s.L.G.T s - . @ $ % % @ . . @ : q t I ' n.L.{.eX@XP.C.B.P.oX/.Z.B.p.+.+.3.k.k.3.+.3.N.Z.oX#XaXxXFXFXDXZXaXOXN.N.3.+.V b k k x M M N P I M n L I I U R i.f.z.K.^.p.=.#.L x x x Z T J K D s a e 0 y 8 8 y y q y q 3 l S E *.=.f.f.S.g.i.i.{ { { | ' n w h n U U U E #.<.i.a.s.m.m.Q.-XbXuX-X(.l.3.P j 3 k i.P.).).@XP.V.B.P.%XpXaX-X#XQ.M.l.0.8.>.o.;.1.3.3.1.$.#.z.Z./.V.1.M k c P #.p.p.<.E I U #.j.V.Q.N.8.3.B.h.<.R B.%X<X=X.X1XaX;X;XOXOXQ.M.8.>.>.8.M.N.N.8.8.3.N.%XpX%X#X%XZ.s.<.U I N _ 2.V.^./.(.(.!.*X*X!.*X*XQ.8.3.>.>.>.8.N.!.OX*X XE. X XOXOXQ.Z.Z.].L.L.L.b.n.g.a.{ ",
"#.<.B.P.k.3.k.1.1.l.9.>.5.E.*X!.*X`.!.W.l.7.#.U P x k k I _ 2.m.m.m.m.Z.Z.P.oX&XyXpXdXrX/.k.k.k.M.8.8. X;X;XaXxXgX%XN.N.Z./.m.:.N 1.k.k.p.z.P.U.i.R E I T R / / F w 4 h <./.#X#XW.l.l./.Z.1.1.k.z.k.1.3.k.k.k.k.Q.;XxXxX;XOXOX+XoXk.N k V +.z./.dXdXdX@Xz.#.P P E / E x z / i.E x L i.f.i.R R <.k.7.3.3.z.K.U.0XI.g.! G f e , , @ . + , a u , @ , u a a a d f f a e 8 : : : : : s s s H } S.G.h.i.b.U.wXeX[.J.h.p.a.a.h.L.U.wXwXrXiXpXdXdXdXdXpX#X/.M.M.V.W.N.M.8.7.7.8.7.7.$.#.1.p.k.k.1.3.Z.oXoX&X].C.a.I z w q 2 : @ @ @ # # 0 # # $ # 9 G [ J.#XOXl.9.7.1.p.a.i.B.OX`.`.!.E.+.s.h.E U f.j.+.k.K.P.V.<.h 6 #.P.)./.M.7.8.9.M.k.2.<.1.7.l.R.R.9.9.9.7.+.+.<.s.B.P.G.^ C : @ # i u 5 $ . X @ : - : q t K g.L.$X$X@XZ.Z.V.N.Q.oX).K.s.<.<.1.p.1.:.1.s.m.m.V./.%XxXZXDXFXDXSXgXuXoXZ.s.<.U N M M k k h j n I i.n.n j h x #.x.K.K.N S v v c h l h F F F D D t y 8 y y g y y y q q 2 3 r x S E *.=.f.d.i./ { } g.n.| ' m j j x n M R *.a.a.' ` <.s.l.(.-XuXuX-X).K.m.U k h k P s.P.wX@X/./.%XpXaX;X_./.V.M.k.8.8.8.o.o.>.1.1.1.$.#.k.V./.V.<.v k c U <.p.p.R U U R j.l.Q.OXoXw.:.:.<.s.B.@X%X%X=X=XaX;X;XOXOXQ.N.M.>.>.>.8.N.N.M.8.8.3.m.oXoXZ.m.Z.s.<.U I M V I :.k.x.W./.(.(.*X*XOX*X*XE.8.>.>.>.1.8.N.oXOX XE.e.R.E. X X&XoXoX].L.].[.{.[.L.B.n.",
"k N k./.B.3.3.>.7.k.8.5.5.R.!.!.*X`.(.W.l.3.+.+.N k j k k m V B C.m.m.Z.Z.Z.Z./.yX#X#X#XyXyX/.k./.9.8.N.OX;XaXsXvXpXQ.m.N.oXV.:.b 7.Z.j.#.k./.@Xp.i.i.` d.i.i.{ Y l 3 x i.).#X/.W.k.7.V.^.x.3.1.V.k.1.1.k.k.8.>.V.+XfXzX1X+X X|.oXm.+.U 1.P.rXdXvXjXdXP.p.R P P E E S l Z R R L L R p.h.a.<.i.p.3.7.8.V./.@XU.Y.} G e u u , @ @ + . @ i f u # # u a a 9 a f ~ ~ s a e 8 8 9 9 9 s f G [ D.Y.I.U.Y.I.wXeXtXwXwX@XJ.P.wXtXdXdXrXrXrXpXhXjXgXpX%XoXZ.V.l.k.l.M.l.8.8.j.8.j.7.1.$.#.p.k.k.s.k.m.Z.oX].].L.a.I w 2 2 > ; - @ @ , 0 u i 0 # # 0 u G { J.#X(.l.8.7.1.p.g.i.B.OX`.`.!.l.+.z.h.R E p.j.#.B.U.P.p.v 4 ; k p.V._./.k.8.9.N.m.s.1.1.7.9.T.R.T.T.l.7.+.+.<.s.J.U.G.^ D 8 @ , a i i 5 $ . X - . @ : 8 t K ` a.P.P.oX|.Q.N.M.N.P.@XwXP.i.P U <.s.s.2.2.2.s.Z.+XoX;XaXxXSXDXDXSXdXdXtXwXP.h.R L x h h k I a.J.[.I x h c #.c.j.$.N N v v c c h h n F K J K D t y z z z z t y y q q q 4 3 l Z S Y L E i.f.g.d.{ ' [ | g.` m w h z L / i.a.` ' 2.s.1.j.W.(.-XyXyXrX@Xm.U M c c R B.).@X#XrXpXfXaX#XQ.Z.M.k.l.M.M.8.o.;.>.1.1.$.#.#.k.V./.V.<.b c c U <.p.i.R U R 1.z.x.W.Q.|.M.>.B U h.@XrX%X+X2XsXaX;XOXOXOXQ.M.8.>.8.8.M.M.M.M.8.m.,.3.m.N.Z.m.2.v.2.<._ U V B :.k.k.V.W.(.(.`.`.*X*X XM.6.>.>.:.m.m.Z.#X%XQ.6.;.o.,.8.M.Z.Z.P.P.C.].@X$X$X].P.C.",
"3 k s.@XV.3.1.+.8.8.0.7.5.9.R.!.*X`.!.T.j.1.+.U M x n N P B I B 2.:.4.m.Z.B.m.B.Z.V.P.#XdXfXrX/.OXQ.8.8.Q.OX;XaXSXxX%XV.N.oXN.3.%.1.3.1.1.k.K.@XJ.z.f.i.d.i.g.g.T x 3 x i.P.@X/.x.j.1.k.W.^.k.$.V.z.s.p.k.k.1.+.M.Q.;XaXaX<XOX|.oXoX/.oXrXdXfXgXfXdX@Xz.#.N P P R L z z L Y L x L R f.h.h.f.f.s.1.7.M./.oXP.g.^ C > - , $ + . $ + + i W f 0 , 0 a a 9 8 e G ! [ G D t a a a s s s G ^  .G.Y.U.U.Y.G.G.h.h.L.wXdXtXdXjXjXjXjXdXyXrXrXpXpXrX&XZ.V.m.m.l.k.k.8.8.7.7.j.j.j.7.1.$.1.k.k.s.k.V.Z.Z.C.v.a.' m w 2 > > ; - - - : 0 u a u 0 , , 0 a G } J.#X(.9.8.3.1.p.d.i.z._.(.!.R.8.1.p.i.d.*.*.p.j.J.[.J.L 3 = = 3 L p././.V.l.9.8.B.s.1.1.1.0.9.u.T.R.l.1.+.U <.s.K.U.G.[ D e : 0 i a i i 5 % $ @ @ @ - > q y j j _ 2.N.|. XE.y.M.V.U.wX@XJ.i.i.i.s.<.<.2.2.2.m.Z.N.Q.+X#XyXgXSXvXvXjXjXjXdXtXU.J.i.U I ` a.n.L.@XB.i.L M #.$.$.%.$.%.P N v v x x n F I T J K D D L L L n m z t y 8 8 8 8 q r l l x S / d.h.d.{ ' ' | n.n.` n z z z Z T T ` ` 2.<.@.$.7.l.^._.tXrXrXoXZ.v.U V #.B.K.@XyXfXfXfX;XOXV.V.k.8.k.8.M.8.>.>.>.>.@.$.$.#.z.P.).K.<.v k k U <.p.<.R R p.B./.(.W.M.M.A.3.B <.J.rXrX%X&X2XzXaX;XOXQ.Q.M.8.8.>.8.8.M.8.8.8.8.8.w.m.8.w.m.3.<.Z.m.v.s.<.U U :.1.7.l.W.!.!.!.!.*X*X!.8.>.>.>.:.B.B.oXyX%XM.V k h c b B :.a.v.b.v.C.P.].oXoX].C.",
"2 h p.@XP.s.1.+.k.8.0.8.0.0.M.!.`.`.~.l.1.+.U P k x U s.B.b.v.v.m k V 4.m.v.2.2.:.k./.rXyXyXyX-X-XE.M.8.e. X;X<XZXSXfXZ.m.Q./.V.k.+.N +.k.z.B.P.wXP.h.i./ d.d.h./ z 3 h <.K././.k.7.1.j.W./.V.1.B.B.s.s.s.3.1.:.k.N.OXaXxXsX=XOXoXyXgXSXDXSXjXdXyX#XK.i.P v L E d.L z Z L L x x L <.h.b.b.b.b.h.3.k.V./.J.a.F t : @ @ , #     $ $ % Q W W 0 , u f a e 8 a G [ [ T K D D D D D G D J } H.Y.L.J.S.g.{ F z x ` U.tXSXSXjXgXdXdXfXgXhXpX%X$XoXZ.V.N.8.k.M.M.k.k.8.k.7.7.j.7.7.7.7.1.k.k.k.B.P.oXC.v.` F w > ; ; ; - - - - : < u a d a 9 : : 9 a J i.V.#X(.9.8.3.1.p.i.R s./.(.!.R.7.k.#.#.h.f.%.$.K.J.I.g.x > X X ; z <.K./.Q.R.0.,.m.s.1.1.1.7.9.9.R.R.l.1.+.U <.s.P.).B.` F y > 9 0 u d Q i 5 1 @ : : - : : > 2 2 j V 3.N.OXOX!.Q.K.b.h.J.@XwXP.B.<.U <.s.s.<.<.<.V.Q.Q.V./.yXfXgXDXDXvXjXjXjXjXdX@XZ.s.s.s.s.C.$XrXP.1.U %.#.$.$.j.$.%.N v M P U M L I ` ' I F n #.#.R I F F D g 8 8 8 8 q q e w Z L Y R / } a.d.a.` ` a.b.b.` n h l z F T ` ` R p.$.#.$.j.x.).#XyXrXrXrXK.2.3.Z.m.oXpXfXaXaX+X|.V.V.k.8.8.k.k.8.7.1.1.1.@.$.$.1.z./.@XP.1.V k k +.<.s.s.<.p.B.).uXyX/.8.>.w.3.B B.@XrXiX%X%X2XsX1XOXQ.Q.W.8.7.8.1.8.M.M.8.1.1.8.>.Z.%XZ.:.:.3.s.Z.Z.B.B.s._ _ :.1.1.k.V.Q.!.!.E.;X*XQ.8.>.>.:.+.m.B.@XdXrXs.k 4 ; ; 2 w m I ' ` a.s.v.C.L.].].].",
"= > ^ I.Y.f.s.1.k.1.5.9.0.>.7.W.`.(.^.l.1.%.B N R <.R L P i.B.b.2._ ] V V _ v.C.P.B.k.k.P.#XtXyX-X*X~.M.e.E.+X2X1XZXZXpXoXm.Z.$X/.<.V U s.s.p.p.U.kXkXY.f.f.d./ / 3 3 k 1.W.OXE.9.9.8.k.x.V.K.K.a.J.L.h.s.s.k.1.8.8.N.OX1XzXsX=X#XfXvXSXvXvXfXrX_.V.f.#.P P E R R ^ z z i.E x L 2.a.h.b.G.G.b.n.n.g.a.` F t q : - : - # @ $ $ % u d W W i u 0 9 f a > - 8 G  .H.n.{ ' m n I ` | i.G.U.9XL.f.#.R Z z w w j R L.rX@X#X%XyXpXaXaXaX;X+XoX/.Q.V.k.1.1.3.3.1.#.#.1.s.V.3.1.7.7.$.$.l.l.k.k.Z.oX].a.' j 2 ; - - : : # @ , 0 9 9 s s s p < - - 2 j U s.Q.OXOXR.>.>.3.k.s.:.k.oXOXW.l.1.7.o.%.$.j.7.j.x.I.H.^ 8 + + + + > F b.@XOXE.0.0.m.2.1.s.8.>.>.7.M.W.l.1.@.N o.k.Z./.Z.1.M h w 2 q r s f W f d p , : : - - : : : q w j I 2.B.oX%XrX$XP.s.2.m.B.B.P.k.+.U <.p.p.p.1.>.>.8.V.OX#X#X;XvXKXKXvXaXaXxXZXxX1XQ.8.8.l.Q.;X/.k.1.#.#.p.z.K.1.N V B +.U V b V U <.<.#.U P h.G.h./ T T F D C q > e t a e e : 2 r C Y / d.d.i.p.p.p.1.1.1.1.` F j w z F T { / d.*.#.*.z.K.K./.#XyXaXpX%X$XoX%X%XgXZXsXOXE.Q.W.V.k.3.>.@.3.k.+.1.3.3.1.1.1.1.K.^./.V.3.B b c U p.V.V.V./.tXtXuX#X/.Z.3.B +.m.yXdXdXpXdXSXNX<X-X(.W.l.l.k.7.1.7.V.^.V.z.s.f.1.2.2.2.3.m.V.Z.Z.oXV.m.s.2._ U :.B :.3.m.N.Q.Q.E.;XE.8.8.8.>.o.+.V.P.tXtX0X| r - - @ @ : 9 9 a s g m ' ' { a.n.L.",
"X - ~ H.G.h.h.s.k.1.7.9.7.@.7.W.`.(.W.l.7.+.N b P R <.R <.h.J.L.n.q.` _ ] ] ' 4.B.v.s.B.P.@X#X_.*X X XE.E.E. XXX=XzXAXgX+XZ.Z./.K.s.1.s.s.<.R i.tXkXkXtXY.Y.F.d.E 3 3 v 1.Q.!.R.9.5.7.7.l.x.K.U.a.b.J.b.p.s.3.8.>.>.0.E.;XAXAXxXxXSXSXvXfXuX#XK.x.k.p.#.P P P E Y T z x R U x U <.s.b.L.L.H.n.| [ ' D t q : - @ : : - - # , u i Q W ) W i , u u a 9 @ @ q J  .I.H.b.n.{ 2.a.b.L.@XwXwXU.f.E c h h 3 3 l R B.P.].%XpXfXfXpX%X+X+XOXQ.M.k.l.M.m.k.3.B b v #.f.z.s.s.2.3.3.1.@.7.x.l.l.V./.].n.' m 2 2 ; ; - @ @ # # 0 9 p s G H A d < ; 2 w k U 8.Q.OX XM.>.>.7.8.3.:.m.&X+XQ.l.1.@.O.@.@.7.7.l.V.U.D.G 0 + O O O , s i.P.(.E.u.0.8.s.s.s.3.1.1.3.k.M.8.1.>.o.o.8.V.Q.Z.3.P k h 3 3 r D ! ! ~ f d d p p 9 9 > > : > 8 y m ` s.P.@X@X@X].C.B.N.Z.M.k.m.V.k.p.#.*.i.B %.7.l.W.Q.Q.Q.;X;XaXxXFXFXAXzXAXzXzX>X XE.9.7.-X#X/.z.1.<.s.K.P.B.<.P P U <.1.B +.#.3.p.3.1.<.L.Y.G.d./ T Y F C w 2 e a a 9 e e e q q r Z E *.=.p.p.1.1.1.1.<.<._ I n x C F H d.d.*.R R i.f.s.k.V.OXyXfXfXhXhX<XhXxXgX1XOXE.Q.M.l.7.+.+.$.1.3.@.1.1.1.1.1.1.1.^././.Z.j.%.v b N 1.V./.@XrXyXpXyX/.m.3.:.+.m.%XpXfXdXhXjXDXSXpX_.W.M.k.j.7.7.7.j.x.K.z.j.h.z.f.<.<.<.s.N.Z.oXoXoX+XZ.3.<.<.:.B o.:.>.8.m.N.N.N.;XQ.8.8.>.>.@.>.V./.rXiX0X[ p # .       . + # : 8 q t g D K ' ' ",
"X X A D.H.h.h.z.p.3.8.l.7.@.7.W.(.(.W.x.7.+.v k M U <.i.p.B.P.L.}.}.C.n.' V V m s.2.s.m.V.Z.V.m.E.E. X X X X X X X1XAXZXpX/.V.Z.$XP.Z.s.U M P p.U.wXtXkXtX9XF.f.Y 6 6 N 3.W.!.M.7.5.5.7.7.z.K.U.h.n.n.b.s.<.3.k.>.>.>.8.OXzXHXFXSXSXvXpX#X/.B.s.p.1.#.#.E E E R Z F Z Z E L M R a.b.L.{.I.n.| [ K s q : - @ - : < < < u a Q W W W W ~ W u < u d a : @ : a J H.qX0X[.{.L.L.{.eXkXkXrXP.p.P x h h h j n ` B.[.@X].pXgXxXgX;X|.Q.Q.Q.M.8.1.3.k.k.m.+.V c b #.z.B.s.<.2.k.1.@.7.l.W.j.x./.@XP.a.m q ; 2 < < : @ # # 0 u a s G ~ H C C r 4 w l M :.8.E. X XM.5.>.7.8.3.:.v.&X+XQ.l.>.O.@.@.@.7.l.V.K.Y.( a , + O O O # 9 F s.Q.!.y.6.1.k.k.k.3.3.3.3.8.k.8.8.l.7.@.9.M.W.Z.k.+.V c w 3 z H ^ ! ~ ~ ~ ~ ~ W f a 9 9 > : : 2 w n ` b.L.P.].].oXoX+X/.V.l.V././.z.<.E P %.+.1.1.1.8.M.Q.!.E.Q.;XZXFXFXAXzX5X5X5X6X=X!.9.(.OX-X#XV.s.s.h.Z.C.B.2.<.U <.3.1.3.k.k.x.V.V.B.U.I.G.g.{ / ^ Y H C r e e a a a a e q > 2 w z Z R #.#.#.<.<.<.<.2.2.a.` L Z C C Y ^ ^ R R *.i.#.1.7.V.oXrXhXgXSXgXSXSXfX+XOXQ.M.k.k.1.N %.j.k.1.1.1.1.1.$.1.1.3.^././.Z.j.+.v b P p.P.@XrXtXrX#XoXm.>.:.>.8.oXgXgXSXSXDXFXKXSX%XW.V.l.7.7.7.7.7.k.x.x.k.k.z.x.z.3.3.3.m.V./.oXoX%XpX%Xm.1.m.s.U +.:.:.3.8.m.N.N.#XQ.l.8.>.>.>.7.k.P.tXkX7X! < @ +           . X : - : : > q e y ",
"X X s  .H.S.h.s.1.7.l.8.1.@.7.W.W.W.W.l.1.B N v P R <.i.i.h.L.U.].{.}.n.2._ _ _ U U :.<.k.B.V.V.M.N.|. X+X+X X X X1XZXSXxX;XOXQ.oX/.P.m.:.V N <.#.i.U.dXjXtXJ.f.E h c N 1.W.!.M.9.7.1.@.$.j.z.K.b.a.a.b.h.i.1.k.7.1.>.7.N.;XzXxXfXpX%XoXZ.B.s.1.#.#.E P P P E E z F F L L L L <.a.G.I.I.G.| K D a e : @ @ : 9 a u p d W ~ ~ ~ W W W a u u u a d s , : e D G | I.kXkXkXiXkXkXBXJXkX@Xp.L k k x v I s.P.@X[.].$XrXdXgXgXpX+XN.N.M.8.8.8.3.8.3.1.+.b N +.1.s.s.s.s.<.s.s.$.@.k.x.x.j.x._.).J.` j q 2 2 q < > , , 0 0 9 p s G ^ ^ H C r r l x P 1.8.E. X!.M.5.5.7.8.3.:.8.oXoXV.8.@.O.@.7.7.7.V./.K.g.A : # + O O O + : r <.Z.!.E.e.1.k.V.k.1.3.7.7.8.l.9.l.W.l.5.9.l.V.V.k.+.M c 3 w z H ! ~ ~ ~ ~ ) ) ~ ~ W d a a 8 > > > w n a.B.].oXoXoX+X+XOXQ.W.M.l.V.K.V.f.+.+.+.+.%.%.>.7.k.8.N.Q.*X;XzXZXDXAXzX1X1XcX1X*X!.M.Q.-XfXyXV.<.I s.m.B.B.s.<.<.1.B.V././._././.P.U.Y.S.d.d.d.d.d.} H C y e e a a 9 9 9 q 2 4 w w S L P R <.i.i.a.2.a.g.a.` T F Z 3 l Z Y / *.i.#.1.3.k.k.V.oXrXdXDXKXDX<XQ.Q.V.8.k.k.1.N %.V.Z.7.1.1.$.@.@.$.1.1.V.^./.V.3.%.v b V 1.K.@X#X#XP.m.3.:.:.,.N.Q.%XsXxXFXKXIXKXFXpXQ.V.l.k.7.3.3.7.7.l.l.l.V.V.W.W.Z.N.V.V.V.Q./.oXoX%XyX#XV.k.B.s.<.+.o.:.:.3.m.V.Z.OXQ.l.8.>.@.1.k.8.P.iXkXI.G - . + . . + @ + @ @ : @ X X - - - - ",
"X X r  .S.S.f.<.$.k.l.7.$.$.j.l.l.W.^.l.%.N B #.#.#.<.i.i.h.Y.wX].].].C.b.v.v.B.I V V B :.k.Z./.m.N.N.Q.|.|.|..X=X=XaXZXDXDXxXaXZ.Z.P.oXZ.2.P M x v <.U.tXwXL.J.R x x P 1.Z.(.E.l.7.1.@.%.#.c.z.b.a.a.b.z.1.1.k.k.k.7.7.k.Q.OX+X#XoXZ.m.m.s.s.s.U L M x x v L E x x L I L M R i.h.b.G.n.[ D e 8 # @ @ @ : 9 a f W f f ~ ~ ~ ~ W W a , , u a d s a 8 e G J G J  .0XeXlXCXCXCXjXjX[.h.M h h M R <.B.oXrXpXrX%XpXgXfXpX%XoXQ.N.N.k.8.k.k.k.3.:.U V V +.s.B.B.k.s.1.1.s.1.+.$.c.x.c.c.K.).K.a.L j w q 2 > > 9 a d d 9 a s s H ( ( / Z l l z S P 1.l.Q.!.!.M.7.5.7.8.8.:.3./.Q.k.1.O.o.7.l.j.l.W.^.B.^ e @ + + O O O + - 4 L k.Q.Q.N.8.k.l.k.1.7.7.7.8.l.l.l.^.l.5.0.W.W.Z.k.#.P k 6 3 w l C C G ~ ! ..) ) ~ ~ ~ f f f y 2 : 2 z R h.@XoXoXN.Q.|.OXOXE.9.7.7.V././.Z.@.+.+.+.>.>.@.o.>.8.Q.Q.Q.OXaXxXHXAXAXzXcX:X*XOXE.M.Q.yXfX%Xs.B U <.s.k.m.m.k.k./.@X%XyX;XOXQ.B.h.d./ / / d.S.Y.} ( H s s s G G a a a e e 2 2 2 r l z L R i.g.h.i.2.i.a.a.i./ Y l l x Z L E R i.z.j.1.<.1.s.K.@XjXDXjX#XZ.Q.V.7.j.k.1.B $.^./.k.$.$.+.+.+.$.1.1.x.^./.V.k.+.N N v <.B.P.P.B.1.U B B ,.M.+X<XgXZXFXKXPXIXFXsX+XN.M.l.k.7.1.1.7.7.9.9.l.W.!.!.Q.W./.Q.Q.Q./.#X;XyX#X/.Z.P.B.p.<.s.+.o.o.:.1.k.V.Q.Q.Q.M.8.>.+.7.M.3.P.dXkXH.s @ . . + @ , 0 , , , < , @ @ @ # - X ",
"- X e } S.S.p.#.$.k.l.1.$.7.j.7.l.W.W.l.%.N %.1.#.#.i.g.g.g.H.0XrXeX$X].C.b.m.m.s.4._ B U :.2.s.m.m.B.N.N.N.N.Q.OXOX=XsXFXKXGXGXsX%XoXZ.Z.Z.s.<.M k x U p.p.h.B.#.L v P 1.Z.OXW.l.l.7.+.%.%.p.z.h.h.h.h.z.p.1.1.1.7.k.7.8.M.Q.Z.P.B.s.s.s.3.<.i.R U L x v L E R x j I R M M <.i.g.i.{ T D e : @ . + # , u d W W ~ ~ f a a d f f ~ d < < u a s a a e s ! [ G D G !  .0XkXkXeXY.g.F j w h M 2.K.$X%X$X&X%XhXgXgXgXpX+XZ.N.V.V.m.k.m.s.3.:.+.B U U 2.<.#.1.B.V.s.<.k.p.#.#.p.x.x.c.^.).K.h.R z w w t q q e f ~ ....! ..[ ^ ^ ^ / E A C l Z S %.1.l.!.!.!.T.7.7.0.8.3.;.3.Q.Q.l.7.O.@.7.l.x.Z.Z.V.p.Z < @ + $ $ O O @ - 4 Z <.k.N.Q.V.k.k.k.7.1.1.7.7.8.7.9.W.l.5.0.W.(./.k.1.+.v h 3 2 2 r s H ( ..) ) ) ~ ~ ~ ~ ~ G s q > > y H i.oXoXQ.A.8.M.!.OX!.!.E.M.k.k.V./.Z.k.+.B o.+.>.1.>.>.1.8.N.OXOX=XaXzXAXHXAXcXbX:X;XQ.M./.pXpX&XZ.:.+.+.<.s.V.oX$XyXpXfXfX;XQ.k.<.L z l z Y ^ } D./ / H C s ~ ! ..X.~ f e 9 > q q 2 2 w l F T } d.a.a.i.i.a.f.d./ / Y Z z x x L R f.p.<.#.#.i.h.C.@XrXrXP.Z.P.Z.k.1.3.$.+.1.^./.k.$.@.+.+.$.1.1.$.V.^././.x.1.+.+.1.k.V.k.<.N b k o.,.w.OXsXSXGXKXKXKXKXDXaXOX|.Q.M.l.k.7.1.>.7.0.7.0.9.R.!.R.R.R.W.W.Q.(.#XyXyXyX/.B.B.P.P.i.<.s.:.:.:.:.>.3.m.V.Q.Q.W.M.>.+.7.V.k.P.rXeXg.t @ + + + , u u u 9 u u u , 1 # @ X X ",
"< = 4 ^ d.h.f.#.=.c.k.$.$.j.k.$.W.W.W.l.@.%.%.+.+.<.h.J.D.| | g.[.@XeXeX[.L.B.v.P.C.v.<._ U B U 2.s.s.m.m.m.N.N.E.|. X;XxXFXGXKXKXFXgX%XoXP.P.].2.:.N M M N U <.#.P E #.1.^.#XW.l.j.7.@.P %.=.h.f.b.B.h.s.s.1.#.#.1.j.7.j.k.V.V.B.s.<.2.s.2.` ` U I L L Y I / { n j L R n M i.i.i.T C y e : - @ + $ 0 u f W W W ~ W d a p p a f ~ f p e e e a a f G [  .} ! D t e s H [  .[ F w 3 w j I s.].pXgX<X%X&X%XaXsX<X%X%XoXZ.V.N.m.k.s.3.2.:.U B U :.2.m.s.1.1.3.s.3.1.k.1.#.1.j.c.z.x.^.K.z.i.L l w y t s D G ! ..! !  .D.H.D.d./ E Y Y Z z S P +.7.l.!.(.!.u.0.0.0.8.8.;.8.oX(.V.l.@.7.1.k.Z./.V.1.E r u # + $ & & $ # , e l L <.B.oX/.l.1.k.l.$.@.7.@.5.5.0.T.0.5.l.(.(.W.k.1.#.P x 3 3 3 r H ( }  .~ ~ ~ f d a s s G f t q 2 w C I B.Z.Z.m.6.0.R.!.*X*X*X!.M.k.k.k./.V.8.+.o.+.1.3.1.>.>.1.8.M.V.N.Q.+XsXAXFXFXDXvXxX;XE.Q.+X%X;XpX/.P.V.V.P.#XfXvXDXSXvXpXoXk.B b h 3 3 l S Y Y ^ / / ^ C A ! [ ....X.W f a e e e 2 > 2 2 y D J T a.a.a.a.p.f.i.i.f.*.E L L x x L P #.#.<.i.i.p.s.h.B.J.K.K.V.z.k.1.1.$.1.k.Z.W.V.1.$.$.1.3.3.1.$.x.^././.V.j.1.$.m.V.V.:.b k V N w.E.<XZXFXKXKXIXGXHXzX;XOX|.E.|.8.k.8.1.>.>.8.8.8.9.M.E.R.u.R.!.~.!.(.#X-X#X/.P.i.<.p.J.L.h.p.h.<.:.:.:.:.1.3.8.N.Q.Q.V.1.+.1.V.P.@XwXL.[ e : , , , i u a 9 e a a p i 5 , # @ @ ",
"p = 2 H d.h.z.p.=.k.j.$.$.l.k.+.^.W.x.l.7.@.%.N U <.B.Y.D.J C C T a.L.eXiXeXeXeXv.v.m.v.s.2.:.:.U ` <.s.m.m.Z.Z.N.E.|.OX;XzXFXFXKXKXKXKXgX%XP.Z.oXP.k.:.B N P P R U #.1.j./.#XW.j.j.7.@.P %.=.z.p.B.J.s.s.k.p.%.#.p.k.j.p.k.x.B.s.<._ <.2._ I I x x n F L Y T R n h M R x M i.` { F r : - : - @ @ % i a d Q d a d d f f d a a s s s a e 9 9 e s [  .H.H. .| D y e > : > w r w 2 j n <.B.].$X%X%X<XsXsXsX<X+X|.Q.&XoX/.Z.m.k.3.3.U U U B U :.2.s.s.B.P.B.<.U +.3.s.#.#.p.j.j.z.^.K.F.f.R Z l l t q g K [ ! G s s G } D.H.S.f.f.d.Y S x S P +.j.W.!.!.!.u.0.0.9.0.6.;.8.+XOXQ.N.7.7.1.3.^.).z.U L r p , + $ & & % # < e r z U B.oX#Xj.@.l.l.@.@.7.@.5.5.0.T.9.0.W.W.W.V.k.1.#.P v c l w C T } D. .~ G s e 9 > < 9 s s s t e w l Z 1.V.Q.M.6.>.9.R.!.~.W.(.-XOXM.1.1.M./.OXN.3.o.N >.1.k.8.>.+.1.m.N.|.;XzXZXDXDXAXxXcX;XOXE.Q.+XsXSXDXSXjXjXSXFXKXKXFXSXyXZ.:.b 6 z w l Y / / E ^ d.d.( A C H ^ ! ~ ~ ~ ~ G f a e 8 > : : > q C F ` a.h.h.f.p.p.h.#.R *.f.i.L x z c S #.i.i.i.i.<.i.i.h.K.P.z.p.1.1.1.1.j.x.Z.W.Z.1.1.1.3.j.k.3.1.l.V./.^.x.j.1.1.1.s.1.V k V k.oX|.<XHXKXIXIXKXKXxX1XOX X X XE.E.1.3.7.1.>.1.8.M.M.M.E.E.R.e.R. XOX*X;XyX#XP.p.R h x R i.h.J.h.p.1.:.:.:.+.+.:.>.M.Z./.W.1.%.1.V.#X$X[.b.J 8 > 9 0 , 0 9 9 , 8 e d d d p < - @ # ",
"r 4 4 l / h.z.z.p.j.c.j.j.j.j.1.k.l.x.V.l.7.%.N +.i.G.Y.g.D : - q z T n.0XtXeXeXwX[.P.L.C.B.3.:.I I U :.<.4.s.k.N.N.N.E.E.+X1XzXFXLXKXKXKXSXdXpX$X&XP.m.:.B N P p.p.s.p.k.^./.^.x.l.7.$.%.%.$.z.z.s.s.p.p.k.z.c.$.@.c.K.#.%.f.s._ 2.2._ I I I I x I I x x Y I F n L I L U ` ` ` T z > - - , , , , 0 u i i i u u p a a s ~ [ ! G ~ f ! ..! ! ..|  .H.8XD.| | T C r e 2 ; ; q x I ` b.].$X$X%XpXZXsXsX1X<X+X|.Q.N.Z.N.m.k.2.<.:.:.<.:._ <.2.s.m.m.k.Z./.k.+.+.1.3.+.+.#.1.k.V.K.F.K.c.*.L l w l F D F K K G s e 2 A A ^ *.D.F.S.f.E L v S %.@.7.W.(.`.!.T.0.5.5.5.6.;.w.OXOXQ.W.k.1.k.Z.P.B.s.U x e u , % i Q i % # : 2 w w x i.P._.(.l.1.7.l.l.@.@.&.5.0.9.l.R.W.!.W.l.7.p.p.E x x x L { h.g.{ ^ s e > : > 9 > : < a f G s r r l U 1.N.N.M.0.5.>.R.9.9.R.OX(.Q.V.M.V.Z.Z.m.8.1.<.+.1.3.3.1.>.1.3.3.w.N.+XaXxXxXxXFXFXxX;XE.N.|.&XpXfXgXSXFXKXLXLXKXDXgX%XP.m.3.s.g.S.Y.Y.Y.h.*.E d.d.^ C r r C s 9 u a f f f f a a 8 > q q 2 e C F ` b.B.z.z.z.f.f.p.i.f.i.R Y Y E v c S R i.i.i.i.p.f.p.s.z.s.#.$.1.1.j.V./.W.l.3.1.1.1.1.3.1.1.l.W.#X_.V.7.1.:.:.<.+.U <.V.rXfXgXZXGXKXIXKXFXAX=X=X XN.R.E.E.M.8.3.3.1.1.7.k.k.M.M.M.M.E.!. X*XuX;X_.P.B.<.x 3 2 2 z T g.G.J.B.s.2.:.+.o.+.+.<.k.V.Q.Z.k.7.k.l./.@X@Xg.r q s a a 9 , , : - > e 9 f ~ f p 9 < > ",
"C 4 3 l E f.z.j.p.j.j.j.j.j.j.1.j.k.V.W.l.7.@.%.s.B.Y.D.J e - X X - q D | I.0XiXeXeX[.P.L.C.B.v.s.<.I k k B s.Z.m.m.N.N.N.Q. XOXhXhXSXKXPXPXLXSXP.Z.Z.B.B.B.B.B.s.B.B.k.z.V.^.(.W.l.j.1.+.%.$.j.B.k.s.k.k.x.x.x.j.$.j.k.$.%.U P s.2._ M n M L n I R T F Z F F l L L I I E <.{ R C r ; - - , , $ , , 5 u 5 , , , , 9 e s ~ |  . .| .. .8X8XH.7XI.qXqX7X .{ { ^ D 2 2 q r D T ` ` wXeXrX%X%X,XpXsXsX<X=X+X X|.Q.N.3.3.1.1.:.+.U B <.2.s.v.B.B.B.B.B.V.M.1.@.1.3.3.N +.1.j.k.V.V.K.z.p.E S l l Z H T K D z y e q r l l Z E d.f.h.f.R P N P %.@.j.W.(.(.!.T.0.5.5.5.6.;.8.OXOXQ.M.8.8.Z.@X/.B.<.L z < < 5 u i W i 0 # - > 3 w x ` B._.(.l.1.7.l.l.@.@.&.5.5.0.9.T.R.W.W.x.j.1.1.%.v v v L d.S.d.Y Z r 4 2 2 e e q > e e s C C C l l M +.m.N.N.9.5.O.0.O.@.5.E.!._.OXOXZ.k.>.:.1.V./.3.V k N B.oXV.:.B 3.N.Z.m.N.;XxXxXDXSXxX;X|.Q.N.N.Q.;XxXFXKXFXFXfXpXyXrXyXdXjXSXJXJXJXjXtXY./ L S Y Z l 3 2 2 ; : , 8 0 a a f f s e e e e 2 e z L i.B.J.J.z.z.j.K.z.p.i.R R { d.E S c x L R i.h.i.i.i.<.i.s.s.1.#.1.j.k.W./.W.k.1.1.1.1.1.1.1.1.V./.#X/.V.1.+.B b B 1.k.P.rXgXxXKXGXGXGXFXZX1X+XOX X!.E.R.R.9.5.k.p.1.1.7.k.k.8.k.k.M.N.Q.OX=X;XyX).z.<.I z 2 - = ; w H d.G.Y.B.s.1.:.+.+.+.:.1.3.k.V.Z.Z.V.k.8.Q.@XwXh.z q s e a 9 9 9 > ; > q e f G G s s e > ",
"H l 3 h L i.j.j.1.7.7.j.j.j.p.p.1.k.Z.W.l.7.@.%.z.P.Y.[ t > @ .   . X - e G  .I.eXeXeX[.P.L.K.P.C.m.<.U V M B U 3.s.k.m.m.M.N.N.yX%XrXgXJXKXIXKXDXSXpX%XoXK.m.2.m.V.V.B.k.V./.(.x.l.k.7.@.%.+.3.m.3.1.3.k.l.k.j.7.$.#.p.F.z.#.#.` I M n I ` R L F L L F F Y F l L I E E R i./ I l 4 ; - , 5 5 , , , , , , : : , - > 9 a G .. .H. .| H.qXqXqXqX0XH.H. .T T [ ^ H H F F T d.L.[.@XrXrX%XhXgXZXZXxXaX;X XN.M.e.8.8.3.1.+.B N U <.s.<.s.B.P.@X/.Z.V.Q.M.1.+.1.8.7.@.N @.k.k.k.x.V.K.f.#.S z z z Z Y ' T F z y w r r 3 3 l Z E d.f.h.#.P P P +.@.j.W.^.`.!.T.5.5.5.5.6.o.8. X!.W.M.8.l./.#XP.s.I j q > < 0 i Q W Q 0 @ - ; 4 l x I i././.V.7.7.l.l.7.@.@.@.&.5.0.9.l.W.W.V.k.1.$.+.P P P R f.h./ z 3 3 w r z C s t t t r s C C A C l h N s.Z.Q.M.5.>.>.O.V O.>.M./.#XQ.Z.V.m.k.k.V.Z.V.3.B N U 1.s.s.s.s.s.s.m.V._.#XaXcXSXDXSXaX+XN.w.w.M.Q. XOX|.Q.Z.Z.V.V.K.P.@XwXL.L.L.J.f.*.E S x x x l h l w w e 9 > : 8 9 s f f s s s e e r z I i.J.U.P.Z.x.j.j.k.z.z.f.{ { } *.E S S L L E { R ` i.i.p.h.s.1.+.1.k.x.^./.V.k.1.1.7.3.$.$.1.7.Z./.OX_.V.8.:.o.3.k.V.Z.#XgXFXKXGXFXSXZXgX<XOXE.E.E.E.E.R.M.9.5.k.j.p.p.k.k.k.3.k.k.B.Z.oX#X%XrXP.h.Y r 2 : @ . . X : s ( D.G.b.1.1.:.+.+.+.:.<.1.1.k.W._./.l.1.W./.@Xh.z y s e p e e r y 2 2 w z D J J K F t q ",
"T z 3 6 v #.p.j.7.7.7.j.k.j.j.j.1.k.W.W.l.7.1.1.k.P.G.F > : @ .   . + . . - a K H.I.0X0X[.[.@X@XB.B.B.m.<.P M k #.<.1.3.3.m.V.Z.P.oX@X%XrXdXDXKXIXLXSXdXrX$XP.Z.m.B.m.3.k.V.^./.l.j.7.7.@.o.+.1.m.3.>.1.8.l.j.1.@.1.%.$.^.K.#.p.k m M U 2.s.i.I x F F F Y T F l Y Y R R / i./ Y z r < < u u u u 9 < < : : : > 9 > 8 e e t G | | | J | H.I.0X7XD.H J J F F T H F } d.b.L.[.eXiXiXoX$X%XgXSXSXxXaXOXE.M.8.8.8.>.:.1.:.+.+.:.1.s.s.<.B.P.#X#X@X/.Z.W.k.>.@.7.l.5.O.o.>.8.k.M.Z.V.B.<.L l h z Z L Y T T K F Z z l l 3 3 3 l S R i.f.#.P N B +.$.7.l.^.(.!.R.5.5.6.6.6.;.9. X XE.V.k.Z.oX@XB.R m w q ; 1 , u W W Q u : - ; 3 l x F I k.Z./.V.k.k.k.k.1.@.@.@.5.7.9.9.l.W.W.l.1.$.#.%.E R i.f.i.Y h 3 l z F H F F H J F C C C H H C h 3 b <.B.Z.N.9.8.>.O.V V +.1.k.V.V./.#X%XoXZ.k.3.V././.s.V c N 1.s.a.a.v.Z./.Z.M.OX;XxXDXFXDXxX1X=X Xr.6.;.o.V V V B +.<.s.p.p.p.L L L L M x c h v c l l Z I / { ^ J f s a a s f f f D s r r r z I i.K.).).^.l.1.+.$.z.J.b.i.{ } f.d.*.*.R F z x L I i.h.B.z.p.#.+.1.k.V.^./.x.3.$.1.j.3.@.@.1.k.V.Q.OXOX/.W.k.8.Z.oX#X%XpXvXFXFXSXsXpX<X;X+X|.N.8.M.M.M.M.R.9.7.1.f.j.z.z.s.s.s.p.B.K.@X@X@XP.L.' D 2 - @ @ @ + + . @ < D } g.h.s.1.<.:.+.+.+.+.>.1.k.Z._./.l.1.W././.i.l r C r a a s C z l z x x F T T [ ^ F r ",
"R x 3 6 v +.1.3.7.7.7.k.k.3.3.k.$.k.V.W.x.8.7.7.k.J.h.C : - @ .     + + . . @ > f T n.I.[.[.eXrXP.Z.V.k.1.<.<.p.R R #.<.<.2.B.Z.<.k.P.#XrXrXdXjXKXKXLXJXSXgXrX%XB.3.>.:.k.W.Q.V.7.7.1.>.@.o.o.>.N.w.,.6.l.M.l.7.$.j.#.#.z.#.v M M U 2.2.a.i.R M L L L L Y L l 3 Y E E E / d./ F C r e 9 u i i u 9 < > > > e e e > e y y s K [ [ J z D J T [ | T C H T F C C Z F { b.eXdXkXrX$X$XpXpXsXsXsX<XOXE.M.8.7.1.7.7.1.1.N +.1.k.m.k.1.<.B.P.@XrX#X).Z.l.l.j.7.7.7.5.&.O.7.0.0.8.N.Q.V.k.#.v h h z Z L Y R I L L Z Z Z Z l l 6 h x E i.p.#.N N N %.$.7.l.W.(.(.M.6.>.6.6.9.;.e.*X*X!.Q.V./.@XP.i.n j w w > < < d W W f d e > ; 3 l z x x U V.#X/.l.3.7.k.7.1.@.@.>.7.0.9.l.W.W.k.1.$.1.$.E #.p.f.#.S h h L L E I T T ^ | [ H C Z H Y C 6 w x U s.B.V.V.N.5.o.o.o.:.:.+.:.oX+X#X#XoXZ.Z.V.s.m.V.K.B.p.P x x I a.p.1.1.k.V././.#XaXxXSXHXAX2X3XE.6.;.O.V b b b M M L L L L ` ` <.<.R U P P v v v P i.a.h.G.} } ^ J G s t a s G G A C l C Z L i.J.).)./.k.@.%.%.#.<.i.} g.G.S.f.i.i.d.E n x n n L ` i.i.<.#.1.k.V.W././.V.7.1.3.7.1.@.+.1.k.l.W._.OXOX/.Q.Z.m.oXfXvXSXSXvXfXgXpX;X%X%XoXV.m.8.l.M.9.9.l.l.j.$.p.z.z.z.f.h.S.p.J.U.0X0XG.| T e > @ . @ @ $ + @ + . - a T g.b.s.s.2.<.+.+.+.U $.1.k.V.Z.V.l.k.W.W.V.#.h l F C C C C C C l x L L L I R { } T z ",
"E x 6 h V 1.7.7.l.7.7.k.k.1.1.k.1.j.x.V.x.l.l.k.k.h.{ t ; @ .     O % % +     . X > D { b.L.wXrX%X+XoXZ.m.s.s.s.<.<.R U U _ 2.s.B.B.B.K.@XrXrX#XgXDXLXKXKXJXjXdXoXA.,.:.k.Q.Q.l.@.@.@.@.o.o.o.5.N.w.6.5.0.9.8.7.1.7.1.$.$.P v L 2.2.a.<.i.i.R I Z Z Z L Y L Z l Y Y Y Y ^ { R F C r e < 0 i i u e e e e r y r t > e s f G [ ..[ D y t D y y z w z F F C z x T i.L.@XrXrXrX$XpXgXxXgXaX;X XE.M.M.M.l.l.7.1.@.+.+.1.1.1.3.s.m.B.K.tXtX@X@X).^.l.j.7.7.7.0.7.&.&.&.9.9.0.8.N.Q.B.1.N k h h z L Y R i.E L x z Z Y ^ Y Z z x S E i.p.U V b N +.1.7.l.!.OXOXN.5.,.6.6.e.t.e.*X*XOXOX/.#X@XB.U z w z D 4 4 p f ~ ~ ~ ~ s r 2 3 h l z x M s.#X#XZ.3.3.k.k.7.@.@.>.7.0.8.j.l.x.k.1.j.j.j.%.#.p.f.*.P L L U U U U I T { d.d.^ F F Y Y Z l h j M R s.B.Q.Q.1.>.+.>.>.+.+.+.Z.Z.oXoXoXoXoX@XZ.B.k.B.V.B.p.R L I I E #.p.z.Z.Z.Z.V.Q.OX<XxXAX5X5X3XXX Xr.,.;.:.U M k l z L Y s.v.v.B.B.B.z.z.+.#.<.z.J.B.p.d.T T H H C t e q s G ~ H C Z F Z L <.h.K.)./.l.@.b b P i.f.g.g.S.S.p.R i.i.i.i.i.I n j x M L +.1.k.V.^.^././.V.k.1.1.1.1.+.+.1.8.V.Q._.OX/.Q.Q./.yXfXSXSXvXgXdXrX%X%X%X%XOX/.V.M.M.W.R.9.7.0.0.0.$.j.z.z.c.f.h.F.g.S.H.H.D.T t 8 @ + + + $ $ O   $ + . . > D | G.B.m.k.2.<.+.U B +.1.k.k.k.k.l.V.W.W.k.E h l Y H H H H H Z z x L R R R *.i.d.R z ",
"L x h k U j.k.8.l.7.7.8.8.@.>.j.3.j.k.l.l.l.l.l.k.i.L y - X .   $ % & & $ .     . X > r F { b.K.oXOX;X%X@XV.p.<.h.p.i.` U I U U P.B.p.s.B.K.oX@XB.P.rXDXKXIXIXKXsX%XN.m.N.Q.Q.l.5.&.@.@.o.O.@.6.e.e.5.;.>.5.5.7.7.@.j.k.$.#.p.p.i.<.<.<.p.h.i.R l l Z S L L S Z Y Y S Y R / ^ F C r 9 : , 0 u a r l C C C C C t e s G J [ | [ K z t F J t q q 2 y y l z Z T S.0XdXdXrX$XoX%XgXSXaX;XOXE.N.e.e.M.W.W.l.7.%.%.%.+.Z.k.1.<.2.V.#XdXrX).V.z.x.x.k.j.@.&.5.0.7.&.&.5.5.0.e.M.Q.V.3.B k h h h x L R d.i.R P v S S E *.R Y Z Z L R a.s.U V b B @.7.j.l.(.-X*XE.6.,.,.6.0.;.0. X*X*XOX_.oXP.p.n w w t t r 4 e d W ~ ~ ! ! C w 6 h l j x M 1.P.#XP.k.1.3.k.7.+.o.>.7.8.0.7.l.l.j.j.k.z.k.#.#.p.h.z.p.#.#.#.U U U R <.a.h.h.{ Y L Y Y Z x w h x L <.k.Z./.8.>.+.:.<.:.:.:.1.8.Z.oX$XoXoX@X#X@XP.z.p.p.z.J.G.{ L L i.z.z.k.l.l.M.M.M.Q.;X1XHXHXHXHXHXAX1X%Xm.k.p.i.h.F.7XwXeX$X$X@XP.K.B.k.z.k.z.).U.h.R L Z Z z r w q q q t H ^ H Z Z Y Y L R p.K././.l.@.c b P h.L.G.g.} h.p.i.i.i.i.g.b.i.I n M N P <.s.V.Z.^.Z.V.Z.V.x.3.1.$.@.@.$.1.3.V./.#XOXQ.V./.%XFXFXvXpX%X%X%X%XP.P.P.Z.V.m.M.M.V.W.W.l.7.7.7.-.c.c.c.z.c.h.h.h.g.d.| ^ G e : @ + + + $ % % O   O O . . - y T h.B.m.k.s.1.:.+.U +.+.1.j.k.k.V.W.W.x.k.E c Z / ^ ^ ^ ^ / R E P R p.f.=.=.f.f./ S ",
"L x c b #.k.M.l.M.7.1.8.8.@.@.8.p.j.j.l.l.V.V.V.z.R z q - . . O $ % % & & $ + @ X X X - 2 x ^ a.B.N.oX%X#X/.K.B.B.B.h.a.<.U I I L <.h.z.s.s.B.U.tX@X@XrXjXDXJXDXDXZX;XQ.Q.Q.Q.N.7.7.>.>.o.O.o.6.E.e.8.5.,.5.8.l.k.+.k.B.<.i.B.h.a.i.<.p.B.B.<.x x x S L Z Z Z Z Y Y Z Z Y / ^ H C t > : : 0 u d C Z H T T H D z D F T | | | H y D K d.n.T w w w w l z F / h.U.tXrXrXpXpXpX%X%X%X&X XQ.E.N.e.9.0.7.j.j.#.P P $.k.p.s.k.B.K.@X#XrX).B.1.#.1.k.k.j.@.@.&.5.&.&.&.9.O.0.R.Q.N.m.:.M j w w h x L { f.<.#.#.#.E E E E *.E L L I <.a.b.U V b B 1.7.k.l.(.-X#XW.>.>.,.6.6.O.6.!. XOXOX_.P.B.<.x w q q q r 4 < s f f ~ ! [ H l h 3 w j x P :.m.P./.V.3.>.m.7.o.o.@.>.7.7.7.j.j.7.j.x.x.z.$.#.$.z.K.K.f.<.+.+.+.#.<.s.h.b.h.d.T Y Y ^ Y Z 3 w j M R s.B.P.k.1.+.+.+.+.<.3.1.3.k.B.V.P.oX#XoX/./.U.P.K.B.f.g.g.i.R L L U #.k.k.M.m.m.N.oX=X2X5X5XMXAXAXxXgXpXyXrXwXU.L.Y.h.B.C.Z.Z.P.P.Z.V.^.x.z.K.K.<.M k x z w 2 2 2 w y C T / Y F Y Y L L R p.V././.l.@.N v M <.h.G.G.G.f.h.B.B.f.{ { a.h.i.` i.s.i.p.z.B.Z.V.x.k.V.V.l.7.1.@.+.@.1.1.3.M./.-XOX/.Q.#XfXpXfXfX%X+X&XoX/.Z.Z.Z.m.1.:.:.1.l.V.W.l.7.7.7.7.^.z.p.f.F.S.f.} D.} H r : - X . + + + % & % O   $ O + + - q F ` B.m.k.k.3.1.+.%.%.%.@.1.k.M.V.Z.W.l.k.+.x L / T Y Y / h.h.f.p.f.h.f.f.p.f.f./ Y ",
"v v v +.k.Z.Q.W.8.8.8.8.8.>.:.1.p.j.k.l.l.x.W.^.p.Y r : @ O O O O & i & % 0 0 @ # @ X X X - e C ` B.P.P./.@X@X/.P.J.B.h.h.a.i.R L L R f.f.i.i.B.@XP.P.P.$XrXgXgXGXGXDXaXOX|.Q.N.3.1.1.>.+.B +.k.M.E.Q.>.N +.k.V.p.s.h.b.B.L.n.a.I a.b.L.L.B.i.U E L L T H 4 r ^ H Y T T T Y F F C t q - @ , a ~ K T { { { { T F I Y / g.d.F l l F d.I.I.g.L h h h h Z f.U.wX9X@XoX%XhXxXgXpXoXN.N.r.w.w.w.e.8.8.@.%.N %.p.z.s.i.i.B.[.@X@XrX@XK.J.P h k +.k.j.1.@.@.@.@.@.&.7.j.&.7.W.^.K.s.n w q w w q m ` a.<.1.j.c.c.p.#.=.p.p.#.R R <.a.v.C.:.N N 1.l.M.M.E.!.OXOXE.0.;.>.5.9.5.9.!.!./._./.P.<.x w w w q q e < < p d ~ ) ~ ! ^ ! C w w z F I U 2.C.oX/.m.>.8.8.8.@.o.%.7.k.7.k.x.x.j.j.k.V.j.$.#.z._.).K.x.1.@.1.k.M.m.m.V.s.h.*.R Y ^ D.F 3 3 h x L R h.U.K.<.+.1.1.N %.k.U s.V.V.l.V.Q.P.V./.#XrX@XL.h.i.{ n.J.h.I x M P <.<.3.k.N.N.Q.E.y..XXX1XzXAXSXSXSXSXvXjXjXtXJ.<.B ;.>.3.8.M.W._.W.^.^.c.$.%.P v F l 3 2 2 3 l x F T / R Y Y Y L S #.k.K.).).x.1.+.M L i.p.a.h.P.B.K.J.h.i.i.` R g.G.I.[.U.P.B.h.s.k.s.1.1.8.l.l.>.@.O.O.@.$.$.$.M.Q.OX+X#X;XfXZXyX;XOX|.oXQ.V.m.3.m.Z.m.+.V N +.z.V.W.V.k.1.7.7.x.x.f.p.F.S./ ( } A : - - @ X @ + + & i i % $ O O O # , > q z I s.k.k.k.1.7.7.@.O.O.o.8.M.M.M.V.k.k.s.1.+.U R <.P L / Y.wXJ.S.U.J.J.L.J.f.i./ / ",
"v N E 1.z.Z.Q.Q.m.8.8.8.8.>.:.1.3.p.j.k.l.x.x.x.#.x 2 : # O O O $ i Q i i i i 9 9 , : - - : < e F R b.L.P.$X#XoX/.P.V.B.B.b.f.d./ R / R R R i.z.B.B.Z.K.P.oX%XhXxXAXZXzX<XOXZ.N.1.1.1.1.+.%.$.k.M.Q.V.>.N +.1.p.h.h.g.{ ` { a.| n.b.L.b.b.p.R L L x Z Y H r C ( Z F Y T T Y F Z F D t 8 > 9 f ~ g.g.g.a.} } i.{ i.{ d.h.d.L x L g.b.Y.J.i.L x x R i.z.U.).).tXfXpX<X<X;X%X&XQ.Q.w.8.8.8.8.,.;.o.%.$.j.z.s.p.h.b.b.U.wXeX@XU.h.R L c 6 v <.7.1.1.7.7.@.@.@.&.j.c.T.T.W.x.z.R n w q q q q m ` n.B.x.l.x.W.^.^.K.K.K.K.h.<.<.2.v.B.>.+.>.l.Q./.Q.!.OX*XOXE.0.;.5.0.9.5.9.!.(._._.Z.B.R x j w w y y e p p d G ) ) ~ ( ( ( ^ F z z j F n U v.oX&XV.8.8.l.l.5.o.%.>.k.c.c.x.x.k.k.k.x.k.$.+.k._.yX#X_.(.W.W.Q.Q.W./.oXV.J.#.Y Z ^ D.Z 3 3 3 l x L i.b.P.B.<.#.+.+.@.$.j.B.K.V.V.Z.V.k.3.k.B.P.[.[.I.G.G.b.g.g.a.i.U M I U :.1.3.k.m.M.E.E.E. X;XzXxXSXDXDXDXSXjXyXP.m.B ] ;.,.>.8.l.W.W.^.^.x.j.p.#.#.F x z z l l z x F R d.R Y L Y L P #.j.x.^./.K.s.#.M M R p.h.J.@XP.K.B.i.i.h.g.d.} d.h.b.b.b.J.L.J.B.s.U B >.7.0.@.O.O.O.o.@.1.1.W.Q.+XOX%X;XaXxX1X;XOXQ.Q.N.M.8.N.m.2.:.+.+.p.z.V.z.k.k.k.8.7.7.k.x.f.f.J.S.{ ( A e - - - - - - , 0 i Q Q i % O O O + , : > r L <.k.M.k.7.7.7.5.O.O.O.7.8.8.M.Q.k.k.3.<.U U <.s.M M R U.tXwXU.Y.L.P.U.J.i.R R d.",
"P +.p.z.Z.Z.Q.Q.M.8.8.8.k.1.>.+.j.1.1.7.l.x.x.c.S 6 2 > 0 + O O $ i Q i i a d a a a p e u 9 , - 2 x ` b.P.@X@XoX@X/.P.P.P.K.B.h.i.f.i.E L E #.<.<.s.B.V.B.Z.P.+X;X1XzXaX;XOXZ.m.<.<.1.1.+.%.$.j.V.V.M.+.v M P P S.G.H.d.{ | n.n.I.H.h.{ R R E L L x Z Y Z r C ^ C Z Y T T T F n F D t e 8 9 f G I.I.I.G.d.i.g.h.h.i.i./ L S E f.0XY.b.i.` <.i.p.K.P.).tXuXuXjXvXfXpX%XoXZ.N.N.N.8.,.,.;.:.;.;.+.$.f.z.z.h.h.J.L.[.wXeX[.J.i.x 3 4 3 h U p.3.1.>.8.1.@.@.@.$.j.c._.^.W.c.#.L z t q q 2 y F ' n.P./.W.W.^._.uXuXtXuXtXK.<.<.v.B.m.:.>.8.Q.#X;XOXOX*X*XOXE.5.;.5.9.9.&.9.!.(.#X_.V.<.N j j x z z t G G ~ (  .D.D.D.} } } { T F z w n j m :.P.%X/.M.5.l.E.9.%.N %.7.k.x.x.V.x.x.x.c.x.$.+.j._.uXfXuXuX;X-X*X/.Q./.#X#XP.#.L Z Y d.Z 3 3 3 l z F T i.L.U.B.U P 1.1.N x.z.z.k.V.Z.V.3.+.N U <.J.0XtXtX0XY.g.g.h.h.i.I I P U U +.:.3.8.E.M.9.M.E.=X1XaXZXDXFXFXvXpX%X&X,.,.;.O.O.@.8.l.W.(.(.^.x.x.z.f.I F F L L F x F Y i.h.i.E L L P %.$.1.j.V./.^.B.p.L x L 2.s.J.[.rXP.<.I R g.G.D.d.g.g.g.i.h.L.[.U.h.R k b +.1.7.@.O.O.O.O.@.1.7./.oXOX;X;XyXyXyX;XOX/.N.M.m.k.8.m.>.B N <.m.K.P.V.k.1.1.k.l.k.7.3.k.f.h.Y.S.^ J 2 > : > > : : > e a f W Q Q & % O + # 0 > 2 r n <.k.M.l.l.l.l.5.&.@.O.@.>.7.M./.m.N.k.<.B B <.s.L L E h.wXkXkXtX[.wX[.b.` I / h.",
"E p.K./.K.V.V.V.V.8.8.8.k.8.1.+.k.3.1.7.l.x.c.c.S 6 2 r a # O + + i W W a f f f ! ~ f f f d < - - w H g.J.P.P.Z.#X/././.oXP.Z.B.i.S.S.i.R R U M R <.s.B.B.B.Z.Z.OX;X;X&X|.|.Z.m.2.2.1.<.U B +.p.V.Z.k.P c h Z L { D.H.H.H.H.H.D.n.d.T x x Y R E L L L L Z r C H C Z Y T R I L F x x t q 8 9 a G H.0XtXwXY.b.h.h.g.R L L L E S.wXwXL.i.<.p.P.tXtX).).).tXfXjXfXuX#X&XoXZ.Z.V.m.m.8.>.o.B o.:.3.m.B.f.#.i.B.L.U.L.0X[.L.g.R x 2 = = 3 L p.k.3.1.1.1.>.%.O.o.@.j.c.^.^.x.-.P x z z q > > D T T a.P./.(.(./._.tXfXjXjXtXs.U 3.P.P.s.o.>.M.OX;X;X*XOX*X*XOXE.5.O.5.9.9.&.0.!.-X#X/.k.P k h j x m F F [ }  .D.8X7X7X8XD.D.} ( T I n j x j k U B.oXoXQ.5.8.M.9.>.%.+.@.k.k.x.V.V.^.V.x.V.j.+.1.^.yXfXfXfXbXbXuX#XoXOX%XpX/.U x x R S.Y 3 3 3 l x F I { G.U.J.<.+.1.1.N 3.1.1.p.V.Z.Z.k.U b 6 h I H.0X0X0X0X0XG.g.{ a.h.<.<.U N V N :.8.k.l.l.l.M.W.(.OXaXxXZXSXSXgXsXaX+X'.8.;.V o.5.l.Q.(._./.^.W.x.k.{ ` R ` R I L I R h.Y.h.R L L P +.$.$.1.x././.K.s.U x M R i.h.B.rXP.R k z Y { } D.S.G.h.g.g.G.I.Y.d.x 3 h U k.l.@.@.O.O.O.+.1.7.Z.Q.+X;XpXyX#XOXQ.Q.V.M.8.8.8.3.>.B B <.V././.V.z.k.1.1.k.k.k.1.1.k.h.h.Y.g.Y D 2 e r s a r r s s f ~ W W Q i & + + 0 9 e y x U 2.k.V.V.x.l.l.7.&.@.@.o.%.1.m.Q.Z.Z.V.1.B N <.s.i.<.L L g.wXkXkXeX[.L.i.L L d.G.",
"p.z.)./.V.k.8.8.V.M.k.8.k.k.1.+.k.3.1.j.l.c.c.z.%.c l C s 0 + + + i W ~ ~ ! .... ...! ~ W d < - X > C { S.J.J.V./.Q.N.N.Q.Q.Z.V.h.Y.Y.z.p.i.R x P P U 1.m.Z.Z.Z.Q. XOX|.oXoXZ.m.2.<.<.+.P N #.k.z.K.B.P 3 4 l ^ ^ .. .H.8XH. .[ ! C 4 2 3 L R E L L L F Z C C C C F I R ` R I L n n z y e a f K n.eXjXBXkXeXU.J.h.<.R i.z.U.wXrXB.h.p.h.P.wXtXrX@X#XyXdXfXyX#X/.P.Z.Z.m.m.k.3.3.1.<.:.+.:.1.k.B.B.s.s.b.U.0X[.L.L.g.T m w 2 ; = 2 x i.h.p.1.<.1.>.+.+.%.%.1.k.x.^.W.c.#.S l l z 2 : 2 F [ T R h./.-XuX#X).tXfXvXdXP.U U C.rX].:.B 1.W.#X;X;XOX(.*X*XOXR.5.O.5.9.9.&.0.!.-XOXZ.1.M k h h z F F T }  . .D.D.D.D.D. .} ( / / T F z x k n U 3.N.Q.OX9.7.5.9.8.@.+.+.j.j.k.x.W.^.^.^.^.k.$.$.x.#XfXfXvXDXFXFXxXxXaXfXrXK.N h x R Y./ h 3 3 l x x L T a.B.B.k.1.+.+.1.+.U +.3.k.V.K./.p.v 3 ; 3 H D.H.I.0XiX0XG.g.g.b.p.s.i.<.U N B U +.1.k.V.l.l.V.Q.OX%XpXsXZXSXAXZXsX2X+XN.w.8.6.7.M.W././././.W.z.f.i.{ ` ` R R ` i.L.wXJ.#.M v L %.+.$.7.x././.V.s.U M M R i.a.p.wXU.i.l 4 3 z H ( } D.D.g.g.S.S.S.Y 3 ; 6 U z.V.1.@.@.o.%.@.1.k.V.Q.OX;X;X+XN.k.k.m.m.8.3.>.>.:.o.o.<.m./.@XP.z.j.k.k.k.k.7.7.1.<.s.h.h.Y.{ C r 4 r s C C A H Y ! ^ ! ~ W d u % + # 9 a t x I i.k.M.V.V.M.l.7.@.&.@.@.@.%.>.8.M.Z.Q.Z.k.+.U +.<.z.h.R k x i.Y.U.L.g.T n x I a.J.",
"z.K._./.k.1.1.1.M.M.k.k.k.k.3.+.3.3.7.j.j.l.l.c.$.P Z C s 9 , # + , a G ! [  . .D. ...! ~ d 5 - X - e H g.J.J.Z.Z.N.w.w.M.N.N.V.U.U.Y.z.h.p.i.<.P N M B 2.m.B.m.8.N.Q.&X%X%XoXC.<.<.<.+.U P $.z.z.K.J.E 4 = 4 ! .... . . . ...f e 4 = = 3 Z E Y z L L Z Z F H F F L R ` ` ` R U L L F D z t s D { [.BXLXJXBXjXtXwX[.@XrXjXjXtXwXi.f.J.@XwX@XP.V.%XgXDXgX%XN.V.N.P.V.k.1.<.<.<.<.+.<.1.p.s.s.s.s.p.J.@XeX0X{.L.H.' F y 2 ; = ; 2 z R f.p.<.U +.:.:.+.+.+.1.k.V.^.W.c.p.E Z l r r 2 > w T } / T R Z.yXxXaX#XyXjXjXwXs.P <.$XrXC.B :.M.OX;X;X;X*X(.*X*XOXR.5.O.5.9.9.5.9.!.*X(.l.+.M k h j x F T { | [ ( ! H H H A A H ^ { d.` L j n M P U <.8.Q.OXE.7.@.0.l.8.+.o.1.1.j.k.x.^././.^.x.j.$.j./.uXfXvXFXKXKXFXSXgXpXZ.m.M k x i.U.*.l w 3 l z z x F R i.B.J.p.P +.j.+.+.#.p.k.k.K._.K.#.6 ; = 2 C ) D.H.0XeXtX0XG.g.a.p.p.s.i.+.N v v %.p.z.k.k.V.N.Z.Q.OX<XsXZXAXSXNXZXZXzX1XOXM.5.9.l.M.V.Q.#X#X/.L.b.g.a.a.i.i.p.J.[.wXJ.R M L P +.+.$.7.x././.V.p.#.P U ` p.h.h.).).J.L 4 = 2 r C H } D.D.S.D.D.} A ; = 6 #.z.z.1.1.1.@.@.$.3.k.Q.oXOX#XOXV.8.>.8.8.8.1.>.>.o.o.>.3.k.V././.K.B.p.k.x.k.8.1.1.1.s.B.h.h.h.T w 2 ; 4 C C A Y / / d.} } ! f p , , # , e g D F ` h.V.V.V.V.M.l.7.@.@.7.7.@.%.>.1.8.m.N.V.m.3.<.<.<.s.z.p.L h x L E T n w w h L i.b.",
"K.^./.Z.j.+.+.>.k.V.V.k.k.k.k.1.:.1.j.k.7.7.l.x.j.p.R F C s a : @ - : e s H ^ [ [ [ ..! ~ d u , X X > A { g.B.P.N.8.>.,.6.e.e.M.@XU.K.J.B.h.h.B.s.<.N V B :.2.3.1.8.m.V.P.@X].C.2.<.2.1.#.U #.f.F.Y.Y.^ 4 = ; s ! ......~ W d u = = o = l ^ / Y x L Y Z Z Y Y Z T I R R <.R R U U ` i.` I F D z n h.iXDXLXLXLXJXSXjXjXjXjXjXtX).B.P.@XrXtX@X)./.dXgXgX%XQ.N.N.N.m.k.1.#.+.+.#.<.<.<.s.p.p.s.z.B.B.P.eXeX{.n.| ' t q : - = = 2 z I i.h.a.U U +.+.+.+.+.:.3.k.Z./.z.p.%.v z l l r 4 2 r T } { T L 1.N.%XrXyXdXyX@Xs.U <.Z.rXoX4.V 3.Q.;X;X;X;XOX!.OX*X XR.5.O.5.6.9.5.9.!.(.W.k.N M k x x L I T { ( ^ A r 4 4 4 4 4 l A ^ { R I M L P U +.:.8.Q.OXOX9.>.8.V.k.>.+.1.3.j.k.k.x.^._.W.W.k.1.$.l._.-XuXxXSXxXaX<XoXN.,.:.M N U f.U.R l 3 3 w z x n F F R h.B.k.#.+.1.+.U +.3.k.k.V.).).z.E 3 = = ; 4 G T g.I.tXtX7XY.b.f.a.p.p.s.<.#.P P %.#.p.j.k.k.k.m.Z.OX+X2XsXNXZXAXDXHXAXsXOXE.9.l.9.k.V.#X;XrXrX@X[.[.P.L.L.P.U.@X).s.P L #.1.+.@.@.1.k././.K.p.<.R U R i.h.h.K.9XU./ 3 = = ; 4 a G [ D.D.D.D.) l = = l =.z.f.$.1.1.1.$.1.p.k././.OX/.V.k.3.1.k.1.:.+.>.1.1.1.k.m.V.Z.Z.V.B.z.p.k.x.k.7.1.7.8.B.L.b.g.} Z ; ; ; 4 l Z Y ^ / / *.*./ H s p < < 9 e s D F T a.C.Q.Q.Q.N.V.M.k.1.@.7.7.+.+.+.1.1.k.k.V.V.B.s.#.U <.s.B.p.P x c k x j w w w n T { ",
"K.)./.V.3.+.+.>.k.V.V.k.k.k.k.1.+.1.k.j.1.7.j.V.x.z.i.F F J f < 2 : - : 2 z F H C H ! ! ~ f a u X X 1 C ^ i.h.V.m.8.>.;.6.w.r.M.@XK.J.P.P.B.B.K.P.B.<.N V V U :.3.3.3.<.s.B.C.C.s.v.v.m.<.U P #.J.U.Y./ 4 = = < a W ) W W i $ + o o o ; A ( *.E S R R L Z Y L x I I R R R U U U 2.b.L.B.a.T F m w I L.iXBXLXLXKXLXJXjXdXrXtX@XP.tXtXrX#X@X%XfXSXjX;XN.8.N.OX|.m.<.<.<.<.<.#.#.<.p.p.i.i.i.b.U.wXeX{.b.b.n.| K t > : : : - ; 4 F { a.h.2.U _ :.:.+.+.+.:.3.k.V.^.p.#.v l l z Z C r 4 r Y d.g./ L k B m.P.rXdX).<.x x <.$XrXm.U B m.OXyXyX#X#XOXQ. XOX!.R.5.O.O.5.9.5.l.(.(.V.3.N M M v L E I R { H C r ; = = ; 2 2 3 l Z Y E R R U U +.+.1.8.Q.OX;XR.7.9.V.k.1.+.$.3.k.k.7.k.W._.W./.V.$.%.$.l.Z.OX%X;X+XoXN.,.B V U N U 2.h.P.Y 3 2 2 r C F T T z I f.B.z.1.#.+.+.N B +.3.j.x.^.).K.f.Z ; = = ; 2 t !  .D.I.0XkXI.G.{ R i.h.J.K.=.E S S %.p.p.1.:.8.N.E.N..X+X2XSXSXZXZXAXZXaX:XE.E.8.8.M.OXyXpXjXhXdXdXiXrXeXrXwX$XP.<.N P 1.m.1.>.@.@.k.Z./.P.s.p.#.L L R i.f.S.U.U.d.C ; = X ; 1 < A ( } } ( A 4 = = l i.z.p.#.$.1.1.1.1.k.k././.Q.V.k.8.k.M.3.:.N B >.8.M.m.m.N.Z.P./.Z.z.f.k.k.k.j.3.1.8.k.J.P.b.i.` z ; = ; r C Z Y / / L Y S S l r 4 e p f C G J T ` s.P./.Q.Q.V.V.V.l.7.1.8.7.+.B +.1.1.k.k.V./.Z.k.U b #.s.K.K.s.U M M z n n n j j n I ",
").tXz.P 1.3.+.>.+.k.Z.k.j.z.z.f.N :.k.k.3.1.7.k.V.K.z.R H T J C w 2 2 3 Z Y Y F Z F H ~ ~ G f d 1 X X 4 Z { h.B.m.,.,.6.6.;.O.o.#XK.s.s.K.P.@X@XB.B.B.B.s.2.U V b +.m.P.P.B.a.` _ n.a.U U P P #.F.7X7X} 4 = . . u W W i $ + .   o o = A ( d./ Y Z / R z x Y L h L R i.p.s.<.:.:.s.Z.oX$X[.L.n.a.I I U <.2.v.K.].@XB.1.:.<.m.P.@XP./.@XyXvXvXvXfXoX/.Q.Q.N.A.3.:.<.+.P P U <.p.p.p.p.B.L.L.L.L.Y.[.L.n.' m y > : : > q q > w H ^ g.a.` ` ` <.<.:.B +.+.:.j.V.^.V.#.P x h l z C C r 3 l ^ D.S.d.i.M k m I _ _ M h h s.rXiXB.B V U Z.#X;X#X/.(.OXOX*X*X!.e.O.O.O.6.9.5.9.OX_.l.1.b P P R <.i.R Y F z 3 2 2 2 2 2 3 3 6 l h x R i.R #.+.U U o.@.M.*X*X*X!.7.%.8.M.+.@.@.1.7.7.7.l./.#XW.l.7.%.N 1.W.Q.+X%X|.A.3.o.V k V _ s.P.U.h.I 3 C C r C { } T z F R p.B.z.#.N +.1.B B k.k.1.z.).).Y.*.l ; = = = - ; y J g.I.7X0XI.U.Y.h.a.a.f.F.F.c.*.S x E 1.k.>._ ;.q.N..X.X+X2XZXDXDXZXzXaX1X:XOXe.>.>.N.+XdXjXSXDXJXSXjXiXrXB.U B <.B.@XyXV.8.8.M.V.Q./.k.s.<.L M L R i.h.f.L.wX7X} r = X = - - : s ! ! G p ; = = Z f.F.f.#.#.#.+.%.+.1.s.k.k.8.k.Z.V.>.N 1.1.3.k.k.M.V.N.oXZ.B.Z.P.B.k.k.x.3.1.k.k.1.7.V.B.b.h.R z 2 ; ; 2 z Z Z z x x c 6 c l 6 4 2 4 r A H J T ` s.B./.OX!.W.M.l.l.M.V.V.8.1.:.+.B +.1.+.k.Z././.k.<.U U V +.B.K.s.i.B.L.n.i.I I n x j ",
")._.j.B 1.1.+.+.+.k.Z.z.j.z.z.f.U :.s.k.3.1.7.k.V.K.z.#.Y T ^ F l l l Y d.S.f./ F H T ^ ! ~ G G < - - 4 C I p.B.V.8.6.6.;.O.V V <.1.s.k.B.K.K.V.B.V.B.k.m.B.m.s.<.U P U s.C.B.b.` n.s.` R U U p.K.9X7X} r = .   , u i % + .     X o 1 A ( } / R L R E x x L Y x ` a.B.V.V.m.k.8.V.Z.oX$X@X@X@X[.C.b.s.<.:.<.s.v.:.:.<.2.B./.#XyXfXdXfXfXfXfXyX#XV.N.m.m.m.8.>.:.V N P +.#.<.p.p.h.h.J.L.Y.Y.Y.Y.g.| K t q > : : 8 8 > > q C ^ d.h.i.R R 2.<.:.+.B +.+.1.k.V.x.k.P M k h l l z C r 3 r Y d.F.Y.L.a._ j w w j m M h.@XtX@X<.V U k.+X#X-XOXQ.Q.Q.OX*X*X!.e.O.O.;.6.9.5.9.(.(.M.1.N P P R #.*./ E L z w w l l l l Z l Z x h z R i.<.<.#.U +.%.@.l.OX(.OXOXl.@.1.k.1.@.+.@.7.7.7.l.W././.Z.k.@.%.%.1.3.Z.#X%X%X&XZ.A.m.Z.P.P.K.B.R x l C H H ^ } | T z x I i.z.z.p.%.U +.+.+.1.1.1.j.K.).7XS.Y 4 ; = = = - : r H { } 7X0XwXwXI.J.f.i.f.c.F.f.i.E P v +.:.3.,.:.4.w.N.&X+X<XsXxXZXFXFXxXcX=XQ.m.8.M.N.oX@X%XiXdXiX%X@XK.m.s.m.Z./.oXoXM.8.0.8.8.M./.P.B.<.U M L U i.f.i.Y.7XI.( r ; = X X X X < d s d p ; = ; A D.F.h.#.#.#.U U #.<.p.s.k.k.k.1.+.+.+.1.3.8.8.k.V./.oX+XN.V.Z.Z.B.k.s.z.p.1.3.8.7.8.M.B.b.a.L w ; ; ; r Z Y L L S S v v P E Y Z l l A H H R ` i.v.Z.oX(.!.R.9.8.8.M.Z.V.s.<.:.+.U +.1.+.7.V././.Z.k.k.+.V b U 1.s.B.@XeXL.h.a.h.a.R n ",
"/.^.1.B +.+.B B +.k.V.z.k.z.z.f.U :.3.3.1.>.7.k.V.^.K.p.R R R Y x Z R S.U.9XJ.f.L Y / } } } ( ! f e 4 2 w x <.k.Z.N.w.8.,.O.V V b :.s.s.s.m.B.B.K.P.Z.B.B.K.Z.B.s.<.M n I a.b.L.a.L.L.i.R L L i.K.).Y.( r ; X . $ $ O           X = < G ( } / ^ R E L S S L L I i.s.K.@X#X#X+X+XQ.Q.N.Z.Z.Z.@X%XDXgX$Xm.2._ B V B U 3.V.oX%XpXfXDXSXvXfXyX#X/.V.m.k.8.3.3.1.:.+.V +.1.1.1.<.i.p.B.J.Y.U.I.Y.G.D.F z q : - - : > e 8 > > t T g.G.h.R L <.i.<.U U +.:.1.7.x.V.k.+.M n x j l l l C l 3 l S d.Y.7XtX{.a.m 2 2 j ` J.kXdXwXp.M M s.#XyX#XOXOXQ.M.N.(.OXOX!.e.;.O.5.9.9.&.0.!.(.M.7.%.%.U #.#.*.*.R E x z z F Y Y Y R Y E L l x E p.s.#.#.+.%.o.@.l.!.E.!.*X(.7.+.3.8.@.%.@.1.7.7.k.M.W./.(.V.1.o.N b <.B.%XgXSXDXDXSXhXgXdX@XB.i.L x 3 C ^ } D.} T F z z L <.z.K.z.1.+.P +.+.B +.3.1.z.K.9XU.d.A 4 - = X X X - > r C g.G.0XtXtXI.G.h.F.F.F.K.F.p.L c M U <.:.:.4.4.q.N.'.&X%XpXZXFXKXDXxXaX;XOXQ.M.3.v.v.v.C.Z.].P.Z.Z.Z./.%XyX%X#XOXQ.E.E.E.8.m./.oXV.s.U M n U i.f.i.J.U.Y.} C > - @ X X . X < < < < ; = 4 F d.Y.S.i.#.#.#.<.i.s.h.k.k.k.>.B B +.1.3.8.k.k.V.Z.oX#X#XQ.Z.Z.V.k.p.s.p.k.j.1.1.8.k.k.h.p.` x 3 ; 2 3 Z Y / R Y L P M E p.F.S.*.Y S Y Y / i.i.k.V.Q.OX(.!.M.0.>.7.m.N.Z.m.1.<.<.+.#.#.@.1.k.V.Z.Z.^.P.<.N c c N s./.rXiX].B.L.@XeXP.s.",
"K.z.1.+.+.+.N b B p.V.z.z.c.c.f.U :.<.>.1.1.7.k.V.^.^.k.#.#.R E S Y d.J.9X).z.#.P E *.d.g.D.D.} ! G r w w j P s.V.Z.N.N.8.>.:.:.B <.s.:.:.s.Z.Z.Z.P.oX/.P.K.m.<.i.a.a.R n n ` n.G.0X[.a.R L L <.z.K.F./ C e : @ $ +     O O O + - < d ) } } / R / S x L L Z L i.p.B.oXrXfXxXxXxXzXsXaX;X%X%XpXhX%XoX].oX%X%X%X&XZ.Z./.&XyXfXgXgXvXxXfX;X/.Z.M.k.k.k.1.+.+.+.+.+.1.k.k.k.s.p.s.p.B.L.U.I.Y.d.T C q > - @ @ : 8 e y q > q H d.G.G.d.E U <.i.+.U +.>.1.7.l.V.W.1.N k n n j h h Z L Z l x S / h.Y.U.{.n.' I ' b.eXjXkXwXp.M k U P.dXpXOX/.OX/.M.l.Q. XOX!.M.t.O.5.9.9.&.7.!.(.V.k.+.+.+.#.#.*.i.i.i.L n n L E R / / d.d.*.S x R p.z.#.#.+.+.%.@.7.W.E.R.OX-XM.>.1.k.@.@.@.1.7.8.8.k.k./.#X/.l.>.N c V U s.P.rXgXBXSXdXdXrXP.B.i.U F 3 r ^ D.H.} D w w l x E h.J.z.k.<.P #.1.N +.p.1.1.z.U.U.G.^ r ; - - - X X - ; 2 C T D.I.0X0X7XU.K.F.z.z.z.z.f.<.P V m N :.2.3.4.q.m.Z.&X%XaXxXxXDXSXxXxXfX%XN.m.v.q.3.q.m.Z.].oX%X%X%XpXpX;XyXyX;X;XcXaXOXQ.OX/./.B.<.M M E i.h.i.S.U.Y.g.H e - - - - @ X - , < 1 > > 4 H d.Y.J.f.i.#.i.p.J.J.J.K.k.+.+.+.1.1.+.3.k.Z./././.#X#XoXoXoXV.s.1.p.k.#.k.k.1.@.8.l.k.s.i.L l 2 2 3 z F T / R E P L P #.z.).U.h.E Y Y / i.p.z.V.Q.Q.!.!.~.T.6.>.>.3.m.Z.m.s.2.s.1.#.P $.1.k.k.x.V.Z.Z.3.1.N k V s.P.P.@XL.B.J.@XrXtXeX",
"x.p.1.1.+.B b c P 1.x.z.f.p.f.f.U U +.:.>.1.8.k.M.W./.x.=.%.%.E E ^ =.F.K.F.p.#.P P R i.h.G.G.S.} ^ F z h h V <.k.V./.Z.m.s.s.s.:.<.<.U :.m.Z.Z.B.Z.P.P.P.Z.s.<.i.h.J.a.I n n I n.{.L.i.R L U i.z.F.S.d.H p < # + O O $ & i % $ - e ~ } } { R L R x l L E L R h.B.P.#XpXgXxXZXZXZXZXSXZXZXZXZXSX&X&X&X,XgXSXSXSXhX<X;XpXgXgXfX;X;X-XOXQ.V.k.k.k.3.1.+.P P U <.p.k.k.1.1.s.B.B.J.U.U.Y.G.{ F w 2 ; - - - : 9 a s e q q D } G.G.g.R R #.<.<.B U 1.1.8.l.V.W.x.@.b k j j j h l L / E Y S L R i.i.i.a.n.L.0XkXkXkXkXY.i.x h L z.tXfXyX/.Q.OXOXM.8.W.!. X!.M.5.@.5.9.9.O.7.!.(.W.k.@.#.+.%.#.*.p.f.f.<.R I L E R *.*.h.F.f.E P #.f.f.#.+.+.+.@.@.5.T.T.9.Q.;X/.8.3.3.1.1.>.1.7.k.k.8.7.W.#X_.Q.l.%.b k k n P 2.C.$XrX$X$XP.K.J.J.f.i.C H } H.H.^ y ; w w j L i.z.z.z.p.+.1.3.N %.3.$.<.s.B.P.Y.} F r : < < : - - - ; > r H { D.I.0XtXP.K.B.z.h.B.K.U.i.U M M U 2.a.<.2.q.m.C.Z.oX;XyXvXSXDXDXSXfX%X&XoXC.Z.C.].&X%X,XgXsXgXxXxXgXvXDXZXxXZXxX;X+X%XoX#XK.p.U L E i.i.p.B.U.Y.H.[ s - < , , , : - - : ; > 4 r H d.S.J.p.i.i.i.p.h.h.h.k.3.+.1.3.3.1.+.k.Z.#XyXyX#X#X#XZ.&X@XB.:.U <.z.+.k.V.1.+.8.l.7.<.R L h 3 w z F T / { { R L L P <.B.).U.h./ E R d.i.h.B.Q.Q.!.!.R.R.R.0.>.o.:.:.Z.B.m.B.B.s.#.N $.1.j.k.k.x.V.V.k.V.3.B V 1.B.V.B.B.B.s.s.B.U.rX",
"z.$.3.p.B N b c +.1.z.z.p.=.f.h.#.U +.+.:.>.1.7.l.W._.V.j.%.%.#.*.*.*.f.f.f.=.#.v v P #.h.J.Y.Y.h.d.R I x k V B 1.B./.K.B.s.p.s.U B U :.s.m.B.B.m.B.B.m.B.Z.Z.B.J.h.a.i.| { ' K n ' ' n n M U i.x.^.K.d.H t 9 # +   O & i i i $ : s ^ } } { I L R x x R / E / J.J.V.P.oX#X;X;X=X;X1XcXZXAXSXSXSXKXLXDXNXgXhX<X%XfXfXfXsXgXfX;XOX(.!.E.M.k.8.8.7.#.#.#.#.#.p.h.J.3.>.+.1.k.Z.P.P.[.L.a.T z w 2 2 - - : < e a s s y t D [ D.G.g.` L R i.<.+.U +.7.1.k.x.V.x.j.%.c j j m j x F / h.d.d.R E #.i.R M ' | }.kXjXkXY.} F l 3 x i.).dXuX#X/./.OXQ.l.8.M.!. X!.M.5.@.5.9.9.O.0.!.(.W.k.@.#.+.E #.*.f.F.J.h.s.i.` *.d.h.f.F.Y.F.*.R i.f.p.#.+.+.@.@.@.5.9.0.5.R.-X_.V.k.1.1.7.1.>.>.7.k.k.8.V./.OX_.W.8.+.M k h k M :.v.P.oX@X@X@XrXtXwXY.} D.H.H.D.J w ; 2 w l x U i.z.z.z.p.p.1.%.+.1.$.1.2.h.J.L.b.{ H e u < < < < ; - ; 2 r C H } G.I.@X@X@XP.z.s.p.h.h.h.p.R L L E i.2.2.4.<.2.m./.#XuXxXSXDXSXvXxXSXpXpX,XpXsXgXZXSXFXFXFXKXKXGXKXKXFXzXzX1XOXOX;X%XyX@Xz.<.E I R R i.B.L.Y.H.D.G : < < u u u , - : : 2 y C T g.b.h.p.i.#.R R / *.#.#.3.k.k.1.1.3.k.^.#XyXyX#X/././.V.Q.P.s.U B <.s.#.k.z.1.1.k.l.3.+.E L x z Z Y / d.d.d.i.R L M N U a.B.B.i./ / i.f.s.z.Z.(.(.!.E.R.R.R.9.;.o.o.:.C.C.B.B.B.z.i.P +.@.7.k.k.x.V.W.Z./.m.+.N :.m.V.B.K.P.s.U N #.s.",
"k.#.1.3.N b B N +.3.z.z.=.#.=.z.s.<.+.+.:.>.>.>.k.W.(./.c.$.$.f.F.D.*.*.#.%.P N c c c P p.J.U.U.J.h.a.2.U M b V +.k./.P.B.h.f.a.:.B B 2.v.3.s.B.B.B.s.<.<.m.B.B.P.G.g.a.g.n.| ` m ' K z n L I i.x.^.P.f.T t 9 0 +   + i Q i 0 , < D [ | { R E L U M L i.f.i.f.J.z.s.s.8.M.N.E.R.*X=X1XzXzXZXZXDXGXGXGXGXGXDXZXgXsXsXsXaX;XOX|.Q.E.M.9.7.7.1.@.+.+.#.p.f.h.h.S.F.1.1.8.m.B.V.B.B.p.` F w 2 > ; 2 1 < p d d s s s s D [ n.G.h.{ E L #.p.+.P +.7.3.1.l.x.l.7.@.N c j j n I ` a.b.Y.J.h.*.#.p.z.p.L m ' n.I.I.d.F r 3 w Z d.U.tXuXtX/.oXOXQ.l.8.0.9.!.OX!.M.5.O.>.0.9.;.9.!.(.W.k.+.+.%.E %.p.z.Y.U.P.P.J.B.J.U.U.Y.Y.Y.z.*.#.p.h.p.+.%.o.@.@.@.5.9.&.@.R.OX_./.V.1.1.8.7.@.%.1.8.k.l.k.V._.#X(.V.k.L j 3 w h j m P B.P.@XrXrXtXwXU.I.7X7XD.| ^ C 2 2 w l k x P p.z.z.z.1.+.+.+.+.>.1.1.2.B.L.L.g.[ f p u 9 p p < ; ; > ; 2 3 z H / B.Z.@X@XZ.k.s.i.h.B.J.f.R Y Y R ` _ _ :.<.s.V././.#XpXfXgXvXDXFXSXSXSXDXGXKXKXKXKXGXGXKXGXFXDXDXcX1X;XOXE.Q.%X%X#XP.B.i.R E I L p.h.h.G.H.H.! e 9 < u u u 0 , : > q t F { h.J.h.p.i.i.#.R / / d.1.k.V.k.k.k.Z.#X#X#X#X/.k.k.k.V.V.V.k.+.B +.#.<.j.p.1.1.k.V.l.>.P P P L Y R { d.S.g.g.i.I k h k n M P U E R i.f.h.z.V./.OXOX!.~.R.R.R.9.;.o.:.4.C.].K.b.s.h.s.<.+.+.1.3.j.k.V.Z./.Q.m.3.:.:.3.k.m.V.P.B.<.M b b ",
"k.+.1.1.b b +.$.@.p.z.c.#.%.=.z.k.2.:.+.+.:.+.%.7.V._._.x.-.j.z.K.S.=.E S c c 6 6 6 h v <.B.U.U.Y.b.h.s.2.N b k N s.U.P.J.b.h.s.v.:.:.3.s.:.1.V.Z.B.s.<.` i.a.a.G.G.G.G.n.g.g.n.n.G.a.U ` <.<.s.k.^.P.h.T C a u + O + i Q i i 0 e H [ [ I I U U P M U p.h.h.h.L.s.3.1.3.8.N.E.E.E.E.Q.Q.|.|.&X+X,XNXKXPXPXPXKXKXDXDXxX;XN.w.N.oXM.8.>.>.>.@.%.N N +.p.f.f.p.*.#.k.V.oXoXK.v.i.` x z w q 2 ; ; - < p d d f f s s C T g.Y.J.f.#.P L $.$.P B 7.l.1.>.k.l.k.$.%.b h j n ' g.G.Y.U.wXL.h.i.#.z.U.B.<.m K ' ' F z w w 3 z i.K.wXtXtXrX/.OXOXM.1.>.8.0.(.OX!.R.5.O.;.6.9.>.9.(.(.W.k.+.+.%.P %.=.F.^.).@X@X@X@XwXdXdXtX).K.h.R #.f.z.f.#.E %.#.$.@.7.0.O.O.R.OX(./.Z.3.>.8.7.%.%.@.8.k.M.8.l./.#X(.Q./.s.U x k k j j k I a.K.U.P.J.h.d.I.7XI.} ( | T z 2 w l l c v i.z.z.B.#.P 1.+.B $.1.<.<.s.K.P.b.i.H s e e s s p < - - - - - > r l n U h.P.@X@XU.P.p.i.i.f.h.h.{ L I U <.2.s.s.s.k.M.V./.+XyXgXSXFXFXGXKXKXPXPXPXPXKXFXSXZXgX<X%X+X;X*X=XOXN.N./.P.P.J.h.i.` R U U 1.s.p.a.G.H.| s p 9 9 a a u 9 9 e y z H i.B.B.k.p.j.j.p.i.i.f.B.Z.m.k.k.V.).rXtX#X).K.1.N N <.k.P.B.<.N B <.<.+.V.1.+.1.Z./.l.+.M L E R / d.d.g.G.g.g.{ L w 3 3 h h h j n E i.h.h.z.Z.(.*X*X`.~.u.~.R.0.;.o.,.v.P.].P.s.2.s.k.s.+.+.+.+.$.3.k.V.Z.V.V.m.k.1.+.U s.z.V.P.B.<.b 6 ",
"1.<.+.N b N %.7.7.j.j.j.$.%.$.k.k.:.U #.#.P #.j.j.z.^.#X^.7.@.k./.B.1.U M M v x x x x F Y T { { d.d.i.E L x x x L U <.b.B.B.s.2.s.<.U :.1.8.8.1.k.V.B.I w y G | | g.n.n.n.n.b.b.n.s.v.m.m.3.>.3.M.W.P.h.{ H s 9 @ @ $ i i i , , e ! d.d./ E U +.1.1.1.<.#.<.i.f.s.k.z.k.s.s.s.m.B.m.m.v.v.v.C.}.].$XgXDXKXKXDXgXhXpX+XZ.m.8.8.3.m.k.+.+.+.+.+.+.#.$.p.p.p.p.c.z.).U.U.L.h.` F z y q e a e - - - < d ~ ~ G s C H / g.Y.L.z.=.%.%.$.-.N %.l.l.@.7.9.M.V.1.L x Z F J [ | n.H.H.D.g.R E R p.J.K.z.<.R z y z x l l x x <.V.@X#XyX;X#X#XW.Z.Q.8.N O.W.(.*X(.R.5.O.5.6.9.;.6.Q.E.M.k.1.$.N b b %.c.^.tXyX;X#X#XyXuXtX).K.K.z.R R f.z.p.L E *.f.$.+.$.x.@.@.o.@.V.#X/.k.1.>.>.8.8.+.@.k.k.V.l.l.Q.#X-X_.V.1.V b b k k b N <.U s.[.L.L.J.Y.Y.G.D.g.| T K t y w l z Z #.h.z.K.J.<.U #.p.<.<.+.#.p.V.^.V.z.i.Y l y s f d u a u # @ - > e a C D J | n.I.[.[.L.b.a.<.2.2.2.<._ I I _ 2.s.m.3.3.3.8.A.OX<X1X1XsXSXGXIXIXKXDXZXgXhXpXrX%X$XoX&XQ./.OX/.V.B.B.B.L.b.h.i.R U U U 1.>.1.s.J.G.} H e > < f f a 0 8 s C Z Y #.x.W.R.0.0.9.l.M.M.m.k.w.N.Z.Z.P.#XdXkXU.*.l h M ` s.K.B.i.P v N +.:.:.1.1.7.l././.j.N x x Z Y { d.g.g.G.g.T C w 2 2 3 w w w j n ` g.J.B.V._.*X*XXX~.`.~.0.u.y.o.o.m.Z.B.B.B.B.m.3.>.>.1.+.U #.p.s.k.k.V.Z.K.Z.j.+.1.V.V.V.P.).@X/.B.s.",
"1.#.B N N %.@.7.7.7.7.7.$.@.$.j.k.$.+.1.p.#.#.z.z.z.^.#X/.7.5.0./.V.3.+.U P L L L F F D C D D F Y L Z x z x x L M U <.B.L.B.s.<.a.<.<.<.1.7.>.>.Q./.B.I w > 9 a G [ | g.n.n.b.b.v.v.m.Z.Z.w.,.;.k.V.V.h.{ H s 9 , # $ 5 u 5 , < A ( D.d./ R #.#.3.3.3.1.#.U U E #.1.k.z.s.s.<._ s.a.a.a.v.v.C.}.].oX$X%X%XyXpXpXoXZ.V.k.3.1.1.1.<.+.P P P #.1.p.p.p.=.=.j.x.^._.U.L.h.{ F z 2 > q > > 9 < - - : p f ~ ~ C t C F g.J.K.F.f.#.%.%.$.$.%.@.7.0.5.5.l.M.k.#.Z z C H  .|  . .| [ T F F L R i.z.z.p.<.Z r 2 w l l x L #.B.#X%X;X;X;X-X/.V.l.l.1.O.@.W.(.*X`.R.5.O.5.0.8.;.8.E.E.M.k.1.@.N b v %.j.^._._.;XyXyXyX#X/.V.).).z.E P p.h.i.Y E =.p.=.#.$.x.@.o.O.@.l._.).V.8.>.8.k.8.o.@.k.k.M.M.l.Z.#X#X#X_.V.1.+.N b V U v +.M P b.L.wXwXL.S.d.d.g.d.[ K F z z z z Z Y *.z.K.K.p.U #.1.<.#.#.#.1.l.W.W.V.j.#.F z s d d d W i % @ @ : > 8 > q t D [ g.H.[.[.{.B.s.2.2.3.3.2.2._ U U :.3.3.3.,.,.w.N..X X+XzXZXHXFXDXZXpX%X].oXoX$X%X$XP.B.V.V.V.V.B.b.h.a.d.a.i.{ <._ +.+.8.7.7.k.K.P.G.| t 8 8 a f a u e f A H E $.l.T.u.u.u.u.R.E.E.N.A.w.Z.&X$X@XtXwXU./ l ; 3 L a.L.@Xz.i.M v N +.<.1.>.1.k.V.W.Z.j.P w w w z F T } | ^ T F x z z z z w h x I { h.J.L.J./.#X;X*X`.~.y.~.0.u.e.o.:.m.Z.B.B.B.V.m.3.>.:.1.#.U #.<.1.p.z.z.x.K.K.k.1.1.z._./.P./.#XdXfXfX",
"p.+.N N B +.1.1.j.7.j.j.j.$.$.1.k.<.<.1.p.#.p.z.j.k.K.#X#XW.R.Q.#XOX/.P.Z.Z.K.J.J.b.i.T F z w w l x L L P U L U U R i.h.B.B.h.p.b.p.<.U +.@.1.8.k.V.B.{ D e : @ 8 t G [ | | n.b.b.b.B.Z.N.3.:.;.k.V.V.h.{ T C p u , @ @ @ @ 5 d ! ( } / R R <.1.k.k.k.s.<.R U I U U P P P U <.s.v.v.s.3.s.s.q.3.1.k.V.Q.Z.V.x.V.V.M.k.1.1.:.1.1.M N E U #.#.p.p.p.p.p.k.K./._.wXU.G.{ F z w q 2 q > : > : - : : a G ~ G s t F R J.K.K.z.=.%.#.=.$.%.@.$.@.5.9.5.R.l.1.L z z H ^ | [ [ J F D z w l F i.h.z.p.#.U Y C C Z F Z L <.K.#XdXpX;X-XOXOXQ.V.k.1.@.@.8.W.(.*X(.R.5.O.5.0.9.;.8.E.E.M.k.$.%.N b N $.c.^.tXyXaXaX%XOX#XrXyX/.B.#.v L i.h.f.L E *.p.#.%.$.x.@.O.N %.k./.#X/.k.8.8.k.8.+.@.8.8.k.k.k.l.^._.#XyX#XZ.8.+.B +.s.k.V.P k I a.P.L.S.d.Y I { } { J T F C Z Z Z S E f.K.K.f.#.#.<.#.#.#.$.1.j.l.W.W.z.s.R F C a d Q W i , @ @ @ - : - - > q y F | n.[.{.P.C.m.s.3.v.k.s.2.+.B B >.8.8.8.9.e.e.E. X X+X;X<XaXaXpX<X;X+XZ.m.m.B.Z.Z.B.Q.V.k.s.s.a.` I I R ` ` 2.<.<.1.>.@.@.1.s.h.g.g.D q > 9 a a a a G ! Y R p.l.T.u.u.u.u.R.E.Q.N.m.'.$XiXiXrXU.d.Y 3 ; ; h ` b.B.B.p.U b k N <.1.1.<.k.V.Z.Z.V.k.#.n z l w w z x n j z z F L T { { v.n.L.L.L.G.b.h.L.P.#X;X*X X~.y.y.0.0.0.;.>.N.C.B.B.Z.Z.V.8.>.o.1.#.+.#.#.#.1.z.z.z.x.V.z.1.+.+.z.k.k.z./.rXjXvX",
"1.+.B N +.@.3.j.z.j.1.p.j.p.$.$.1.<.<.1.<.#.#.p.#.1.x.#XfXfXaXxXvXvXvXvXvXgXfXdXtXtXU.b.i.T F F I E R i.i.p.p.p.J.h.f.f.h.B.J.L.a.a.<.<.+.+.>.1.o.3.B.J.g.J > . X : 9 f G J | n.b.n.s.2.3.:.:.:.m.V.K.B.g.{ G s u , # @ + @ u W ..} } ^ T i.i.i.k.k.s.s.s.i.` ` <.U N V M P <.s.3.3.2.2.1.<.<.1.@.7.l.l.l.j.7.1.V.k.p.<.+.+.+.+.M U p.s.f.p.p.1.p.j.x./._./.V.k.E F l 3 2 3 w r r e 2 > > : : - e s f s t D ^ h.L.K.z.p.#.%.-.c.%.N $.j.@.7.l.7.N.k.+.x l z H ^ ^ J D y q w w l Z ` J.U.K.s.#.R S.S.G.G.h.i.p.B.tXdXfXpX#XOXOX(.W.V.7.+.+.7.W.!.(.*X(.R.5.O.5.9.9.;.8.E.E.M.k.$.%.N b v %.-.x.^._.#X#XOX#XyXfXjXP.p.v v R h.h.i.S E *.*.#.#.j.l.@.O.b O.1.W.#X#XV.8.8.8.8.>.@.>.1.3.k.8.j.k.^._.yX-XOXZ.3.+.<.k.rXdXi.h j M i.R i.Y Z F T | | [ { T F F F Z S L #.z.K.z.p.#.#.+.+.#.$.$.1.j.V./.V.B.f./ C e p p a u , @ @ - : : : > q 2 2 w m K { v.L.].].C.m.m.k.k.k.k.3.1.1.7.M.R.E.E.!.!.XX=X XOXOX*X=X*XOX+XOXQ.k.8.k.m.V.V.k.8.1.:.#.R R I I T ` i.p.s.k.m.8.7.3.p.s.h.G.H.G e : : : , 9 a H ^ ^ *.p.c.W.T.u.9.9.e.W.Z.Z.C.iXiXrXeXY.{ z 2 = ; l { L.L.v.<.<.B V V +.p.s.1.s.B.V.K.Z.Z.m.s.a.` L x h h w w j x L ` h.J.U.[.[.[.{.[.[.[.I.L.C.].%X;X;XXX~.~.y.0.5.5.5.8.N.B.V.P.oX/.Z.m.1.+.1.#.#.+.P P #.k.z.z.x.x.k.$.N b P 1.z.V.V.P.).#X",
"+.+.U U U #.k.x.V.p.#.#.p.p.#.#.<.p.p.<.#.#.#.#.#.$.V.yXvXDXGXKXIXIXKXKXFXDXDXSXgXdXtXwXU.L.b.b.B.h.i.<.i.B.P.@XwXU.L.B.B.J.P.P.L R p.B.k.1.U V U 2.J.U.Y.| y X . + @ 0 a f J | n.n.s.a.2.2.s.3.k.B.J.B.g.} J s 9 < , , , , a ~ }  . .} } g.h.p.p.i.i.i.2.i.a.i.i.p.p.p.p.<.P M B B U +.:.1.1.3.l.0.&.&.&.j.l.x.j.$.#.E P M P P R #.f.h.f.p.p.p.k.z.K././.V.$.N k h 3 3 3 l z C z t y e e e > - : < e s C T h.U.U.J.h.#.%.#.=.j.%.N $.k.@.7.R.9.l.1.M k l C H ^ [ J s q 2 w z x i.h.J.J.z.s.k.B.tXtXkXjXkXwX@X@XdXfXfXyXOX/.Q.Q.M.l.1.%.%.k.Q.!.(.(.(.R.5.&.5.9.9.;.0.E.E.M.k.$.$.N b c v S #.j.V./.yXfXDXDXvXyXP.<.x L h.L.h.R Z E *.#.#.#.j.l.$.O.N N 1.V._.;X/.M.1.1.8.8.>.o.+.1.7.k.7.k.V._.#X#X-X#XV.7.3.k.@XyXi.k h x U L L E / d.g.g.d.} } ^ T I Y Z x x P p.z.K.z.f.#.P +.#.$.+.+.1.l./.V.K.J.d.H a < < , : @ @ : > e e e y t y 2 2 q w j I a.C.P.].P.P.V.x.k.l.V.Z.W.R.W.!.OX*X!.!. XXX:X>X*X*XQ.M.8.7.>.7.M.V.M.k.8.8.N N V V M I ` i.i.i.i.h.b.B.K.P.V.l.k.s.p.h.G.H.J s : - - : 8 e G ^ ^ *.p.x.W.~.u.9.9.M.Q.oX$X[.kXqXY.g.^ r ; = o 3 { L.[.P.v.2.4.B B U <.p.p.i.J.J.J.J.P.oXZ.B.b.h.p.i.` U L L R <.p.J.U.@XwXeXeX{.].{.L.L.{.].rXpXgXfX;X X~.y.u.0.t.&.0.l.M.V./.#X#X/.V.m.k.1.1.<.#.U P P +.p.k.z.z.x.x.p.%.b B s./.).V.k.z.V.",
"B B +.+.+.<.h.K.z.#.v L #.p.*.R <.s.s.<.#.#.<.#.$.j.Z.-XxXDXFXFXKXKXKXKXKXKXKXKXKXLXJXSXjXtXwX@XJ.C.K.P.@X@X@X@X@X@XU.U.P.J.J.h.R R R ` <.<.:.:.U <.p.h.G.g.J s , + . # 9 9 f J [ | n.b.B.B.B.s.s.h.B.h.g.} J s e 9 9 9 p p d G ! .. . .g.G.G.h.h.a.i.{ a.a.g.a.i.<.i.i.p.<.#.+.N B B B %.%.+.@.l.-.&.&.j.l.c.j.%.%.P S L L E R i.i.*.#.#.p.z.K.K./.W.Z.V.7.%.N x x k x x F F F Z F C t C C t e > 2 e C T g.Y.wX).K.p.#.#.#.#.#.%.%.$.k.7.l.l.k.3.+.b h x Z Y H H G C C F T } h.S.p.R L M #.V.wXkXjXJXJXJXjXjXjXfXgXdX;XOX(.E.V.8.7.1.%.%.7.R.Q.(.(.(.R.5.&.5.9.9.;.0.E.E.M.k.@.$.N b c v N p.K.k.k.k.Z.#XyX).z.U c h R K.U.d.Y x Y *.#.#.$.k.l.7.O.N O.@.k./.#XOXN.7.1.8.8.>.%.@.1.7.k.k.k.V._._.#X-XyX-X^.k.k.V.@X<.k k x U L E i.Y.7X7XY.g.{ d.} } { Y z l l L R p.K.K.z.<.U +.#.+.+.+.1.k.Z.K.K.J.h./ D e : - - - > e s D D q y r w 2 2 2 2 w j V U 2.m.P.oX_.^.l.l.W._.-X-X*X*X*X*X*X!.!.!.E.W.W.E.M.l.8.7.@.7.k.7.+.o.%.+.+.:.:.+.P U i.h.G.G.J.J.L.P.[.@X/./.K.B.b.G.n.D.^ G e > : > e t H T / *.f.x.^.(.R.l.M.Q.%XrXrXeX0XD.! s < - - ; 4 T G.U.L.B.v.3.;.;.:.<.1.i.i./ Y.Y.J.B.L.].].C.Z.P.P.P.B.B.s.s.s.k.B.B.V.K.K.P.$X].].].].$XiXdXJXDXDXZX<X Xe.0.0.u.t.O.9.l.k.V.#XrX#XV.k.k.k.3.p.<.#.+.U P U #.p.k.z.V.K.V.j.%.v +.1.1.U P #.s.",
"N B P U #.i.h.J.g.F 3 h L i.i.R <.s.s.#.P #.1.#.p.k.K._.;XpXfXaXcXxXDXFXFXFXKXKXIXKXKXKXJXSXjXdX@X@XrXdXdXrX@XP.P.P.P.K.L.z.f.d.{ T n n N +.s.s.U U <.i.g.n. ...u +   + # : , e s K | a.b.J.b.p.i.h.h.h.h.d.T C s e p s f s a s s G ! ^ ^ | } } d.a.a.d.n.G.G.b.i.<.R U #.p.s.k.1.$.+.+.%.o.o.@.&.-.T.T.T.j.@.%.%.P P L R R i.d.d.*.R R i.z.K.P./././.V.k.8.7.7.U U U E R R R I i.{ T J T ^ J D t r z F d.Y.[.@XU.z.#.#.#.=.#.P %.$.1.7.V.l.7.k.+.V c h Z Y Y H C D H [ g.Y.0XwXY.i.v c v #.K.tXdXkXkXkXkXjXjXDXjXfXyXOXOXoXW.k.7.1.1.@.@.1.l.Q.(.(.!.R.5.&.5.9.9.>.0.!.E.M.8.@.$.N c 6 c %.F.tX3.+.b c V U P k 6 3 c f.9XL.R x h Y =.*.#.p.l.x.$.O.N O.%.1.l./.OXE.l.8.8.8.1.+.+.+.1.k.k.k.V./._.(._.yXfX-X^.B.V.P.R M N M <.i.h.S.J.Y.Y.h.d./ { } d.} Y z l x L L #.h.K.K.p.#.#.#.+.+.+.1.k.k.P.K.J.z.h./ C e : : q t D F H F t z z z z j j j k k m I <.m.Z./.#X_.^.V.V./.OX-X-XOX!.E.E.E.E.E.@.>.>.7.8.l.l.M.8.3.:.N b V B :.m.m.B.B.B.B.B.b.U.U.U.@XwXwX@X@XtXrXwXU.I.Y.H.D.^ J s e q y s C F T / i.f.x.^.(.W.W./.#XrXeX[.G.! f p < - X - < ! D.0X[.L.b.v.3.4.,.3.3.<.R R ^ d.S.Y.J.C.C.'.'.&X#X%X%X@XP.Z.Z.V.V.V.V.V.Z.P.P.Z.C.$XiXjXJXKXPXLXKXFXxX;XE.M.9.0.R.5.O.9.M.k.V.#XrX).s.#.<.s.s.p.<.+.#.#.P P U $.p.z.x.K.^.x.p.b b c 6 h b U 1.",
"B N V P <.f.S.S.{ l ; 2 Z { i.{ U a.s.P M +.1.+.1.k.V.^././.@X+X;X:XaXbXaXcXxXvXSXDXJXLXKXLXJXFXSXgXrX$XoX@X@X@XP.J.z.h.f.p.i.d.F n L U i.i.<.U i.s.a.g.g.g.| ! i +     + + + @ > t D K ' g.g.a.i.h.b.b.S.g.T C C t t C G s e e - > t t t D K J [ [ | d.n.G.G.G.h.h.h.h.z.h.p.#.p.1.$.@.@.$.7.7.c.T.T.j.@.o.%.%.E P L Y T [ } d.d.*.*.p.z.K.K.V.V.Z./.Q.N.N.N.V.P.U.U.@XrXtXeXtXU.Y.h.{ { d.} T T H F / G.U.@XU.K.p.E E =.p.#.P $.k.1.1.W.l.1.s.N b h x L R Y Z C H [ D.I.0X0XwXwXh.E L #.z.).tXU.U.J.z.J.).yXfXfXuX#X/./.Q.M.>.7.1.3.7.7.1.l.!.(.(.!.R.5.&.5.9.9.>.9.!.E.M.8.@.j.%.c 6 6 b p.^./.V.1.+.<.1.U v c k #.wXtXh.x 3 6 L i.p.=.j.l.x.@.O.N O.%.+.7.V.OX!.Q.l.8.8.8.1.o.%.+.8.k.j.k.V._.^./.yXfXuX/.V.V.P.+.P U U B.U.wXY.d.R R R R R I / d.d.I z z F L L U p.K.K.z.p.$.#.+.+.+.1.3.s.).K.B.B.J.g.T z q q t D J T T F T T T R ` ` ` ` _ _ <.s.B.P.oX/.@X#X#X/./.Z.Q././.N.8.8.8.8.m.m.k.8.7.>.:.:.+.:.B B B B :.:.3.3.3.k.B./.@X#X@XP.U.@XwXrXrXtXwX[.L.B.h.g.d.| ^ H ! H C t r z C C F I i.i.p.z.^./././.@XtXeX{.a.K a u , , @ X - e ~ D.0X0X[.[.C.v.q.q.q.4.U L Y R Y d.Y.L.b.v.C.C.oX+X%X%X#X+X#X%XoX/././.OX%XpXfXSXDXFXFXFXFXDXSXDXSXvXaX-X!.E.R.0.R.5.O.9.l.8.V.#XrXP.#.M R i.p.s.<.+.#.#.+.P P #.p.k.k.x.K.x.j.1.V h 6 c U k.V.",
"N +.#.#.i.Y.G.d.F 2 o = C g.g.T ` i.p.i.U P P %.3.7.k.M.V.V.Z.V.W.Q.(.OXOX*X#X#XuXfXvXSXDXFXJXFXvXfXrXoXP.Z.P./.P.K.s.#.E P P E L x n 2.p.<.R 2.b.b.G.G.D.| J f 0 O O + + .     @ - > t F J | n.G.G.J.G.G.h.{ H F H F C C s e > : - - - : 2 q y D D F T { g.H.G.J.L.U.P.B.z.f.p.j.k.j.-.j.x.l.j.7.j.j.$.%.v N P P E { { | | | | d.f.h.J.J.J.B.k.Z.V.V.Q.Q.N.N.oX#XrXdXjXjXjXjXjXdXiXwXJ.g.i.i.d.d.d.d.J.U.wX@XP.z.U N p.f.%.%.p.j.1.j.x.^.V.1.U V c h x E E S Z F [ D.H.G.H.Y.7XI.U.J.z.z.K._.).J.i.P L P <.P.uXyXyX#XZ.V.V.m.1.%.1.7.3.7.l.W.W.*X*X(.R.5.&.5.9.u.5.9.!.!.M.8.@.@.%.b 6 6 c E f.).oX/.V.z.s.#.M L i.U.tXY.Y 3 4 3 L p.i.#.1.x.x.5.@.o.O.O.O.@.k.M.;X-XM.8.8.8.k.%.o.%.1.7.1.3.k.W._.-X-X-XyX_.V.V.k.z.i.U s.U.wX9XS.Y l l Z S Z Z Y / / Y x z z n n L <.B.K.V.k.j.1.$.+.U +.<.3.B.K.K.J.J.J.d.T C z F T T F I i.a.b.Y.U.U.P.P.P.K.K.P.].oXoXoXZ.@XoXP.P.P.Z.m.3.:.3.3.3.3.:.3.3.s.3.1.:.B V V I V I _ 2.v.m.C.C.B.B.Z.oXrXyXrX@XwXwXwXwXwXI.Y.h.h.` L F F F C r r s t C C C F F L I R i.s.B.K.K.).@X@X[.J.{ x q @ + @ , < - - - G [ H.0X0X[.[.].'.w.q.v.a.R R { Y { g.a.2.2.q.A.N.Q./.OX%X;X;X;X;X;X;X<XfXZXDXGXKXKXKXFXFXDXxXcXbXuX-X*X*X(.W.l.9.R.&.O.0.9.8./.uXtXz.v h x { h.B.<.P U +.P M v %.V.z.1.V.K.j.z.k.+.b h b 1.V.K.",
"B +.1.i.h.Y.H.[ s ; o X s |  .^ I R i.p.i.1.3.7.k.k.k.k.k.s.s.s.7.0.l.W.Q.OXOX#X;XyXaXaXuXyX;X%X%X%X%X$X/.V.B.k.<.#.#.U P M v x i.R R a.h.a.a.h.L.Y.Y.H.n.[ D e , O + $ $ +     . . @ : e s ! | S.Y.Y.S.h.g.i.{ R { ^ H D t e > : - - - : > > > 8 2 q y C J { d.h.J.L.P.K.P.)._.x.W.x.j.j.l.j.-.$.$.-.#.E M L L i.i.{ | { [ [ [ Y.L.U.U.P.B.s.1.1.1.k.N.Q.N.Q.+X@X@X@X@X).@XtXtXdXtXwXP.B.p.p.f.i.f.J.).rXrX).B.<.P U p.p.%.%.c.j.p.j.z.z.s.#.P M k h L R R Y Z F J [ { T Y Y E h.K.).).).).^.K.f.P h c P s./.rXdX#X/./.V.k.8.k.%.3.k.7.7.l.Q.(.-X*X(.R.5.&.5.9.R.5.9.!.!.R.7.@.$.$.%.b 6 c S #./.#XrXyXrXtXP.z.p.L.wX9Xd.z 3 3 h E p.*.#.1.l.l.@.@.O.O.%.O.+.1.M.OXOXM.k.8.8.M.+.+.%.@.1.1.7.l.W.(._._._.#X_.Z.V.k.z.z.p.h.P.L.h.R x 6 h l x x h Z Y R T C z z z z n R p.B.V.z.j.j.1.+.B B :.1.s.z.K.K.K.L.h.i.L F L ` ` I ` b.wXeXtXtXtXrXrXrXrX$X$X@X$X$XoXoXP.Z.B.B.B.m.v.v.v.v.v.v.2._ I V _ :.<.:._ U _ _ <.` _ ` 2.v.}.].oX&X$X%XrXpXrXrX@X@XP.L.h.i.T F w w 2 > ; ; - - e e r r z F L Y I I U <.s.K./.).@XU.J.i.T t q : , # # , < , - - p D ^ g.H.{.[.$X$X].].C.b.` R { { T I U 2.2.2.4.,.w.Q.+X%X;X;X;XxXSXFXGXKXKXGXFXFXxXaX*X!.*X:XcX:X-X*X(.^.W.7.@.O.5.&.O.M.M.l./.uX@Xp.h 2 l ^ g.h.<.U P P E P v #.K.V.j.V.K.z.V.z.p.U b N p.V.V.",
"%.$.p.h.L.Y. .H : - . X e [ } [ T T 2.a.s.1.+.+.@.1.1.1.3.s.s.s.8.8.l.l.M.M.N.N.W.W.Q.Q./.Q.Q.Z./././.P.V.k.1.<.U U U U P P P P s.<.+.i.h.h.B.L.Y.H.g.[ H t : - $ $ % u u , @ + .     . @ : a G | g.g.i.R ` { i.g.h.h.} T F z q q 2 8 q e e > > : - - - > q z F L E #.i.h.J.).).^.^.W.x.c.c.7.$.#.#.P P L L R ` a.{ { { { | | | n.h.h.h.h.p.s.1.<.1.3.m.m.8.8.m.B.B.B.z.B.P.@XrX#XwX@X@XP.B.B.z.h.J.U.tXrX#XZ.k.N U 1.p.#.%.#.j.j.k.k.k.p.<.P M M x x L / / Y S ^ ^ ^ H F z l h E h.U.).^.F.z.j.%.c 3 h +.K.#X#XfX/.V./.V.1.>.k.@.7.k.7.8.V.(.-X-X*X!.l.5.O.5.9.R.5.9.!.!.M.7.@.o.+.%.N c 6 c c +.k.@XrXrXtXP.h.z.L.U.h.z ; 2 h x R p.<.#.1.j.l.@.O.O.@.o.o.o.+.l.Q.OXQ.W.8.7.M.7.+.%.+.@.1.k.l.W.W.^.^._.#X_./.V.k.K.P.B.B.B.p.f.*.S x l 6 6 6 6 z Y R T F z w w j x L #.s.x.K.k.k.j.<.U B U <.+.p.V.K.K.P.K.J.<.U R i.<.2.h.P.dXdXdXtXtXdXdXrXrX@XoXK.Z.Z.V.B.B.B.v.s.2.2.v.v.2.` _ _ _ ' ] V I _ <.2.2.2.2.2.a.a.n.n.n.}.].{.$X%X%X%XoXZ.Z.Z.k.p.R L z w 2 ; 2 q w e q 2 2 < 2 4 4 r F R / <.<.U U <.z.P.U.U.U.h.T t > : : > u u u p p < - - > > q z [ n.I.[.[.{.eXeX[.b.b.J.i.` I I _ :._ B :.6.M.Q.Q.|.+X;XzXxXDXFXFXSXsXaX>X>X*X!.!.!.`.*X~.R.T.W.W.W.l.7.O.5.5.5.l.M.M.OXrX/.R 3 = 2 H } i.p.<.P P #.U v #.K.K.z.V.K.V.^.Z.B.p.+.+.s.B.V.",
"%.1.k.J.I.H.( p @ X . X 9 ~ ..| | ` { i.s.1.+.o.%.%.+.+.<.<.a.s.m.m.k.k.k.8.8.8.7.8.k.M.V.Q./././.P.B.s.1.<.#.#.<.+.U U U #.1.s.+.+.:.s.B.B.L.[.n.| D e : - - @ , , u d W f a u @ .     . . : 9 D H Y F F L R R h.J.L.G.g.{ Y C t t D G G f a 9 9 : ; - - ; ; 2 4 3 h v R p.z.x.K.K.x.c.c.j.-.#.E L S x L R i.g.T R ` i.g.n.b.C.a.<.R U P _ <.s.:.<.1.3.1.:.:.>.2.s.k.B.B.V.P.).V.P.@X@X).P.V.V.K.).)._./.Z.k.k.N +.3.1.#.#.#.p.k.x.V.k.<.U M x x h z L / / Y S / ^ H C z z z x S #.h.z.z.c.j.$.N c 6 N z.#XyX#X%XQ.V.Z.M.>.+.1.7.7.7.k.l./.*X-X-X*X!.9.&.O.5.9.R.5.9.!.~.M.7.@.O.%.E N b c 6 6 v <.P.@X@X).B.i.i.i./ Z 4 = 2 Z L #.p.#.#.1.j.l.@.O.o.O.@.o.o.+.8.Q./.OXOXl.>.8.V.3.+.B %.1.k.k.x.W.W.(._.-X_./.x.k.P.).B.s.s.i.h.f.*.S x c c c x L R / T F t w w j x n L #.z.^.x.z.j.<.+.U _ _ N 1.k.Z./.P././.k.1.1.s.s.s.K.@XrXtX@X@X@X@X@XP.K.B.B.s.s.s.2.2.v.v.s.2.:._ 2.a.] V m n I ` 2.a.` 2.s.s.v.s.v.v.a.n.C.].&X&X{.{.oX&XoXP.m.1.+.N b k h 3 2 ; = = ; 2 t C D s s e e y l F / d.f.p.1.:.U <.h.J.B.h.d.T t > @ - > 9 d d d d s e 9 > : - - > y F | n.G.I.eXiXeX[.[.@X2.s.2.:.B B U :.3.8.e.w.8.M.|.;X;X;X;X;X+XOXQ.Q.R.!.*X>X>X`.~.u.9.9.9.l.x.V.K.V.7.8.0.>.>.1.M.OX%XK.I 2 = - a J i.z.s.+.P #.#.v %.k.K.V.V.V.V.^.K.V.B.1.<.1.k.V.",
"@.7.z.J.Y.D.G : . . . + , f .. .[ ' ` i.h.B.M.l.>.>.@.+.U B I M :.:.:.:.1.3.k.k.k.M.V.Z.Q.Q.Q././.V.k.<.U U U +.+.+.U U +.<.3.k.>.1.m.Z.P.L.b.G.T D e : - : : , 9 9 p d f W f a , @ . . . . + @ e w w l x U R U p.z.J.L.J.h.i.T D D J [ [ ~ s p e < > ; ; = = = ; 3 h L #.s.z.F.x.z.c.k.j.$.+.%.L L T R ` i.i.i.U U <.s.m.B.B.V.B.v.2._ U P U U B U +.+.+.:.3.s.k.k.k.s.3.3.s.k.k.V./.oX/./.Z.V._._.tXtX/.z.7.1.+.1.3.+.#.#.#.+.k.V.K.k.<.L x h w w l L / R S Z H C w 2 3 w l z L R p.z.x.F.k.$.b b %.j./.yXyX#XQ.Z.V.k.8.3.:.o.k.7.1.k.Q.OX-X*X*X*X!.9.5.O.5.9.R.5.9.!.!.l.7.@.@.+.+.E P v c 6 c N p.B.B.z.p.R R L z 3 4 2 l Y E *.p.<.#.1.k.l.@.O.O.O.o.o.+.@.1.N./.#X-XM.>.1.W.l.1.+.+.1.7.k.l.l.W.(.-X#X_.^.x.k.P.).z.<.p.p.*./ E S v v S E E E R R T F z w w j n x v E p.K.x.k.1.<.<.<._ U N +.j.V.Z.Z././.Z.m.s.s.s.k.P.#X#X@X)./././.P.V.m.k.k.k.m.s.2.2.1.3.2.<.U B U U <.<.<.` ` <.a.v.b.B.B.B.B.B.C.C.C.C.].&X$X{.].].].P.Z.Z.Z.3.B b h 6 3 ; ; ; ; ; > q s G ! ! A s s C H { h.h.h.p.<.:.U :.2.i.R F z r 2 ; - - 8 e f f G f s s e 8 > > > ; - > r D | H.0XkXiXeX$XoXC.N.N.8.1.1.3.k.M.N.Q.N.N.N.Q.OXOXOXOXOX|.Q.Q.E.!.~.R.u.u.u.u.u.R.9.0.7.3.s.s.s.M.M.M.k.>.>.M./.$XB.L 2 X X > s i.z.B.1.+.#.#.M v +.z.x.k.z.x.x.Z.V.z.1.+.+.s.V.",
"7.k.z.J.S.^ p @ . + . . # a ..| | ' { i.z.V.V.V.7.7.1.1.:.P M n N N N B +.:.1.s.B.V.Z././.Q.Q.Z.z.k.p.<.#.U N N N B +.<.1.3.3.3.9.R.E./.V.a.I F 2 > : - : : : : e a a p p p p 9 @ . . @ $ + + @ : > 2 w F i.p.s.s.z.B.B.J.J.h.} F H K ! ! G d p < < < 4 4 2 ; ; 3 h L #.h.K.P.K.z.j.p.p.1.+.P P L ^ d.h.h.a.R U p.s.k.l.V.k.k.8.2.s.s.s.4.:.B V U :.+.U U :.3.s.k.s.1.+.+.<.s.B.k.Z./.OX/.Q.V.l./.yXfXuX_.k.@.%.k.3.+.+.#.p.i.#.k.Z.V.p.U L z w 2 3 x R i.*.S x C r 2 ; 2 2 h l L R p.x.^.^.j.%.N @.x./.#XyX#XOXM.V.M.8.1.8.>.N k.7.7.V.(.#X(.(.*X(.!.9.5.&.5.9.u.5.9.!.!.M.7.@.1.1.#.#.U P v c k V P <.p.h.p.<.E z 3 3 3 l Z R i.i.p.1.1.3.l.M.>.O.V O.o.@.+.+.>.M.Q.(.#XQ.1.1.V.V.k.+.%.$.1.1.7.7.l.^._.(.W.V.x.k.K.@XB.<.p.p.=.*.E E E P E *.*.R R R T J z y j z n n x P $.k.x.k.p.1.2.2.` _ U +.1.k.V.V.Z./.Q.V.k.k.k.B./.#X@X)././.P.K.B.z.2.2.3.s.s.s.2.1.+.:.1.<.+.U B N :.2.m.B.v.2.2.2.J.K.K.K.K.K.P.oX$X].C.m.v.v.m.A.v.v.m.Z.Q.N.8.:.b c 6 3 2 2 2 4 e s f ! ! ! ~ A A H / g.S.z.f.p.:.:.U U U I z w 2 2 2 > : : , , a s D C t t y q 2 e e < - - ; > s ! D.I.0XiX,X,X<X.XA.M.Q./.^.x.N.Q.+X;X;XOXOX|.Q.|.OXOXOXQ.Q.N.N.e.9.6.t.6.6.6.0.0.>.:.<.<.i.s.m.m.Q./.m.m././.@Xs.n > X . @ 8 I s.B.s.<.#.+.P b v $.k.1.p.x.k.V.z.k.1.+.U <.z.",
"k.k.B.J.} G < @ + + .   @ u ~ ..| | d.h.s.k.8.8.5.7.8.k.s.s.a.2._ U U P U +.<.1.m.B.Z././.Z.V.m.1.p.<.#.#.U P N U +.1.3.k.m.m.M.R.E.E.M.3.P x w ; - : , 9 u u < a s s p e p 9 , @ + + % % % $ $ - 2 2 w L h.P.@X@XP.V.z.J.L.Y.g.{ ^ H D f s d d p p p r l l C Z / R d.h.J.Y.K.K.f.#.#.#.+.P N P / d.G.G.h.p.i.<.Z.V.V.l.l.9.0.5.;.:.4.3.3.2.:.:.s.m.k.<.+.<.<.+.+.+.+.+.+.1.k.Z.V.W./.OX_./.Q.W._.uXfXuX^.1.%.%.l.1.%.P #.1.f.z.k.V.k.U M x j 3 2 3 Z *.h.=.E Z C z r 2 3 3 h l L #.z.K.K.K.$.N +.l.#X-X-X-X#X/.V.k.8.1.1.>.:.>.7.7.k./._./.W.Q.(.(.!.T.5.&.5.9.u.&.0.!.!.R.l.1.@.1.k.f.#.E P P <.<.<.s.P.wXwXU.E z w w z L / g.S.h.f.p.1.3.l.M.>.O.V O.>.>.o.O.o.8.M.M.Q./.M.k.8.k.k.1.+.+.$.$.7.7.l.W.(.^.W.Z.z.p.V.tX).z.p.#.f.f.=.=.=.=.=.=.f.f.d.d.} T z q w m n n x M +.1.c.x.z.k.<.:._ :.<.+.+.7.l.M.V.Q.Q.N.8.8.k.V.oX#X#X)./.V.k.s.s.s.1.<.<.<.<.<.:.+.+.+.@.1.3.3.1.<.:.1.k.B.B.B.B.k.K.K.)._./././.P.oXZ.3.:.B B :.:._ <.3.B.Q.oXQ.Z.s.<.U L Z l r e e e p p p p s s ! ( d.h.h.f.c.k.m.q.2.<.P x w 2 ; > 9 9 , : : : q t D z t t t y y t s p e : : < 1 p G | L.iXpX<X2X+XE.E.#XyX-X^./.oX+X;X;X;X+X|.N.N.Q.Q.N.N.w.8.,.,.w.6.6.t.;.;.;.;.:.4.s.n.G.L.Z.m.oX%XZ.oXyX%X].` w - X . @ > x U z.B.p.+.U U P v %.$.P #.z.j.z.k.k.s.<.P +.1.",
"k.M.V.b.{ s : @ @ + .   + 9 ~ .. .n.b.J.B.B.m.k.k.k.M.V.V.B.b.s.1.<.<.<.<.i.s.B.K.P.P./.P.B.2.<.<.#.#.E P U +.+.<.:.<.1.8.m.Q.Q.E.!.E.l.1.U L n x t t s f G G G z F H C s s p < # @ $ % i & % , - 2 w l L h.rXfXjXyXP.z.B.P.P.G.G.| J C s s A ~ A A C A H ^ / d.Y.J.S.S.J.J.z.z.<.U P U U N N U p.h.h.f.i.p.z.K.K.Z.V.l.l.l.9.8.3.2.4.4.3.3.m.m.m.C.V.s.1.1.1.+.N P +.+.+.+.+.1.x.V./.OXOXOXOX#X#XuXuX_.k.+.%.%.k.+.B P #.<.z.P.B.B.p.M c x z 3 4 3 L f.F.f.E S z C Z z l l z x R p.z.K.F.z.1.%.7.^.yXyXyXyX#X/./.8.+.1.3.+.+.k.1.7.V._._.V.M.W.(.(.!.l.5.&.5.9.9.&.0.!.!.R.l.1.+.j.K.K.z.p.p.h.p.<.<.p.J.wXwXU.R L z Z Y d.G.U.L.z.f.f.1.7.9.l.@.O.O.O.5.@.O.N N 8.k.3.V.OX/.V.+.k.k.3.+.+.@.@.l.j.l.W.(.^.W.^.z.1.x.yXtXK.p.P R #.*.p.f.c.f.f.F.S.S.S.g.{ z 2 w j n n v M E #.k.V.K.B.<.U _ <.1.+.+.3.l.M.W.(.W.M.8.8.8.Q.OX#X#X#X/.k.1.:.<.3.3.<.+.U U U U B @.@.@.7.l.V.V.V.V.k.s.z.B.P.P.P.K.^._.)._.K.Z.V.m.s.:.B V V V V B :.3.m.Z.oX#X;X#X@XK.h.d.R Y A C G s e < e s H [ } S.S.f.f.z.V.#XoXZ.s.U x 3 ; ; > e e 9 , , > q z F D x F F x z t t t s a e < < p s H g.{.<X,X=X3X=X*X*X*X-X-X;XOXoXoX+XOX+XoXQ.Q.N.N.A.w.8.8.:.4.4.,.4.;.;.;.;.,.v.C.L.{.[.{.$XZ.&X%XZ.$XhXdXL.' 2 @ . + # > w M s.B.s.U U #.1.v P +.v +.z.j.z.k.k.k.1.U P +.",
"B.P.L.g.F > - - u +     + 0 f ..g.b.U.wXwX).).@X@X/.V.k.s.s.s.k.k.s.2.s.J.[.0X[.tX0XJ.a.<.<.i.p.<.R P U #.<.<.+.<.1.k.V.Q.Q.V.M.E.E.E.V.Z.P.@XwX@XwX[.b.h.B.s.R U I I T T ! ! ~ W W d i i i i u > 2 y z T B.rXvXSXDXvXyX/.P.V.B.G.H.g.^ H A Y ( ^ ^ Y ^ d.Y.7X7XY.J.J.S.h.f.p.p.R U L M U 3.k.3.1.1.1.j.c.K.K.P.K.K.B.B.K.P.P.P.V.V.V.m.k.3.>.3.:.:.:.3.B.K.K.J.s.s.<.N b N @.7.l.Q.W.!.;X!.M.OXaX_.OX_.>.N +.:.V U +.U +.s.K.K.K.B.<.x z x z 3 3 6 S d.Y.S.*.Z L F Y R T L F E d.J.U.P.z.1.:.@.l.(.uXuX-XOX_./.Z.V.k.1.<.2.s.k.1.l./._.V.1.1.k.Q.(./.l.@.@.5.5.M.>.9.!.W.R.l.7.@.7.K.#XwX).U.@X@XP.p.R i.B.J.p.L E i.Y.U.7XtXdXtXz.#.#.j.c.l.T.&.O.O.@.>.@.%.B U v._ P <.B.tXK.1.3.m.Z.s.V V 1.$.7.k.x.V./._./.x.k.k.^.yXuXV.N c x #.h.h.p.z.U.J.U.wXU.G.d.Z 2 q w n n x x M U <.z.P.K.s.U U <.U U +.3.k.k.M.^.W.W.R.l.M.Q.OX#X#X/.Z.l.1.N b N P M M #.<.<.<.p.3.7.8.8.7.k.V./.K.K.K.P.U.@XwXwXK.).rXtX#XV.k.1.s.3.:.U B V V V :.3.3.,.1.k.Z.%XrXyXyXtXrXU.h.d.^ H r r t C T | H.G.h.p.p.z._.uXvXcXrXK.<.x w 4 > 2 e e a a s f t D H J T ^ T F x x x j j j x F ^ ( [ { a.b.P.&X<X=X X X XXX>X>XOX XE.N.M.e.9.9.Q.Q.Q.N.k.8.>.:.V M M M I 2.C.$X].].{.$X@X].C.B.3.m.C.].iXkXkXeXH.J : . @ @ , > w j I 2.s.s.<.N <.#.E P E %.#.$.z.V.K.V.p.%.v b ",
"C.L.J.{ t : - , , +     + # a G T ` a.J.P.U.@XtXdXrX@XU.P.P.P./.V.B.m.B.P.[.0X7XG.H.b.g.i.` U P M U <.R P U <.k.B.k.k.m.Z./././.!.!./.Q.Z.P.P.@XrXdXdXyXyXfXpX#X@X/.P.L.G.D. ...~ W W W d i i u > 2 y n ` B.@XyXvXDXDXvXcXyXOXZ.Y.G.D.d.{ / ^ E / *.f.S.F.Y.7X7XJ.z.h.h.p.i.<.#.M L P +.<.s.2.1.&.5.j.x.V.K.z.h.i./ R { i.g.h.h.J.K.K.V.B.m.m.N.m.3.2.s.s.B.B.z.p.h.p.P v N $.$.l.^.!.OX;XOXE.=XaXOXQ.m.>.o.:.:.b B U P :.m.K.C.B.a.L j l l l 3 3 6 S d.Y.U.S.i.R E E R R Y / d.L.U.wX).k.:.+.>.W.-XuXuX-X(././.V.k.1.+.:.2.s.s.p.x._./.s.U U 1.P.oX/.k.@.@.5.7.M.>.8.!.Q.M.l.&.$.1.l./.9XwXtXtXtXP.i.R i.J.L.B.f.h.Y.tXkXkXtXwX9Xz.=.=.c.c.l.l.&.O.O.@.$.@.%.B _ v.U n M <.wX).s.s.z.V.s.B B :.1.j.j.j.c.^._._.^.x.j.x.#XuX_.k.M L R i.i.i.h.U.L.tXkXtXJ.*.Y Z F F I F n x M L <.s.K.K.s.<.` <._ U :.1.7.7.l.W.~.^.W.M.E.Q.OX#XOX/.l.3.+.b b N #.U #.p.h.p.p.z.k.M.Z.Z.V.V.V.V.P.P.L.J.S.g.d.i.i.z.U.tXtX@XZ.B.m.3.3.<.<.<.U N B B :.:.3.k.V.Z.@X$XtXrXtX@XP.J.{ ^ Y H Y T { g.a.f.z.P.#XuXbXvXbXyX/.z.#.x l r q e e e e s G ! ! ^ ^ T T / { I i.a.b.B.v.s.2.a.g.G.J.L.L.P.].oX+XOX=X*X.X Xy.e.e.M.E.E.Q.N.M.M.1.>.+.o.o.+.:.1.s.z.B.B.L.C.L.].].].].].].].oXoXC.P.].[.eXkXqXqX| f # . . @ # : q j n ` v.v.<.U #.U U P P E #.$.k.z.V.x.k.#.N b ",
"P.C.a.F q - : < # + + + + + 0 g D x F R i.h.J.U.wX@X@X)./.@X@X#XP.Z.V.V.P.L.Y.G.} | i.i.` P M M x L <.<.R #.p.B.P.V.B.B.V.P././.Q.Q.Q.Q.Z.P.P.@XwXdXvXvXvXDXDXSXgXgXdXiXeXqX8XH.....X.W a u u a > q t F { h.K./.;XfXSXFXFXDXcX%X[.I.H.G.S.S.i.E i.F.K.7XU.Y.Y.Y.h.p.p.i.<.R U U L P #.s.s.s.<.1.7.k.x.^.K.z.*.Y z r y r C F T ^ g.h.h.b.B.B.P.oX].C.B.b.s.s.p.p.i.h.f.E N +.$.@.j.W.(.*X1X=X X;X;X+Xk.+.+.>.:.1.V :.<.P <.B.P.B.a.I z l l w 3 3 3 l S d.U.wXwXU.P.B.a.i.i.d.G.I.wXtXrXP.p.U +.8.(.:XuX-X(.Q.W.V.k.1.%.+.<.3.s.s.j.K.).V.P c v <.P.oX/.k.@.@.7.7.M.>.8.Q.W.T.j.&.$.o.%.j._.tXtXrX@Xh.U R p.J.U.U.U.U.wXkXjXdXU.S.h.p.=.p.j.k.l.l.@.o.O.@.$.@.+.U _ v.I j 3 M U.wXK.z.s.m.k.<.+.+.1.1.1.1.k.Z./.)./.V.3.3.Z.yXfXuXB.v.s.s.h.B.U.rX@XdXjXtXz.R *.i.h.a.` I n n M M U <.B.J.B.s.<.<.<.:.+.:.1.1.8.W.^.!.!.Q.!.OX*XOX_.W.k.+.N b b N 1.p.z.J.K.J.J.B.K.P.).@X).K.B.h.G.h.g.{ T D z r l L g.U.wXeX$X$XP.B.s.s.k.k.1.+.B B B o.:.3.s.s.V.Z./.@X#X@X/.P.f.d.{ { i.i.g.h.a.h./.uXvXFXvXvX-X/.V.k.#.S x C C s p e e s !  .D.D.D.g.g.G.Y.J.[.@XrXiXrX%X$X@XP.$XrXrXrX$XoX/.Z.Q.oX|.|.A.w.,.8.8.8.m.8.8.8.3.+.B B B +.:.2.s.).@XrXrX@X[.P.L.].].P.C.oX&X%XpXrXiXeX[.[.0X{.H.K a # + . . @ - > w z ` h.b.s.i.#.#.#.E P P %.#.j.k.z.x.z.p.+.N ",
"[.n.I t 2 > < , @ $ , , # + @ 8 y 2 2 w x F L I R <.<.s.B.V.P./.V.V.B.B.B.b.g.i.i.{ R I L N B U U U U <.h.B.B.B.J.B.B.B.B.B.B.k.3.8.M.Z.P.P.P.P.K.wXyXyXyXuXfXfXfXdXdXjXjXkXqXqX . ...W u , 9 p e r C T i.h.B.m.M.Q.-XxXFXGXFXSXtXtX0XU.J.h.p.#.p.z.).).K.S.h.h.p.i.<.R U U U R s.<.<.s.s.<.p.k.z.x.V.B.h./ Z r > : - - > e t C H T T / { a.b.L.L.L.L.L.B.b.h.h.i.z.s.U P +.$.%.7.l.W.-XaXaX;XOXoXOX1.V :.3.+.+.U 3.2.U <.V.K.i.R z w z Z l 3 3 l l F *.Y.wXtXiXdXrX@XU.Y.I.eXtXkXtXU.i.P U s.Z.-XuXuXOX!.W.V.l.k.>.+.+.1.s.s.s.z.).).s.c 3 c <.P.oX/.k.@.@.1.8.M.>.0.!.W.l.j.@.@.N v +.x.).).J.p.L k P p.B.P.@XU.U.U.wX9XJ.*.L S P #.p.j.k.l.V.7.o.O.%.1.@.+.U ` h.I h ; 3 h.wXwXJ.p.s.B.m.1.+.+.1.1.1.p.V././.).K.k.1.3.^.fXvXjXdXrXrXrXdXdXjXjXSXjXrXB.p.h.L.I.G.i.I L n M n L U p.B.C.B.s.<.<.:.+.+.+.@.7.l.W.(.(.(.OX*X;XOX/.V.7.%.N b N N 1.s.B.P.U.K.L.L.P.U.U.I.Y.G.d.} T J D s e > : : > w F { g.L.[.$X$XoXZ.m.k.k.k.s.3.:.o.B B :.1.s.k.k.B.V.P.K.B.B.i.*./ i.i.p.B.K.P.@XyXvXFXvXcXuX(.W.x.j.#.L Z H H G s e e s ..H.G.I.0XwXtXkXdXkXdXdXdXyXrXrXrX%XOX-X;X;X;X+X/.Z.B.m.m.v.s.s.s.s.m.3.1.+.B B U +.3.s.m.B.Z.Z.Z.Z.@X@X/.P.P.].@X$X$X$X&X&X&X%XpXpXdXiXwXJ.n.n.| [ a 8 : # @ . X - : 2 j T d.b.h.p.#.#.#.%.P N P %.p.p.j.z.x.z.1.+.",
"L.{ x w r e < , , u i a , + . @ > ; ; 2 2 2 2 2 3 h b U 1.m.V.V.B.B.B.z.h.p.i.` i.` P N V N +.+.1.<.<.s.B.K.B.B.B.B.h.p.p.i.<.+.:.3.m.C.Z.C.B.B.z.K./.Z.V.W.(.OX#X#XrXdXkXkX0XI. . .! a > : e s G C C Y i.h.B.k.7.7.9.!.6XxXFXGXDXBXjXrXP.k.p.1.1.k.K.K.K.z.p.s.s.<.U P L U <.<.s.s.p.p.p.s.h.J.L.J.g.^ H s e : - @ . . @ - : : e e s s D D J ' ` g.G.L.L.L.G.J.f.z.s.#.%.+.$.@.7.5.l.OXaXxXaXOXN.Q.1.N 1.3.B V <.s.s.<.1.K.B.i.F w w F Y Z l l l C Y / S.0XkXjXDXSXjXjXjXjXBXBXkX0Xi.x x U B.).-X:X-X(.W.W.V.k.k.>.+.<.s.s.s.z.K.U.Y.R 3 ; h i.P.@X/.k.+.+.3.k.M.>.0.Q.W.l.j.@.@.o.%.#.z.K.z.#.x h h U i.p.h.J.z.J.Y.U.h.E h 6 c S #.p.j.k.l.V.1.o.%.+.1.<.+.U R f.R j ; ; R Y.dXU.i.i.z.K.m.:.+.#.1.<.p.B.Z.V./.P.Z.s.+.1./.fXJXDXDXDXJXLXJXJXKXJXdX@XP.P.U.wX[.Y.i.R I L n n n L <.h.J.J.s.1.<.+.U +.+.+.7.l.W.(.OXOXOX;X;XOX/.V.k.@.%.B P U +.p.B.L.U.I.U.I.Y.H.G. .| ! G G e 9 : - @ @ @ @ - : > q D T g.L.[.$X%XoXZ.m.k.B.m.m.3.:.B B :.3.1.1.p.k.z.k.k.p.#.U U #.s.B.@XyXfXgXvXvXxXbX-X`.(.W.V.z.<.L Z F ^ ! H s e s ^ D.Y.wXjXjXBXDXSXjXdXdXrXrX%X#X+XOX!.!.!.E.Q.Q.V.V.m.s.2.` ' ' ` { <.<.U U U <.1.s.Z.P./.@X$X$X@XoX/./.V.V.Z.oX%XrX%X%X%X%X&XoXQ.Z.B.h.d.L D z t e : : , 8 : @ X @ > 2 y F { g.h.h.i.<.#.%.S N N %.#.$.p.z.V.x.j.$.",
"h.I l 4 r s p < u d f f 9 @ X @ : ; ; 2 2 > ; 2 3 h N <.k.V.N.Z.B.B.B.h.s.a.2.` I P P B B +.+.+.+.3.V.B.k.3.k.B.B.k.<.R U R #.<.s.m.B.B.b.s.p.p.B.J.Z.V.V.V.W.(.Q.Q./.oX@XL.g.[ ^ J f e q e G ! ! G D Y i.B.V.V.8.5.&.0.R.*X6XxXFXJXDXjX%XZ.k.k.3.j.k.V.Z.V.k.s.k.2.U B N U <.s.<.p.s.h.z.B.J.h.h.} H t > : - @ + .       . . . @ : , < 8 9 e y t D ' | g.n.H.I.B.s.p.#.#.%.+.$.7.@.k./.;XfXuXV.8.k.1.+.1.1.N V :.1.<.1.B.K.B.` x r r H ( ( H l l A ( ( d.Y.tXjXDXJXLXLXLXLXJXCX0XG.F h x i.K._.-X-X(.W.V.V.l.k.k.<.<.s.k.p.s.J.Y.Y.h.Z ; = j p.P.[.P.k.#.+.3.k.M.>.0.Q.W.l.0.@.$.7.c.z.x.z.#.M h k L <.i.<.R R R h.U.9Xh.S 3 4 v E p.p.k.k.l.l.1.%.B +.1.<.+.R R p.R x ; = z d.wX7Xh.i.h.K.B.1.U #.<.<.1.k.B.B.V.P./.B.+.N 1.P.DXJXKXIXPXPXLXJXKXjXU.B.K.U.@XwXL.G.g.{ R I n x x M U i.B.B.B.s.<.+.U +.+.+.1.l.V.Q.(.OXOX-X#XOX/.W.k.@.%.+.#.+.P i.B.L.U.Y.Y.Y. .| J f a 9 > : : @ + . . . + + @ @ @ @ : q m I a.L.rXpX#XZ.V.V.m.m.N.k.:.+.+.1.<.<.1.s.k.k.s.1.%.P +.k.Z.#XfXSXvXxXcXaX>X`.`.~.^.W.V.z.i.L x z T [ } ! C s J } Y.wXjXjXjXjXdXtXyXrXrX;X%X+XQ.E.R.u.9.6.0.8.k.m.2.2.2.` ' J K K U +.p.m.K.P.oXoXP.P.Z.Z.P.oX@X#X/././.oX#X%X%X&X&X%X%X%XoXm.o.N h l 3 ; ; - - - @ : 8 e 9 : @ - 2 2 q z H } g.h.f.i.#.%.P N N N P +.p.z.V.V.k.p.",
"/ Y l r e a d f ~ ~ f d e : - > q q q y w w w j M U s.B.P.Q.Z.V.B.h.p.<.` U I L N N P +.:.>.:.+.>.k.W.W.k.8.k.V.k.k.1.+.#.<.1.<.s.s.s.2.` 2.a.b.K.K.Z.Z.V.W.W.W.E.M.M.B.B.p.E x D C s s C H ^ | ^ H G Y d.J.K.V.l.5.&.&.&.5.u.!.fXgXSXDXSXaXOXQ.7.1.1.k./.oXV.k.k.3.<.+.U +.<.1.#.s.z.p.z.K.B.{ J D e : @ + + +                 . + @ # @ @ @ : : 8 y y D K n.{.P.p.#.p.$.P %.1.7.@.l.Q./.-X#Xk.1.+.1.k.>.+.U N +.+.<.B.P.B.<.L z z t G ( } ( A A ) ( / T { Y.eXhXBXDXDXDXBXiX[.{ I z z E z.).tX#X(.(.V.x.V.k.1.1.#.1.z.z.p.z.U.Y.S.E 3 = = x h.U.[.P.s.#.+.7.k.M.>.0.E.W.l.7.@.@.l.^.K.c.#.P k x R h.B.p.<.U M L i.Y.U.f.x 3 3 S #.p.p.p.k.M.k.1.o.B +.<.<.<.` <.p.E Z ; o 2 Z S.7XU.h.i.s.z.s.#.<.<.#.<.s.B.B.V.K.).P.s.N N U oXdXDXKXKXKXDXdXpXZ.<._ <.s.B.L.h.h.f.a.{ I F z x n I <.p.B.B.B.<.<.+.+.+.+.$.k.l.W./.(.OX#X#XOX/.W.k.%.%.+.1.<.R h.U.Y.G.g./ H f a 9 # @ @ @ + + O .           O + + + @ : 8 q m ` C.$X@X/.Q./.k.k.k.3.1.:.:.1.+.<.1.3.s.s.1.+.%.@.l.OXuXfXxXxXaX;X*X!.!.~.R.u.T.l.x.z.p.L z l H { D. .! C F T i.B.#XrXtXrX#X@X@XoX/././.Q.V.e.e.9.6.6.6.3.>.:.U _ ` ` { { { a.s.m.Z.oX#X%X$X&XZ.Z.Z.Q./.oXOX#XOXOXOX%X%X&XN.m.N.|.&X%X X8.O.b 3 2 ; = = = = X @ : 9 f f e > > e 2 > e A ( d.S.h.p.#.%.%.%.N v N %.p.z.x.x.z.k.",
"Y H Z r < e A ~ ! ~ G s e > 2 t t t D D D z n I i.s.B.P.oXZ.M.k.s.<.<.P M k k k P U U +.:.1.3.8.M.9.l.R.E.E.l.8.7.7.7.8.k.k.8.1.<._ I M I ` b.P.L.B.V.V.V.l.9.9.E.M.l.V.V.z.<.L x z C D T { } } ^ H A T g.K.K.V.7.5.&.&.O.O.O.5.N.oXfXFXKXFXfXOX7.@.@.8.OX;XQ.8.m.8.3.:.:.+.+.+.1.B.z.#.i.J.z.L y 8 : @ . . .               .       + + + + . . @ @ - @ - y { L.U.i.U p.1.N N j.1.@.x./.V./.OX7.+.N 1.M.+.N +.U +.U <.K.@XB.L h z C s s ^  .} H C ) } ^ Z x / b.].$XiXeX{.L.' m w w j L i.K.tXuX#X(.W.l.l.l.j.+.#.#.<.z.z.p.B.0XY.d.Z ; = = Z h.I.[.P.s.#.#.7.k.M.>.0.E.W.l.7.@.N j.^.V.-.P v c P h.@XU.B.a.R M L R f.h.R l 3 3 v U <.<.3.k.V.l.1.o.B +.<.<.<.<.i.p.Y Z ; o ; r / 7XtXL.#.<.s.k.1.<.<.U +.s.B.B.K.K.P.@XB.U M k B m.rXgXBXgX%XZ.<.V k k k M U i.i.g.h.h.a.R n z z n L R i.z.B.K.s.<.<.#.+.U +.3.k.V.W.Q./.#XOXOX(.W.3.%.N +.p.p.i.L.0XI.g.Y 3 - : + + . O + + +       O O O       O + # # : : > w m _ s.V.Q._.#Xk.1.+.U +.1.3.k.<.<.1.3.3.<.+.V 7.l.(.bXvXxXaX1XOXE.e.R.~.~.u.&.0.j.k.k.i.L l l F } H.H.{ F F L v +.k.V.P.@X#X#XQ.V.8.1.8.8.w.m.m.8.8.w.8.2.:.U V I P ` s.C.[.$X%X#X#XoX/.Z.V.N.Q.oX+X;X;X;X*X*X!.(.OXOXoXN.3.;.3.N.OX;X=XE.;.N 6 6 3 2 ; ; - - - : a G ! G s s e > > 4 C ( D.S.S.f.#.%.%.%.N b b P p.z.z.z.z.z.",
"Z Z C r e r A ~ G G G r 4 r F T J J J T T | b.L.L.K.V.B.m.k.3.2.s.` L x M L U U #.<.1.2.s.k.B.V.9.u.R.R.R.M.M.R.l.9.9.8.l.l.l.8.2.2.a.s.b.b.a.2.` U <.k.l.l.5.5.5.>.>.7.3.1.E L L Z F T } } } d.H H F Y *.z.K./.l.O.O.&.O.O.5.5.,.q.N.%XxXxXcX1XE.6.O.5.E.*XOXQ.8.3.1.3.1.+.+.<.1.s.z.K.K.z.E x - @ : , # .   + + $ % & & % + . O + + + + + .   . . X @ : t [ G.@Xs.<.B.z.P N 1.$.1.j.x.V.M.k.k.+.+.+.3.+.N U s.P <.z.K.J.i.M h z e ; 4 A } } ! r C } D.F w F ` s.v.C.C.a.I w q > w T a.J.tXuXtX_.!.W.M.k.j.7.3.N #.s.h.p.z.K.7Xd.A 4 ; = ; C G.Y.[.U.h.<.<.3.k.M.>.7.W.W.l.7.@.@.l.^.x.$.U #.i.h.U.tXdX@XB.h.f.J.h.d.d./ L l 3 v #.k.k.k.k.l.M.1.o.V U <.<.<.` i.i.R z 2 = = ; C D.7X7Xh.#.1.V.k.<.P P +.p.s.z.B.V.K.K.B.1.P k k B v.B.P.$XoXZ.2._ M h h h M U i.d.h.h.{ F z z z n n M U s.z.z.B.s.<.+.+.<.<.<.3.k.V.Z.W./._.(.W.M.7.+.%.%.#.#.h.L.I.Y.{ z ; X + O + + # $ + O O O O O $ % % % O + + . @ 8 > X > j U s.V./.V.k.$.$.1.1.+.+.+.3.k.k.m.k.k.3.1.@.R.!.;XaXuX;X*XOXOX!.R.u.0.t.&.5.l.l.x.z.p.E x l F / S.H.d.R F x b N +.k.Z.Z.Z.Q.M.M.8.3.3.3.>.+._ ` ` ` _ <.2.s.s.B.Z.m.m./.&X+XQ.Q.Q.Q.Q.|.OX+X+X+XOXOX*X*X`.!.M.9.6.,.,.3.8.m.3.8.N.Q.OX!.R.k.f./ Y Z r 4 4 q q q y D H J D s s e 4 4 r C / S.d.f.f.p.%.P N P N P #.p.j.z.z.x.",
"C l r r C A A A s G H F Z F Y T { } d.g.g.b.L.U.U.K.B.s.2.1.1.1.U I M n M L P U <.<.s.s.B.B.J.B.8.l.E.E.W.E.R.R.E.R.M.M.R.E.R.M.B.b.b.b.n.h.a.i.R U #.1.1.@.@.5.>.5.7.8.3.<.U L L x Z R g.d.{ T H F F I i.z.K./.l.O.@.9.9.0.0.>.,.,.3.w.Q.;XaXcXaX!.7.>.9.E.OXOXM.8.3.8.3.:.+.+.1.s.B./.).K.p.P 2 > 9 9 : + + + 0 i i i i i i 0 $ + + + @ # # - @ @ - - > t [ b.U.b.s.B.s.P P 3.1.1.j.k.V.k.s.1.+.>.1.+.%.+.#.<.#.s.K.K.s.U k h z 4 ; ; C ( ( ! H H } S.Y 2 w n :.3.m.v.' m q - > z { J.wXdXtX_.(.Q.W.M.k.3.1.#.#.p.p.f.h.J.Y.Y.( r ; ; = ; C g.Y.[.U.s.<.+.3.k.M.>.7.W.R.l.7.@.@.j.x.z.p.#.p.z.wXrXtXwXP.h.B.L.K.L.J.f.*.L x c U 1.k.j.7.l.M.V.1.+.N U <.2.` ` i.i.R z 2 ; ; ; r ( I.7XB.p.1.k.k.1.+.P +.<.s.z.k.z.B.B.V.s.<.U j k V V U 2.v.m.s.2.<.U P P P U i.d.d.g.{ F z w x n n x L #.z.z.K.z.<.+.+.<.<.:.1.k.m.V.Q././.W.M.9.7.%.+.+.#.#.f.Y.I.G.T w ; X @ + + + # # + $ $ $ $ % % & & i % # # @ # 8 > : q n 2.B.P./.x.7.1.+.+.1.1.1.1.1.k.k.k.8.1.1.k.M.(.*X:X:X-XOXQ.E.Q.E.R.e.0.&.O.O.0.l.x.K.z.i.L z z Y h.Y.S.{ L k v N +.8.k.k.8.8.8.8.1.:.:.:.+.U T ' ' ` { a.a.s.B.Z./.Q.Q. XOXOXOX_.OXOX+X+X&X+X;X=X+XOX X~.R.u.O.O.O.O.o.>.8.M.8.8.M.N.Q.Q.(._.9XU.S.d.T H F F q q y z H T Y H C r r r r l Y d.f.f.f.=.#.%.%.%.N N %.#.p.k.z.z.",
"l 3 3 r A H D t z H T R R { i.i.h.G.Y.Y.Y.L.L.P.J.B.h.s.<.+.+.U M M N N L P P U <.i.h.B.J.G.g.a.+.1.k.M.V.V.V.V.W.V.N.M.W.W.R.M.P.P.L.J.b.h.g.a.b.s.s.<.o.V N o.>.7.l.k.3.+.L M L x F / h.a.E Z Z F Y R i.B.Z.W.W.5.7.R.9.7.7.@.:.;.:.>.8.N.(.OXaX-XW.9.8.N./.OXQ.V.l.M.m.k.3.1.1.3.V./.#X_.K.h.F s e e 9 : # # i i Q W W W W W u 0 , , , u p a < > : : > t ' g.L.J.B.s.<.P +.p.1.1.p.k.z.k.p.<.+.3.1.N N #.1.+.p.B.U.J.#.x h l 2 ; = = r ^ ( ^ ^ Z } Y.d.l h x 3.Q.rX$XC.a.I t j I b.@XtXuX-X(.!.E.M.l.7.1.+.+.z.h.p.f.J.U.Y.g.Z 4 = = ; ; C d.Y.[.P.k.+.@.7.k.M.>.5.R.R.9.7.@.o.$.c.k.p.#.f.B.U.[.P.z.<.R i.h.U.U.U.J.i.E L L 1.j.p.1.7.l.W.V.1.%.B U <.<.R ` a.p.` Z 2 ; ; ; ; C d.I.U.B.3.:.k.s.<.U U +.3.k.k.B.V.K.P.K.B.k.V k h h k P s.K.dXdXtXtXrX[.B.a.d.d.d.g.g.R F m n L L n v E j.x.K.B.s.<.#.+.<.:.<.2.k.M.W./.W.l.l.7.>.@.+.<.1.<.h.Y.I.D.H 4 ; - 0 0 0 0 + + + + , u i i Q i i i i 9 , , > > q w n _ s.B.P.K.k.1.j.+.+.1.k.k.1.$.8.k.8.1.>.7.Q.-X;X:X:X;XOXQ.Q.Q.3.,.8.0.5.O.O.5.$.j.c.x.z.i.E S z L d.S.h.i.I v N N +.k.k.k.3.1.U B N V B B U U g.H.H.H.H.G.L.L.P.oX+XOXOX*X*X*X-X#X#X#X&XoX].'.oXoXOXOX X~.T.9.5.@.o.V V o.:.>.N.N.k.8.7.l.(.yXtXtXwX).L.h.i.{ F x z x F L L F Z C C l r r Z R h.f.f.i.#.#.%.%.P N N P #.j.z.z.",
"r 3 4 l H H F z F T { { i.h.K.P.J.L.P.U.P.P.J.J.s.s.p.p.<.U L v M I U U U U +.<.s.s.h.G.g.| J D w j x L R p.h.B.B.B.B.V.V.V.Z.Z.P.U.[.U.L.G.G.G.L.b.s.:.N b b N >.8.V.V.3.U M L L L L / i.i.U x Y T T { p.z.Z./.W.7.8.k.>.%.1.1.:.:.:.:.:.>.8.l./.(._.Q.V.V./.OX/.W.k.k.m.k.k.k.1.3.k.Z./.#X#XU.b.[ D t s a < @ , 5 u d ~ ~ ~ ~ f d e 9 p d ~ ~ G s e > 2 w T a.L.L.J.s.#.#.1.$.P $.j.z.z.z.z.s.3.3.+.N B #.1.+.z.V.K.s.L c h x 2 ; = ; A }  .( Y l / 0XL.I M I +.Z.yXpXrX[.n.K n.b.L.@XrXyX-X(.Q.E.l.7.1.+.#.#.J.h.i.h.U.7XS.^ r ; = = ; 2 F g.U.[.P.k.@.@.7.8.M.>.5.R.R.9.7.@.o.%.$.1.$.#.#.p.p.p.p.<.U L U R z.L.Y.L.h.d.R R p.1.1.$.j.W.W.M.7.%.P +.<.<.R ` i.s.<.x 2 ; ; ; = 2 T Y.@X/.k.+.k.k.p.+.P U 1.s.k.k.V.V.^.K.V.z.s.B h h h k I s.P.U.wXtXdXrXU.J.f.d.d.d.d.^ F m F F L x x L -.F.^.K.z.p.<.R _ <.<.1.2.k.V./.W.l.l.7.>.@.1.1.p.p.h.Y.7XD.G > ; : 9 a f u , @ @ , u a d Q Q Q Q p p 9 e p e 2 w n i.s.B.V.V.K.k.p.1.+.+.1.k.k.3.1.7.k.8.8.k.V.#XuXyX;X#X(.Q.V.V.V.1.:.:.+.o.O.@.7.7.j.l.z.c.p.R Y Y Y R R R R R U b b +.k.V.k.k.3.N k k V +.<.2.s.b.H.I.I.I.{.{.].@X$X%X%X;X;X*X#XrXwX@XK.b.a.` _ 2.s.B.Q.OXOX(.!.R.9.,.:.o.B B +.3.s.k.k.k.k.k.x.).tXyXdXdX@XP.B.i.R L M M M M S Z Z Z Z l 3 l S d.f.S.h.i.R E E %.N b v +.p.z.z.",
"l l l C Z F F I T i.s.h.B.P.).).P.K.K.K.V.B.z.z.p.i.<.R U P L L I R <.2.<.<.s.h.b.h.g.| [ G e : - - - > e C J T { { i.h.B.J.P.U.K.).tXtX0XI.Y.L.a.R I B B V V V >.l.W.V.p.P M S L L R R E E U U { { ` ` <.k.Z./.k.1.k.k.B b B <.s.2.<.+.+.+.1.8.1.M._.OX/.V.Z./.#X/.V.k.k.k.8.3.3.3.3.k.V./.#X#X@Xb.T F H G e - @ - : a G ! ) ! ! H C s A ~ ( } } ! s 2 2 w I { L.P.B.<.#.p.p.+.N $.z.z.z.z.J.B.z.+.B P +.+.<.p.K.K.s.R v h h l 3 4 4 r ^ D.D.( Y l / 0XU.a.U P +.k./.@X@X[.b.` {.L.].$X-X-X-X*XE.M.8.>.+.:.1.s.z.h.f.Y.7X7Xd.Z 4 ; = = ; w Y g.P.@X/.k.@.@.5.0.l.>.5.R.W.l.7.@.o.O.%.$.$.#.#.p.i.i.<.U L M L U R i.h.Y.J.h.i.R $.@.$.7.l.W.W.l.7.%.%.+.#.R R ` <.s.<.n 2 > : ; = ; C g.@X@Xm.+.k.k.k.1.%.P +.3.3.p.j.k.x.V.x.k.K.2.I M k h h k x L R p.L.U.U.U.S.h.d.d.{ F t y F T I L c c P p.K.K.B.h.<.R R <.a.<.<.1.k.W.W.l.8.7.>.>.1.1.p.p.f.G.H.} C ; - - > a D f a 8 9 a d d f ~ f d d p < 4 r C z l x R J.K.K.B.B.B.z.p.#.#.$.j.j.3.1.3.k.k.k.V./.OX;X;X#X_./.N.m.k.s.3.m.<.B V c c N @.x.x.c.k.j.p.i.*.*.R Y L L P U U b b B 3.k.k.s.s.:.V k I s.B.C.C.a.n.b.L.L.L.].[.rX%XrX%X#X@X/.P.Y.S.g.[ K g y q z K ` b.P.#XyXyX(.Q.M.8.3.1.:.:.V B 2.V./.V.3.%.V./.#XuXdXpXrXrXB.v.<.U P P P P S Z L S x h l z Y i.J.J.f.R E P #.N b b %.p.k.z.",
"C A H H F H T } ` s.J.P.).@X/.V./.Z.V.z.k.k.j.f.f.<.E L S L R i.E ` <.s.s.s.B.J.b.d.[ J f 9 @ . . .   . @ : 9 e e s D J ^ } h.J.J.K.).wXwXI.Y.J.i.U I B U B V V 1.l.Z.V.p.P L F L E R I L L R <.h.a.2.R <.s.V./.M.k.Z.Z.U h h k U :.2.k.k.3.+.%.1.k.Z.Z.V.k.V.P.rXrX).V.k.k.k.3.3.1.1.1.k.N./.#XrXU.g.` { ^ C q ; - ; r A ^ / ^ / T H H ^ (  .D.D.( C 2 2 w I { L.P.B.i.<.s.p.P %.j.x.z.s.z.K.B.z.+.N +.1.+.1.B.).B.<.M c h h h w r r l ^ ( / H l 3 L z.J.B.s.s.V.x.x.B.B.b.b.b.L.L.@XyXaX:X*X!.R.M.1.+.+.1.s.z.p.h.S.U.7XY.^ l 4 ; ; ; 2 w T h.P.@X/.k.@.O.5.0.l.>.5.E.W.l.7.@.O.N %.1.j.p.p.p.i.R M k h h k x x L i.h.J.h.*.E %.@.&.7.l.W.W.l.7.@.+.#.#.R R <.<.2.<.n w > : : ; ; w I B./.V.8.3.k.j.1.+.%.+.1.1.1.j.x.Z.^.K.Z.P.P.K.K.B.s.i.p.i.<.#.R R R R R f.d.d.d.^ F D F | d.a.` S v N #.k.z.J.z.s.<.<.2.2.<.:.:.7.V.W.W.8.7.@.+.+.<.p.i.h.G.H.} a ; - ; q s J K t q e a G G ~ G G d p 4 2 3 Z L L L R p.P.U.K.B.z.z.s.p.#.#.p.j.1.$.1.k.k.M.V.OX;X;X#X(.#X/.V.m.s.s.<.<.<.U m h 3 h N p.W.x.c.j.p.#.*.*.*./ R R E P L M N N o.3.B.B.k.s.2.V k N s.v.v.v.Z.P.oX$X%XrXiXiXeX@XU.U.J.h.i.} H G s e > : # # 8 y D ' g.L.@XrX#X+XoXZ.m.3.<.:.U B P +.p.x.K.V.l.e.M.E./.%XpXfXyX%X/.B.3.+.N N L S S L Z l h l x R J.Y.h./ E E #.P v v P #.p.k.",
"Z H ^ ^ T { a.b.n.C.P.oX@XOX^.l.V.l.l.k.k.j.1.#.#.R L L L R d.i.<.<.s.h.B.B.s.p.` J t e , , @ . % O O O O $ # @ @ - < e e s D F *.i.f.S.Y.Y.G.h.h.a.` _ U B V o.8.l.V.B.p.U L L L T R L L E i.i.h.s.<._ +.2.V.oXZ.m.Z.P.<.M n n I U <.k.B.k.#.N 1.j.k.k.k.s.B.V._.tXtX#XK.V.V.k.3.1.1.>.8.M.Q.oX@X@X@XJ.g.} T H r 4 2 r Z ^ i.d.f.i./ ^ ^ / ( ( ( H l 2 3 j I ` B.L.J.s.<.p.1.+.p.z.z.f.f.K.K.z.p.#.+.+.#.p.z.K.K.z.R x h h h l x l l Z ^ *./ Y 6 3 h U <.B././.W.c.k.k.<.R a.L.L.P.$XfXbX>X~.T.M.8.1.@.+.1.s.k.#.h.U.U.Y.d.Z 3 4 4 3 2 2 w I b.P.oX/.k.@.@.5.5.l.>.7.W.W.l.7.@.O.N %.p.z.p.<.i.R L h 3 3 3 3 h c L d.h.f.d.R E @.&.7.0.l.W.W.T.7.@.+.#.#.R R <.1.2.<.n y 2 > : 9 > 2 j <.m.N.N.>.1.j.1.$.+.+.+.$.$.j.x.^././.K.P.rXdXdXtXrXrXwXU.U.h.R x 3 3 3 L / d.d.T D K | H.G.b.h.#.S v %.#.s.B.B.p.2.2.a.U ` +.:.1.k.V.V.l.9.1.@.@.1.p.p.Y.Y.D.^ r ; - > y D J J x y r z ^ ! ) A A r 4 4 3 Z Y E R p.B.P.P.P.K.B.h.s.p.<.$.$.j.j.1.$.3.l.W./._.#X;X#X!.Q.Z.V.B.k.s.s.2.` U I n k j k U z.x.x.c.1.$.#.#.#.*.i.f.i.#.P P N +.B +.8.B.V.B.B.s.N k N R ` ` <.&X=X<XsXfXpXrX$Xb.a.{ [ T D t s < , # + + + + + # 0 9 t F { S.L.#XOX#X+X/.B.s.2.B.<.P v M <.K._.9.0.6.6.e.Q.OX;XfXfXyX#XW.k.@.%.%.L S L S x h h h L i.G.Y.h.d.R P N N N N +.$.1.",
"Z H T { i.g.b.B.U.@X/.P.P./.^.V.l.j.j.7.3.1.#.P M L I R / *.d.i.p.s.h.B.J.b.i.I F y : @ + + + O % % % % % % $ $ @ # , , - - : 2 z x S R d.g.h.a.` ` U U V V B >.k.l.V.z.p.U L L L E Y L L <.i.i.i.<.<.U +.1.V./.k.:.2.B.s.p.B.B.B.<.L M P <.p.k.<.1.p.p.s.k.z.B.z./.yX#X^.V.x.k.1.1.>.1.8.M.Q.oXZ.%XpX@Xh.i.i.d.F z 3 w Z R d.f.J.z.p.i./ E Y Y Y Z w 2 w z I ` B.K.P.B.p.#.#.#.j.k.p.#.s.P.K.s.+.1.$.P +.z.K.V.z.i.P c 6 h l S Y Y Y Y d.S.S.d.Z h c x P s.)././.^./.#XB.<.b.iX$X[.$XpXuX(.T.0.9.8.1.>.>.1.3.1.#.z.U.U.h.Y l 3 4 4 4 2 ; 3 T b.P.oX/.k.@.@.5.5.l.@.7.W.W.l.7.@.o.N P p.z.<.U U U L x h h h h h c L p.h.i.E E E $.7.j.j.l.T.W.W.1.+.+.#.#.U #.#.1.3.<.L w 2 > > e > > w N s.N.Q.+.1.3.p.1.$.+.+.%.+.1.l.V.W.x.k.K.rXdXtX).U.K.B.U.U.U.h.R v v L v E i./ z 2 y K d.d.g.g.*.S v P E p.B.J.h.i.<.a.M P +.:.1.k.x.l.W.M.8.1.1.p.k.h.U.Y.| G 2 - - > 2 w F F F F T { ^ ^ Y A l 3 4 3 x E #.E #.V.@X#XV.P.P.B.h.p.i.R p.p.p.j.j.1.7.l./.OX#X#XOXQ.Q.Q.1.:.<.<.2.2.` R i.` ` U n x U p.x.x.l.j.p.1.#.#.i.p.s.p.#.P P U N V N 1.k.B.B.B.p.U L U R I R s.N.|.+X+X&XB.2.` I x y y e : - : # + .     O + + + @ # , e C ^ d.B.Z.oX#X%X$XoXP.2.s.s.1.+.%.+.+.8.e.e.M.N.Q.|.|.%X;XpXuXyX#X^.V.#.P v M L v h h h x R h.L.Y.g.*.L N P N N P #.#.",
"L L R i.h.L.U.@X@X@X).K.K.K.K.K.W.7.%.U <.a.' m K ] ' ` i.i.i.p.x.K.F.h.i.{ H t > - @ . + # % & % % % % & & 0 % 5 , 1 @ . . X < 4 2 2 z / g.h.p.R #.+.U N N o.>.8.k.k.j.1.#.+.P R R U U R h.b.p.<.s.3.+.+.m./.oXk.B k.m.s.m.k.P.B.p.<.R P P <.s.s.<.U +.3.k.j.1.j.x.^.(.^.W.l.k.V.%.@.8.>.m.Q.N.+X&X%XrX[.b.b.G.[ F z x F L d.L.).).K.i.U U L L x l 3 3 3 w F { s.K./.V.s.3.1.+.k.1.$.#.#.x.P.k.1.1.1.1.3.k.V.K.z.E h h l z S Y ^ ^ ( d.S.Y.d.{ Y x h x ` h.P.tX_.x.Z.rX%Xm.s.P.oX%XrXyX#X/.V.x.k./.@.b V.V.%.1.x.K.K.J.{ C 3 2 4 r r q 2 l R b.U.@XoX8.;.o.,.8.9.@.7.W.W.l.7.%.+.N N <.z.p.R L L n x M L L v x x L p.z.h.#.P P #.-.7.7.l.W.W.V.1.R U <.<.+.o.>.8.8.<.N w 2 > e s r 2 2 h <.V.Z.K.#.P p.z.#.N B O.+.7.l.l.l.x.W./.P.).K.p.P U p.z.K.U.K.z.f.#.P P #.E l 3 l z l F T { d./ E L S P #.p.z.B.s.s.<.<.+.M +.z.1.#.K./.Z.V.x.j.7.j.V.U.G.{ z > - - ; 2 w m F L Y / d.g./ Y l 3 4 6 l E E #.p.x./.#X#XQ.V.k.s.p.p.` R s.V.p.+.s.s.j./.#X#X#X/.Z.M.V.V.;.:.4.<._ U R ` i.i.i.R L x U s.V.l.l.j.1.+.#.p.#.p.p.#.#.#.<.#.#.U M M <.K.P.h.B.<.L E R i.i.p.B.P.].C.a.L z t > : - @ X @ @ - # # # # @ @ @ @ . @ - : < e s C I <.L.@X$X$XoX+XN.M.e.9.5.O.O.V 4.4.v.A.C.C.C.C.P.oX%XdXfXdXyXrXV.p.U N P P v c x x L R h.U.S.i.E P P P v c v #.",
"U R i.h.J.P.).@X@X).K.K.F.z.z.z.j.x.B.<.j w m ' ' ' ' ` i.p.z.K.F.F.z.*.Y Z y : @ @ + @ $ & 0 & & % % % & 0 u u 5 $ # @ X o X - - - ; r T g.h.p.R #.+.+.B O.o.>.7.l.l.l.7.$.+.+.+.#.#.i.B.P.P.B.2.3.1.:.1.m.Q.oXV.>.m.m.1.>.+.1.z.z.h.h.s.<.U U v.v.s.:.P B #.j.7.j.l.W.W.W.W.W.W.7.1.1.1.8.Z.|.&X|.&XrXiX[.L.G.n.{ K n F L i.J.).).V.s.<.<.i.<.L j 3 3 r z F R p.Z./.Z.k.3.1.#.1.#.1.1.1.x./.V.k.7.7.7.k.k.x.z.i.L h h z L E / } } d.D.d.d./ T h h z R h.L.U.@XK.z.V./.Z.3.s.P.%X%XrX%X@XP.V.V.3.l.%.O.l.8.%.3.K.P.K.f.Y z 4 > e a s r 4 z R b.[.@XP.k.:.o.,.8.9.@.7.W.W.l.7.%.#.N M 1.z.z.R L L M M L U R P L L #.z.K.z.E v v %.$.7.7.l.R.W.V.i.E I ` <.o.O.;.9.8.1.N l 2 q e s p 2 2 w U h.V.P.p.U <.k.p.%.N %.+.$.7.0.l.W.W.V.K.K.s.P 6 6 v #.z.K.P.).).B.f.P R L 3 4 3 l l z F Y / / / ^ Y L E i.s.B.B.s.1.1.+.N +.p.$.$.z.P.P././.W.j.c.V.K.b.{ m 2 ; ; ; 3 l n L I R d.h.h.d.Y x 6 l S E p.p.1.k./.OXOX(.W.M.k.1.s.a.i.` s.k.s.1.s.k.V.@XrX#X#XZ.k.3.1.>.m.q.4._ U U i.f.g.i.i.E v x U p.k.k.l.l.j.$.$.1.1.j.p.1.#.#.<.<.U P M L <.J.P.B.h.i.Y R / d.d.h.h.b.J.a.F q ; - - X X X X @ - , i i i u 9 < , : - - - - - 1 < e x L i.b.J.P.$X;XQ.Q.R.e.0.t.t.;.] ] _ 2.a.v.v.v.].oX@X%X%X%X%X%X@XK.s.<.#.U L v c k v P f.K.F.i.#.E P P v c v E ",
"<.i.h.L.U.U.U.U.P.K.K.z.z.f.p.p.<.<._ I n m ' [ | | g.h.h.z.F.K.z.f.R Z r 2 - X @ @ # , 0 0 % $ $ + + + # % 0 u 5 , 1 1 - X X = - - > C } Y.Y.h.R #.+.+.%.%.O.5.l.T.W.l.7.@.%.+.#.1.z.P.wXrXrXU.m.3.>.1.8.m.V./.m.+.m.m.1.1.+.1.k.s.z.V.J.s._ B M U 2.s.1.#.$.$.$.&.-.7.j.l.W././.Z.8.>.1.1.8.Q.&XQ.|.,XjXhXeXL.I.L.d.I L ` h.P././.V.k.s.h.B.B.i.n w w x F H L i.V././.k.p.p.p.+.+.1.3.1.z./.Z.V.k.7.7.x.V.k.<.P x h l L R d.S.d.d.d.( ^ Z Z Z z L i.U.rXrXwX@XB.B.z.s.:.+.3.N.%X%X#XoXZ.V.B.V.1.$.@.1.7.1.1.l./.@XL.R z r 4 > a s C r w x { J.U.@XP.k.:.o.>.8.9.@.7.W.W.l.7.%.#.N v #.K.K.p.E U L L L R <.i.<.R p.K.K.f.P k v %.$.-.5.l.R.W.Z.i.E I ` :.o.O.t.0.8.1.P j w e s G a q 2 w x <.B.).z.#.#.p.f.#.N +.+.@.@.&.j.W.^.Z.K.K.k.N 6 3 h v U f.V./.).K.z.F.K.J.d.R / { { C x Z H ^ ^ R Y v L R s.B.B.m.s.1.+.U +.+.$.j.p.z.K._.-X(.x.l.V.B.h.` m q 2 2 2 z x L R / d.h.S.h.i.E Z x S *.f.z.z.z.^.#X-X(.R.W.M.k.1.<.<.a.p.s.2.s.k.s.B.@X#X#X/.P.V.m.k.k.3.q.4.4._ :.a.b.J.h.i.R L v v U 1.1.7.l.x.k.1.1.3.p.z.x.k.<.#.1.<.U U P P <.z.K.J.z.p.*.R R *.i.h.h.b.B.i.z > = X = X X - , u u u a a f f d a p p : : ; - - - - : q w m I ` n.P.%X%X+XOXE.R.0.0.6.4._ _ _ 4.2.v.m.m.B.Z.P./.$XyXdXdXrX/.B.s.<.U M k k x P p.z.F.h.p.#.P P v v v S ",
"h.J.K.U.).U.K.J.z.z.h.h.p.i.#.#.U m j m g.n.| T ` g.G.U.U.F.c.=.R Y l 2 > : - @ @ # , 0 0 # @ + # + + + + # , , u , , 5 5 1 - X > : 2 F g.Y.L.h.U +.+.%.O.@.&.7.W.W.W.l.@.%.%.+.j.V.).yXdXdXtXrX/.k.>.3.k.8.m.Q.3.B k.m.8.8.1.k.k.1.1.k.B.B.s.<.m V B 1.z.V.j.+.+.$.$.$.1.j.V././.OXM.>.8.>.>.M. XQ.|.%XgXBXiXeX[.[.L.i.` h.P.P.V.B.k.s.s.z.J.J.a.E z z F T T L #.k././.V.j.p.k.+.+.3.k.1.k./.^.W.k.1.7.V.V.p.P v h h x E d.S.S.d.} ( ^ Y F F Y R i.S.tXjXjXtX).V.K.k.+.V +.m.Q.%X+X@XP.V.k.z.z.p.%.3.V.3.@.l./.@X@XG.F w r e 2 C C C z r C i.L.U.@XP.3.:.;.>.8.9.@.7.W.W.l.7.+.+.v k +.J.).K.f.i.<.R R <.p.h.h.z.J.K.z.#.c c v %.$.&.5.0.R.W.Z.i.E I ` :.o.O.t.0.0.1.U x r s f ~ s e r r r L p.U.P.z.<.<.p.1.P +.+.%.@.@.0.T.W.^.P.P.K.p.P b c c M #.k.B.B.z.z.).tXtXtXU.U.Y.h.{ T Z Z Y Y Y Z x v L <.B.K.B.s.1.U <.+.v #.z.#.p.B._.-X(.W.x.V.B.s.T z q q w l Y R / / *.d.d.f.f.i.E S S E f.F.x.K./.#X-XOXW.l.R.l.7.1.:.<.p.B.s.:.s.B.s.Z.rX#X/.P.V.m.B.V.m.m.B B _ 3.C.[.@XU.h.i.U L M N U 1.7.j.l.x.k.1.1.7.k.K._.K.k.p.p.i.<.#.U U <.s.J.K.J.z.f.*.E E R i.h.B.L.b.I w > - - @ - , p d f f 9 9 a a d d d s e e < - - @ - : > q q y z I a.B.@X%X%XOX XE.M.8.3.4.4.4.4.3.v.m.s.s.m.B.V./.%XdXdXyXtX@XP.s.<.U M v x v #.h.F.B.z.i.E P v v v v ",
"P.U.).).).K.B.h.h.p.p.i.#.R U I K ' ' ' | { { a.a.b.K.).K.c.#.S C w ; - - @ @ # , , 0 0 , # @ @ i , # @ # , 9 u u < < p p < 1 = 2 2 y J g.Y.h.<.E U %.%.@.&.5.l.W.W.W.7.@.%.@.7./.#XfXdXrX@XwXtXrXV.1.1.1.1.k.Q.k.+.M.V.8.8.>.3.k.1.1.s.B.B.m.k.B.1.U N +.1.1.$.#.#.1.1.$.1.k.k.l./.Z.k.M.k.1.M.E.|. X+XhXgXgXdX[.@XP.b.p.B.V.B.s.1.+.:.1.s.s.h.p.i.I F F L T I R j.^./.V.k.k.k.+.+.3.k.1.3.V.Z./.l.7.8.V.V.$.v k h l L / d.f.S.D.d./ / ( d.S.G.*.R *.h.@XrX@XJ.B.V.s.V V 3.oX;XoXoX/.P.B.k.s.s.p.N p.K.1.<.V.).U.P.d.z 4 e r e G G H z r Z i.L.[.@XP.3.:.:.>.8.9.@.7.W.W.l.3.+.P b c v h.).tXwX@XP.B.h.h.J.P.U.tXtXU.s.M 6 h b %.$.$.7.0.T.W.V.i.R I ` :.o.O.0.0.0.1.U x t s f ~ d a s s r C R B.U.P.s.#.<.3.$.%.%.%.@.7.7.l.x.V.V.K.K.K.z.+.b b P p.k.j.j.z.^.uXdXdXdXtXwXI.Y.G.} Y Z F Y Y Z x x M #.k.V.B.m.1.+.1.+.v #.z.#.p.B./._.^.W.W.^.K.a.K w w r Z Y ^ / / *.*.*.*.i.p.i.#.E R #.z.K.x./.yXuX-XQ.W.W.l.9.7.>.+.1.k.B.s.+.3.B.k.Z.%X/.oXZ.m.3.1.1.:.U _ _ 3.C.rXdXrXwXs.<.P N P P <.s.k.l.l.l.7.@.1.k.V.).rX#XK.z.f.p.#.+.U U #.p.B.K.K.B.h.#.P P R <.2.n.L.J.{ x 2 - - @ - , p d a p , > e a s s s s s a e > : @ @ # : : > > q t F I b.P.$XrXyXOXQ.N.w.q.3.,.>.:.>.,.k.m.B.B.B.B.V.P.#XrXuXyX#XP.k.p.#.P v v M #.z.J.z.f.#.P P P v k ",
").).).P.K.z.s.p.h.p.i.<.U I L L ' | | { ` ` f.L.L.L.J.S.f./ S Z 4 : @ X @ @ @ @ , , , , , , < u u 9 , # : , 9 9 e < e s s e 1 - t t F | G.G.a.R P P %.o.@.7.0.l.l.l.l.7.$.7.l.^.yXuXfXyX/.z.K.#XuX/.k.1.>.1.k.Q.8.o.k.m.1.1.:.7.k.7.k.V.V.B.s.s.B.B.z.1.B N B +.#.<.<.<.<.<.1.3.3.V.V.V././.W.W.E. XOXOX+XpXgXSX$X@XP.B.B.m.3.+.+.B N +.<.1.1.p.p.f.i.I L L T R U 1.V./.^.k.k.k.#.+.1.p.#.1.z.Z./.V.l.l.x.k.+.v c c x Y / d.d.d.d./ Y Y / S.I.0XY.i.E L R p.<.P #.<.U V +.N.%X;XQ.Q./.Z.B.s.p.p.<.P <.B.<.p.K.P.J.f.T r 4 < e s G G G z r x i.L.@X@XZ.3.+.:.>.7.9.@.7.W.W.l.1.%.N b c c R K.tXdXdXdXtXrXrXrXtXdXDXdX).i.v 6 c v #.1.7.7.0.T.W.V.p.R U ` :.o.O.0.9.9.7.+.x r s d W f f d s s C F i.J.).B.#.#.3.k.+.+.@.@.7.7.j.j.x.x.V.K././.p.N N %.1.p.p.p.x.).uXtX9XL.J.G.Y.Y.H.} Y F Y T Y L x x v P 1.k.B.m.1.1.1.+.N #.f.i.s.V././.^.(._._.V.i.n w w z Y / / / / R R / #.#.p.p.f.j.k.z.V.V.x._.fXaX-XW.W.!.l.7.7.@.1.3.k.m.2.<.s.m.m.Z./.V.Z.B.s.1.:.:.+.U m.m.C.].$X$X@XK.p.+.P N N B +.8.k.k.l.j.1.%.1.k.K._.rXtX)./.K.k.+.P N U #.p.B.P.J.J.h.#.P R *.i.<.s.L.L.g.K q - - - > 9 u u u u < e e e a a s r A A s e > @ @ + @ # : , 9 e a t T { B.@XrXrX#XoXN.N.M.w.8.,.>.:.1.3.k.k.V.V.V.V.P.@XrXuXyX#X/.K.k.#.N v v P <.z.z.z.p.U P E N v ",
"^.K.V.z.k.s.s.s.s.i.<.U U I U ` | | ' { h.G.J.J.Y.S.d.R Z l r 4 > @ @ @ @ @ @ # # , 0 0 u u d f a 9 > : > > 9 9 e e s G G a < 2 D J | n.L.G.i.R #.+.%.o.@.&.0.l.l.l.l.l.l.W.(.-XfXyXtX).x.p.z.K.;XOXV.1.+.1.M.W.1.N 1.8.>.7.1.k.l.k.k.M.m.s.s.s.<.s.B.V.s.+.B N U U <.<.<.+.#.<.1.3.x.W.^._.#XE.9.E. X XQ.%XgXDXpX$XP.P.P.m.:.N N N N +.1.1.1.s.p.b.p.R L I R R U $.k././.V.k.k.1.P +.1.+.$.z.V./.W.M.l.7.+.N k c c x E / / / / ^ Y Z C Z ^ S.Y.7XJ.R x h x v k v k k V 3.oX#XQ.Q.Q./.Z.m.s.s.p.i.R <.p.p.h.K.B.f.I z r e : < s G H H z w x d.L.@X@XZ.3.+.>.>.7.9.@.7.W.W.l.1.%.N v k h x p.).tXjXBXSXDXDXSXSXvXDXdXB.P c 6 k P $.p.7.7.0.l.W.V.p.R U #.<.@.t.0.u.9.8.+.x r r a W W d u p s A C I p.K.J.p.#.1.k.1.@.@.@.7.7.7.j.k.V.V.V.^./.x.1.+.%.+.1.j.j.V./.K.f.R x x x L I { T Y I ^ / Y L x x x N +.1.k.B.k.k.1.+.E U #.p.p.z.V.W.^.-X-X/.B.2.n w w F R d.*.*./ E E E P P #.p.z.Z.W.W.V.V.W.#XuXuX(.W.W.W.l.7.>.>.7.k.k.k.1.k.k.m.Z.V.k.k.2.2.<.<.<.2.m.B.P.P.P.P.P.C.v.2.<.+.U B V V o.1.1.7.l.j.@.%.1.l.^./.).).@X#X).P.k.:.U +.1.s.B.P.K.K.z.#.#.#.p.<.<.s.J.L.G.{ z > > e a s p u u u e e r r r l C C H H G s 9 0 # # + @ $ , 0 9 9 8 y z T a.J.U.@X@X+XOX XQ.N.M.8.3.o.o.+.3.x.Z.Z.V.m.V./.#X%XrX#X#X/.z.1.#.P P #.p.z.z.s.#.U U P v ",
"K.V.z.p.p.p.s.s.<.R U P I ` 2.a.{ a.g.G.J.J.z.f.h.d.^ Z r > - @ , @ @ # , # # 0 , 0 u u p a d ~ s t e q q e e e s s D J H C r r D J } b.G.h.<.P #.+.%.o.@.&.5.0.W.x.W.W.^.(.#X-XfX#X/.K.z.1.p.k.OX#XQ.1.+.8.V.V.k.o.8.8.>.1.>.k.l.8.7.3.1.<.p.h.B.h.p.p.k.s.#.N I I U U U U <.<.1.+.k.W.x._.-Xl.5.R.!.!.E.;XgXSXjX%XZ./.oXM.>.o.V b N >.k.k.s.s.s.b.p.R I R ` R #.#.k././.V.p.3.$.N P $.+.$.z.V.W.W.M.8.+.N c h c c S R / / E ^ H H C r 3 z / S.J.h.R h 3 h M N v k k :./.yX#XM.Q.Q.Q.V.k.s.s.s.i.i.i.i.h.L.P.B.i.Z w r e - : p G H F z w x { J.@X/.V.3.+.>.1.7.9.@.7.(.^.l.1.%.v N v 6 6 P J.wXjXBXJXLXLXLXJXJXfX).<.v c c v +.p.p.j.7.7.l.W.V.p.R U R <.@.t.0.u.u.l.#.x r e p W W p , < s G C L <.B.K.z.<.1.k.7.1.@.+.@.7.7.7.7.z.x.z.x.K.K.V.3.+.+.1.z.x.V.Z.z.#.P x x j z F F F Y R { / Y L x x M M P #.s.k.k.Z.3.%.#.P S p.<.s.k.x.W.(._.W.k.<.n j j F R d.f.d.*.E Y S v v P 1.M./.(.Q.N.M.Q._.-X-XQ.l.l.l.8.7.>.1.j.l.j.1.1.V.k.m.oXV.1.s.:.<.<.<.<.s.B.P.C.P.[.@X@XC.s.<.:.+.+.B N b N %.@.7.j.j.$.%.1.x.^.^.K.K.).rXtX#X/.k.3.3.k.k.V.P.).).V.p.#.<.p.#.<.2.h.J.L.a.F q > e s f p 9 < 9 e r r r l Z F H H H H G a y 8 0 $ % $ 5 0 0 < : > q r F T h.L.[.%X+XOXOXQ.V.M.k.%.%.+.1.k.V.x.k.k.k.m.Z.oX#X%X%X#X/.V.k.1.+.#.p.z.z.k.#.U +.U N ",
"x.z.k.p.<.#.#.U v M U <.a.a.2.i.p.h.z.Y.J.F.F.S.R F y > : # + + # # 0 0 0 0 0 0 u 9 9 p s s G ! G t w t z r r t r H { } ^ H C z T I { h.J.h.<.U +.%.%.%.%.@.5.0.l.W.(.-XuXfXyX/.^././.K.k.1.p.p.W.#X_.1.%.k.Q.M.k.o.k.k.>.>.+.8.8.1.1.1.<.#.<.i.h.a.i.h.J.K.V.B.` I x n U 2.s.1.p.1.$.7.x.W.x.9.5.u.!.!.E.OXyXvXfXpX#X/.#XaX;XN.>.O.b N >.k.m.k.B.h.2.I L ` i.` P 1.k.Z.K.Z.k.p.1.#.B +.p.k.k.V.V.W.M.>.b c 6 6 3 k E R / R Y Z Z z l r l Z L I i.b.R h h U i.s.<.U <.P.yXyX_.W.W././.1.+.<.p.<.h.h.p.p.B.[.P.h.F w w t e - : s ! J Z r w x i.L.@X@XV.3.1.@.@.k.l.@.7.W.W.l.1.%.P +.P 6 6 M f.J.wXDXLXLXLXPXPXJXtXk.v h h c v +.k.p.1.>.7.l.V.^.p.R U <.1.>.t.0.u.R.7.+.L 2 ; p W W u @ - s G C x U p.P.P.k.1.1.1.Z.j.%.@.@.%.7.k.k.l.Z.W.x.V./.x.7.@.1.V.^.V.k.#.R R E L x j l w x L T T / R Y n L M k v +.k.Z.V.x.k.+.M v P #.i.s.j.k.W._._.x.k.P m n F L R f.f.f.*.E x 6 6 6 b o.k.Q.OX XM.8.-X(.(.(.W.l.7.7.l.@.O.7.M.l.7.l.1.m.Z./.Z.k.<.U U <.s.b.s.h.B.L.U.[.@X].J.B.m.s.:.:.+.N b b o.1.k.l.l.j.j.k.k.j.V.V.V.K./.).wXtX#X#X#X/.V.k.l.Z.#X).Z.p.+.P +.#.1.2.B.P.U.a.F z y C G s a p d f r w 3 3 l S Y ^ Y H C D D f g a i i % $ @ , 9 9 9 9 2 > 2 z } Y.@XoXOX%X;XOXV.8.Q.V.7.%.b N 7.Q./.M.1.8.V.OX+XoX#X#XyX#X/.z.k.p.k.z.k.<.E P P P ",
"1.1.1.<.#.U P N R #.<.<.2.a.a.p.B.J.K.F.F.f./ Y z y > : # + + + 0 9 i a a a a a f a e s G A A H T F F H Y F F F T { g.g.{ T F F R R i.b.B.p.#.U P +.+.$.$.$.@.@.j./.-X-X#X/././.V.V.x.p.#.+.p.z.M.Q./.8.1.M.V.M.k.o.k.k.@.@.+.1.8.8.8.k.1.R <.i.d.g.h.h.f.s.s.s.a.a.i.R M n U a.p.1.1.1.7.k.l.M.9.u.R.E.(.;XuXfXgXgXyX/.(.;XaX:X XN.>.+.@.1.m.V.B.B.<.I M I i.p.#.p.V././.K.z.p.1.#.B P 1.3.3.V.W.W.l.>.N c 6 c h k L R / ^ Y Y C l r l Z Y I R R h.R k N s.J.P.B.s.s./.yX;X/.V.Q.V.l.3.<.U <.s.p.p.i.p.L.U.B.<.n z r y > - : a D F x w w x <.B.@X@XV.3.1.1.@.8.9.@.7.W.W.l.1.%.N #.#.v 3 6 P h.B.U.wXrXdXjXdXwXrXK.p.<.#.+.#.<.z.p.$.>.7.l.W.W.p.R E <.3.>.t.0.u.T.8.#.L 2 ; e d d < X - e C z x M R B.P.B.<.+.3.Z.k.%.%.o.O.7.k.k.k.V.W.V.V.^.W.k.1.3.l.V.V.k.1.<.#.R L x j l 2 w z F Y / / I z n M M P 1.k.x.x.x.k.1.E L P R <.p.p.j.W.^.W.l.V.<.N n M U i.z.f.*.S 6 6 c b V 3.V.OXOX X X=XaXaX-XQ.W.W.l.k.7.k.%.o.8.l.9.5.7.M.m.m.k.1.<.<.<.<.s.B.B.B.J.L.U.[.[.L.a.i.<.<.<.:.:.+.+.+.@.@.@.k.l.l.7.j.l.x.l.x.z.z.k.z.V.P.).OX/./.#XyX;X/.k././.Z.j.+.P %.#.1.:.s.K.P.b.` T z D G G s s s s z l w h z L *.i.*.Y F D D K K X.W Q i u , , , < 9 9 < > > e D T p.k.P.$XrXrX@X/./.Z.k.3.@.+.1.7.8.m.M.M.k.k.V.Q.#X#X#X#X#X/.Z.V.k.z.s.1.#.<.#.U ",
"+.+.+.U U P N N <.<.<.<.<.a.s.B.K.K.F.f.*.Y C r > > , # + $ $ & u f W W W W ~ ! ~ s r C ^ ^ Y Y R R { i.a.i.{ i.b.J.J.h.{ I I E <.i.h.B.z.1.#.+.+.+.+.$.1.1.1.@.k./.#X#XZ.V.V.Z.z.z.k.$.P %.p.z.8.l.M.M.M.V.V.l.8.%.8.8.@.+.%.>.8.k.m.k.#.L L / / d.S.h.i.` { a.g.b.G.g.I n M U <.<.<.1.$.1.k.M.T.R.R.E.!.OX-X;XvXSXxX+XQ. X:XaXcXaX=XQ.M.8.N.P.P.V.s.I n I a.B.p.V././././.x.3.1.1.P P 1.#.#.k.W.W.l.>.N b b v k x S E / / Y H l w w l Z I / { ` a.R M 2.K.@X@XP.K.K.oX#XOXQ.W.Q.8.1.3.<.U ` b.p.<.i.B.@XK.i.I j z t q > : > 9 y w w w l n i.B.U.@XZ.k.7.$.@.7.9.@.7.W.W.l.1.%.+.#.#.v 6 3 v f.h.2.` <.s.b.B.B.V.V.K.P.V.s.<.#.B.s.+.@.7.R.W.W.p.R R <.3.>.5.0.u.R.l.$.L 3 ; : < u < = = 2 r w x k M a.P.K.1.N s.Z.k.+.%.%.%.1.k.j.k.x.V.V.V.W./.V.k.7.j.l.l.z.k.s.i.U M j j h w w j x I d.{ I w z L U <.j.k.k.x.V.x.p.#.U P U <.i.p.j.l.W.W.l.Z.k._ M M R h.B.*.L 6 6 x R s.k.Z.oX%X=X=X<XzXDXxX;XQ.M.M.k.k.8.1.@.>.l.l.7.5.5.Q.V.k.<.+.#.<.s.h.b.J.J.Y.I.I.I.7XG.{ F M U <.<.:.+.+.8.W.W.7.o.7.k.k.j.k.V.V.V.x.k.p.$.1.f.z.K./.Q.Q.-XfXaXOXV.W./.W.k.@.O.%.+.>.>.8.V.P.C.s.a.n F F H H G s s z x Z L E R =.p.=.#.Y F D K X.X.~ ~ W W d a p u 9 9 < < > < e q x I p.L.@XrXtXrX@X/.V.k.k.8.1.+.o.8.M.M.8.8.8.M./././.#XyXyX-X#XV.B.k.1.1.p.<.U ",
"#.U N V V N +.<.U <.<.2.s.B.B.P.z.z.i.R Z l q > > 0 0 $ $ $ i i W ~ ~ ! ~ ~ ....! C r C T *.d.f.i.p.h.B.B.B.J.P.P.U.U.h.U M U <.p.s.B.V.k.#.+.#.+.+.+.+.+.1.k.k.B.V.V.V.V.Z.V.k.k.k.f.p.$.#.p.p.8.8.k.W.Q.W.M.M.8.o.8.8.%.o.N @.1.8.m.s.L h w z H ( D.g.} { { a.a.g.n.b.n.i.U M L P +.#.1.1.3.7.9.R.E.E.M.M.Q.#XgXDXSXaXOXE.!. XaXcXzXaX;XOX/.oX$XZ.<.N M U s.B.B./.)./././.V.p.1.1.+.%.#.+.+.k./.W.l.>.N b N P v x x E d./ Y C 3 3 w w l F R a.a.a.U N s.P.P.P.P.[.@X@X/.V.W.(.M.7.+.:.:._ 2.n.p.<.B.@X$XB.U N h x z 2 : > 9 > > 2 3 w j L p.J.U.).K.k.j.1.@.7.l.@.7.W.W.l.1.%.k.+.N v v c L i.B.s.U M k M <.B.P.@XyXdXrX/.B.s.V.s.+.@.8.W.^.Z.p.<.R <.3.>.5.u.u.R.l.$.P h ; ; - < e > ; 2 3 h x j k ` J.P.s.+.s.B.V.j.$.%.+.1.k.7.k.l.V.Z.Z.Z._.W.l.7.1.7.k.x.z.z.p.L k j j x F F F I i.S.d.R w x I <.s.V.V.k.V.W.V.z.p.R L M R <.p.j.c.l.T.x.V.B.<.M M <.z.h.L L L R h.P.oXoXN.N.|.<XZXFXAXsXzXOXM.w.M.m.s.3.1.3.8.k.8.5.0.0.W.Z.B.k.s.s.z.B.B.J.Y.Y.7X7XY.H.D.( l 3 l E p.s.+.+.+.V.-XuXW.@.1.7.l.l.x.W.^.Z.k.j.1.#.#.1.z.z.k.W./.OXOX_././.V.W./.x.1.%.O.%.,.,.8.N.Q.Z.B.p.I L T T T H H F F T / i.i.=.=.=.f.i.R T F D f f f ~ ~ ~ ~ ~ G f : : : > e p 9 > q z T } h.Y.[.rXrX@X/.Z.B.k.8.1.o.o.>.8.8.M.M.l.M.M.W.OX;XuXyXyX/./.V.s.1.1.<.U ",
"U B N V N P +.<.U :.s.B.Z.Z.V.B.i.R F z q > : , 0 0 # $ $ u Q ~ ) ! ! ! ! ! ! ! K C l l x E p.K.z.V.K.J.B.K.P.@X@XrX@Xp.M k N p.k.x.K.V.j.+.+.#.+.+.+.+.:.1.k.m.B.B.m.m.B.V.m.1.s.<.U U #.<.<.#.k.7.l.W.Q.W.M.W.8.O.8.7.o.o.O.+.1.8.m.p.x 2 = ; r A ^ }  .| } | { { a.n.h.a.i.R P P N P +.<.1.1.8.9.l.l.M.V.Z./.#XfXDXDXxX<XOXE.=X;X1XcXaXaX;X%XoXk.N V P <.b.C.P.).#X/./.).K.p.1.p.#.+.#.+.+.k.W.W.l.7.+.B %.+.P x S / f.d.Z w 3 3 w 3 3 l I h.h.p.P P v.K.B.C.B.[.rX@XV.l.W.(.7.7.@.B U 2.s.a.s.k.P.#XP.:.V V j n F w q s s e q w w w z I p.J.U.).K.k.j.1.@.1.0.&.7.W.V.j.1.B z.1.#.p.#.L v L s.C.m.M 3 h V :.k.Z.$X#X/.V.k.s.B.p.+.+.k.W./.Z.s.#.R 1.3.>.t.u.u.W.l.$.E z 4 < 1 p A C l l c c j j k I p.J.B.k.1.3.k.x.3.@.@.@.7.7.j.l.x.W.W.W.W.W.x.7.$.1.j.V.K.K.h.U x n I T { ` ` a.G.Y.G.{ z F R i.z./.W.l.W.W.V.V.z.<.U n U R $.j.j.l.W.W.l.m.s._ U 1.k.p.U i.B.P.@XoXoXoXZ.&X<XZXGXKXAX<X=XE.8.8.m.m.2.<.3.k.k.8.5.5.9.M.W.Z.V.V.K.K.U.U.U.U.7X7X7XH.} ^ A r ; ; h R s.k.+.o.%.W.aXbX-Xj.@.7.l.l.V.W.Z.V.1.1.#.#.#.<.p.p.1.9.R.W.W.W.W.Q.W.W.^.W.7.@.%.O.O.O.6.e.Q.Q.V.k.U U U R T H T [ d.g.G.S.h.f.c.z.F.f.R F m m D K K J ! ! ! G s a - - - : 9 u 9 < > e s D H [ D.Y.eXrXrX#X/.V.m.8.,.;.o.o.>.8.e.M.M.M.M.M.M.Q.#XuXyXyX#XV.3.1.<.+.",
"M V P U :.:.+.U <.s.B.P.P.B.3.<.I F y 8 : # # & # # # # 5 d ) (  .} ! ~ H G D C F Z x x c v $.x./.)./.P.P.).#X#XyXrXP.<.k c N 1.x.x.W.x.j.+.%.#.+.+.<.1.2.2.2.2.s.B.C.B.s.2.1.2.+.N k k M U <.1.k.7.8.l.M.l.M.W.8.O.8.7.o.o.O.+.1.k.B.p.x ; = = ; < s ~ [ | | { ` a.n.a.R R i.b.i.R N M N U <.1.8.>.@.7.Q.#X/.V.V.#XvXLXKXGXxXaX;X*XOX*X:XaXfXpXN.:.V V <.B.L.P./.#X/.V.Z.)./.k.1.k.1.+.#.+.+.k.W.V.M.k.1.+.#.#.E v L d.S.d.Z w w l l w 2 w I a.p.i.U <.C.K.B.B.b.P.@XP.V.l.W.W.5.7.+.V U s.b.2.1.B././.3.V k b m L I F F J ! H F n z z x I i.J.P.).V.k.j.$.@.7.0.&.7.W.V.j.$.N #.z.).wXz.P x k <.].%Xs.V k k k U <.s.s.1.1.+.U s.<.+.@.k.W./.Z.p.#.R 1.1.&.&.u.u.~.l.#.R Z l C s G ( / R L P P j k k n U p.B.K.1.+.j.V.7.1.@.%.@.7.j.k.l.x.W.W.x.W.W.l.$.@.7.x./.@XK.i.U R a.a.{ a.g.J.0XwXL.i.F I ` s.K._./.x.W.W.V.V.B.p.R L U P +.1.j.l.T.W.M.V.B.s.s.k.z.k.B.].@X$XP.C.C.].pXSXGXGXHXDXZXsXN.w.,.w.m.v.<.U s.B.m.1.>.9.R.W.^.K.B.z.K.U.9XwXwXwX7XI.D.( C r > ; = ; l E i.1.1.%.%.k.(.-X^.l.@.7.l.l.V.V.V.k.$.+.+.P P U #.#.@.@.5.9.E.!.W.l.W.W.W.W.l.7.@.O.V O.t.0.E.Q.Q.N.<.U U <.{ R T { H.I.I.Y.F.F.K._.^.f.v h w D ' [ ^ ^ ^ H C r > - : : - : < < , , , < 9 9 e s J | L.[.rXpX%XoXN.M.6.8.8.,.O.o.>.8.Q.V.k.>.@.8.Q.-XyXdXyX@XV.k.k.s.",
"U U _ :.<.<.<.1.m.B.V.B.k.+.N k w q 8 0 # # & & & # $ , p ) ) ( ( ) G A H H H C z Z L R E %.$.x./.#X#X@XrXdXfXuX#XP.1.V k V +.3.V.W.x.x.7.@.o.+.+.+.<.1.s.s.3.3.s.m.B.v.2.2.<.<.N M x k M P <.p.+.7.8.7.7.l.M.V.7.%.7.7.%.o.O.@.1.s.B.p.F 2 = = X X - e s G K J { i.a.i.R R ` h.s.a.<.U P P U +.@.@.@.1.M.Z.K.B.B.P.yXSXKXKXKXGXZXcX=XOX*X;XaXpXQ.3.U <.B.K.P.]./._./.k.z././.k.1.k.1.#.+.P +.V.V.V.W.V.k.3.#.#.#.L E f.Y.d.Y Z F F Z z l x I ` R U U p.@XK.s.s.B.L.P.Z.Z.W.l.5.5.@.%.o.<.s.s.2.k.P.oXm.+.b b b N I I T { |  .| { T F x n R h.P.U.).V.j.j.$.@.7.0.O.7.W.x.7.@.N P x.uXdXwXJ.*.L <.B.%X%XB.:.V b <.s.m.k.k.k.k.1.<.<.+.>.k.N.W./.p.R U #.1.&.&.0.T.^.l.+.R Y H ! ^ ( } d.i.#.#.#.M L n k n <.B.P.B.+.3.V.3.1.1.B o.7.l.k.j.l.W.W.l.W.(.W.7.@.1.k./.tXtXJ.p.h.b.n.a.b.Y.0XtXwXY.` T ` ` s.K._.^.l.W.x.x.x.K.B.a.` E L P $.j.j.j.l.V.V.Z.Z.B.k.z.V.@X$XeX@XC.C.$XhXDXKXKXSXsXsX<X=Xr.8.8.m.m.3.:.U s.B.m.>.@.9.R.W.Z.K.x.K.K.).9X9XwX7XS.( A r ; ; = = = ; l E *.#.p.@.%.%.$.j.j.7.7.k.l.j.k.k.k.7.1.+.P N v N E +.>.O.>.5.9.M.R.R.W.R.W.W.W.x.7.@.O.O.;.5.e.E.Q.V.3.U P i.b.a.R I a.G.[.wX).^.^._.^.#.c 2 2 t K J T T F F x r r 2 s s d d d p u < u u 0 , , 9 t D ' i.B.oX%X%XOXQ.M.E.E.e.,.@.o.;.8.8.8.8.8.M.V.W./.#XrX#X#XoXP.B.",
"s.2.<.U <.s.B.K.B.B.s.i.U x h 3 : : # # # 0 0 i 0 0 , 5 A ) ( ( ! C r l Y / / Y h x #.h.z.j.j.x.K._.#XtXfXDXDXvXP.1.b c b +.3.k.W.W.l.l.7.@.o.+.+.+.+.#.<.s.B.B.s.2._ <.v.C.s.P M P R <.R U <.p.N @.7.7.7.k.l.l.7.%.8.7.%.%.B >.:.2.h.g.H 2 - X . . X @ : e s D { R R { f.f.<.I <.s.B.s.<.N V V N +.k.k.#.+.p.B.K.K./.uXSXGXKXIXGXFXxX1X;X=X;X;X%XZ.m.Z.P.P.P.oX/./.Z.3.k././.z.1.j.1.+.+.P +.V.V.V.W.W.V.j.#.+.#.P E h.J.h.R Y / I L F L I U R M L U B.@XV.<.<.P.K.B.B./.oXk.N 8.O.N +.s.2.<.2.Z.+XoXk.B V V k N M I ` a.d.d.g.i.R L x M <.J.@X/.).V.j.7.$.@.7.0.O.7.W.x.7.@.N +.z.).tXjXjXwXh.<.<.B.rXrXB.:.U :.s.B.B.B.V.z.p.R R +.1.8.M.W.Q.p.R U <.1.&.&.0.R.~.k.+.R R ^ / } / / d.#.#.@.1.<.#.N k k <.V.@XoX1.3.V.8.3.8.o.O.7.l.k.7.l.W.^.l.^.#X/.7.@.$.k.K.rXrX@XJ.B.b.a.b.L.wXiXiXtXb.E R ` i.h./._.W.j.x.l.k.z.K.J.B.p.R M v +.7.7.7.8.W.N.V.Z.V.k.k.K.oX$X$XoXoX%XSXKXKXKXSXpX<X<XOXr.e.8.8.m.m.3.:.U 2.m.k.>.@.l.E.E.V.K.K.).wXwX7XY.Y.D.( C 4 ; = = = = ; 4 C / i.p.k.1.%.b b N %.@.k.l.j.1.1.j.k.p.k.1.%.v b v P +.1.8.0.@.N O.l.(.W.l.l.W.(.^.l.>.O.O.t.t.0.E.E.N.k.B V p.K.B.U x z { [.dXtX).K.K.z.P h 2 3 w w w j x x n F F J J [ [ [ ! ~ W f d u u u 0 , , > q t z F 2.P.rXpX<X+XE.N.N.Q.M.;.V V o.8.Q.#XOXV.k.k.V./.#XyXyXoXV.",
"P +.<.s.B.J.J.b.h.d.{ F z q ; - : # : 0 9 a f f G G G A H H ) ( S x h h R J.z.P P p.z.V.K.)./.K.).U.).9XtXuX).K.#.M k k N 1.k.V.9.T.l.5.@.%.%.P #.#.#.<.s.k.p.1.<.v.B.s.U L U <.R R <.<.i.i.<.#.1.@.>.k.l.k.k.l.1.%.1.7.+.B +.U <.p.b.d.H 9 @ . . + $ + . . - < Z Y / d.*.*.i.p.U U U +.<.1.:.B U U U ` <.i.i.i.p.z.K./.#XpXxXDXKXKXKXFXZXaX+XOX;X%X+X%X&XZ.P.oXOXl.>.1.k.M.V./.k.3.+.U P U #.k.k.V.^.W.W.V.k.1.z.P v z.9XK.f.f.#.E U U M k v P U p.K.).P.z.p.3.yX/.k.V.oXK.s.P <.N B 3.7.o.5.!.OXQ.A.:.V k V U <.<.a.L.@X].B.s.<.#.U U #.3.V./._._.V.j.j.$.%.7.7.O.5.W.V.k.$.B #.E R h.9XkXtXwXp.U P B.rXrX/.B.p.B.s.<.p.p.U P L R #.3.l.R.E.l.1.#.R i.p.$.5.l.E.E.8.>.#.i.g.d./ R E #.p.k.$.O.+.+.+.N b B k./.V.V.k.:.1.m.k.+.N $.c.c.j.c.x._._.^.^.^.c.j.$.#.K.wXdXjXkXeXwXeXeXiXjXBXdXP.<.P E #.h._.rX_.V.7.+.k.k.k.z.K.J.i.#.+.U B +.+.1.3.k.m.V.Z.Z.V.Q.oX'.|.%XpXSXFXKXKXFXxX;XOXOXOXQ.l.8.8.M.8.1.>.1.k.l.7.@.1.l.W.W.V.k.B.@XtXtX7XH.D.( A 4 = - > : @ - - - 4 Z R i.f.p.$.O.b b b o.$.j.j.k.x.V.z.p.#.P P U #.1.3.1.+.N V N +.3.k.3.:.3.V./.W.W.W.W.l.0.t.t.O.5.R.E.E.e.>.o.1.V.P.B.z.M k x <.P.@Xh.I z L R I Z x F L <.<.h.B.J.G.h.g.} [ ^ ! ! ! ~ ~ f f a u u < < > : q t K ` b.].,X%X$XoXZ.N.r.6.6.6.,.;.;.,.m.Z.].V.V.N.Z././.#X#X",
"p.p.p.h.S.S.S.S.T H C r 8 : : : : 0 8 a a f G G ! ^ ^ ( / ( / / P v c v <.B.k.+.p.z.K.P.).tXrXwX9X9X9X9XU.F.p.#.P U +.<.3.k.m.M.M.R.l.7.%.+.+.E R E #.p.z.V.x.k.s.2.<.U L P <.p.h.i.E U #.p.s.p.3.>.>.7.8.7.k.l.7.@.3.j.+.B +.U 1.h.G.g.! 9 + O O O % $ . . . X 4 7 Z ( / *.*.*.i.<.#.+.:.>.>.1.U U _ ` ` ` i.i.p.p.k.m.Z.OX<XsXDXGXKXKXKXSXaX;X;X+X+X#XoXQ.Q.oX(.8.o.>.k.N.Q./.k.3.#.#.#.#.<.s.k.M.^.^./.W.x.j.1.b b z.tXwXK.U.z.p.<.<.<.U #.p.k.K._.).V.k.z.V.-X(.^./.K.v.2._ _ U :.8.5.O.0.!.OXN.3.B V V _ 2.K.P.@XdXjXpX#X/.B.z.p.<.<.1.k.V.(./.x.j.j.@.%.7.7.O.7.W.W.k.1.P U L S E f.Y.7XU.B.U V :.V.oX/.K.B.P.z.<.<.#.M v L R $.7.l.R.R.M.3.U R <.p.$.7.l.R.M.8.>.#.<.i.d.d.*.p.z.K.W.l.7.l.j.$.N b b +.l.Z.Z.M.3.3.m.3.:.P $.j.z.c.c.x.^._.^.x.c.c.c.$.%.#.z.rXjXSXjXjXBXJXJXJXJXrXs.P v =.c.K.tXtX_.V.8.+.1.s.p.z.K.F.p.#.+.U N U +.1.3.k.k.V.Q.Q.N./.+X&X,XsXSXFXFXDXSXxXuXOX/.^.W.l.7.l.l.l.8.>.@.7.k.7.>.1.7.W.(.(.^.Z.K.[.wX7XS.( ! r < - X - 9 e > - - ; e Z / i.p.j.$.O.b b N %.1.j.j.z.x.x.z.p.#.R R #.<.3.1.+.+.U U U U :.<.1.1.1.k.V.l.l.W.^.W.u.0.t.;.5.e.E.M.M.>.+.>.k.V.Z.P.k.<.U R i.i.I j n T i.i.i.*.*.i.<.s.s.h.h.f.a.i./ ^ ^ ^ ^ ! ! G f f f a p u < < e e q q t K a.n.L.].].&X&X|.M.w.6.,.,.;.B _ 2.s.Z.N.m.m.V.Z.#X#X",
"z.z.S.J.F.h.{ ^ r r > - - - : , 9 9 a f G ~ ! ! ^ ^ { d.S.S.d.d.E v v R f.z.p.<.K.U.).U.U.).).U.Y.Y.Y.z.*.P L v +.1.B.P./././.Q.W.R.9.@.%.+.+.P E E #.p.V.V.l.7.1.:.U P U <.f.h.J.i.L L E i.p.p.3.1.1.1.7.7.k.V.j.1.k.k.+.B +.+.3.z.J.D.! a # +   O % % $ .   o = = 4 l Y / / / / i.p.s.s.1.<.:.s.2.U N M L i.h.p.i.<.1.k.N.Q.|.aXZXGXKXKXGXDXSXfX;X%X%X+X/././.Q.8.O.o.1.M././.k.3.#.#.#.#.<.p.7.M./.(._./.Z.k.#.b v z.uXdXuXdX@XP.B.B.B.B.B.V.#XrX).z.#.1.V.#X/./././.m.<.` 2.N U 1.8.5.&.u.!. XM.>.B +.2.Z.@XiXdXBXJXFXvXpXyX@X/.V.s.1.3.k.M././.l.7.j.@.%.7.l.O.7.Q.W.k.1.U P v h h x E f.Y.B.+.b V +.s.B.V.P.@XK.z.z.<.M v L R $.7.l.R.W.M.1.U U #.*.#.$.9.9.e.8.1.+.#.i.i.f.S.K.wXuXuX-X-X^.V.7.%.b b N %.M.Z.Z.m.m.N.m.3.%.$.j.j.c.k.c.x._.^.x.x.K.c.$.N R p.@XjXLXLXLXLXLXLXJXdXJ.U v v j.K.9XtXrX/.l.7.+.<.#.#.p.J.F.h.<.+.U N B +.<.1.3.k.V.Q.Z.Q.#XfXNXZXFXGXFXZXpX;XOX(.Q.W.W.l.l.7.l.M.l.7.+.%.1.k.1.>.1.k.W._._./.[.L.L.G.d.H r 2 - - - - : e e 9 - - : y H / i.p.j.$.o.N b N +.1.p.j.z.x.z.f.p.<.p.#.<.p.1.+.+.1.<.<.<.:.+.+.+.1.1.3.8.3.7.M./.!.E.y.0.t.6.e.M.e.M.8.>.>.3.k./.#XdX@Xs.U L F F F ` a.b.L.J.z.f.f.h.p.i.<.E L L F T T ^ ^ J G C s a d d d d p p p s e : - > y m K g.n.].eXrX&X|.N.w.w.8.>.B V B _ m.w.8.8.m.N./.OX",
"S.S.Y.Y.S./ C e 2 > - X X - > 9 a s f G G G G G H F Y / d.h.f.i.#.v P p.z.p.<.s.K.P.P.K.J.B.h.p.i.i.R L S S U #.1.k.V./.oXOXOXOXW.R.8.@.+.#.+.N #.+.#.p.l.l.7.%.o.+.:.1.s.B.J.J.h.a.R R R i.i.#.1.1.>.1.7.7.k.V.k.1.k.k.+.B +.%.j.z.J.S.[ s , +   . $ & 5 # X X o o = ; r A ^ / { i.f.p.i.<.<.<.s.s.1.#.L L R i.p.<.<.1.3.m.A.r.|.+XaXZXDXGXKXKXSXxXfXyX%XoX/./.V.0.o.O.o.1.V./.k.3.<.1.p.#.<.1.3.l.^._._.#X/.V.1.v b 1.).dXjXvXyXrXrXyXdXdXpXyXdX#Xk.+.b +.Z.uXW.Q./.Z.s.U <.s.V :.3.7.5.9.R.~.R.M.8.8.B.oXpXgXjXjXjXSXjXpXyXyXyXtX/.k.3.1.k.W././.x.k.j.$.%.7.l.@.7.Q.W.l.1.%.E v l 3 3 Z *.J.p.+.V k k v U 1.B.P.P.K.K.s.P v L R $.7.l.R.W.M.1.U U #.#.#.$.l.9.M.M.>.U U *.i.J.U.wXuXfXuXuXuX_._._.W.k.1.+.N k.V.W.M.k.M.N.M.1.$.@.$.7.k.l.x.^.^.^.^.^.x.$.b v L i.U.tXjXjXjXkXiXwXB.P c k P z.^.tX#X/.V.k.7.1.+.P v R h.J.J.i.#.U N N U +.1.1.k.V./.Q./.;XZXKXGXGXSXsX;XoXZ.M.M.V.V.l.l.l.l.l.l.8.7.%.+.3.k.3.1.1.s.V././.P.U.b.i.T x 2 - = ; : : > 9 9 9 > - - > t Y { i.p.p.$.%.N b N +.$.1.j.z.z.j.p.p.p.f.#.1.s.1.+.+.s.<.<.1.1.<.+.+.+.3.3.1.>.1.k.V.W.E.y.e.6.8.e.e.9.M.k.8.7.1.3.V.@XrXwX@X@X[.U.L.L.b.G.L.U.).K.c.p.#.U M k h h z Z { } } ^ H s r r 9 9 e p p d d d e > - - : 8 q w J { b.[.$X$X$X&XN.N.N.m.<.:._ :.:.>.3.m.N.N.V.V.",
"D.D. .[ ! s 4 - : - @ X @ : u d f G G G A s r r r w h z Y i.f.h.p.#.*.z.z.<.i.B.J.J.J.J.h.i.R I x k h k L #.s.k.k.k.V./.#X-XOXQ.M.M.8.1.1.<.U V #.#.1.7.k.8.5.o.O.>.1.k.B.J.P.U.Y.G.h.d.d.i.d.i.+.@.$.1.3.k.l.l.j.1.k.k.+.N %.+.j.x.K.S.{ f < #   O $ i u u u , X X X X X > C H D.d.{ I L E i.h.N <.B.K.z.<.U P #.R :.<.s.m.m.q.M.N.oX;XfXSXFXKXKXFXvXfXyX#X/.V.8.7.>.V N o.m./.V.s.1.1.p.<.#.#.1.l.W.(._.#X_.^.k.B c v p.).fXvXfXgXjXSXDXDXDXjX/.V.1.B +.8./.yX/.Q.V.m.<.U U <.U :.1.5.9.~.`.~.~.!.(.OX#XyXdXjXdXtXrXrX@X/.#XyXfXdX@XV.8.3.M.Q.Q./.M.k.l.$.$.7.l.@.7.Q.W.k.1.P #.R L l h Z d.Y.<.<.U k 3 h P p.J.P.B.h.h.R x x E #.$.7.9.R.W.M.1.U U #.#.#.$.9.R.E.M.>.N U p.z.).).9X).)._.#X-X-XyXyXyX#X/.V.k.M.V.W.M.8.8.M.M.l.7.%.o.@.7.k.l.V._.#X_.^.V.z.p.P v v R p.J.L.U.J.h.i.L c h x U K._.tX/.V.x.k.k.s.+.b c L p.K.K.s.<.+.N N U +.:.1.s.V././.oXpXSXGXDXZXhX%X|.N.N.k.M.W.W.l.j.7.k.7.7.7.@.@.1.8.k.1.1.s.B.P.P.K.B.g.' D y > - X - < e 9 9 u a 9 , - : e D T { i.i.1.$.+.N N N +.$.1.j.z.z.j.p.1.1.p.$.1.p.p.#.<.z.k.s.1.1.1.1.1.1.1.1.>.>.1.7.8.8.w.r.e.e.M.M.M.8.N.M.V.l.k.1.k.Z.s.C.$XjXBXBXiXwXb.h.J.).9X^.F.z.E L x k x E i.S.Y.H.g.^ C r e e < < < < < p d d e < : - : > > 8 t D T | b.P.@XrX&XoXoX/.V.m.2.<.o.:.,.8.m.M.m.A.",
" .} G p < : - - - @ @ @ : u d W ~ ~ G A C r r 4 3 3 3 h x #.s.K.F.z.J.K.s.R i.P.P.J.h.i.I j w w w h k P i.k.B.m././.oX;XaX;XOXE.k.k.k.1.<.+.U V +.<.3.8.9.9.0.5.>.>.7.k.k.B.L.I.G.H.g.{ T E i.f.+.@.$.1.1.k.k.k.j.1.k.k.+.O.@.@.l.x.x.z./ G p 0 + + $ i i a u u - - - X . X : a G H ^ { } { d.d.U 1.k.k.s.p.p.1.L P U :.2.3.v.q.8.M.Q.OX%XpXgXxXLXFXSXfXyX#XP.k.@.>.o.V b +.V.@XV.k.1.<.i.#.#.+.1.k.V.W./.#X#X/.x.+.c c v s.).yXfXgXjXgXgXpX#XZ.3.1.1.k.Q.OX#X#XOXQ.m.3.:.B N B <.1.@.5.T.`.`.~.`.-XuXaXuXyXtX@X@XU.P.B.B.B./.rXfXdXyX/.M.k.M.W.Q./.V.l.l.1.@.j.l.@.7.Q.W.k.$.N P E P v l x R f.B.B.s.N k N B.@XwX).s.R U x h x R *.=.7.9.R.R.M.3.R R #.#.#.$.9.E.W.M.>.P #.z.K.tXwX)./.K.Z./././.@X#X#XOX_././.Q.Q.Q.M.9.7.9.9.N.0.@.o.@.7.k.l.l./.#X^.c.K._.tXK.p.R P U L L L n z h h c x E f.^.#XrX/.V.V.V.m.k.+.k c M p.K.K.z.s.<.U N N U +.<.3.B.P.Z./.%XgXpXpX,X%XoXZ.N.m./.oXOX(.W.l.j.j.7.@.@.@.7.8.8.3.U <.B.[.[.L.n.` D t q > - - : > p p 9 9 a f a 0 : > t D T { i.p.1.#.+.N N N %.+.p.j.z.z.k.j.1.$.1.1.p.p.p.p.h.h.P.z.p.#.$.3.k.k.>.+.+.1.7.1.>.,.,.6.w.e.M.N.M.8.W.V.W.W.V.k.k.x.B.s.a.s.b.B.n.a.` R p.K._._._.tX).U.J.J.J.U.wXwXY.S./ C 4 4 4 4 r r r e 4 4 p p s p < - - - - : : > y C J a.L.wX@X$X@X$XoXZ.m.3.3.,.>.:.>.3.m.m.",
") W p : @ - , , , , , 9 u d W ~ ~ ~ H A A l l l l h h h k P s.K.).).).K.#.L R J.U.h.I x w 2 2 w I U <.s.B.Z././.pX;X;X;X;XOX!.E.8.k.j.:.U U U N B :.8.8.0.6.9.0.6.6.8.k.B.L.Y.H.} } ( T Y Y T R <.1.1.#.#.p.k.k.k.3.l.x.@.O.@.7.j.l.c.f./ H s 9 # # # i a f a u 0 u , # @ X X - - > C ( D.D.( Y s.3.$.+.#.1.s.z.<.<._ U U _ <.3.3.8.M.N.Q.oX%X;XvXvXfXyXrX#XV.3.>.>.o.V V 1.Z././.k.1.<.<.R U P 1.7.l.V./._.#X_.V.7.N c h V 1.k.V.oX&X'.Z.A.m.,.8.m.Q.+XyX;X#XOXQ.m.3.:.+.N N B k.1.$.0.T.~.`.`.*X-X-XyX#X/.B.s.h.p.p.p.s.B.P.@XrXuXfXyX/.V.N.Q.E.Q.M.k.l.1.+.7.l.@.7.Q.W.k.1.N N E E L x v R i.K.K.B.<.U s.P.wX).J.<.L L x h L *.i.p.7.9.R.R.M.3.#.R <.p.#.$.l.M.N.k.1.#.k.P.wXtXwX).K.B.B.V.V.k.V.Z.Z.Z.Q.Q./.Q.Q.Q.W.R.l.9.9.M.8.>.o.>.>.8.k.7./._.V.k.^.tXfXwXK.s.<.U n h h h h h x P #.s.V./.#XyX/.Z.W.V.k.s.U k x P p.F.K.K.z.1.U N N U U :.<.s.B.Z.Z.&XrXoXoXoXZ.Z.B.m.m./.OXOX/.V.k.8.8.7.@.o.@.k.k.3.+.<.a.b.L.G.| K t > : : > > > 9 a 9 9 < 9 a f f a 8 e s K ' { i.s.<.<.+.B N N U #.p.j.z.x.x.k.1.#.1.k.s.1.p.B.B.p.P.K.z.k.p.p.k.k.1.:.:.1.1.:.o.o.;.,.w.w.w.M.N.M.Q.N.W./._.^.W.V.P.v._ m k k M M P M #.z.^.^._.uXvXjXjXdXkXtXwXwXd./ Z r 3 3 r l Z Z Z Z C l r 4 s f s e - X @ - - : > q y D { h.J.P.@X@X@X/.V.B.N.m.3.:.:.:.,.3.",
"a u , , , , , , u u a d f W ~ ~ ~ ~ H H A A Z Z Z x v k k N 3.P.).tXwXz.L c L f.h.R j w w w T n.b.C.P.C.C.Z.%XhXgXpXOXQ.9.0.e.M.8.k.3.+.N N U U N :.8.8.>.>.6.9.9.8.k.Z.@X0XH.{ J J ^ { { / Y L f.j.1.+.+.1.s.s.s.3.x.V.$.@.7.7.l.l.l.p.#.F s e : # # 0 a f u 9 u u i u u , @ . - - ; e G (  .d.$.1.j.k.k.p.#.U B.s.1.U I V U :.:.>.3.8.m.Z.oX%XyXyXrX#X#X@XV.1.8.>.o.V o.8.V.V./.m.1.#.#.U U P 1.7.l.l.W._.#X_.W.x.+.c 6 h b V b B :.,.3.N.|.Q.|.+X;XaX<X;XOXoXN.3.:.+.U B U +.k.1.7.l.T.T.`.`.-X*X(././.K.f.R U P R i.s.h.B.P./.#XfXfX;XOXQ.Q.Q.E.M.k.k.1.+.7.l.@.8.Q.W.k.1.B +.$.1.#.E E p.z.s.v.s.<.<.p.h.p.<.R M M L x h S *.p.p.7.9.T.R.l.k.<.#.i.p.$.&.l.l.l.k.3.j.V.#XtX).P.z.k.f.s.k.s.3.B./.oX/.P.Q.Q.W.W.Q.(.(.W.R.M.M.8.6.,.,.>.8.7.>.V._.W.x.^.#XrXfXyXtXtX@XK.b.s.` U R i.h.z.z.V.W.#X;X/.Q.W.l.1.p.P v v #.h.z.z.P.B.p.+.P N P U +.:.2.m.B.B.P.oX@XoXC.m.m.m.m.m.m.M.V.M.k.7.1.>.7.@.O.1.l.V.1.P b.n.n.g.' m y > - @ - 8 e e a a 9 8 : , a W f a e t D J T ` i.s.1.<.+.U N P +.<.j.j.z.x.V.l.7.+.1.z.z.p.p.L.L.i.z.K.).).B.p.1.3.k.1.<.1.1.o.V V :.,.3.,.3.A.N.N.Q.M.V.(.-X-X(./.s.v.B.B.B.2.<.U U N %.j.z.c.K._.uXdXdXdXkXtXU.Y.d.Y z l l Z H Y Z L Y T Y Z l r r A ~ G p - X X : , < > > q z F } b.@XtX@X@X/.oXZ.A.m.3.>.:.;.B ",
"$ $ $ $ , u u u a f W W ~ G ~ ! ) ) ) ! ^ ^ Y Z Y L v c k N 3.V.tXwXK.#.v x U i.p.R x z I a.b.b.P.].oXoX$X%XhXgX;X+XN.8.>.>.8.M.k.3.#.#.U M P <.B :.3.8.8.,.5.5.8.k.V.P.U.H.| H < f ( } ^ H F L p.f.$.+.U <.p.<.k.s.k.l.j.@.&.&.&.j.l.z.p.T F s > : , u a u 0 , 0 u u a a u 0 , X X o - r G ( } z.1.$.1.k.k.3.1.2.2.s.s.s.<.U P N +.3.k.V.V.V.V././.@X#X).K.k.1.M.>.V o.>.>.k.V.oXB.s.i.<.U L U $.7.k.x.Z./._.#XQ.V.3.+.N V V B :.;.4.,.A.'.+X%XpXsXxXgX<XOXQ.V.N.s.:.+.B N +.p.#.1.l.W.W.T.T.!.(.^.W.x.k.f.i.i.E R i.p.s.s.s.s.V./.-XuXyX;XOXOXOXE.1.@.7.1.%.1.k.8.l.W.W.k.@.%.N +.$.#.#.p.z.z.s.U U s.h.<.L P x x v R i.i.*.*.i.#.#.7.l.T.T.M.3.<.#.<.p.$.-.7.l.l.k.k.V./._._.).^.K.z.p.<.<.s.<.s.s.k.B.V.V.Z./.Q.W.W.W.W.R.M.e.M.M.e.e.8.8.8.V.k.k.V./.#X#XyXuXuXdXtXrX@X[.P.K.C.P.@X@X/././.Q.-X-XQ.V.W.k.+.1.E P +.<.i.p.z.K.K.B.1.+.#.U N N U <.s.m.C.C.C.C.C.C.C.C.m.<.U :.1.k.k.8.1.>.>.@.@.@.7.k.1.<.<.h.G.n.J y > : - - - 8 a s s a 9 8 8 > a G ..~ f f t t K { a.i.<.<.<.B N U N N <.j.k.x.V.l.7.@.o.k.7.1.h.P.L.g.R R f.J.U.U.K.z.k.k.3.1.<.1.1.:.:.4.4.4.4.;.:.8.N.Z.V.V.Q.OX-X-X#X$X].P.P.P.P.Z.V.k.#.N P #.k.z.z.K.).wXwXU.J.h.f.E L Z Z L Y R Y S L Y Y / / Y l 4 r A s d p < - - , , < : > 2 q F T i.B.P.@X#X#X&XoXC.m.s.s.1.+.",
"$ $ $ % u u a d d f ~ f A G ~ ^ ( ( d.D.D.S./ S L P U N b V 8./.@XU.z.U x k L R i.R I ` b.P.[.[.C.C.P.pXSXDXgX%XN.k.:.o.V >.w.Q.k.$.+.#.+.V N <.U <.3.3.>.,.6.8.N.B.B.J.G.| G e X u ~ [ ^ Y T R #.=.p.#.#.<.i.<.p.1.k.x.l.&.&.&.7.j.l.k.p.P F z > : > a f a 0 : , 0 u a a a u u : X o X < d ~ } F.1.$.$.k.k.k.3.+.<.s.z.h.p.R P V +.k.k.3.1.k.V.B.K./.)./.V.k.s.8.o.o.3.8.+.<.V.oXB.p.i.#.U L U #.1.l.x.W./.#X#X/./.Q.V.V.V.V.V.N.A.N.'.&X%X;X<XfXxXZXxXpXOXOXoXB.s.1.+.U U #.s.$.p.V.(.Q.R.T.W.W.x.l.j.p.<.#.R h.f.i.i.#.i.p.p.^.V.W._.;XaXOXQ.Q.N.>.+.1.1.+.3.k.8.l.W.W.k.@.%.N +.p.p.1.f.z.z.P M L s.B.i.M h x k L f.U.K.f./ i.#.#.7.l.T.T.M.3.<.#.<.p.$.1.7.l.M.V.V.^._._./.x.z.k.s.<.U _ 2.<.<.<.<.s.s.s.k.Z.Z.Z.Z.Z.V.V.M.Q.Q.E.E.Q.N.N.V.M.8.8.M.#XuXvXSXyX#X@X/././.oX@XrXrXdXjXjXuX#XOX(.*XOXQ.V.V.k.+.<.U E #.i.i.f.z.P.).K.s.<.#.U N <.<.3.v.B.C.C.C.2.v.Z.].Z.3.B k B +.1.8.8.8.8.k.@.@.$.7.3.<.<.a.h.n.| D q > : - : > e t f s y q e e e s X. ...G t t x T a.h.s.3.1.<.B N U N N #.f.z.x.l.7.@.@.@.x.j.p.B.wXI.d.F z Y d.Y.U.U.L.J.h.s.<.<.<.1.3.3.:.:.3.4.:.B B +.1.V.OXOXQ./.-XfXSXhX&XZ.Z./.%XuXZ.k.#.N N %.1.p.z.K.K.F.f.i.i.i.P L S S L E R R L P E E *.d.R F 3 l A G d d 5 < , , < < , : : > q r Z R f.J.).$XoXoXP.Z.B.B.m.3.",
"+ + $ % i a f W ! ! ! G C G ^ } ( d.d.D.S.S.d.L R i.s.<.N N s./.[.L.p.L h h x P L ` B.@XtXrX@XP.Z.#XfXxXfX%XN.k.3.3.:.o.B :.8.V.l.+.P +.+.M M #.i.a.s.<.1.3.k.N.P.B.g.| J s : .   # d ~ ^ T T / P #.p.i.#.<.<.R <.<.k.V.l.7.&.&.l.l.l.j.<.U F m q > 8 s f s 9 : : 8 9 a d d f d p - X o X < G ( J.j.$.1.k.k.k.k.1.3.k.z.z.h.p.i.#.U N U <.s.k.k.k.B.K.P.K.z.s.p.1.o.>.N.N.o.<././.B.s.i.R L L U +.$.j.x.W._.#X;XQ.W.V.Q.oX+X#X+X&X%X<XsXZXSXDXDXDXDXSXgX;XQ.E.N.1.1.#.P P #.#.#.$.f.x.^.Z.l.7.8.k.k.j.1.<.#.#.i.i.E x x v P #.p.l.l.l.W.OX-XOXQ.Q.M.>.+.1.:.+.3.k.8.l.W.W.k.@.%.N 1.k.k.j.j.c.k.p.p.J.rXjXdXP.i.L x L f.wXwXJ.i.i.#.#.7.T.R.R.M.3.<.#.<.p.1.1.7.l.Z././._.#X(.V.z.z.s.1.U x n I L L L U R <.i.s.k.k.z.B.V.V.Z.V.V.Q.Q.Q.Q.N.Q.Q.N.k.8.V.#XfXDXKXFXLXDXSXgXgXgXgX$X$XrXdXfX%XOX(.*X=XOXQ.N.V.k.#.#.#.#.p.i.i.s.z.).).U.z.p.#.P M P I P _ 2.a.a.2.s.v.s.2._ U +.<.s.k.k.k.8.1.1.1.@.$.7.3.1.#.i.B.n.a.T t 8 > : : q e t D D t y q q q y f ! | ..G y z F ` p.h.s.3.1.1.%.N +.N N #.f.z.V.l.7.@.&.7.l.7.s.J.wXI.^ 4 ; 2 C T } h.G.Y.J.B.s.<.<.<.s.m.3.:.:.B V V :.3.3.3.k.M.Z./.#X%XfXpX;X;X;X;X-X#X#X/.V.1.B N +.1.s.z.z.h.#.R R #.#.#.#.R R U R #.R #.*.#.*.i.{ T w C H G A d p 5 < 9 u 9 9 < : : - : 2 w F i.B.P.P.@X$X].P.K.V.m.",
"$ + $ % 0 u d f ! ! H C z C T { F.Y.Y.S.S.Y.Y.L.J.B.s.<.+.<.k.Z.K.m.<.M j k N U s.B.P.#XrX#X)./.uXxXvXpXV.:.B o.:.>.3.3.2.2.3.k.k.%.N +.#.v M R p.p.p.s.s.k.V.Z.L.g.J s 9 # .     + u d ! ^ T R E #.=.*.#.R R <.<.1.k.l.l.j.-.&.T.l.l.j.<.U L n w q e f ~ G e > : > e a s f G G f < - X X - p H h.k.k.k.k.k.k.8.m.k.k.p.f.f.c.z.B.<.V V +.p.s.1.s.B.K.K.z.f.p.p.+.:.8.N.w.:.s.oXZ.B.B.i.R L L U %.@.7.l.V./.#X#X-XOXQ.Q.#XpXfXsXgXgXSXDXJXGXFXFXDXxXfX;X/.N.k.8.1.<.E L E i.*.P h.z.V.V.k.1.:.+.1.<.#.R E E R R F Z z h c S #.p.$.l.W.W.M.M.E.=XQ.N.>.;.1.:.+.1.8.7.l.W.W.k.@.%.%.k.^.^.x.c.j.j.z.L.wXdXBXJXdXwXh.R L R h.L.h.d.d.#.$.k.R.R.R.V.3.<.#.<.p.1.$.7.l.Z./._.-X-X(.V.k.j.1.#.M k k n L L x M L U R <.#.<.i.s.m.B.V.V.m.M.V.V.V.V.Z.Q./.V.M.Q.#XaXvXFXKXKXIXKXKXGXDXSXgXpX<X;X%XOXOX=X1X=X XE.M.M.8.1.U #.p.p.i.i.s.B.K.K.K.z.p.#.P M x m M U 2.a.a.2.B.a._ M M U v.P./.P.V.k.7.>.+.+.@.1.7.1.#.#.p.L.b.} F y q 8 8 8 s C H H D z t w y t C D J [ ! C x F I ` i.s.3.1.1.1.%.N +.N N $.z.x.V.x.l.0.9.T.7.1.k.K.I.g.C = X = - ; e F | S.Y.P.P.B.p.<.1.1.k.3.:.B V B :.3.3.>.:.1.m.Z.Z.V.Q.OXaXxXxXaX-XW.(._._.V.3.+.U +.U <.p.p.#.U P P s.k.z.p.#.U +.#.s.z.z.p.<.<.<.R z F H H A A p < e e p p u 9 < < : : : 2 y n R i.B.P.@X@XU.K.B.B.",
"$ # + + # , 9 e s t z w l x L R S.Y.U.Y.L.U.tXdXwXB.R U p.B.K.B.s.<.U M M U s.B.rX#X/.Z.Z./.uXfXvXaXOXV.l.8.1.+.V B :.4.s.v.m.m.7.@.O.%.%.N L R f.f.h.h.B.B.B.b.} J e @ . .     O $ # p ~ / / E E %.#.#.R R R <.<.p.k.k.j.l.T.T.l.l.l.j.1.+.P n w q y G ! ! s e q q y y s C G G G s < - @ @ < C R k./.V.k.3.3.1.M.k.k.1.1.p.p.f.z.V.V.s.P M U p.f.z.z.z.z.f.p.p.V 3.w.,.:.3.Z.P.B.B.B.s.R I I U %.@.7.k.l.W./.OX-XOX/.OX;XsXgXgXFXFXFXFXDXSXgXhXyX+XQ.N.Q.N.M.8.z.p.E E p.z.f.E U.U.K.z.p.<.<._ I I M n n F L T / { d.R E P %.$.@.j.V.M.8.8.E.OXE.Q.8.>.3.+.B :.8.7.k.V.W.k.@.%.o.l.^.(.W.x.l.k.h.J.L.P.[.iXiXiX0XG./ L I { { / *.#.$.j.W.R.R.W.3.<.#.i.p.1.&.7.l.Z./._.#X-X(.W.1.+.U P L L I { i.*.E L Z x L M L U R ` i.a.a.s.z.z.V.V.V.V.P./.oXN.V.Q.oXOX;XaXzXxXDXGXKXKXKXKXKXFXZXsX<X+XOX;XzX2X XE.M.k.3.1.E #.f.f.p.p.s.z.z.z.z.z.z.p.#.U N U ` v.C.L.n.n.` U U ` a.b.B.B.V.B.k.3.1.1.>.>.@.3.j.1.+.#.s.J.h.R z q 2 q e e G ! ^ T F x z z m F T { } d.{ Y x L R R <.p.k.3.7.1.o.N %.P P $.j.k.x.W.W.W.T.l.@.3.B.K.h.Y > X @ @ X X - e D ^ D.Y.U.U.K.s.<.+.1.k.m.B.k.:.N V +.1.k.k.1.1.m./.(.OX;XuXaXbXbXbX*X(._.Z.k.<.U P M M N M v b v V s.z.V.B.p.<.1.1.K.P.K.z.p.<.<.R x I / Y C r 4 < e e e p p p 9 9 9 > > > 2 w z z R p.L.U.U.@XU.P.",
"0 # # + @ # : > q r z x x M U <.p.K.tXtXtXiXdXdXU.i.M U B.wX@XB._ U B _ 2.B.oX%X#X#X-X-XyXuXbXxX-X(.W.k.7.7.3.3.1.:.U _ 2.s.v.m.@.@.@.%.P E R / h.h.h.b.b.h.{ T s 9 @       O % % . . , A ( { R =.#.E R R R R i.i.s.k.1.&.l.T.T.l.l.j.7.3.<.U I j w r H [ [ ~ C z z z z z C D G J G s < - @ : e M s./.P.m.8.1.>.k.k.k.x.z.z.c.c.1.k.V.V.z.1.#.#.<.1.p.f.z.h.f.f.:.M.A.;.:.Q.$XZ.s.B.J.p.` U U P %.@.1.j.l.V.Q./.-X;XaXxXSXSXZXgXSXSXSXgXgXpX%X$X#X/.V.V.Z.V.k.1.z.*.E *.f.f.f.=.9XU.S.i.U U U I I I K K K J T T ^ d.h.f.#.E P %.j.7.>.7.l.E.E.M.E.E.M.8.8.:.B +.8.7.k.V.W.k.@.%.O.7.W.^./.^.W.x.p.a.i.` ` i.J.U.0XY.h.R I R / Y / #.#.j.W.R.R.M.3.<.#.i.p.1.&.7.l.V.^.(.(.(.^.x.7.+.U U R R ` a.f.d./ Y Y L L I I I I I I I I I p.f.s.z.k.k.B.V.V.m.m.N.N.N.Q.|.=X=X<XsXZXHXKXKXKXGXGXGXFXZXxXzXAX2X.XE.M.8.1.1.E #.p.p.<.p.h.z.f.#.#.f.B.B.s.i.M I _ 2.a.a.` ' I I ` a.B.K.K.B.k.3.1.:.:.>.@.@.@.1.3.1.#.p.p.h.i.F r 4 2 2 e a ! ( | [ F z x n n I { a.h.S.d./ z L #.R #.p.k.k.7.7.o.O.%.P P $.p.j.l.V.W.W.9.5.@.k./.J.{ z ; X @ @ @ @ @ - > q H / S.I.U.J.h.1.3.8.k.k.k.1.+.N B :.:.:.:.:.3.m.E.E.!.*X-X:XbXcXbXuX#X/.Z.B.s.2.U M k c c b V N 1.k./.OX/./././.).)./.V.k.s.1.<.N R i.T Z l l r s a e a a a a p 9 9 8 > > 2 2 2 w x R f.P.wXrXrX",
"a i 0 , : > q y C F T ` #.+.+.<.h.U.tXjXjXjXdXrXp.R U a.@XrXU.s.U _ :.v.P.$X%X%X/.#XfXvXDXxX:X(.j.l.x.j.@.%.1.k.B.2.U U 2.v.v.s.N &.&.%.N %.i.i.S.h.g.g.d.T x q - .       O % % % O   X e H / i.=.#.E R *.R R R <.s.3.@.@.0.T.T.7.7.7.8.k.2.<.U z w w H }  .( ! F x x z x Z F H T H C e - X - q x <.V.V.V.N.8.o.1.8.k.x.K.^.K.F.f.<.#.s.K.P.z.#.#.#.#.#.f.h.f.p.k.N.A.3.m.%X$Xs.<.B.K.h.<.U U P N o.$.j.l.V./._.xXSXFXKXKXFXSXxXpXrX%X$X$X$X@XoX@XoX/./.Z.k.1.+.#.P E =.=.*.*.F.Y.Y.d.I n I I I ' ' ' ' { | | | T T / *.*.#.%.P $.@.O.>.9.E.M.e.E.|.N.m.m.1.U :.7.1.8.V.W.k.@.O.O.1.l.W.^.^.x.j.L x j j j h F { Y.Y.h.d.{ i.{ R / R #.j.R.R.R.M.3.<.#.i.i.$.&.7.k.V.^./.(.(.W.7.k.$.+.<.a.a.{ { d.d./ / / { i.i.I T T T T K K F R #.#.#.#.<.1.s.k.3.3.w.w.w.M.N.E.E.N.N.|..X+X<XDXAXGXKXIXIXIXIXHX2XE.N.M.1.1.p.E #.p.#.<.p.k.z.#.S b #.B.K.z.a.k n I I n m m n a.a.a.n.C.P.P.].k.3.>.:.+.+.o.o.>.1.1.1.p.s.p.#.E Z r 3 4 2 r C ^ } g.{ L x x M M ` a.f.f.d./ Y x R p.<.$.k.k.k.7.7.o.O.%.P P $.p.j.l.W.W.l.7.&.5.M./.z.Y 4 - @ + + @ @ + X X = 2 r T h.U.U.K.B.z.k.1.+.+.1.s.m.<.U V V _ 4.:.:.>.5.T.~.`.*X>X:XcXbXyX;X%X@X].C.s.<.N V B +.o.N +.8./.yXfXfXfXfXyXtX#XP.V.B.2.U N <.i./ Y Y Y H H D s s f f f f a a e e > > > 2 2 3 h F i.L.wXwX",
"W f a u a t D F T { p.s.1.+.B N R i.B.U.wX@XJ.a.R R i.L.wXwXB.R _ <.m.oX%X%X+XQ.;XuXaXxXcXuX(.V.l.1.o.%.3.k.s.1.1.U N U s.B.b.a.b &.j.O.v #.p.<.B.h.d.} ^ D 2 X       *   O % % $ O   . - r Y d.f.E E / d.i.R E <.p.3.@.@.5.T.l.5.>.7.8.k.3.1.U x h l Y } D. .( L L n x x F Y T T J D y - X - q j U s.m.Z.Z.k.+.+.+.$.$.c.x.^.^.x.z.j.p.p.p.s.s.<.#.U #.p.f.#.+.m.8.3.3.P.@XB.I ` b.P.b.2.R U P N P $.j.l.W./.OXfXxXxXxXfX;X+X+X%X$XoXP.Z.Z.V.V.V./.oX/.V.k.1.1.R L R f.f.E f.9XJ.Y.i.Y F I ' I U ` ` { a.a.} } g.{ / *.f.c.p.#.N O.@.5.7.9.M.E.E.E.E.N.N.3.+.>.7.1.8.V.W.l.@.O.@.7.l.W.W.W.k.#.L h w x F x F / h.h.i./ d.h.f.*.R E #.j.W.R.l.M.3.<.#.<.1.$.1.7.k.V././.(.W.l.@.$.+.B 1.B.B.h.a.h.f.f.i.d.d.d.i.R R ` { [ [ [ { Y E E E R R #.1.s.1.1.3.8.3.w.N.e.M.N.Q.|.|.|.|.+X+X1XZXHXHXFXFXGX1XE.N.M.1.:.p.U <.*.#.#.s.z.h.E l 6 L h.J.f.i.U ` 2.` I I ' ` n.B.].[.[.P.P.P.s.1.<.1.1.1.1.@.$.1.$.#.j.z.p.P L z l l r 4 r A ^ d.h.i.L k x N _ s.B.z.p.i.E S v <.z.p.1.k.k.7.7.7.o.O.%.P N $.j.z.V.W.l.7.5.@.j.V.K.a.Z > - @ # + + O . . @ @ - > C { Y.).).^.K.x.k.j.3.3.3.2.:.<.4.:.V V B <.>.5.7.9.T.!.-XaX-XuXfXgXfXrXoXP.V.k.1.8.k.k.+.b N >.Z.yXcXxXxXcXgXfXrXoXP.V.1.B N <.p.i.*./ / ( { ^ J G ~ ~ ~ ~ f f s a 9 8 > > 2 2 2 3 Z i.J.L.",
"f a a f K K [ g.I.J.f.i.i.+.v c h Z R i.i.U x h M s.eXiX@Xh.i.R s./.-X#X/.Q.!.OXcXxXxX;XN.8.8.V.m.2._ :.2.3.:.V b N +.j.J.J.h.g.v #.#.N N O.5.5.7.k.p.F e , # .   * *   O % & & $ .   . X 1 ~ D.^ ^ / / / / E S #.#.1.1.$.$.7.8.@.>.0.M.M.7.@.+.v 6 h I g.g.} d.d.` L x L E R Y Y H F r > - - : j m U s.B.B.B.k.1.+.%.%.$.-.x.^.^.^.K.k.<.:.<.s.v.s.<.U U U #.#.3.4.2.B.[.U.R w F d.Y.G.i.R U L M N R h.P./././.yXyXyX;XoXN.N.Z.%X%XoXm.m.m.s.:.<.B.oXP.k.<.<.<.L R p.p.i.s.V.@XK.p.R i.f.g.} i.#.$.$.#.#.#.#.*.h.h.h.f.f.f.p.p.N @.7.7.@.@.0.R.R.E.!.Q.Q.m.3.>.8.8.l.N.W.M.5.O.O.7.x.W.x.c.p.#.v x x L F Z Z F Y R R R i.h.s.#.N @.7.j.l.W.W.l.7.$.+.+.$.$.1.k.k.m.Z.OX/.l.7.7.%.1.k.k.B.B.C.B.K.x.c.p.*.#.#.*.d.d.g.g.g.g.} } ( ( / ^ E E U U :.1.3.3.3.,.,.,.3.m.N.Z.Z.N.N.N.N.N.Q.|.OX=XaXzXxX<XoXZ.m.3.<.i.E i.*.P R z.z.i.H ; = r ^ S.F.f.d.i.i.b.b.s.s.n.L.C.].$XrXrXP.B.k.s.1.$.$.$.$.$.j.+.%.p.z.f.#.P Y Z Z Z F C C z / #.#.R P M U <.p.V.K.s.R P M v P i.z.j.1.7.7.7.5.7.@.O.%.N N 1.k.z.x.V.k.$.$.j.K.K.h.Y e - - , + O O O O O O + + @ e H S.7X9X9X_.^.^.x.l.k.3.1.s.m.3._ k k V :.7.@.@.>.1.8.V.oXOX#X-XuXfXfXuX-X-X-XOX/.Q.m.>.B V o.3./.aXvXvXvXvXvXgX%X/.m.:.V M <.B.z.h.L.J.h.D.D.D.D. ..... .~ ~ ~ f f a 9 8 > > 2 2 2 2 x / ",
"8 8 e g K J [ d.G.g.R L L v c 3 4 3 l x x M R 2.B.U.rXeXP.h.f.p.K._.-X-X-X:XaX1XcX1X=XQ.m.3.3.2.2.2.2.2.] B U :.1.7.j.z.z.h.d./ L E E N O.O.t.t.5.8.i.Z < , $           $ % i i , @ . . o = d ) ^ ( / ^ ^ / / P #.#.1.1.1.1.1.1.5.5.0.l.l.1.@.$.P 6 3 F { d.D.D.G.h.i.E E R / R / I C r q q 8 q w j I 2.B.K.B.B.j.p.%.b b $.x.W.x.K.^.^.V.m.s.2.v.v.s.s.k.B.V.V.s.v.L.L.I.G.C ; C { H.G.a.` R I I I R h.K.P././.-XyXyX#X/.N.N.Z.v.m.3.3.m.Z.Z.Z.m.Z.P.V.2.+.U U I ` <.2.1.3.m.Q.V.3.#.i.p.i.d.i.$.&.-.j.p.p.p.i.f.f.h.h.h.p.p.p.1.1.1.@.@.@.5.0.9.R.!.!.Q.M.k.8.k.k.M.N.E.9.O.O.O.&.7.l.x.x.c.$.L v x x h 3 3 l z F E i.h.z.1.N b %.7.c.x.W.W.x.7.$.+.>.>.@.1.s.k.m.Z./.Q.7.@.@.%.1.k.V.K.P.C.B.K.K.K.x.z.z.c.f.p.i.d./ / / *.d.D.D.D.d.d.i.#.#.V V V B B :.3.B.s.s.k.k.m.m.B.Z.V.Q.Q.Q.!.OX*X;X;X+X/.V.m.s.<.R U i.i.E R h.z.d.A - X < H d.Y.F.S.d.p.B.K.C.B.C.C.C.].$X$XP.B.2.k.k.j.1.#.%.$.$.j.#.#.p.c.p.E L E L L T / / ^ R #.<.1.1.#.#.p.z.K.).).K.z.p.+.P %.p.j.3.7.j.0.5.5.7.@.%.%.N B 1.j.k.x.V.z.1.p.z.K.S./ C : - - 0 0 $ $ O O O $ $ + # e J S.9XtX9X_.^.T.x.^.W.m.3.:.:.3.4.:.+.+.+.>.@.>.8.8.3.3.m.V.Z./.#XuXfXbXbXbXuX-X#XOX/.V.m.B B o.1.V.-XbXxXaXaX%XZ.m.3.+.V b <.B.B.z.J.J.f.Y.H.Y.H.D.D. ...[ ! ~ ~ f f a 9 e > : > > > q z ",
": > y K [ [ | | g.{ L x x x h h l Z Z z j x R s.iXrX@XP.B.h.J.K.#X#X-XyXbXxXcXaX;XQ.9.3.3.3.4.:._ 2.2.' V V :.3.x.l.l.z.z.f.{ R R L M N O.O.&.5.5.7.#.z > 1 $         O % & i i i , @ . o X 5 G ^ ( ^ Y Y / *.*.E #.1.j.j.3.>.%.8.8.8.k.7.1.$.1.P c 3 x / g.D.n.Y.Y.Y.g.d.d.d./ { T H H K K G D w j n ` B.P.P.V.z.x.$.c c $.c.c.c.x.K././.P.m.s.3.3.s.s.B.V./.).2.b.[.[.G.[ 2 o 4 T H.G.g.` ` ` R I T a.B.P./.#X_.#X#XOXZ.V.V.Z.3.3.3.3.2.2.m.Z.Z.Z.B.k.<.U P P +.:.1.1.1.8.8.M.8.1.1.1.p.i.i.p.p.1.p.z.z.h.i./ R { g.h.b.h.p.<.z.p.+.%.%.@.@.O.5.9.E.!.Q.V.V.V.M.M.M.N.R.9.O.O.O.@.5.7.x.V.z.p.L x l h 2 2 2 w l z L R z.B.1.N 6 %.7.l.l.V.W.W.7.$.+.>.>.@.1.8.m.m.N.N.l.>.%.+.3.k.z.B.P.[.L.b.J.J.P.P.P.P.K.J.J.F.f.*.=.=.f.f.h.g.g.g.i.<.<.<.U U P N N U R 2.<.<.i.<.i.s.z.B.V.Z./.Q.Q././.OXN.N.Z.m.s.s.<.L R p.p.R #.f.z.d.C - X ; r ^ S.Y.Y.f.i.h.P.P.L.b.C.].$X$X].m.2.<.1.3.j.1.+.%.$.$.p.$.=.p.p.#.P L / E R d.S.S.S.S.p.s.p.f.z.J.).@XtX).K.B.z.<.U P p.f.j.p.j.l.l.7.5.7.@.%.%.N N 1.j.k.x.V.z.j.k.B.L.i.Z 2 - - < 9 i i & + + + # & + : e H S.9XtX9X_.T.c.c.W./.Z.m.:.:.4.3.k.3.:.o.%.%.>.1.3.1.<.4.k.k.V./.(.yXbXvXcXbXuX;X-X#X#XoX3.:.V b O.7.(.;X;X;X#X/.Z.B.3.+.c U p.h.z.J.J.h.Y.G.S.H.H.D. .[ | [ ! ! ~ G f a a < : : > : ; > ",
"t z F [ g.g.g.g.d.T F x L R { { S.Y.7XwXeXiXjXDXiX@XZ.k.s.B.).@X#XyXuXfXxXxX;XE.E.8.>.:.3.3.2.:.U I I I _ _ 4.2.k.7.j.c.z.h.i.R i.L v P @.O.O.0.0.7.#.Z < , $ O O       % i W W d u : @ X = < s ! ^ T Y Y R *.*.#.#.$.1.j.3.@.o.8.8.l.l.k.3.1.p.E x h Z ^ | g.g.G.I.0XU.G.g.d.{ / { { |  .| [ J m j m I s.K.P./.z.x.j.@.%.$.-.$.c.j.p.k.V.P.Z.B.v.3.2.<.1.s.B.K.U v.[.L.| D > X ; D D.Y.h.i.<.<.` I I i.B.P./.#XZ././.Z.B.k.s.v.m.3.<.<.:.B :.s.V.B.s.s.<.U P U 1.>.@.>.5.9.9.M.7.7.7.p.p.p.f.h.p.p.i.i.g.{ T Z z F ' d.b.b.s.s.z.1.+.%.%.@.@.@.O.5.9.N.Q.Q.Z.N.V.V.V.W.E.9.&.O.O.O.@.@.k.x.z.f.L x h h w w w l z z x R z.V.k.+.b O.7.l.l.l.V.W.7.1.+.@.>.@.1.8.N.N.M.k.7.@.@.@.k.B.B.J.L.{.G.g.` { g.n.b.G.J.J.).K.F.x.c.F.x.F.p.i.<.:.+.:.<.1.p.s.p.i.*.R Y L R R R #.#.i.p.s.z.z.Z.K.K.W././.k.N.Z.k.s.s.<.M <.p.i.R i.z.h.{ A - X - ; C } Y.Y.S.d.g.L.U.L.n.].].@XoXP.m.1.:.+.#.$.$.#.#.$.p.#.$.j.f.$.P v x *.R / d.d.g.S.Y.B.z.z.z.K.tXdXdXtXJ.p.<.U M M U K.x.k.k.l.M.l.7.5.7.@.%.%.N N #.p.c.x.x.z.k.z.z.J.{ l ; - : 9 p a a i # + + # 0 # : > C d.U.9X9X^.c.$.+.7.V.V.N.N.A.3.3.3.3.1.>.+.o.o.+.:.:.<.2.3.k.k.V.V./.-XuXbXaXaXuXyX;X#X$X/.m.>.N b N @.7.V./.;XuXyX#XK.p.k M E <.f.J.J.h.{ i.d.g.g.} ( T ^ [ ! J G G G G f s e < > : - - ",
"T R { d.S.G.S.g.T F C F } H.0XeXwXeXtXtXiXiXrX$XZ.m.3.k.B./.#XrXuXfXfXfXyX#XW.8.8.>.>.:.<.<.:._ P U U ' _ 2.4.1.8.j.j.c.x.z.<.E d.L x +.@.O.O.5.0.7.R Z e < $ $ +   *   $ f ~ ~ ~ d e : - = ; < C H H H Y R *.#.#.#.#.$.1.1.:.+.1.8.M.V.V.x.k.f.#.L z z F ( } D.D.7XtXtXwX7XY.S.{ } } [ ! ! ! J I n k n ` B.P.@XK.z.c.z.c.$.$.7.j.=.#.3.z.Z.Z.Z.Z.C.B.k.s.p.p.<.2.L.[.G.J q ; X ; t } Y.b.i.<.<.` I I 2.h.K./.@XV.V.B.k.1.:._ U :.B B :.:.:.2.Z.B.s.s.s.<.P N N 7.5.O.&.0.u.R.R.7.l.k.k.f.h.h.S.g.{ T H D s e : - 8 z ' a.n.n.b.p.1.1.@.@.@.@.O.o.O.>.8.V./.Z.V././././.W.9.>.O.O.O.O.%.1.x.K.B.E x h x L L F Z Z F E f.P.P.z.1.o.@.7.j.j.k.l.W.7.1.@.>.>.+.1.3.N.M.8.>.@.@.1.k.k.B.L.I.I.H.| K y g g D K ' { i.S.F.K.^.^.^._.^.k.3.3.3.,.>.>.>.1.1.p.i.d.d.( / / *.i.i.*.R R R #.p.f.z.z.x.K.K.m.P.P.m.2.s.<.P p.i.R #.h.J.f.Y a - X - = < ^ D.I.S.d.g.Y.0X[.L.[.].Z.C.B.B.s.<.+.U +.#.$.p.$.$.%.-.c.f.#.P v c E E Y L Z Z T g.h.J.U.@XtXjXjXtX).J.p.i.P x L i.#X/.^.^./.W.l.7.&.5.@.%.%.N N #.p.z.x.x.k.j.p.f.h.E w ; ; < e e f f a 0 # # # , : - > C / F.U.^.x.j.%.N V :.m.|.'.Z.N.w.3.1.3.8.+.o.+.+.+.U U <.1.s.k.k.k.l.W.(._.-XaXfXcXaXyX%X%XoXV.7.o.b b b N 1.V._.#X#XP.k.U L v S *.h.f.*.L R i.i./ Y F F T T [ J G D H ! ! ~ f a < : : : ",
"p.p.f.f.h.S.h.} z r y D | I.qXkXJXCXkXtXeX[.B.s.<.3.3.A.oX%X;XyXfXjXdX#XZ.M.8.1.>.>.:.+.U I L I N <.s.a._ _ 4.v.V.W.W.W.c.f.R M i.L v P @.@.O.0.7.1.U Z r < # $ +       , f ! ..( ~ C r 4 ; - ; r D H H Y E E %.$.#.+.+.+.1.>.>.1.8.k.Z./._.K.f.z.i.Z l r F } D.D.I.eXkXkXkX0XY.} ^ H e > > a s I n x m I a.J.).).z.p.x.k.$.$.c.p.$.1.k.V./.Z.V.Z.Z.P.P.K.k.<.U L.[.[.g.z ; = X - r ^ G.J.p.<.<.` U U 2.s.B.V.P.z.k.k.1.<.U N V B B B :.2.s.Z.$XB.s.s.s.<.N M N 7.5.&.5.9.R.R.M.l.l.z.s.f.d.d.} ! G a 9 : @ . . . @ > t J | n.G.i.s.s.p.1.+.o.O.o.O.o.>.k.V.V.B./.#X#X#XQ.9.@.O.V O.O.%.1.V./.).i.P M E i.{ I F F R B.wXtX/.k.3.k.7.7.j.7.j.l.W.k.1.@.>.>.+.1.7.9.9.6.@.o.>.k.z.p.J.I.0X0XD.D : # + + # 0 q g D T / f.F.Y.).).^.m.A.Q.|.E.M.8.>.3.1.#.*.*.d.D.D.f.f.h.f.*.E P L E R #.#.i.p.f.k.m.Z.Z.s.2.1.<.P s.<.R <.J.Y.i.Z < X X - = 1 H } H.Y.H.G.I.0X0XL.B.s.2.2.s.s.p.#.<.+.+.#.p.p.#.%.#.p.f.$.E P v v L L Z l 3 4 h L #.B.wXdXjXjXtXU.f.p.p.i.E L R h.rX#X_.#X-X!.l.0.&.5.@.%.%.N v +.j.z.x.z.k.j.p.1.#.v 3 2 2 r s a G f d u < , , , < > 2 l Y f.F.K.K.l.>.N k V 8.&Xw.N.Q.N.N.k.k.k.1.<.1.3.1.U P B :.<.1.3.3.k.l.x.V./.yXfXxXxXgXfX%X%X#X/.M.@.b b b N +.1.k.Z.K.z.f.R v v E #.E L L U <.#.L x Z L T ^ [ T F C F ! ! ) ~ f u 9 < : ",
"p.f.f.f.h.S.f.R w 2 2 e G [  . .{ { { ` 2.a.s.s.3.w.N.|.;X;X;X;XrXrX/.m.3.8.8.1.+.:.+.U N M L U U 2.a.a.` 2.v.V./.W.W.l.k.p.+.L R L M P %.@.5.0.>.+.P Z r < # @ + . . @ < s ! [  .} ^ H C r 4 4 r D H H L E E %.%.+.$.+.+.+.>.1.1.3.k.V.@XrX).z.z.h./ x w z J | } g.Y.7XkXkX0XG.( H e - X @ , e F n n n L ` h.K.).K.z.z.k.$.$.j.p.p.j.k.V.P.Z.Z.m.B.K.P.P.J.h.i.[.[.L.' q - = X - 2 H g.J.h.<.<.i.` R i.s.s.p.s.<.<.<.<.<.<.<.:.s.s.s.s.m.Z.P.K.B.s.<.<.R M N :.5.5.5.9.R.M.l.j.p.h.i.^ Y H A s 9 , $ +             @ > s !  .n.h.h.h.s.3.>.o.O.o.o.@.1.3.s.m.V.P./.#X#X(.M.5.O.O.@.>.@.1.k./.tXB.p.i.f.h.g.i.{ ` J.rXjXdXP.k.k.W.l.7.7.l.l.l.W.k.1.@.>.$.+.1.1.9.e.9.5.>.k.B.B.h.L.0X7X .! e + O O     . @ , 8 a t C Y / d.h.z.3.8.N.E.Q.E.M.k.V.z.f.i.d.d.D.d.h.h.h.f.i.i.#.<.#.#.#.#.U U #.#.<.<.2.2.<.:.U U s.<.R i.L.Y.d.C 1 . X - X - s !  .H.7XI.I.Y.D.i.I B U <.p.s.1.#.#.#.#.$.p.-.#.%.p.f.=.P v S E E R L z h 3 3 3 h L h.).tXtXtXU.i.R R E L L i.z.K.#X#X#XuXuX(.T.0.@.5.@.%.%.N v +.j.x.x.z.k.k.j.1.P x 3 2 w C G H ^ J s e < < < 9 p r r z Y i.z.K./.V.3.V k b ,.Z.,.w.N.Q.Q.V.V.Z.k.s.s.k.s.<.U U +.+.+.+.1.3.k.k.k.Z._.#XyXaXfXgXdXpXyXyX#XZ.1.%.b N N N #.k.K.K.z.#.L v L L S x L P P L v M E i.i.R T F Z z x C f ~ ~ f d d u : ",
"$.j.j.f.z.z.f.R z w 2 > q e e e q l x n I _ <.3.N.Q.OX;X<X1X;X;XB.B.h.p.2.s.1.+.+.+.+.P L U ` i.i.` I ` n.L.P.V.V.l.j.7.j.p.#.U E L L N +.@.7.9.1.+.P F s < - @ @ - , < < a H [ D.g.} } ( H C s t D J H L Y #.#.%.+.$.$.+.+.:.1.1.2.s.B.#XdXwXz.p.h.g.T z t C H T T ^ g.7XtXI.g.H t 2 - : > > 8 z j n n M U i.B.P.).^.x.z.k.p.#.z.k.p.k.k.V.Z./.k.m.B.B.P.U.).@XG.H.| D 2 - - - = ; C g.L.z.p.<.s.<.<.s.p.i.<.<.L P U <.s.s.B.B.P.].C.m.B.P.P.m.B.<.<.<.U N U k.@.5.k.x.Z.V.f.i.d.{ ^ A a p < X .       * * * *     . @ 9 G .. .G.h.f.p.s.1.+.o.%.>.1.1.+.<.k.P.k.V._.#XOXW.7.O.7.9.8.>.>.k.P.@XP.K.K.P.J.h.h.J.J.@XjXvXyXV.k.M.(.l.7.l.M.l.l.W.j.1.>.>.@.+.1.1.9.R.R.M.l.V.K.J.U.0XI. .~ a , @ O O       O + # , : : : e s G H U +.:.3.k.N.Q.Q.Q.Z.K.J.J.S.d.d.i.i.p.p.p.p.z.B.k.s.p.#.P N M L M N U <.:.B V B <.<.<.p.L.Y./ C : X @ - X X e s ^ H.0X7XH.| F l h k B <.1.1.1.<.P +.$.p.-.$.$.#.z.h.#.v c S #.*.i.E Z x x z l h L i.J.J.J.L.h.R R E x 6 x f.wXtX/./.;XaXaXOXT.9.@.5.@.%.%.N b +.j.x.V.z.k.x.k.p.P x h 3 z H ^ } } H s < > < < e s C C Z Y R h.K./.Z.3.V k k ;.r.,.w.N.Q.Q.Q././.K.B.h.s.p.p.s.h.<.+.P U +.1.3.3.k.M.V.Z.Q./.rXdXvXjXfXfXuX#XV.j.P P N N #.j.x.x.f.#.E P L v S L P M k k v P i.h.p.R x j x l h 2 9 p d d W ~ a : ",
"$.c.^.x.j.=.#.L Z z z t t t e q x n L 2.s.B.m.m.&X%X<X<X=XOXE.Q.m.2.U U <.<.1.+.V N E R R / / R / { d.g.n.G.L.B.1.1.$.$.j.j.$.P L E R P +.7.9.7.1.+.M Z C < @ . @ 9 s ! G C C Y d.S.G.S.d.} ^ H D s D T R Y E =.%.%.$.1.$.%.+.1.<.<.1.z.#XdXdXtXJ.J.h.d.Z w w z F { d.{ / d./ F z z r 2 - @ : > x F Y I n x U p.K.tX@Xz.k.Z.V.+.1.1.V.k.+.k.OXN.V.3.U #.z.U.U.U.}.n.K 8 - - - - ; ; Z d.h.B.k.U U <.<.U U R <.a.p.h.B.b.h.s.B.B.B.oXoXZ.Z.oXK.s.<.s.p.M x R p.<.#.1.s.z.f.R Z r r p p < @     O   * * * *     * *   + $ $ u W ( g.h.B.B.h.s.3.3.@.+.%.+.<.1.s.s.P./././._.#XE.0.o.7.V.M.+.N s.#XrXrX@X@X@XtXtXwXtXjXDXjX@Xk.1.8.M.W.W.R.M.W.W.l.1.>.@.@.1.1.1.>.5.9.E.E.Q.Z.K.L.[.I.H...a - @ , O O O         . O O O O O + & 9 l c c N <.k.Z.Z.Q.Z./.P.P.K.B.B.m.m.m.m.s.s.s.m.4.<.<.2.k.B.B.B.s.<.I M I :.1.3.1.<.i.B.b.i.Y H p : - - - - > e G  .I.D.Y w 2 3 k U 1.1.1.1.1.+.E %.#.$.#.%.$.c.f.p.E x c x R f.f.h.i.E L v v x L L L L L R i.p.J.i.x h U P.tXdXZ.#XfXxX;XE.0.0.&.@.@.+.@.N b #.j.z.V.z.V.^.x.+.c x v L T ^ } | ( H C r 4 4 e 4 r r z F I ` h.K.oXP.s.B k b B ,.,.8.N.+X%X@XZ.B.h.L.U.L.B.h.p.<.<.<.+.U U +.<.1.3.<.<.s./.#X#X/.#XfXvXSXvXuX#X/./.x.-.#.#.$.$.#.P #.<.*.R P i.B.z.1.V c b <.z.z.i.U L M x 6 3 3 > 9 p d ~ ~ f 9 ",
"c.x.^.c.j.p.E x x L Y D y y K | d.h.B.B.m.Z.%XgXpX<X;XOXQ.N.8.k.2.a.i.2.<.U V b P U R R / *.*.*.d.D.D.n.n.| { R P +.$.$.$.$.+.P L E R P +.7.k.8.1.+.v x r 2 - - 9 f [  .} ^ Y Y T d.g.d.} ( ! G a e t T / E E #.%.%.$.1.1.+.+.<.1.1.<.s.K.yXfXuXK.B.S.h./ x w w T i.d.I Z Z z l z z z t e e a t T I I L x h L R z.).).B.k.V.z.<.1.+.k.k.>.k./.Q.V.1.V v U i.S.G.H.| D 8 - : : - ; ; z / p.B.k.+.#.p.B.h.p.s.s.s.B.L.J.J.J.J.P.P.K.P.P.V.P./.B.<.i.p.R M M <.p.<.p.f.h.d.^ C < : , @ . .           * * * * O O O       + $ 5 Q ~ { g.b.J.B.s.1.1.3.:.o.+.#.1.p.p.B.V.P././.#X*X!.8.8.l.l.3.+.<.k.%XdXvXSXJXJXJXjXSXSXvXuX/.l.8.9.R.(.*X!.R.M.R.M.1.>.@.@.1.1.1.1.0.9.E.Q./.P.U.I.I.H...f < @ + $ % % % O         O O O O O O O + 4 3 3 l E f.z.V.Z.m.k.m.m.m.m.C.Z.N.N.m.m.m.3.3.s.m.m.m.m.v.2.4.` ` ` 2.<.3.3.3.<.:.<.h.h.{ Y C r < ; : : : < e C J } T r ; ; 3 P 1.z.k.1.+.+.+.#.#.p.=.#.#.=.p.p.*.E v l v R f.S.J.J.h.i.i.i.R P M c h c x #.p.K.B.p.#.s.U.tXtXoXpXxXaX(.e.0.9.5.5.@.@.1.N N #.f.x.F.z.x.V.k.%.b v P R { } } } ^ H Z C C C l r r w z L E ` p.B.oXP.v.U b b V ,.,.8.N.OX%X@XB.i.Y.I.I.L.J.J.B.h.s.p.<.#.+.U P B <.3.k.1.+.1.V.#XyX#X#XyXjXvXjXdXtX/.x.z.z.k.p.1.P %.#.#.U U p.K.P.z.+.b N <.s.p.<.E v v k 6 6 3 r a s f ~ ~ G p ",
"^.W.c.j.p.#.P c h L ` ` T { H.tXwXtX#X@X/.#XpXxXpX;XoXN.8.3.:.:.` { a.2.U M x k R R R R / *.d.D.D.D.H.D.| K g w j P 1.p.#.%.P P v P R U +.k.l.k.1.U v x r 2 < e f ..H.H.H.D.{ L z L T Y Y H G s > > y T d.*.E %.%.%.$.$.1.+.+.:.3.2.1.<.k._.fXfX).K.J.U.J.E z l { g.d.x 3 2 3 3 l z D H J ! [ [ } { / L x h x U i.B.K.P.V.B.z.s.1.+.1.k.1.8.W.Q.Q.3.v h h x R } | ' g 8 : : > : > ; w Y i.V.V.1.k./.rXrX@X[.[.[.J.J.J.L.U.[.wX@XoXZ.B.Z.P.K.s.<.s.R M M R i.i.i.Y.G.D.^ s < - @ .   * * * *     * * * O % % % % % O O   + % 5 d G ' g.L.L.B.s.1.m.3.U N U #.i.<.p.k.V.Z./.#XyXaXOXQ.M.N.V.k.:.V Z.yXDXKXLXLXLXLXLXDXdX@XV.V.W.Q.OX>X:X*XE.e.M.W.1.>.+.+.$.1.1.1.7.l.V././.P.I.[.H.| f 9 @ . + , i Q i % O       O O O O * * * O - = = 4 Z i.z.z.V.1.o.:.:.;.,.N.N.N.N.N.N.m.m.w.Z.C.C.C.m.2.:._ ' a.b.B.m.m.m.N.:.+.<.h.h.{ F t r e < e e < e t s C C 3 ; = 4 h #.k.V.k.#.P %.#.$.j.c.$.#.=.p.=.=.R L x x L *.f.J.Y.U.U.U.K.z.i.P b h 3 3 c P <.K.P.).P.).@XtXrX;XgXxX;XE.e.9.9.7.7.@.1.1.%.N $.f.z.x.z.x.x.1.N b N #.i.g.g.} { Y Y ^ / } } ^ Z l l Z Y R ` <.s.P.P.m.:.V V V o.>.3.m.oXrX@Xf.L g.G.Y.Y.Y.K.K.J.z.s.p.i.<.U B I <.p.s.#.N B j./._./.K._.dXvXDXvXfXyXyX#X_.^.x.j.+.#.1.$.#.+.p.B./.V.s.+.+.1.p.1.p.#.P v c h h l C C C G ! ! ~ s ",
"^.x.k.1.#.%.v k c M i.J.[.eXeXiXtX)./.#XfXgXyX&X&XZ.m.3.2.<.:.U { ` ` I L N U R R R E E / *.D.D.D. . ...G e > : 3 L f.f.%.S L P x I R U #.k.x.k.1.U v x r r s G !  .H.D.D.S.d.Z h z Z Z C C s e - - q ^ h.=.%.N %.%.%.$.1.:.+.U 1.3.1.#.1.W.uXfXuX).K.).U.p.L M i.i.R h 4 4 3 w h z F [ | D.H.H.S.g.{ Y z h z L R p.J.@X/.B.k.B.k.<.1.8.8.3.l.Q.OXV.U h 3 3 l F D g y 0 : 8 9 e > ; 3 L p.K.^.j.#.k.P.K.B.b.b.J.n.n.b.L.[.wXwX@XP.B.B.Z.K.B.s.<.i.P M U <.i.i.f.Y.H.} G 9 - @ $ +   * * * * *   *     % % Q Q Q i % O O . $ 1 < r D { b.J.B.h.s.V.k.1.+.U U #.#.<.p.k.V./.#XyXaXcX;XOXOX+XZ.1.V 1.V.pXDXJXJXJXSXjXyXoXV.M.Q.-X:X1X1X>X!.R.9.M.E.1.@.+.+.@.1.1.$.1.k.Z./.@X[.I.H.| G 9 @ . . # 5 i Q Q i % + O O O O $ & % O O O @ = = ; l R f.J.V.:.V B B V B 3.,.3.w.N.C.Z.Z.A.'.C.C.m.v.v.v.v.n.n.n.v.s.8.m.N.:.<.1.h.h.{ F r e e r e e e e t C z w ; ; 4 z R p.j.k.1.+.%.%.#.p.z.c.#.%.p.c.=.*.Y x l x E f.S.J.U.).).).U.B.p.N b b c c b B +.k.V.).rXyXrXyX#XyXzXaXOXR.R.R.9.0.7.@.1.1.%.N $.f.z.x.z.k.j.%.b b v U i.i.d.} { Y / D.Y.Y.D.D.d.T Y Y I E U <.s.P.K.B.3.U V V B :.1.k.P.rX@Xi.l z F } G.Y.U.L.J.J.B.z.h.s.2.<.<.<.+.U +.<.3.p.1.1.k./.@X@X#XyXfXfXbXfXfXfX-X/.V.k.k.k.k.1.+.+.1.B.B.B.s.<.<.1.p.f.i.E S v c x x F F D D J ( ! G ",
"K.V.k.$.B v b V +.s.P.rXdXpXrX@X)././.yXvXxX;XN.m.3.<.<.<.<.<.` ` T F n L R <.i.R R R R / *.D.D. .) ~ f 0 @ @ - 2 Y h.j.%.S S L x U R +.<.k.k.k.#.P v x l r s G .. . .[ / d./ Z l Z L Z C C a > - - y / S.f.%.N %.%.@.@.1.<.:.U :.1.1.>.1.l._.yXvXyX/././.B.p.<.p.i.L h 3 6 h c x L / d.H.H.0X0XI.S.d.R Z h l x L R B.@X@XB.m.B.B.k.1.3.k.7.8.V.#X/.p.M h 3 3 2 t a 9 0 : 9 a s e ; 3 Y p.K./.k.+.1.k.s.2.a.n.b.L.L.L.Y.I.I.Y.B.k.m.B.K.B.s.<.s.R L L <.i.<.i.b.H.D.^ s : @ + $         O O         O % i Q Q Q Q i $ . . @ - - > y F [ a.h.B.B.V.V.z.p.#.P P U <.<.p.B./.OXOX*XxXcXaX<X%X/.m.1.B :.k./.rXtXeX@XB.B.B.m.N.OXaXZXcX:X XR.e.9.l.M.>.@.+.+.+.$.1.$.1.k./.rXeX[.H.| J a @ .   . # u a f W a 0 # # % & & i i i & & $ @ 1 1 ; 2 z d.J.P.s.<.<.U k k B o.;.3.m.Z.Z.C.C.m.B.B.B.C.L.].{.G.b.a.a.3.k.k.8.1.3.k.h.h.{ H r 2 r s r q q e y D C w 3 3 x *.F.z.j.$.$.$.$.#.$.p.c.p.P P p.z.=.E Z 6 3 x / h.J.K.U.@X@X).).J.s.$.+.%.+.%.+.3.k.V.V./.#XuXuXyX#XaXaX;X|.E.!.R.0.0.7.@.1.1.%.v #.f.z.x.x.j.$.N c c b M U R { / / ^ g.I.7XI.Y.Y.Y.h./ I L M L ` s.K.K.V.k.:.B N N +.<.p.J.wX0X} y ; 2 z T g.S.J.J.P.K.J.B.B.b.b.b.a._ P U 1.k.3.+.+.3.V.P.P.K.].@XfXbXxXvXcXuX#X/./.Z.Z.Z.m.1.:.+.1.z.V.B.<.U #.f.z.f.p.#.L S L P L L F L T { T F ",
"V.z.p.+.N v N :./.%XfXhX#X/.P.oXuXfXbXaX;XOXW.M.>.<.:.<.` ` R R I K F K I R R R i.*.*.*.( ( ( ( ) W u , +   . - t R S.f.E S L L v E <.#.1.k.k.3.+.P v x z r t s [ [ ! D C L L Z S Y ^ ^ ^ H s > - : t } F.f.#.%.%.%.@.o.+.<.:.U B >.1.>.1.l.W.(.xXfX#X/.Z.Z.V.B.h.s.R P v M M P <.i.h.b.G.G.I.0X7XY.S.*.L l 3 w x L p.P.oXK.B.m.Z.B.1.>.8.8.1.l./.^.V.p.L l 2 > e y 9 0 0 u s f e > w Y p.K./.x.V./.P.B.B.L.[.[.0X[.I.G.h.g.i.R p.m.K.B.s.<.<.p.P P #.p.p.<.p.Y.G.} G e @ . . . * *   + % + + + + # # 0 i Q Q Q i 0 $ + X @ - - : q y D I i.B.K.B.V.K.z.p.#.R R i.#.<.k.Z.Q.Q.Q.;XaXxXfX;X%X/.Z.:.B V U <.<.<.<.<.2.m.Q.OX;XzXAXcX*XR.0.9.9.9.M.>.@.+.%.+.@.#.#.p.B.@XtXeX{.| K e : .     . # < a a s a 9 9 u a f a a a a u u 0 : < 9 : ; w I h.U.K.B.k.<.P M M B B :.s.B.Z.B.B.<.<.a.b.L.U.[.{.L.G.L.C.P.Z.N.8.k.m.B.h.g.{ D e 2 r C t q q y t H F z l Z / F.Y.K.j.$.$.p.p.$.$.p.p.#.P #.c.c.=.Y l 3 3 x *.h.J.U.wXtXtXwX).K.z.Z.Z.V.l.l.V./.#X#X/./.#XuXuXyX;XxX1XOXE.R.e.0.t.5.7.@.>.1.N v #.f.z.x.x.j.+.b 6 c c b M L E R T T } H.Y.D.g.S.G.d./ L M n M _ s.K.K.K.z.3.+.N N +.#.i.h.[.0Xd.t ; - ; w Z R d.S.K.K.P.P.L.C.C.C.s.a.<.U U +.+.$.1.1.1.1.B.K.P.Z.#XyXaXbXfXaXyX;X#X/./././.M.3.1.1.k.V.V.p.U P #.z.z.z.p.#.R R R U E R R i.a./ F ",
"s.<.P P U +.s.Z.yXpXpX%XQ.Q.OX;XxXvXcXuX(.l.8.1.:.:.<.R I T I T K K ' ' T R E E i.d.d.*.( ( H A d 5 . .     + 8 H { h.f.E L L L L R i.<.p.k.k.3.<.R P E I F C t s s t y r w l l S E / } [ ! s > @ : s } S.f.=.$.%.%.%.O.+.<.<.U V +.>.>.>.7.l.l.uXcXfX/.V././.V.k.k.z.z.s.p.s.z.K.U.U.J.a.| g.G.7XY.S.d.Y l 3 4 3 x <.B.P.P.B.v.B.C.1.o.8.k.1.k.l.V.^.K.f.E z q e g u 0 0 u f G a 4 r S #.z./.V.^././.K.L.L.L.b.G.n.| T F F F L <.B.K.s.i.<.<.U L U i.p.p.p.h.J.d.! s > - + .       + i i i 0 u a y u u i i i i i 0 # @ @ - - - : > q w z I p.B.K.B.z.z.z.s.i.#.#.R <.s.k.k.V.OX X;XaXgXgXgXpX&XV.3.B V b b L <.k.B./.yXcXxXcX1X>X~.u.0.9.0.9.E.>.@.%.+.+.#.#.#.p.B.U.wX0Xn.K q @ + . . . @ - < e y e y y a f G G G f f f f s a a a a 8 : 2 F i.J.K.K.z.p.i.E v U U +.p.B.K.J.B.<.U F L T i.d.d.n.n.L.].oXoXN.N.N.V.B.h.i.( G 2 2 z F z y y t D T J Y E *.f.F.F.x.$.$.$.p.=.$.-.$.#.#.=.f.c.p.=.S 6 4 3 S =.f.f.J.wXuXtX@XU.K.B.OX#X-X;X;X;XuXuX-X(.Q.OXyXyXuXuXaX+XE.N.9.;.&.0.0.7.@.>.1.P v #.f.z.x.V.j.%.b 6 c c v M L L Y L F J ^ [ ( ^ Y Y L L L I U U <.s.K.K.K.z.j.+.B N +.#.<.a.Y.0Xn.G q ; = = 2 h S *.i.h.B.P.P.P.C.B.v.s.s.<.+.U %.+.1.#.+.<.s.B.B.B.Q.(.#X-XuXaXcXcXaX*X(.OXOXQ.N.m.k.s.z.J.z.#.P P p.z.K.z.p.p.i.#.#.<.p.h.B.B.i.L ",
"` M k N <.m.oXyXpXOXN.E.OX:XaX:X:X-X!.W.Q.W.8.@.+.<.#.U L L Y T I ' ` ` T I ` i.d.d.d.( ) A p 5 1 .         # a T } f.i.E P S S L R i.<.p.k.k.1.k.p.<.i.d.T Z t > : > 2 2 4 2 6 Z Y / } } ! s : @ : C } S.f.=.-.%.%.%.N P <.<.U V +.>.@.@.7.7.7.(.cXxX_.V.OXOXV.s.B./.@X_./.).rXwXwX@XB.R I T d.I.S.d.d.E l 3 4 2 h U s.J.].K.s.m.P.1.V 3.l.1.8.7.V./.@XU.h.E x y a a 0 0 a f G s e r z L f.^.K.K.U.U.U.U.L.b.| J F z q 2 2 z F a.B.K.p.<.s.<.N L R i.p.f.h.z.h.{ H e > : : +   + # u f f f f f K D g a 9 0 0 0 0 9 0 : : : : > > > > 2 w L i.B.P.z.s.s.J.K.z.i.#.#.<.1.3.3.V.%XQ.OX1XxXDXFXzX+XpXoXs.U M V U s.$X#XyXxXDXDX1X*X!.E.e.e.9.5.9.E.>.+.%.+.+.#.#.#.p.h.L.I.H.| y - X . @ @ - # , 9 q q q q y t D H T H F H H H H H D D t q 2 w n R i.J.J.f.i.f.*.v U U #.p.B.P.P.L.f.Y 3 2 2 C H J J [ n.b.B.B.C.Z.Z.K.B.a.} ^ C 2 r F T C r t D F T T / i.h.F.z.c.-.$.%.$.$.#.$.j.$.#.#.c.F.c.=.E Z 3 4 3 S *.i.#.p.U.tXtX).K.z.k./.-XfXvXvXvXbXuX-X(.W.(.-X;XuXfX;XE.e.e.,.O.O.R.0.7.5.1.1.P v #.f.z.x.V.j.%.c 6 b b M P U U L F z t z D F Z l 3 l j L <.i.<.s.s.V.V.V.x.j.#.P N +.#.R i.Y.0XG.T r ; = = = ; 3 l L R h.L.U.U.L.B.v.s.s.k.k.p.+.N N #.s.s.<.U <.s.M.M.Q.OX;XaXxXxXxX;XOXOXOXOXQ.Q.M.s.p.B.K.h.R L #.h.K.F.c.c.f.$.p.s.z.V.P.P.s.U ",
"n M ` s.B./.@X#XOXOX*X*X>X:X6X>X>X!.l.9.9.9.7.@.1.$.%.P E E E R P P U R ` { d.g.d.} ( ) d 5 = X O           0 g ' a.a.i.P E E E P E #.p.k.z.z.k.k.K.B.i.i.d.{ H a : - > ; = ; l Y { } / } d.F ; = 2 F d.F.F.c.c.=.$.v b P R R s.1.%.+.8.3.+.1.V.M.;XxXfX#XQ.Q.V.3.V._.yXuXuXyXtXrXdXtXP.R x x L / ^ H Z Y Y l 2 2 3 j U b.C.K.P.K.<.s.B.1.1.l.8.7.l.Z.^.P.K.s.R G f a u 9 e f J t q 2 r F / G.I.Y.G.g.D.g.' D D t q > : ; > C { J.B.K.z.<.P M P <.i.<.i.h.K.z.i.^ z 2 2 > - @ @ 9 a f G f s C D H H H D s s a a f s a e 9 0 0 : > 4 r w 3 l R h.h.J.K.K.B.x.k.p.#.#.+.+.1.k.m.8.N.=X=X X1XHXFX5XrXeXeX[.C.b.'.,X<XpXxXSXDXxX*XM.E.w.>.,.6.6.8.M.>.+.+.U R #.i.d.d.Y.Y.g.} H 2 ; X @ - < p d d s H F C Z F Y Y Y Z H Y Y Y Y S Z Z j j x x h h x <.B.K.B.h.h.i.P P #.#.p.f.F.U.9XF.^ r ; = 1 < < e t C D F T } d.G.G.G.n.{ F y 2 s C C s C H ^ T { i.f.J.K.K.x.j.$.j.p.$.%.-.j.j.j.=.=.f.f.*.E L L l 3 l E p.p.i.#.E P E U +.s.Z.@XyXfXcXvXxXfXyX(.W.W.(.;XaXaX:XOXQ.M.8.>.>.8.W.l.l.7.3.1.N b +.p.k.x.z.j.#.v 6 c N #.#.E R #.R F z y q 2 2 3 3 k U i.s.p.s.k.z.^.^./._.V.$.N N P U #.i.z.L.B.i.Z 3 = ; ; = = < 4 s H { h.z.K.P._.^.x.j.j.j.1.$.+.+.U U +.:.1.2.3.3.3.w.E.OX;X<XzXaX1X:X1X:X*X!.!.x.k.k.K.K.z.*./ E #.=.=.j.-.$.k.l.W._.#XZ.p.U ",
"m K ` b.P.@X#X#XQ. X>XcXcX6XXX~.9.R.R.9.>.O.@.7.o.%.%.%.%.%.E E E U U #.` / / } } ( ~ d 5 1 .     * *     + 8 D ' { a.<.E P P E #.%.#.-.z.V.B.k.V./.).J.h.S.h.{ C e < e < ; 2 r ( g.D.{ { { Z ; = 2 Z d.F.F.F.c.=.$.N b E U U <.1.+.+.3.3.+.1.k.Z./.yXfXyX/.M.M.V.Z./.yXfXjXdXyXdXdXtXP.#.c 3 3 l l Z Z Y ^ Z 2 4 4 3 M i.b.L.].B.<.s.B.<.1.k.7.8.l.V.Z.^.K.B.a.J ~ f a e a D H t q 2 l H / g.H.D.{ ! H s 8 : - : - - - - > G g.L.B.z.z.p.E M M U <.p.p.z.K.z.i.Y r 4 4 2 - - : s s G D C C A H T T T T J H H G J G G f a a 0 8 e r r w 3 w L i.J.J.K.K.x.x.k.1.$.$.#.+.1.k.k.3.M. X X XXX5XAXzXrXiXkXhXhXiX,XpXsXzXZXZXzX1XOXE.N.8.>.>.>.8.8.N.+.+.B P U R i.d.{ S.S./ Y l ; ; - ; e s G ~ ~ ! H T { d.d./ / R / E L Z x Z S S L v x x k h k M U h.P.K.J.J.B.p.P E #.$.p.z.K.9XU.d.A 4 ; = = = - - : > e r C H | | g.d.{ F w 2 e s s s C T { / i.i.z.K.K.V.z.j.=.p.p.$.=.j.c.c.=.=.=.c.f.E S Z F x l x R i.p.#.c c 6 6 h c U m.#XrXyXuXfXfXaX-X^.^.^.*X:XaX:X;XQ.N.8.>.7.l.V.V.l.l.7.3.1.N b +.1.c.x.z.p.#.N c 3 c E #.<.p.i.R F z w q 2 w j n R 2.p.s.B./.)./._._._._.V.1.+.+.#.+.P +.s.K.K.B.x 3 ; ; ; X X - X 1 4 A Y d.S.K.^.^.K.x.c.k.j.p.+.+.U B B +.:.:.;.4.,.,.3.r.N.|.+X1XAXzX:X XXX>X`.W.l.l.^.).).Y.*.E S v N %.c.l./.OX#X-X#X^.k.3.",
"2.a.b.L.[.@X@X&X#X-X;X:X>X*X!.R.6.5.;.>.5.>.o.N N P +.#.#.#.E P #.<.i.i.i.} { ( ~ d p 1 . .       *   O + # y K ' ` <.#.%.#.%.P =.#.#.=.z.V.V.V.oX#XrXrX@XJ.J.S.( ^ G r r r r C ( D.G.g.g.g.R l 2 2 z d.F.F.c.-.$.-.%.S E P N U <.#.#.#.1.1.1.1./.V./.fXgX#XM.k.V.V.V.#XfXSXvXjXvXjXtXJ.R c 3 3 4 4 l Y / / F w 3 2 3 j I a.L.@XB.p.B.V.s.3.k.k.k.l.V.V.Z././.L.| ..J f t t s D q > 2 y C H T ^ H t e > : - @ - - - - : > s [ H.L.z.p.p.#.U N N E #.p.k.z.z.k.i.L l r z s y e t a t t y r r Z H Y T / { { { | | | | [ [ J K f s t r C z l z Y g.J.K.K.B.z.z.k.k.j.p.$.+.+.1.3.3.w.N.E.E.E.XX5XAXgXhXBXDXDXSXZXZXAXZXxXaX;X XE.E.M.3.+.@.>.7.l.W.+.o.B P U R / / d.S.d.H C 3 ; > 4 a G ! ! ~ ~ ! { d.S.S.d./ / R Y L S x c c c c c x P R P M M P <.B.).P.B.B.s.<.#.#.#.#.#.p.z.J.wXY.d.A 4 - X X X @ X X X - : > q t F J K x w 2 > q t C H / i.i.i.h.K.P.V.k.j.j.p.p.-.$.-.c.c.c.=.=.f.c.=.E S Z F F L E *.i.#.E c c 6 6 6 c R B.yXdXfXfXfXuX-XW.W.^.(.-XuXuX;XOXM.M.8.@.7.Q.Q.k.l.l.7.3.3.B b %.1.c.x.z.j.$.P b v E 1.f.z.z.s.<.F m j w w x R a.h.h.k.B./.yXfXuXyX#X#X/.V.k.3.p.#.#.E U p.J.K.J.E l 2 ; > - X X 1 - < < r Z ^ i.F.K.K.^.K.x.z.z.1.<.+.U B B B B B _ 4.4.:.:.8.M.N.E.=XcXcXcXcX6X>X(.E.M.Z./.#XtXK.J.f.$.1.k._.yXuXfXfXyX/.V.B.B.",
"C.L.L.P.P.@X$X%XyX;X#XOX!.!.W.R.9.;.O.O.;.>.N b +.+.#.1.i.<.#.R i.i.i.d.} } ! ~ p < # .       O O     + # 9 D [ { ` #.#.#.-.=.#.#.#.$.p.z.V.V.Z.%X%XpXfXdX@XJ.J.I.H.} A s C H H T g.Y.Y.Y.G.d.Y w 3 l R F.K.c.=.$.j.#.%.#.P M P #.1.+.+.+.3.1.+.M.k.V.;XxXaXQ.k.V.k.3.k.#XfXjXjXjXtXJ.R c h h l 3 l Z ^ ( / Y Z z w 3 h n R b.[.P.J.B.B.k.k.l.k.7.k.l.l.V./.).).H.n.| K D t t t q > > r C C z r 4 > ; - - - : > : : : q C ( D.I.J.s.1.#.%.P P +.$.p.z.z.k.s.j.s.i.R Y T T F D D y q 2 2 2 3 l Z Y R { i.i.{ { { ^ [ [ | [ [ J K r r l C Z F / h.J.K.K.B.k.V.V.x.z.k.p.+.+.+.1.:.8.m.M.E.R.E.>XxXDXSXSXSXSXZXZXSXHXZXaX;XOXQ.N.V.8.+.o.+.>.1.k.W.%.o.B P U R R i.d.F.d.Y C 3 2 2 y C ! ( ! ~ ~ ~ / / { { d.{ d.i.L S l h 6 c S S P U #.<.<.<.<.s.B.P.P.P.J.B.s.#.<.#.#.+.#.1.h.z.wX7XY.} A 4 1 - - : - - - - - - - > q t z w w 2 2 q z F T } g.f.h.K.)./.V.7.1.7.p.p.-.=.-.j.c.-.=.f.c.f.=.E Y Y Y T / { d.R P S v v v k h k U h.@XyXfXfXuX#XW.j.T.^.*X:XuX;XOXQ.M.M.7.>.1.k.k.8.V.l.7.3.3.%.b +.p.z.V.x.j.p.+.N #.#.p.f.z.z.s.<.F n n K I i.h.B.B.V.P./.rXfXxXfXyX;XOXQ.V.k.k.k.+.<.p.p.f.z.z.h.i.F 2 2 > - @ @ 5 , - - - 2 r C *.f.J.K.K.K.J.B.k.s.<.+.B N B V V U :.:.:.:.3.8.8.8.M.OXcXvXxXcX6X>X XE.M.V.P./.@XtXtX#X#X%XaXfXDXDXjXrX).K.B.B.",
"s.B.K.].@X@XrXyX@X@X#X#X/.W.k.>.;.;.;.V b b B :.<.<.<.<.i.p.f.h.d.} { ( ! G s 9 # $ $ O O $ % % % O + $ 1 p J g.h.p.<.#.$.j.-.=.S %.=.f.k.k.V.Z.&XoX%XgXjXdX$XP.0X7XH.( H H H Z F i.Y.Y.Y.G.d.T w w l R K.).F.c.$.j.$.+.#.R M P #.#.+.+.#.3.1.+.1.k.V./.aXvXyXM.V.k.1.+.1.x.).wX).B.#.x 6 6 h x Z Z Z H ^ ^ T T Y x z l j n { J.@XP.k.3.k.k.7.>.>.7.k.k.V./.).).[.I.G.{ J z w y q 2 2 y s r e 2 > < > : : : : - : - ; w H D.Y.Y.z.p.$.+.N N %.p.k.z.x.x.z.z.V.K.@XU.Y.G.d.T F m F n z w 3 w l x R #.i.i.i.R I Y T T T ^ [ ^ ^ T r 2 w Z F F R h.z.J.K.B.k.V.Z.V.x.x.k.#.+.+.<.:.s.3.8.N.N.N.oX;XSXDXFXSXZXZXAXHXAXaX+XOX|.N.k.k.#.%.N %.@.1.l.V.@.+.P P U #.<.i.h.Y.S.E Z h 2 3 r Z ^ } } [ [ | L F F R i.f.d.i.E v h 6 c L f.J.U.J.p.<.s.K.@XwX@XU.K.J.P.P.J.s.#.+.+.+.$.p.z.V.P.U.U.G.( C < - < < e e e e > : : > q y t z z z w j x I { a.h.z.K./._./.k.1.1.7.j.p.-.-.-.-.-.-.c.c.p.#.E E R i.T / } d.d.R L v h x M v x M U <.s./.-X#XW.l.l.l.W.(.-XuX:X*XE.M.e.>.1.8.1.o.+.k.V.l.3.1.3.%.b %.p.c.K.V.z.j.1.+.M P #.k.V.B.s.<.M I U a.b.C.B.B.B.@XyXpXfXfXfXyXOXOX/.V.k.k.3.1.#.k.B.z.h.z.J.J.S.T r > : < , u , $ @ @ - - : > l Y *.S.Y.J.K.P.B.h.s.<.:.U B B V I I _ :.4.3.3.1.m.Q.Q.Q.Q.;XxXcX5X1X*XE.N.V.Z.$XrXgXgXSXSXDXFXLXJXdXwXU.J.B.B.",
"B.P.rXdXdXrX@X@X@X/.V.B.k.s.3.1.B V b b b B <.2.a.a.i.i.g.h.Y.Y.D.} ^ G s e : @ + $ $ % % & & i % % $ @ , p ! g.Y.J.h.p.-.j.c.=.S E #.1.3.3.k.V.N.N.|.%XgXSXgXiXI.7XI.H.D.^ Z l z T g.G.Y.U.Y.b.I F L i.Y.^.z.p.-.-.%.P #.#.P U #.+.+.#.1.1.+.+.B 8.M.M.#XvXxXOXZ.k.3.+.+.p.K.wXP.K.B.p.R L L L Y A Z Z H Y ^ { } / I F x n R h.@X@XB.3.B.M.7.7.+.>.8.k.l.Z./.P.eX[.L.h.{ F z w q 2 2 e r 2 > : e s s s p e e > : > 2 z { Y.U.S.f.p.1.$.%.N #.j.k.k.z.V.V.K.).rXtXrXrXeXwXU.J.b.n.a.` I x j h h v P #.p.p.i.i.i.R / / { { { } } x w l F I L R p.h.B.K.B.k.B.V.Z.V.K.V.p.<.<.<.+.s.2.2.v.B.Z.Z./.<XxXFXGXFXFXHXAXsX+XE.Q.Q.m.1.1.%.P N %.$.3.k.x.1.@.+.U +.#.<.i.f.Y.S.R S h 3 l Y ^ } d.} { } { I I R i.h.f.R x h c v P i.h.F.K.K.P.P.@XdXjXjXdXtXU.B.h.B.B.s.1.s.1.+.+.:.1.3.k.z.K.U.Y.d.F e : : : 9 e s s r e q q q q w z D F n n I i.p.h.B.K./._._.W.j.@.5.7.1.1.1.p.-.$.$.-.c.c.-.E S E *.i.T T / { / R L L v E <.i.p.h.J.B.P.@X/.k.@.@.7.x.^.*X:XuX-X(.M.9.6.;.>.8.>.b %.V.V.k.1.1.3.%.b %.p.x.K.V.z.k.p.1.+.<.V.#XtX/.s.+.N U 2.B.P.].K.B.oXpXSXSXfXpX;X#XQ.E.N.8.8.8.1.+.k.B.K.z.z.K.9XwXG.{ z 2 > 9 a W d i u u , , - - ; 3 C Y { h.Y.L.B.B.B.s.s.<.+.U M n n M B U U _ <.1.3.3.8.N.OX;X1X5XzXaX<X+XoXoXZ.Z.&X%XpXsXZXSXjXiXU.B.f.a.i.` ",
"rXdXgXgXrX@XU.P.@XP.s.<.R R <.<.U V k V <.s.a.` a.a.g.h.D.D.D.D.} ! A p < < , @ $ % % & i i i i 5 % $ 1 , p G } G.J.B.h.h.z.j.-.#.#.U +.<.3.k.k.m.A.N.N.+XxXZXgXwX0X0XwXI.i.F z l x I { h.L.U.L.i.R E p.K.K.j.#.$.#.N v #.<.U #.#.%.+.1.1.+.+.1.N 1.k.k.Z.uXfXaX^.V.k.3.#.3.z.K.P.@XtXrXU.h.<.R Y H F H H Z Y / } { { R L F I a.K.rXP.m.Z.M.7.8.@.7.8.8.k.V.P.P.rX@XU.L.h.` F z w y y y y 2 > e d ~ ~ G f f s e q t F T h.U.Y.z.p.1.p.k.p.$.$.p.1.1.3.x.V.V./.#X@X#XiXdXhXgXhXdX$X@XP.B.2.U V k c v #.p.p.p.p.i.R R R R { i.g.h.L z x R i.U R p.h.B.K.B.k.k.m.k.V.K.^.V.s.p.<.U <.2.i.a.s.B.L.B.OX:XZXFXGXFXAXsX=XE.N.Z.V.1.+.#.E S P #.p.j.l.x.7.$.%.U U #.<.<.p.J.h.E S l l S *.d.d.{ / Y F Z I I R i.p.i.L k h M i.P.wX@XK.J.B.@XdXvXDXDXjXtX).K.z.s.1.#.U U k.3.1.@.@.>.@.+.s.B.P.U.G./ C q > > > e s s s s y y y y t D F I R U <.s.B.B.V./.OX_.(.M.7.&.5.7.@.$.1.j.1.#.$.c.c.c.#.v v P P L I K F L I R R R #.p.h.J.U.rXdXtXyX%XZ.+.B %.l.W._.-XuX:XOXW.9.8.>.>.7.8.o.b o.V.M.k.>.>.1.%.b N $.z.V.x.k.k.k.p.k.B.).yXyXP.p.+.B <.B.].].oX@X$XhXSXDXSXaX#XOXQ.M.M.8.>.>.8.8.1.V.z.z.z.K.).).Y.i.T z q > u W W X.W W Q d i 0 : ; ; 4 r C T { d.h.h.B.B.B.s.<.:.I I I n n M N B :.B V U 3.V.Z.V. X=X1XzXzXfX<X%X3.3.4.4.3.q.m.m.B.h.<.I F n x x ",
"yXpXyX%XP.K.P.U.B.h.h.f.i.R L x x L ` i.i.i.i.g.d.g.H.Y.H.D.} ^ G a > - - - - # 5 i i i Q i i Q 5 % $ 1 < e G J | g.b.B.z.B.z.f.z.<.P N +.3.s.3.3.A.m.,.e.<XZXNXjXeXwXeX[.a.U R x x x n L ` <.` I M L i.J.K.z.j.#.%.b c #.<.#.#.+.P +.p.p.+.+.k.B +.3.k.V./.aXvX#X/.V.3.+.N N N B.).tXrXU.h.#.E / ^ Y ^ Y Z Z Y Y I R I F z n R a.@XoXB.V.k.>.8.>.7.8.1.3.k.K.P.#X#X@XP.C.s.I x F F F H C r t G ~ ! ! G d s e 2 y F { i.h.J.z.f.1.1.j.V.V.k.1.1.+.%.+.j.x.x.V./.Z.oX%XpXhXgXgXdXgXgXhXrX&XB.4.+.B +.1.3.$.%.N v v x x v L R i.p.L j z R <.U R s.h.J.K.B.k.s.k.k.z.K./.V.z.s.<.R U <.i.` i.b.L.C.E.*X1XzXAXHXzX=XOXE.V.Z.m.+.P #.P P %.$.c.k.l.x.7.$.%.+.+.+.#.#.p.F.h.P v x v R P L L L L F z j h j n I ` 2.<.<.i.s.K.@XtXdXdXdXjXvXDXjXdXyX#XP.k.k.k.s.<.+.#.1.+.+.o.o.>.7.7.8.1.k.P.U.L.g.T z r e e e t C C C D x z z m K T ` <.:.<.k.V.Z./.OX#X(.W.l.5.&.5.0.%.$.j.k.7.$.j.x.z.j.%.v x v v x F n z x I R i.i.R i.i.i.J.wXtXrX@XV.1.B %.7.W./.-X:XaX:X(.M.8.0.>.8.8.>.V V @.k.M.k.@.@.1.B b N $.c.x.z.k.j.k.p.#.<.s.V.V.s.<.:._ v.oX&XoXoX%XgXSXFXDXgX#X/.Q.M.9.9.6.;.>.8.k.k.B.k.p.z.U.wXJ.R F m y : - , a f W W W Q W W f a e 4 ; ; 4 l Z F g.h.G.J.B.B.s.<.` i.` I n m M P N U <.<.:.:.<.k.M.Q.-XaXgXfXpX;X%XoXC.v.3.4._ I M L L x h w l z ",
"#X@XoX/./.P.J.B.<.i.h.h.i.I x l F / S.G.g.{ { d.d.D.Y.8XD.} A r ; - = X X - : , u i i i i i & & $ 5 u u 9 8 q y J ` b.L.C.b.a.a.p.s.1.+.B U <.3.1.,.3.M.e.w..XZXjXjXdX@X[.[.J.a.R L n M n k j j x n U p.P.).z.$.#.#.v c U p.<.#.%.E #.p.p.#.%.+.1.+.+.3.k.V.#XfXyX#XV.k.p.b 3 c <.B.@XwXU.z.i.R / { g.g.d.R Z l z l l l z x n n I B.#XoXm.8.8.0.8.>.>.k.k.1.s./.V./.#X#X/.B.<.R R ` { T K D D G ( ) ~ s e e e t H T } g.h.z.V.K.3.3.k.V.^.V.k.1.+.+.1.3.k.k.k.k.Z.N.Z.oX<XgXxXgXxXZXZXZXsX,XoXN.k.k.k.1.+.N b k c k k v P U <.i.n M L U U ` <.s.B.K.Z.B.s.U P 2.k.P.).K.B.B.z.h.i.R L I i.b.b.s.N.R.!.>XzXzX:X XQ.Q.k.:.<.p.<.v P #.c.z.c.j.l.W.@.@.%.+.U U R #.h.z.f.#.P L P P P L L x k k k x j j n M U <.s.s.P.@XrXdXdXfXvXDXLXDXjXyX@XZ.m.k.k.+.B +.<.<.+.+.V N +.>.8.8.5.>.8.k.V.K.J.h.` H D G G C s z C F K K K I T ` { 2.<.1.3.k.M.Q.OXOX(.E.R.9.5.5.5.9.@.7.j.1.1.k.x.x.j.$.#.$.#.L k j z z n L ` s.J.K.z.p.#.i.B.U.U.U.B.k.+.b %.l._.(.-XxXcX(.8.9.9.8.>.8.8.o.N +.8.k.k.8.+.+.1.N b P p.x.K.K.x.k.3.+.N B U B B B :.1.m.Z.oXZ.Z.oXfXDXFXSXfX;XOXQ.l.8.8.8.,.o.o.k.V.k.s.z.V.K.K.J.#.x w q q > : > 0 u W W W W W W W f e e > ; ; 2 4 w K R i.b.J.B.B.b.s.g.a.a.` R I M n P 2.<.U B _ 2.k.k.V./.#XuXdXdXpXpXrXoXv.:.M n k n M M n n n n ",
"#X/.B.s.1.1.<.i.z.p.E Z z L d.S.d.d.d.d.S.S.D.} Y.Y.D.} ) G r 4 ; ; ; ; : < p a p u u u u i i i 0 u a a a 8 q q D T | b.L.L.n.n.s.s.p.<.:.+.+.:.3.,.,.w.w.w.E.=XgXgXdXrX$X@XP.K.B.s.a.2.2.U M M k k M <.B.P.K.z.#.$.N v #.f.p.p.%.E #.p.p.+.%.%.p.1.1.1.3.x./.yXuX#X/.x.k.P c c P 1.J.).U.J.h.i.i.g.G.Y.J.f.R L x h h 3 h h x x M 4.Z./.N.M.8.8.8.>.>.8.8.3.k.Z.l.V./.#X@XZ.s.i.a.a.g.g.| | [ [ ^ ~ A r 2 q q y H T { i.p.B.K./.K.V.V.B.V.V.V.B.3.1.+.U +.1.k.V.A.A.A.Z.+X%X;X;XaXsXZXSXSXNXpX<X%X#XQ.k.>.B N V +.+.<.1.1.s.s.s.<.<.i.2.<.<.s.s.B.P.Z.B.s.U N <.s.K.P.K.B.B.J.z.p.<.E I { d.g.h.k.e.E. X*X*X XE.N.m.k.s.i.#.R R #.p.j.k.k.l.l.W.@.@.%.+.+.+.<.<.s.z.z.#.U +.#.#.s.s.s.s.s.s.B.B.v.a.a.2.s.C.].$XrXrXyXdXjXDXDXDXSXjXrX/.V.k.1.1.+.U +.1.1.U b k +.+.>.1.8.0.8.8.l.k.m.k.s.<.U I F H H H H F Y T i.a.a.g.h.b.B.B.k.8.M.N.Q.OXOX*X!.W.9.5.5.5.5.7.7.k.j.3.7.l.x.l.$.$.$.k.z.s.i.<.a.` a.B.@XrXtX@XK.z.s.h.J.P.J.p.U N b b @.V.(.(.uXbX:XW.9.l.8.5.8.8.>.o.o.>.8.k.k.8.+.+.1.N b %.1.z.K.K.x.z.k.1.U U U B B :.3.m.+X+XOXOX+X;XxXDXxXaX%X/.V.M.k.7.8.>.>.>.8.8.8.k.k.V.K.V.B.k.R k j z m z t t g f f f W W f f f f s s r e 2 2 2 2 w j n I i.h.B.J.b.n.a.i.i.` R I ` U I I _ <.` U p.p.s.z.K.).#XrXSXDXjXgXrXP.v.<.<.<.i.s.s.p.s.h.",
"P.V.s.1.1.1.p.p.#.R E L Y / f.Y.Y.S.d.d.S.S.S.D.Y.D.^ r 4 ; 4 4 ; ; ; > > q e e s s s s s f f f f G ~ J D g t y D m ' { n.L.C.L.s.s.s.s.1.:.B V 1.1.>.,.8.e.N.N.%XyXgXgXfX#X/.oX@XP.Z.Z.B.s.<.` _ U U <.B.K.B.k.p.p.P N p.c.p.p.%.P E #.p.#.%.P 3.3.1.#.1.k././.fXyX#X/.k.1.P c c M p.J.U.P.J.h.f.B.P.U.U.K.z.h.<.U x k k x M N m B s./.oXQ.9.8.0.6.>.>.1.8.k.k.M.M.V./.#XoXV.s.s.h.b.b.b.g.| } } ^ H z t t D D K I T R <.s.V.P././.Z.V.B.B.V.V.V.k.<.U B +.1.k.3.q.A.N.|.|.|.|.=X<XxXDXGXHXDXZXxXgX;XoXN.V.Z.Q.Z.Z./././.Z.B.z.B.B.s.2._ U <.s.C.P.Z.m.2.P M _ s.J.P.K.J.K.K.J.z.p.i.R R ` i.s.1.9.R.E.E.N.N.N.m.3.s.z.i.L E p.f.j.j.j.l.l.T.l.@.@.%.+.+.<.1.p.s.z.z.p.<.1.s.s.B.B.V.P./.oX#X%XrXeX$X$X%XrXiXpXjXgXjXDXJXJXDXvXyX/.V.k.3.3.@.+.k.1.+.B B N B +.1.1.1.7.0.9.9.9.M.k.1.+.V V N L Y T T T ^ { i.a.J.L.P.U.@X@X@X$XQ.E.Q.E.OX=X=X*X XE.5.5.&.5.5.>.8.8.1.3.l.V.l.7.@.$.j.V./.).P.P.L.C.P.$XdXdXrX@Xz.s.s.B.).@XJ.p.V b N 1.V./.-X-XbX:X!.R.l.l.8.>.N.>.o.O.+.>.1.8.k.7.+.+.1.B b +.p.z.x.x.z.x.z.k.k.s.3.3.3.A.Q.OX;XOXOX-XaXxXvXxXyX#XQ.V.k.k.k.8.8.@.>.l.M.1.1.k.B.V.Z.B.s.<.M k k n F K K F D D J J ! ! J G G D K H H D z y 2 2 ; 2 3 z I a.L.[.I.L.b.h.p.a.i.<.s.` N N U <.U P <.i.i.p.s.V././.uXuXfXjXvXjXdX$XP.P.P.P././.oXoX",
"3.s.s.k.k.k.p.<.x P i.z.h.p.#.R f.S.Y.F.h.f.S.Y.^ Z 3 ; = = 2 4 r r r z z z z z D D F H J ^ ^ [ [ [ | [ ' K K K m m m I ' n.L.L.v.s.s.s.s.1.U V +.<.>.,.,.e.M.e.N.|.aXDXDX;X/.Z.$X$X$X%X$XP.B.B.s.2.<.s.B.V.B.z.p.p.E P p.j.p.f.#.%.E #.p.p.+.P P 1.3.1.$.k.V.Z.uXyXfX#Xk.p.p.v c k U h.K.J.B.z.B.B.P./.).).)./.P.B.p.#.U U #.U V V U Z.#XoXM.9.8.0.5.>.1.m.m.k.V.M.V.Q.#X#XP.k.K.P.P.[.[.U.L.L.G.g.{ T T ' ' T I K n n M P #.1.m.Z.oX$XoXZ.B.m.V.B.m.s.1.:.U B ;.4.q.A.N.N.E.E. X=XsXZXHXGXGXGXDXSXxXfX;X;XpXhXfXfXgXfXdXyX#X@XoX].P.B.s.2.s.B.C.P.B.v.s.U V _ s.B.P.P.K.K.K.K.z.z.h.i.R U ` i.3.k.M.V.V.N.M.m.3.1.p.p.#.E / h.1.1.7.8.7.9.9.l.@.@.o.+.+.+.1.p.z.B.V.z.k.B.P.P./.oX#X%X%X%XpXhXjXBXDXDXDXSXjXhXSXDXJXLXLXDXdX#XV.k.1.+.1.3.1.+.k.1.B N b B 3.Z.1.1.1.8.9.9.9.9.0.>.N b k b N U ` i.g.h.b.G.L.P.@X@XrXrXyXpXrX%XOXOXOXOX;X;X;XOX!.M.5.O.O.5.5.@.8.1.@.1.l.V.l.$.$.1.k.Z.).#XrXrX$X$X$X%X%X#X/.V.k.3.3.B.@X#XP.s.N U 3.Z._._.-XuXbX*XR.M.M.8.7.0.N.>.o.o.>.>.1.8.k.3.+.@.1.%.b +.j.x.x.z.z.V.V.V.#XoXoXoX+X;XpXaX;X*X*XuXxXSXxXaX#X/.V.k.8.7.k.k.>.>.8.V.M.8.8.M.V.N.m.1.U V b k P ` ` a.a.a.g.a.` { { [ [ ' J J J T J F F z w w 2 2 2 2 z T g.Y.U.U.U.L.J.b.h.s.2.<.2.U I N P U <.i.i.p.p.k.M.Z.l.V./.yXfXvXvXjXpXyX%X%X%X#X#XoX",
"3.3.3.3.1.+.V k E #.p.p.p.p.i.i.p.z.K.K.z.p.i.i.l 6 3 ; 4 3 l z x F F F F I I I R { i.a.h.h.f.h.s.n.n.a.a.{ { { ' I n n I a.b.B.m.m.m.m.m.s.1.+.N +.+.:.>.8.e.e.e.N.+XSXFXgX%X&XZ.Z.Z.oXP.B.m.m.2.<.<.s.B.Z.B.B.p.1.E E p.p.$.f.$.#.#.#.p.f.1.+.b +.p.3.1.3.k.Z.#XyXfXyXk.k.z.#.v v P p.h.h.p.p.K.P.P./.).#XrXyXrX#XP.B.k.s.1.<.U M B 8.oX|.N.M.6.0.5.o.>.M.V.8.Q.V.V.Z./.#X/.P./.P.P.P.P.P.[.[.L.J.b.h.n.n.a.` ` I n j h j k k U 2.Z.$X%XoXZ.C.B.B.Z.Z.B.2.:.V V ] ;.4.w.r.r.E.E.|..X2XsXSXHXGXKXKXGXDXgXpX<X<XhXhXpX%X%X$XoXoXoXoXP.B.s.s.s.v.B.Z.B.s.s._ I <.b.J.P.U.U.K.V.x.z.x.J.z.i.R R R 1.3.k.Z.P.Z.B.k.1.s.<.U E i.h.p.+.5.9.9.9.0.9.R.5.O.o.%.%.+.#.<.B.K./.P./.#XiXpXjXjXSXSXDXDXFXFXGXLXKXIXPXKXLXFXDXGXKXDXjX%XP.V.1.>.+.>.3.3.1.+.b N o.>.>.+.1.8.1.1.7.8.8.0.7.5.O.O.N N N +.p.z.U.[.wXrXtXdXdXfXfXjXvXSXDXSXSXxXxXxXzXcXaX1X=XOXQ.l.5.@.5.0.7.>.8.>.>.7.M.W.l.7.l.V.W./.#XyXdXjXgXgXhX%XoXV.M.M.Z.k.1.j.V.V.k.<.+.1.V./././._.uX:X^.l.l.l.7.7.M.8.>.@.1.1.>.1.k.k.7.+.+.1.%.N +.j.x.F.x.K._.rXyXgXgXxXvXZXZXZXZXaXaXxXvXDXxXuX#X/.W.M.j.1.1.j.j.%.k.V.l.7.k.V.Q.N.m.3.o.V b V B :.<.<.s.v.B.B.B.v.v.b.n.s.a.i.` ` ` R I L n x x w w 2 ; 2 w x L f.J.U.U.P.J.J.J.i.s.s.2.<.U P U R ` <.<.1.1.7.7.0.l.W.(.#XyXfXxXcXcXaXaXaX;X;X;X",
"3.1.+.B N N v b 1.1.#.+.#.$.j.z.z.k.k.k.V.k.+.v v v v M L U R ` ` ` { a.h.h.b.B.P.P.@X#X#X#X#XoX&XoXoX].P.P.P.U.B.p.R P U 2.v.C.Z.N.A.C.B.B.B.z.U U +.+.1.1.8.9.M.M.E.;XxXZXxXxX&X&X%X%X$XP.Z.Z.oXP.Z.Z.P.Z.B.s.p.<.E E p.$.#.p.p.p.#.#.#.p.f.1.b N $.p.1.#.k.Z./.#XuXyXV.k.z.k.#.U R i.i.R R <././././.#XyXfXvXfXfXuX#X#X/.V.k.s.:.U 3.N.Q.E.M.6.8.5.>.>.k.k.s.M.M.l.V./.#XyXyX%X#X@X$X@X%XrXrX%XrXrX$X@X].L.C.n.a._ n k k k j k M :.v.C.P.P.].Z.C.P.P.Z.B.m.3.V V ] ;.4.,.6.r.e.e.N.|.+XsXZXDXKXKXKXKXGXSXNXNXgXhXpX%X%X%X%X%X%X$XoXP.C.C.m.s.B.C.m.s.v.:.U 2.n.b.L.@X@XK.x.z.x.x.F.z.s.<.#.U <.1.s.B.K.B.k.<.<.s.<.L E h.S.p.>.8.R.M.9.0.0.R.5.O.o.%.B +.#.<.B.P.$XrXyXgXjXSXSXDXFXGXGXGXKXKXKXLXLXLXLXLXKXKXDXDXgX%XZ.m.8.k.1.1.1.1.1.1.+.+.b N :.k.k.1.+.>.8.8.k.k.8.5.>.@.O.O.@.>.k./.#XtXdXjXSXJXJXJXJXJXJXLXKXKXKXKXKXGXKXGXGXFXxX1X*X XE.M.7.0.l.R.M.9.M.k.8.M.W.W.W.W.(.#XyXuXfXvXDXDXDXFXDXsXOXE.N.Q.V.8.@.+.1.k.3.<.s.V././.^._.-XuX(.W.l.l.8.7.8.M.>.>.7.8.7.>.7.l.k.8.+.@.1.%.b +.j.z.K.K._.fXvXDXLXLXKXKXKXKXGXFXDXFXKXFXSXaX#X/.V.x.k.3.$.$.1.3.$.V.W.k.3.V././.N.k.1.:.B B ,.w.m.v.m.m.Z./.oXoX%X%X%X%X$X@XoXP.P.P.J.b.h.a.a.i.T I x w w w y r L i.B.P.P.K.P.P.Z.v.s.3.v.s.<.U U I U :.>.,.;.O.5.9.u.E.R.!.-XuXbXcXxXAXvXxXxXxX",
"<.U N V N U 1.1.@.@.$.1.1.1.j.k.W.l.8.k.V.M.1.B 1.3.k.B.V.Z.Z.K.eXeXrXiXdXhXjXjXgXfXfXxXcXfXbXaXaXaXaXaXfXfXfXuX#X@XK.z.s.s.B.Z.Z.'.].P.P.K.P.P.z.p.#.p.k.k.7.l.E.E.E.E.=XsXSXDXFXDXFXKXDXSXBXSXSXgXpX%XoXZ.m.s.p.<.E E p.#.%.p.p.f.=.%.%.p.j.j.+.N P $.1.+.1.V.V./.#XyXrXK.k.z.s.<.<.<.R M L #.Q.Q./.#XyXfXvXSXvXvXvXcXfXuXyX#XP.Z.m.8.N.Q.E.E.8.8.0.>.>.1.3.3.k.k.V.x.Z./.fXSXJXFXDXDXFXJXJXFXSXSXDXSXjXhXiXiXeX[.C.v.2.:.P I m m M _ 2.B.C.].$X$XoX].].].P.C.q.4.;.;.4.,.6.6.6.w.r.r.'.&X,X2XNXDXGXIXIXIXIXIXKXKXKXLXGXGXKXLXFXDXSXSXSXgX%X].C.C.B.v.v.4.U 2.a.h.L.wXtX).x.x.K.x.z.z.z.k.1.+.#.i.s.z.h.s.<.<.<.<.R R i.f.h.f.M.e.u.0.5.5.0.u.t.O.o.%.B +.<.p.B.oXrXiXpXdXhXhXpXhXgXgXgXgXZXZXNXNXNXhXhXgXNXSXsX<X&Xm.3.,.>.3.>.1.:.+.B B +.+.3.1.1.3.8.3.8.m.k.k.k.8.8.7.5.5.7.0.l.W._.yXdXfXjXvXDXJXJXDXDXDXFXFXGXKXGXGXFXFXFXGXGXDXcX;XOXQ.Q.N.M.V./.OXOXQ.Q.Q.Q.(.!.W.(.-XyXfXvXvXvXDXDXDXDXFXFXZX<X XQ.W.l.7.@.o.@.3.k.k.P.oX/.Z./.uXfX-Xl.j.7.7.7.7.8.8.>.8.8.1.1.8.M.M.l.k.@.>.1.%.b +.j.z.x.K._.fXDXLXKXKXKXKXKXKXGXGXGXKXKXFXaXOXW.V.k.k.j.p.$.$.=.p.x.x.k.k.k.Z./.Q.Q.N.w.M.A.A.|.+XgXdXdXfXxXSXSXSXxXxXSXZXxXxXxXgXgXgXdXdXrXeXwX0XI.Y.G.D.d.| [ ^ P #.p.B.P.P.P.K.@XK.B.B.B.B.m.s.2._ _ ;.,.6.t.;.t.t.0.0.u.~.!.*X*X6XxXAXAXAXAXFX",
"+.P N N P +.3.8.1.1.1.$.@.1.7.8.W.W.W.M.l.k.M.N.V.Q./.#X%X%XyXrXdXdXdXdXhXgXvXvXSXvXxXxXcXcXcXcXcXcXcXcXxXcXaXuXfXfXyX#XK.K.P./.oX&X+X&X/././.).tXx.p.x.^.x.k.l.R.!. XE.Q.;XxXSXFXFXLXKXJXDXDXDXDXjXpX%XoXZ.B.k.p.<.E U p.#.%.p.f.f.p.E P =.j.k.z.P b #.1.%.#.V.x././.yXxX#Xj.z.z.p.1.<.P k v #.M.N./.-XaXvXSXDXDXvXvXvXvXxXfXfXrXrXoXV.N.+XOXE.M.9.8.8.>.+.>.3.k.x.V.x.l./.fXFXKXFXKXKXKXKXKXKXKXKXKXLXDXSXSXSXjXhXrX$XP.C.k.2.:.U U :.s.B.Z.Z.iXrX%X$X@XoX].].,X|.w.,.,.w.6.6.e.e.e.M.A.'.|.&X+XsXSXGXKXIXIXPXPXIXIXKXKXKXKXKXKXGXDXDXDXSX%XZ.Z.C.B.m.m.<.U <.a.a.J.eXtX).K.x.).K.k.k.x.M.1.+.#.i.h.f.i.` ` 2.` I R p.h.p.p.z.Q.R.9.5.;.5.0.0.5.O.O.%.%.#.p.p.L.@XiXiXrX$X$XoX$X%X%X%X%X+X+X%X&X&X&X%X%X%X%X%XoXZ.m.3.2.3.:.+.+.+.U N b b B :.k.3.3.k.k.s.k.k.k.k.8.7.8.l.M.M.Q.!.(.#X;XyXuXdXyXdXfXjXjXfXfXfXfXcXxXxXxXxXcXzXsXxXZXxX;XOXQ.Q.Q.Q.Q.(.#X;X;X;X!.!.OXOXQ.W.(.uXuXxXvXvXvXSXvXgXSXDXHXDXxX;X!.R.W.l.7.@.@.3.k.V.#X#X/.k./.cXbXW.7.7.5.@.7.8.0.>.>.8.8.>.>.M.V.M.M.k.>.$.1.P v +.k.z.x.x./.uXDXJXFXDXDXDXDXDXDXSXFXFXDXaXOXW.l.l.7.k.c.j.p.=.j.c._.j.#.k.^.Z.V.V./.N.N.&X+X,X<XZXSXvXxXZXSXDXSXxXAXAXDXDXDXSXZXZXSXSXSXSXjXgXdXdXrXiXiXiXeX0XI.L.p.1.1.k././.Z.m./.#X#X/.M.k.Z.&XZ.q.,.,.e.e.u.0.0.0.0.u.~.~.~.R.R.XXcXxXcXcXcXAX",
"h k U 1.s.1.+.%.%.@.@.>.7.9.T.R.(.(./././././._././././.P./.P.oX$X$X%X%X%X%X+XOXOXOXOXOX*X X X!.~.`.`.XX*X*X*X(.OXOX#X#X#X#X#X#XOXOXOXOXOXOX_.(._.(.^.^.W.W.W.W.W.W.R.R.W.!.(.OX-X-X-X-X;X%X;X%X%X$XoXP.Z.m.s.<.1.1.U U <.#.#.s.S.h.f.i.#.#.z.).V.#.N %.$.#.$.j.k.^.x.V.fXfXK.s.s.P.P.p.M P i.k.M.R.E.W.Q./.(.OXOXOX#X;XyXuXpXpXdXpXrX@XQ.Z././.W.V.l.8.8.7.1.1.7.l.V.l.k.W.*XuXcXcXxXxXvXSXSXDXSXvXvXvXvXvXfXfXfXfXfXfXfXuXuXuX#X)./.K.V.V././.#X#X%XyXyX;X#X#XOXOXOXOXQ.N.M.M.E.E.M.M.W.!.(.!.|.|.&X<XsXSXFXFXFXFXFXFXFXFXFXDXZXSXSXZXgX;X&XZ.N.m.m.m.3.3.:.:.a.g.J.@XtX@Xz.*.h.Y.U.U.z.8.9.9.1.i.i.a.g.| ' ' I ` a.s.k.x.W.W.Z.8.N b O.9.T.9.5.@.o.%.+.1.s.h.U.[.eXeXeX@X@X@X].oX@X$X%X%X%X%X;X;X;X-X(.Q.V.Z.k.k.3.+.N N <.s.<.N k b U 3.B.V.1.2.s.k.B.B.z.k.k.k.m.V.Z.Q.Q.Q.Q.Z.Z.Z.Z.V.V.V.P./.Z.V.V.N.V.N.Q.E.E.E.E.E.R.R.N.N.N.Q.Q.Q.Q./././././././.Q.Z.Q.|.|.OXOX!.!.!.OX*X*X*XOXOXOXOX%X&X&XOX=X=X*X`.u.R.9.O.b #.z.K./.Z.Z.OXyXyX(.M.7.>.@.>.7.8.>.>.8.3.3.:.>.7.k.k.V.k.1.p.k.U v U <.B.V.B.Z.oX#X#X#X+X&X&X+X;X;X<X1X+XE.E.E.N.8.8.7.7.p.p.p.c.x.F.j.k.z.V.Z.Z.Z.Z./.oX%X<XhXgXsXsXzXzX1X1X1X2X1X1X2X2X2X>X>X=X>X;X;XyXpXpXhXhXdXfXpXpXrXrX%X%X%X#XOX!.!.!.~.R.R.R.!.!.!.E.!.E.E.E.E.E.E.E.R.R.R.y.u.u.y.R.~.~.~.~.!.!.!.!.!.!.!.!.",
"#.U U U U +.>.1.>.>.>.5.7.9.T.R.^.^.V.V.V.Z.K./.P.P.P.P.K.P.P.P.P.P.Z.Z.Z.Z.Q.Q.Q.Q.Q.E.E.E.E.R.~.~.~.~.~.~.W.W.W.Q././././././.OX XOXOX(.(.(.(._./.^.W.W.W.^.^.W.W.T.T.W.W.Q.(.(./././././././.$XoXP.P.Z.B.s.2.s.1.U U 1.#.+.p.J.S.h.i.#.#.f.x.k.p.$.P P #.1.p.j.l.l.W.uXfX/.k.s.K.).V.<.<.s.Z.Q.E.E.!.Q.E.Q.Q.Q.Q.Q.Q././.oXoXoX#X#X@X/.^.Z.Q./.Q.W.M.k.7.5.>.l.7.7.l.V.R.W.-X(.OX(.(.OX&X+X+X#X#X_._._._.#X#X#X#X#X_._./././.^.K.K.V.x.z.V.Z././._._.#X_._././.OXOX(.Q.W.W.W.Q.W.R.R.W.!.!.!.E.Q.|.OXOX;X;X<XaX<X;X<XaXaXaX;X;X<X<X;X%X|.N.m.m.k.3.3.1.:.<.<.a.a.J.U.@XK.*.Z Y } Y.U.K.M.9.e.k.i.2.` { | | ' ' ` 2.<.3.l.T.W.s.U c k +.k.W.W.7.@.%.P U #.i.i.b.G.G.G.b.b.b.B.L.L.P.P.P.P.P./.*X-X:X-X(.W.l.k.k.3.1.p.s.p.<.U M I R 2.s.s.s.<.s.s.s.s.B.B.s.s.2.s.k.B.V.V.V.V.V.V.B.B.B.B.B.m.k.k.k.8.8.8.8.8.8.9.l.9.9.9.9.8.w.q.w.w.m.m.k.k.V.V.Z.Z.Z.Z.Z.m.N.N.V.N.N.V.V.N.M.M.R.W.W.E.!.Q.].C.Z.Q.OX*X!.~.u.~.T.$.%.p.K.U.P.Z./.#XyX-X(.l.5.>.5.7.8.8.>.:.3.3.<.1.3.M.W.W.V.k.1.3.p.P k M s.B.P.Z.P.oX&XoX&X&X+X%X;XpXpX<X2XXXE.r.e.6.6.8.1.1.1.p.c.x.x.F.x.x.V.V.V.V.B.m.P.P.&X%X%XrX,X<X=X=X X X X X X X X|. X X X X X XQ.oXoXoXoX&X&X&X&X&X&XoXoXoXoX|.!.!.!.R.R.R.R.R.~.~.!.!.!.!.!.!.*XOXOX X!.!.!.E.E.E.E.!.!.!.!.!.Q.Q.Q.Q.!.!.(.OX",
"p.<.R L P U 1.s.p.1.3.3.k.k.l.V.V.K.x.z.z.z.J.K.J.J.J.J.L.L.L.P.B.B.m.v.m.m.m.m.m.A.m.m.m.M.M.M.M.e.9.9.l.l.l.M.k.B.B.B.B.J.J.J.Z.Z.Z.N.Z.P././.K.K.K.x.x.x.K.K.V.M.l.l.l.M.V.N.M.m.m.m.m.m.m.m.Z.Z.V.V.V.B.m.k.3.1.U U 1.<.+.<.J.J.z.f.<.#.#.i.<.z.z.#.N U p.p.p.1.k.^.#XyXrXZ.s.V.@X@XP.z.V.@X/.(.Q.E.W.M.M.k.V.M.k.k.k.k.m.m.k.B.P././.Z.V.V./.W.W.V.l.8.>.>.V.@.@.l.Q.M.l.W.W.W.M.M.M.m.m.m.k.k.k.j.k.k.x.V.V.V.V.V.x.V.l.k.x.x.x.z.k.k.x.V.V.Z.Q./.Q.Q.Q.Z.Q.Q.Q.Q.Q.W.Q././.W.W.W.W.W.W.W.Q.N.N.N.V.N.Q.N.V.N.V.N.Q.Q.Q.N.Z.Z.'.|.Z.m.m.3.3.s.2.2.<.<.<.<.a.a.B.P.).B.L 3 4 A } Y.P.V.M.M.m.s.<.<.2.a.g.{ ` ` <.<.p.l.l.k.L w 2 h U f.z.V.1.$.+.U R <.i.a.g.g.h.a.a.a.s.n.J.B.C.C.C.B.B.V.(.#X-X_.^.l.7.1.3.1.<.1.s.i.U M L ` h.B.B.s.i.<.h.s.h.h.h.h.p.i.s.s.s.B.B.B.B.B.B.B.B.B.B.B.B.B.k.k.s.s.s.s.k.k.k.k.k.k.m.k.k.8.3.q.w.m.m.k.k.k.z.z.z.B.B.m.m.m.k.m.m.m.m.m.k.k.8.k.l.M.V.Z.Z.Z.m.v.m.N.!.!.~.R.T.~.~.l.k.K.).).V.P.#X;X;X_.M.7.@.7.8.l.8.7.>.:.:.:.<.s.k.V.W./.x.k.1.1.3.B b N s.B.Z.Z.Z.P.P.Z.Q.oX&X%X;X;X;X+X XE.e.w.,.;.>.8.>.1.1.j.x.K.x.z.K.V.K.K.K.Z.Z.V.m.m.m.m.A.N.N.C.|.|.Q.Z.Z.Z.Q.Q.Z.Z.Z.Z.N.N.N.Z.B.C.B.B.C.C.C.C.B.C.C.B.C.B.B.B.V.N.M.M.M.M.M.M.M.M.W.W.Q.Q.Q./.#XOXOXoX/.Q.Q.Q.V.V.Z.Q.Z.Z.Z.Z.Z.Z.V.V.Z.P./.oX",
"` ` ` ` R <.<.i.s.s.p.s.s.z.B.B.z.z.h.h.h.h.h.h.h.h.h.h.b.b.G.G.h.s.a.a.a.s.s.m.m.v.s.s.m.m.m.N.l.k.8.8.k.k.k.k.z.h.b.b.h.h.h.h.b.v.v.v.b.B.B.J.B.z.h.h.h.z.z.z.m.m.k.k.3.s.m.m.m.m.m.v.v.v.s.s.k.s.k.k.m.m.m.k.1.<.U U 1.<.U #.z.J.z.p.#.#.R U i.z.B.i.P P #.p.3.%.k./.^.#XuX).B.z.V.@X@XP.K.oXQ.Q.W.N.M.8.7.>.3.3.1.1.1.1.1.1.3.s.k.V.V.V.V.l.V.W.W.N.l.8.7.>.7.+.@.k.W.V.l.l.W.V.M.M.m.m.m.m.m.k.k.k.k.k.k.k.k.k.k.k.k.k.k.k.k.z.z.B.B.k.m.m.m.m.m.N.V.V.M.m.m.m.m.m.m.M.V.N.V.V.M.l.l.l.l.l.m.m.m.m.m.M.N.N.m.m.m.m.V.N.V.m.m.m.m.C.B.m.m.s.s.s.s.s.2.<.<.` 2.a.b.P.@XJ.Y 3 - e H | n.B.A.M.V.k.3.p.s.s.p.s.<.i.p.s.z.z.p.R r - = w T i.p.z.p.i.` ` i.a.g.g.G.G.b.b.n.n.b.b.B.B.B.L.Z.Z.C.V./././.W.x.j.1.+.+.#.<.U V v N R s.s.p.a.i.a.s.b.J.B.b.b.b.h.s.a.h.h.b.B.B.B.B.h.B.B.B.B.B.B.B.B.K.K.V.V.V.B.V.B.K.K.Z.Z.Z.V.V.V.m.A.Z.Z.Z.V.K.x.x.x.x.B.B.B.B.B.k.m.m.m.m.m.k.k.m.B.B.V.Z.V.V.B.3.3.m.N.E.!.!.!.~.~.W.W./.tX).K.V./.;XyX#XW.8.7.@.7.l.l.8.>.>.1.:.<.2.k.k.k.k.l.l.l.7.1.k.@.B +.<.2.s.m.m.B.m.m.m.m.Z.Z.|.oXQ.N.E.e.8.6.>.o.>.7.1.1.j.k.z.c.x.x.x.V.Z.P./.@X#X#X%X$XoXoXoXoXoXoXoXoXoXoXoXoXoX@X@XoXoX].P.Z.Z.C.C.L.L.L.B.B.B.b.s.s.s.a.a.a.a.a.s.k.s.s.s.s.s.s.s.s.s.k.k.z.B.B.B.B.B.h.s.p.s.i.s.p.p.p.p.p.p.p.s.s.p.s.p.s.B.B.",
"L U <.i.i.i.R R a.i.i.i.i.a.f.h.i.i.d.i.i.i.{ { { ` { { } } d.a.` ` ` ` ` i.a.s.a.2.<.<.2.s.s.k.k.s.3.2.1.2.s.p.n.n.h.g.g.g.d.| a.2.` 2.a.a.n.b.a.a.a.d.g.g.f.h.s.3.2.2.2.2.2.3.v.3.3.3.3.3.3.3.:.>.>.1.3.3.k.k.1.1.U +.s.<.P +.h.z.z.#.U U R U f.p.p.f.i.P E <.p.+.k./.V._.fXyX@Xz.p.B.P.P.V.V.V.N.M.M.8.3.>.:.+.:.1.1.1.1.<.<.k.k.8.8.k.k.V.V.W.Q.W.W.l.0.7.8.%.>.7.7.k.W.W.l.l.l.l.k.m.m.m.m.B.V.V.V.V.V.V.B.m.k.s.k.s.k.m.m.k.k.z.B.B.B.B.m.k.m.m.m.m.m.m.m.m.s.s.s.s.k.k.k.k.k.k.k.k.k.k.k.s.3.s.k.k.m.m.m.B.m.m.m.V.V.B.m.3.v.m.B.B.B.B.b.m.B.B.B.s.a.<.U ` 2.h.P.@XJ.I w o - e G ' a.m.Z.V.M.k.k.M.V.k.3.p.s.B.B.B.h.R C > X X e ( } d.J.a.i.` ` { | | | a.a.h.h.a.a.s.p.<.<.s.B.B.Z.Z.Z.Z.V.k.j.1.1.1.<.+.+.+.V b N :.s.B.h.i.i.i.a.h.b.b.h.a.a.a.a.i.2.a.p.s.h.h.s.p.a.h.b.b.b.B.B.B.B.B.B.B.B.B.B.B.B.B.B.B.B.B.B.B.B.m.m.B.V.V.V.x.x.F.z.z.z.h.h.z.m.3.8.8.k.k.s.s.s.s.p.p.s.h.h.p.i.2.4.2.8.M.E.!.(.!.~.W.^.-XuX).z.Z.+XyX;X/.k.7.@.7.k.l.k.1.>.1.2._ 2.s.B.k.<.@.3.l.l.7.7.8.5.O.>.:._ <.<.2.<.:.:.:.:.>.3.8.m.m.m.M.8.>.8.>.>.+.+.3.k.k.k.j.j.z.V.V.B.V.Z.P./.oXoX%X&XoX].'.'.'.].L.L.L.L.L.L.L.U.[.U.L.L.L.L.J.b.b.G.G.b.b.b.b.b.g.g.g.a.| { { { a.i.i.` ` ` ` ` ` ` ` ` ` <.<.<.{ ` ` R T I I L I I T R ` ` { { ` ' T T T T ` ` ",
"U #.<.i.i.<.R E E I I T T I T R R E E E E I I I I I I I T T ` ` I I I I T R ` ` ` ` ` ` ` <.2.<.<.<.<.<.2.2.i.i.a.a.a.| | } | { | | ` { { { g.g.i.i.} { i.i.i.a.2.2.2.2.2.2.2.2.2.2.4.4.<.<.<.<.:.:.:.:.>.1.3.k.1.1.<.1.k.1.U #.s.z.f.L x L R *.h./ R g.h.R Y R p.$.k.V.x.^.yXfXuXP.1.1.B.P.V.m.V.V.N.M.k.1.+.+.:.<.3.k.m.z.s.s.m.k.1.1.1.8.k.k.V.Q.!.Q.M.9.0.0.N 1.k.>.1.V.W.l.l.k.k.k.s.s.s.s.m.m.B.C.Z.Z.Z.Z.m.m.v.v.s.m.m.B.B.B.B.B.B.B.B.B.v.v.v.m.m.m.m.m.B.v.s.s.s.v.s.3.k.k.B.B.m.k.k.k.k.s.k.s.k.m.m.m.B.m.m.m.B.B.B.m.s.v.v.m.B.B.B.B.B.B.L.L.B.h.a.<.` <.p.K.).B.L 2 . . @ 9 g ' v.C.V.M.l.V.W.V.l.7.j.z.J.J.g.[ D 8 @ . @ s } D.S.Y.g.i.` ` ' ' ' ' I I ` ` R R U R M I _ 2.s.B.B.V.z.z.p.#.#.#.#.#.+.U V U 1.k.m.k.p.p.h.b.B.B.p.2.<.R U I I U I I U U U R R U U U R #.<.<.<.<.<.<.1.<.<.<.<.<.<.<.i.<.<.2.<.2.2.2.2.3.s.s.k.k.k.j.p.p.#.#.#.R <.<.+.o.o.+.+.+.+.+.U U U R <.<.#.U U _ :.1.8.M.W.(.*X^.W.^.#XyX/.k./.%X;X#XM.1.@.>.l.l.k.7.>.:.1.s.R a.b.J.i.N +.j.W.W.9.5.9.5.@.>.<._ U :.:.U B B B B B :.3.8.m.w.M.8.1.7.1.@.o.o.8.k.x.k.7.3.k.Z.V.B.m.m.k.s.3.3.3.4.:.:.4.4.4._ a.a.a.a.a.a.a.a.d.a.d.d.g.g.g.g.| | | { } { } { g.g.d.| } { { { { { { ` T T T T ` ` ` ' R T T T T T T T T T T T T T T ^ { { { | ' T J J J J J J ",
"+.+.1.s.s.s.i.<.E I I I I T T R i.<.<.` R R R R R ` ` ` ` ` ` ` ` ` R ` ` ` ` ` _ ` <.<.2.<.<.<.:.:.<.<.<.<.` ` ` ` { { { } } { | | | | | | { { { { a.{ { { { { ` ` ` ` ` ` 2.2.2.2.4.<.<.<.:.:.:.>.1.>.>.1.3.k.1.k.k.k.B.1.+.1.z.B.p.x 3 z R d.i./ / { g.d.R L #.j.j.k.z.z./.fXfX#Xk.<.k.Z.P.B.Q.Q.V.M.3.+.V V U +.<.1.s.p.p.s.<.+.+.+.+.+.+.o.>.8.W.Q.E.l.8.0.o.1.8.1.1.l.V.l.l.k.k.3.1.<.<.:.:.<.<.<.<.4.2.2.2.2.<.:.:.:.<.4.<.2.<.<.2.2.4.<.:.:.:.:.:.4.4.2.2.<._ ` <.<._ U U :.1.1.1.<.1.<.1.<.<.<.<.<.<.<.<.:.<.<.<.2.<.<.<.<.<.<.<.<.2.2.<.i.i.a.i.i.i.i.{ <.p.K./.B.L 2 o . . @ 8 D ' v.B.l.l.l.W.T.j.-.j.z.J.g.[ s 0 +   + , d !  .S.G.g.a.` ` { { | ` I R R R R ` <.<.<.a.s.k.B.B.k.k.h.p.#.#.#.#.U U U U U 1.k.V.k.3.s.m.B.B.B.s.s.<.<.<.U U U <.<.<.+.:.<.<.<.<.:.:.<.<.<.1.1.2.3.3.8.8.3.3.3.3.s.k.s.s.s.i.s.s.s.s.3.3.m.m.V.V.V.V.k.k.1.<.+.+.<.<.o.@.;.;.>.>.:.+.1.+.+.<.p.s.<.U M V B :.1.k.V.W.-X(.^./././.Z.B.#X;X%XQ.7.@.@.7.k.k.k.3.<.:.1.s.` d.b.h.L h V k.W.!.l.0.9.9.5.5.2.` U <.<.:.:.<.:.:.1.k.m.N.N.m.k.7.3.1.>.+.+.1.k.k.k.k.m.m.m.k.m.m.3.4.:.:.:._ :.:.:.4.4.4.:.` ` { { { { { { { R R ` { { { { { ` ` ` ` ` ` ` ' | { { { { ` ` ` { { { { { { { } | | | | } } } } | | | } } | | | | | } | | g.g.d.| | | | | | | } ",
"N %.7.M.V.V.k.s.h.h.f.h.g.g.b.b.h.h.h.h.s.p.s.s.p.s.s.s.s.s.p.s.s.s.s.s.2.2.<.<.2.2.s.s.s.s.s.2.:.:.<.<.<.<.2.<.` ` ` i.a.a.a.g.a.a.n.a.a.a.` ` a.a.a.2.2.2.2.2.` ` ` ` ` 2.2.4.2.2.2.<.<.<.<.:.1.8.8.3.1.1.3.k.3.B.B.B.B.s.<.s.B.K.i.h ; w / g.^ { { / { g.{ F #.k.p.1.z.k.V.fXvXfXP.1.s.Z./.Z./.Q.Z.k.1.N k c k k M M N L P U b b V N V V b c b o.k.W.W.M.8.8.8.1.>.1.7.8.l.V.k.k.3.:.U N M M m k j j j j k k m m k k j k k m m k j j k k k k k j j j k k k k j j j j k j j w w j k V n m k M M M M m m k m m k k k k M M M M m m k k k k k k x k k x x L I R *.#.p.K.@XJ.I q X . . + : y ' ` B.l.k.l.l.T.7.&.j.z.z.{ D 9 +     @ 9 a G [ d.i.f.p.s.s.b.n.L.L.n.b.h.s.s.b.J.P.@X@X@X@XP.B.k.p.p.i.#.R R R P M N +.1.3.<.+.:.1.Z.Z.V.k.1.1.k.V./.Z.V.V.V.Z././.V.V.Q.Q.Q.Q.Q.Z.V.V.Q.Q././././.Q.Q.Q.Q.Q./.oXoX/././.P.P.P./.P.Z.'.oX&X+X#XOXOXOX/.Q.V.m.B.B.V.M.R.R.M.R.E.N.M.Q.V.V.V.Z.V.k.1.k V B :.1.k.l.V.-X#X_./.Z.V.V.Z.yXyX#XV.1.%.@.7.k.k.k.1.1.<.<.<.| g.n.{ h ; c p.W.(.R.9.R.R.9.M.2._ U <.s.s.s.B.m.B.V.Z./.Q.N.k.$.$.1.1.+.%.3.V.k.3.1.k.N.Z.m.3.2.4.<.:.:.:.:.:.4.4.4.4.3.2.2.s.a.a.a.a.a.i.i.i.i.i.{ { { ` ` ` i.i.i.i.i.2.2.` ` ` ` ` ` ` ` ` ` ` { { } a.g.g.h.g.n.g.g.g.g.g.g.g.D.n.G.H.G.G.g.D.n.n.n.n.D.g.H.H.I.I.{.I.I.L.",
"7.7.7.7.8.8.k.k.s.s.s.h.b.b.b.b.B.m.B.B.B.V.V.Z.B.B.m.k.k.m.B.V.B.m.k.k.s.s.k.k.k.m.m.B.B.B.B.m.k.m.m.m.m.m.v.s.s.s.s.s.v.v.b.v.B.n.n.n.n.b.v.v.v.v.m.m.3.3.s.v.v.v.s.s.s.s.s.s.s.s.3.3.1.1.7.k.k.k.k.k.k.k.k.k.m.B.V.B.b.s.i.i.B.B.i.z ; ; r ( | [ ( { { d.{ E #.<.p.p.s.z.K.).uXyX#XQ.V.Z.Z.V.V./.k.V V s.<.h s.<.R <.h.b.h.i.a.s.s.s.s.1.:.+.1.k.M.V.Z.N.k.1.N.:.+.1.7.1.7.V.V.k.p.1.1.s.i.2.2.2.a.v.s.a.2.2._ ` ` <.<.2.2.` 2.2.2.` ` ` _ _ _ ' _ _ ` _ _ _ ` ' _ _ ` ' ' I ` _ ` <.2.2.2.<.<.<.i.s.i.i.s.s.<.<.i.i.<.<.<.<.<.<.i.i.<.2.2.2.i.i.<.<.i.i.a.f.h.h.z.V.P.B.T q @ +   O + 0 g ' <.k.V.x.l.l.l.c.x.c./ C 9 # + + . @ < f ( g.J.J.V.B.B.m.m.m.C.C.L.L.B.B.b.B.B.B.K.K.K.K.B.s.<.R i.f.f.<.L x L R s.1.<.<.2.k.m.m.M.l.8.8.5.>.>.@.9.l.l.M.M.M.N.N.M.M.M.M.M.M.M.M.M.M.M.M.N.N.M.M.E.R.M.R.E.E.E.N.W.E.M.M.M.M.V.N.N.N.N.N.N.N.E.E.E.N.M.m.w.w.m.A.9.9.0.6.6.6.0.0.8.8.8.8.l.k.k.8.B m N s.s.+.7.#X_.#XyX#XV.1.V.yXfX;XM.8.l.>.+.k.l.1.#.s.s._ <.s.G.H.} z ; 3 P z./.W.V.l.9.9.9.M.s.B.C.K.P.@X@X$XrX%X$X/.V.m.3.1.+.+.$.$.+.$.k.k.s.k.k.B.V.B.Z.C.C.C.C.C.C.b.v.v.v.v.v.v.B.B.B.B.B.B.B.B.B.B.B.B.B.B.h.h.p.p.p.p.s.s.s.s.s.s.s.s.s.s.s.2.1.2.s.s.h.h.h.h.g.g.a.n.h.h.n.n.n.b.b.b.b.b.b.G.G.G.G.G.Y.G.b.b.b.G.G.b.L.v.s.b.b.v.s.b.",
"T.9.9.8.9.l.l.V.k.m.z.B.B.B.b.B.B.B.B.V.V.V.V.V.oX/./.Z.Q././././.Q.N.V.V.V.N.N.Z.Z./././././.P.B.B.B.B.C.B.B.B.m.m.B.B.B.B.B.B.C.C.C.C.C.C.A.m.C.Z.C.Z.m.m.m.B.B.m.s.s.m.B.B.B.k.k.k.k.k.j.l.x.Z.Z.Z.Z.V.B.k.s.h.B.B.B.b.a.i.i.h.h.{ z = = 4 ~ } [ ( ^ { i.i.i.#.#.p.f.s.z.Z./.#XyXyX#X/.V.Z.Z.P.V.s.U N U U P B.B.B.J.L.L.L.J.L.L.J.B.B.B.B.m.s.k.m.V.Z.Z.N.k.N.3.+.>.>.>.3.k.x.k.k.s.s.s.h.s.C.C.L.C.C.C.C.C.C.C.C.L.L.L.L.L.L.L.L.J.J.b.b.b.b.b.C.C.C.C.C.C.C.L.n.b.L.G.L.b.n.n.b.b.b.s.s.p.h.B.B.B.B.h.z.B.B.J.K.B.B.B.B.B.B.b.B.B.B.B.b.b.J.J.J.J.J.L.U.U.J.h.z.V./.P.i.D : @ O O + + : y R p.B.V.x.x.x.c.p.*.Z e : + + + . @ > C { S.P.P./././.|.|.Q.Q.Z.].].P.K.J.B.B.h.B.B.s.<.#.U U P i.i.` E L L R <.s.s.s.s.s.s.k.k.8.8.0.6.5.5.5.5.9.9.9.9.M.M.M.M.e.9.l.9.9.8.9.8.9.9.9.9.l.e.l.e.M.9.9.e.M.R.M.M.M.M.M.M.R.R.R.M.r.w.r.e.r.r.e.e.E.M.e.w.8.q.w.w.8.9.6.6.5.5.5.5.5.5.5.7.8.7.1.>.U V N <.1.#.k.).^./._./.M.k.Q.uXaX+Xk.1.8.7.1.3.3.#.<.s.s.` ` g. . .[ 2 = 3 E z.P.Z.V.V.M.N.N.N.P.@X@XP.P.@XrXdXpXyX#XP.k.1.>.1.$.$.$.$.1.3.3.s.3.3.3.s.m.m.Z.].].].].].].].L.C.P.C.L.P.P.P.P.P.P.P.P.P.P.P.P.P.B.B.z.h.h.h.h.z.m.m.k.m.k.k.k.k.m.m.k.k.k.k.k.s.B.B.B.B.b.b.b.b.b.b.b.b.b.B.B.B.b.B.J.B.J.J.J.J.L.J.J.B.B.B.J.B.C.v.v.B.C.B.B.C.",
"R.R.l.l.l.l.x.V.k.m.m.m.B.b.b.B.B.B.Z.Z.Z.Z.V.V.V.V.m.k.k.k.m.M.m.m.k.k.m.m.m.m.B.m.V.B.V.B.B.B.B.V.Z.Z.Z.C.B.B.B.B.B.B.C.C.C.C.].].].].P.C.C.C.C.Z.Z.'.Q.Z.N.Z.Z.V.V.V.V.^.^.K.V.V.^.^.^.W.W.^.K.P././.P.V.B.h.b.b.J.G.b.g.a.a.h.S.} C - o - s ! ( [ ( / / <.i.#.#.i.p.f.k.B.V.Z.#XfXuX_.W.W.Q.P.s.<.<.U M P h.R 2.f.b.h.g.g.h.h.h.h.a.i.<.p.B.s.s.s.s.B.Z.Z.Z.m.8.>.+.+.>.1.3.k.k.z.B.z.B.B.B.b.b.v.a.a.a.n.n.b.b.b.b.b.b.b.b.b.b.b.b.b.b.b.b.b.b.b.b.B.b.b.b.n.n.n.n.n.G.G.n.L.L.L.L.J.b.b.b.B.B.B.B.B.z.z.z.s.s.s.p.p.s.s.s.B.B.B.B.B.B.B.B.h.h.h.f.h.h.h.z.f.i.#.p.B.B.` t : # + + + + . - D T a.h.B.K.z.f.*.L r ; # % & i @ : 9 C T g.B.V.Z.W.Q.Q.OX X XoX$X$X$X@XP.C.B.s.<.<.#.U R #.#.<.L L L U R i.s.h.i.p.B.B.B.B.s.s.k.8.l.l.l.M.M.M.M.M.M.M.M.N.N.N.M.M.M.M.M.M.M.M.M.M.M.M.M.M.M.M.N.M.M.M.N.E.E.R.R.R.E.E.R.R.R.e.r.r.r.N.N.N.E.E.E.N.M.M.A.A.m.N.N.M.M.w.8.8.8.8.8.8.8.8.8.7.@.%.:.U P U #.1.k.V.V.V.Z.Z.V.V.#XaX;XQ.8.>.@.k.k.@.+.+.1.h.p.<.` d. ...G - = 3 R f.U.P./././.oXoX&X@XwXrX@X@XrXdXdXyX%XoXm.1.:.<.3.p.1.$.1.j.k.p.1.m.k.k.s.m.Z.P.].L.C.C.C.n.L.b.b.b.b.b.b.b.B.b.B.h.B.B.B.B.B.B.m.K.K.J.J.K.K.K.P.Z.Z.Z.Z.Z.V.Z.V.Z.Z.Z.V.V.V.Z.V.C.C.C.C.C.C.C.C.B.B.B.B.B.B.B.B.B.B.B.B.J.B.J.B.P.J.J.B.J.B.J.K.P.B.m.Z.Z.Z.Z.Q.",
"^.W.V.V.x.V.V.K.B.B.B.B.L.L.L.L.K.P.K.Z.L.C.K.C.P.K.K.Z.K.Z.P.P.V.B.V.V.V.V.K.K.K.K.K.P.P.P.P.P.L.L.L.L.L.L.J.J.J.J.J.J.J.J.L.L.[.[.[.].P.P.P.C.Z.C.Z.Z.oXoXZ.V.Q.Z.Z.Z.^./././././._._._.(.(./.P.P.).U.U.U.U.U.Y.Y.L.L.H.G.G.n.D.H. .G - . @ 9 ~ ! [ { R R R <.#.#.#.i.p.s.z.B.V.#XfXuX#XQ.Q.Q.B.<.<.<.U M U b.U 2.b.L.Y.G.b.b.b.G.G.n.a.a.b.P.B.s.a.s.B.B.K.].k.m.3.:.:.1.1.$.1.p.z.B.z.B.J.L.J.G.b.b.n.b.b.b.b.b.b.b.b.b.G.G.G.Y.G.G.J.J.Y.J.L.L.L.L.L.L.L.L.L.L.L.G.G.G.G.G.G.G.G.b.b.b.b.B.B.B.B.B.B.k.z.z.z.B.B.z.z.k.z.B.B.z.z.k.k.k.k.k.K.J.B.z.z.z.z.z.J.h.p.s.K.K.i.D : # # % # + . X q C T d.h.G.f.{ Y l ; - $ i Q i , , e s T d.z.B.V.W.W.W.Q.Q.Q.Q.oX].].P.B.v.s.<.P U #.#.#.#.#.#.x M E i.p.h.h.s.p.b.J.L.J.b.b.B.Z.Z.Q.Q.Q./././.Q./.Q.Q.Q.Q.Q.Z././././.P.P.P.Z././.P.P.P./././././.P././.oX/.Q.OXOX!.!.!.E.E.E.|.|.|.|. X X X X X|.E.|.Q.oXoX$X@X@X].P.P.K.P.Z./.P.Z.Z.V.k.>.%.<.:.U P #.p.s.f.z.V.V.Z./.#XyXfXOXm.8.>.%.k.V.+.P +.i.p.i.` i.g.H.! e ; ; 2 L S.U.U.@XwXwX@X$X$X[.wXrXtXdXjXdXyX).P.m.2.1.1.1.3.p.p.p.j.k.k.k.p.B.m.k.v.B.C.P.P.].{.L.L.L.L.L.L.L.L.J.L.L.L.L.J.L.K.P.P.U.P.P.K.@XU.U.U.U.@X@X@XoXoX/./././././.oX/././././././.].].P.P.P.L.P.P.L.L.L.L.L.L.L.K.K.P.P.P.P.U.P.U.U.U.U.P.P.P.U.@XoX|.Q.Q./.Q./.Q.",
"U.U.K.U.U.K.L.L.Y.L.L.L.L.I.{.{.L.L.L.L.L.L.L.L.U.P.U.P.U.U.U.[.J.J.J.L.L.L.L.L.L.L.Y.Y.I.I.I.I.Y.Y.Y.H.H.H.G.G.H.H.L.L.L.L.Y.Y.L.L.L.L.L.J.J.B.J.B.B.C.P.P.Z.B.V.V.V.^././././././././.).)./.).).U.U.U.U.U.[.[.L.H.H.H.H.H.H.H.D.D. .G : . @ , s ~ [ } { U U U #.R #.#.p.p.s.k.V./.-X#XOX/.Q.V.1.<.U R R R ` i.i.h.J.I.0XI.Y.L.G.I.[.I.H.H.[.0X[.L.b.b.b.b.L.@X2.8.8.3.3.3.1.@.#.p.z.z.J.J.L.Y.Y.I.I.Y.Y.L.L.L.Y.Y.J.J.J.Y.L.Y.Y.Y.Y.Y.I.Y.Y.Y.Y.Y.Y.I.U.U.U.L.L.L.L.L.L.G.L.L.L.L.J.G.J.b.b.B.V.V.P.Z.V.V.V.Z.V.Z.P.P.K.V.V.V.P.Z.V.V.V.B.B.B.K.K.K.K.K.K.K.K.U.J.z.B.P.C.{ D - @ $ 0 u , @ - - < s ! | | { J e : @ @ , i Q i # , 0 s ! d.h.B.K.V.x.l.k.k.k.k.m.s.s.<.<.U U U <.<.#.#.E S v v R <.p.p.p.a.a.s.J.J.L.J.b.b.G.L.L.P.P.U.U.U.U.U.U.U.U.P.P.P.P.P.U.U.U.U.U.P.L.L.U.U.U.L.L.L.U.U.U.U.L.U.[.@X@X/.#X#XOX/.!. XOXOX%X$X+X+XOXOXOXOX X XOX+X#X@X@XwX0X0X0X0X[.[.I.U.[.U.P.P.P.V.s.<.<.<.#.U #.p.i.#.z.K././.#XaXaXaXN.8.k.1.%.7.V.1.+.#.<.<.{ { a.g.D.s - 2 4 2 H I.U.I.7X0X0X[.[.[.wXwXwXtXjXBXdX#XB.s.<.<.1.3.1.:.1.7.j.k.k.k.k.z.s.s.s.s.B.L.L.L.{.}.}.L.L.L.L.L.[.{.U.I.I.7X7XI.I.[.[.wXwX0X[.[.wX0X[.[.[.[.[.[.@X@X@X@XU.U.P.P.U.U.U.P.P.P.P.P.[.[.[.[.].].P.P.P.P.P.L.L.L.L.L.P.U.U.U.U.U.U.U.U.U.U.U.L.U.[.@X@XoXoXoXoXoX/.V.",
"d.d.d.D.D.d.} { } } | | | | g.n. . . . .n.n.n.n.| | | | d.d.d.d.i.} | d.d.d.g. . . . . . . . . .H.D.D.D.D.D.D.D.D.D.D.D.D.D.D.D.n.n.G.G.n.n.g.g.g.a.a.s.h.b.b.h.k.x.^.^.V.V.V.V./.K.V.B.V.V.P.K.U.U.U.L.G.h.g.g.g.| |  . . . . .....! d , @ @ # < s ! } i.U B B <.#.#.#.<.p.f.s.V.Z././.Q.Q.E.k.U U U U <.a.i.I a.g.G.G.G.G.g.d.n.H.I.I.H.I.I.[.eX[.Y.L.b.a.G.[.3.8.k.8.8.1.$.$.1.p.z.B.J.L.Y.U.Y.I.I.I.I.Y.I.Y.Y.Y.Y.Y.Y.Y.Y.Y.Y.Y.I.Y.Y.Y.Y.Y.Y.Y.Y.Y.L.L.Y.L.G.G.G.H.b.b.b.b.L.L.L.J.J.J.J.B.V.Z./.P.Z.V.Z.Z.V.V.Z.V.V.B.V.V./././.Z.Z.V.Z.Z.z.z.x.V.K.K.K.K.K.K.K.V.V.B.{ D > $ % 5 u , 1 , X - 9 s ~ [ K t : - @ # u Q Q Q & 0 0 a s D F L v v N N P #.#.<.2.<.:.U P P U U p.#.E P v L P E p.s.p.s.i.p.J.U.L.G.n.| { | | n.d.d.g.d.d.| | | g.g.g.g.g.g.g.g.g.g.g.g.g.| | | g.g.| | } | | g. . . .g.g.g.h.h.i.1.3.k.M.W.Q.OXoXP.Z.V.V.N.V.V.Q./.oXoX).K.B.S. . . . . . . .D.g.d.i.h.J.J.B.h.<.<.<.R <.i.#.E f.K.).@XyXfXaXOX8.8.8.8.@.1.k.1.#.1.i.R R a.d.| [ : X < a 2 A I.I.Y.I.I.I.Y.H.G.U.P.J.J.@XrX@XK.k.1.:.:.1.1.:.+.1.7.k.k.k.k.z.V.k.s.h.B.[.@X@X{.{.}.}.L.L.L.I.{.I.Y.Y.Y.I.I.I.Y.H.H.H.Y.Y.Y.I.I.0X0X[.[.I.I.Y.Y.Y.J.J.J.B.b.b.h.h.h.h.h.h.h.p.a.g.g.g.g.g.g.g.a.a.a.{ { { { ` { a.a.a.a.d.d.d.d.} a.d.a.} } d.n.K.P././.oX/.P.m.",
"d p d d s a a p s s s t t t t a g f f f f D D D G G G G G D D C H H K J J ! ! ~ ! ~ ~ ~ ~ ~ ~ ~ ~ ~ ~ ~ ~ ~ ~ ~ ! ! ~ ~ ~ ~ G H ! ! ! ! ! ! ^ T H F F F F F T R #.k.V.K.z.p.p.s.B.s.<.<.<.s.s.b.J.L.Y.G.g./ Y F D z t s D D D D G f a 9 $ @ @ @ - e G / <.:.%.+.p.*.R R #.p.p.s.k.V.V.V.V.N.l.7.U U U R i.a.i.R G.L.Y.G.} T T T | | |  .g.D.H.G.n.g.g.g.{ ' g.P.m.8.8.8.3.+.%.1.p.p.f.h.S.L.Y.Y.Y.Y.Y.Y.G.Y.Y.Y.G.S.S.S.S.S.G.G.G.S.H.S.S.S.S.S.g.g.h.h.h.h.h.g.g.n.n.n.g.g.g.b.a.a.a.a.g.h.b.B.B.V.Z.V.V.k.l.M.Q.Z.V.m.k.k.V.Q.W.V.V.V.V.V.V.Z.K.Z.V.V.x.z.k.k.J.J.B.B.B.B.a.[ 9 , $ % 5 1 < < @ # , 9 f f a 8 # @ # , i Q Q Q i & 0 0 9 < 2 ; ; 4 6 c S E *.*.<.:._ U U U #.<.E P P P E #.f.z.p.1.1.s.s.B.P.[.G.a.T D z t z D s s s s s s s s s s f f f G G G f f f f s s s s f f s s s s s f d a s s D D D D h j M U <.k.m.V.B.h.s.p.1.1.k.k.W././.K.z.*.S C W Q Q Q f f f f s s s H } H.G.b.<.<.#.#.<.R R R #.B.)./.#XaX;XE.>.8.>.>.k.1.%.$.$.p.i.R { g.d.T s - X ; < 4 s ( } | { | | [ [ ' T R R <.s.B.z.s.p.1.1.<.<.<.<.1.k.j.j.j.k.k.k.B.k.s.i.s.B.L.L.L.I.L.H.H.H.H.L.I.G.S.h.S.S.S.S.D.D. . . . . .D.H.D. . .| | | | | ^ T T T T T Y H F F F H F F F F D D D D D t t t t t t t y y q y t t t t z z t z r z z z t t z F i.p.B.K.P.).P.z.",
"1 - - - - - - : , : : : - @ @ @ @ # # # : : : : > , > : - - - X - - : : : : - - , , , $ $ # , , u < , , , , , , u 9 9 < < < < < < < < 9 9 e 9 e 8 q q 2 > 2 y z L p.K.K.s.<.<.i.h.<.U N I ` a.a.J.Y.Y.Y.h.{ F z > : - : > 8 8 > e < - @ @ $ + + @ < s T ` <.:.+.s.i.R U #.p.s.s.1.k.V.M.M.l.0.1.+.U U <.a.<.` i.g.G.G.{ z 2 2 q 8 8 8 q a s s D D D H T K F { L.Z.8.3.8.>.N B 1.p.1.<.p.h.J.Y.Y.T Y H Z Z H Y ^ Z C C C C C H H H H H H A C C C z z z C C C C z t z D D z z D F x D F H T } g.h.J.V.K.V.x.k.k.k.l.k.1.+.+.+.j.m.M.M.l.k.l.V.Z.W.V.V.k.p.#.%.N v x S v x x n n z 9 - + $ $ , < u # # # , i f a 0 + + + $ u i Q i % & 0 9 e e 4 2 3 h Z E =.*.*.d.` _ I I P U U U v v P %.#.1.p.f.k.s.k.B.K.J.h.a.d.T t > : - - - : : : : : : : : - - : : : , , , : : , : : : : : , , : # # - : , # # # : , > > > 2 w x U <.s.k.s.h.f.*.R #.<.p.s.K.P.K.J.d.Z 2 = $ $ $ $ $ $ $ # , : : r J g.n.h.p.<.R #.R P R i.E z.K.V./.;XOXM.>.>.o.>.l.>.N +.1.p.p.R i.G.d.H : - = - - > e a r r e e q q q q 2 j L R 2.i.i.<.<.1.s.1.+.+.1.k.x.j.7.7.k.z.z.h.R L x x F Y J J K K D D D D F K D C C C C C C C s s s a t s f G s s s a a a e e t y y y q q q q q q q y w w q q q 8 8 > > > > > 8 8 8 > > : : : : : : > > > > > : > 2 > : : 2 y F R a.b.P.[.U.B.",
"@ X X X @ @ @ @ X @ @ @ + . .       + + + + + + @ @ @ X .       . . . . . . . . . . . .         . . + + + . . . + . . . . . + + + + + + @ @ + + @ : : @ + + # 9 z I g.G.b.a.i.{ i.i.R L n M <.h.p.b.Y.G.G.G.| K : X . X @ @ . . @ @ @ $ % $ O   . @ 9 H { i.<.1.p.i.i.i.R L #.z.z.s.k.Z.Q.l.>.+.+.P U s.p.R ` G.D.H.D.H 2 ; - - @ . . . @ - : , : - - < e y H S.].Z.k.>.+.+.+.%.+.3.1.U i.L.L.d.^ l 4 4 3 4 4 4 < : - - - - - : , , , : - - - - - - - : : : : : : @ @ - : > < < : : > 2 e D ^ } Y.U.U.P.B.k.k.k.l.l.7.@.%.%.$.3.k.8.3.3.k.V.Z.Q.Q.W.V.k.1.N b c 3 3 3 3 3 w r t s 9 - @ @ , , 0 , , , , 0 0 0 0 + + # u a d p 9 p a e e q t m F F E *.f.f.d.d.d.[ [ [ ' T I U L v P #.3.p.1.1.1.k.k.B.K.J.S.{ T s e < @ .     .   . + + .     .   . # # @ @ @ # - - @ @ @ @ + + @ + . . . @ @ + # + + @ : - - ; 2 w n R p.s.p.<.p.#.R #.R R i.J.I.Y.G.} D - X @       O O . .   . + @ : y T n.Y.b.a.<.#.#.#.#.E #.p.z.K./.Z.m.8.k.>.o.>.8.@.O.o.1.#.#.p.S.h.T C = - , - < < : X - = X X - - - - ; w F / i.i.` R i.<.<.<.U +.s./.l.c.c.c.x.z.i.R Y z ; = X - < < : : > > > > : : - ; < > ; - ; < : - : : < < : - @ - : : : : < 9 : , 8 > > : - - - - @ - - - : : - - - - @ @ X X - - - - - @ @ @ - @ @ @ - - @ X @ @ - - : : : : y z F { g.Y.U.I.",
", , , , , , , , $ , , , , $ @ + O + + + + + @ # # , , # @ . . . . . . + + + + + + + . .               . . . . . .               O O $ $ $ # # + # # # # + + + # e D | n.G.H.g.d.{ i.i.R U P R #.i.h.b.n.G.H.G.| K 8 X . @ @ + + . X $ % % % % % + + , f ( d.f.f.p.p.i.i.#.U #.s.B.k.B.Z.Z.k.>.+.+.P +.p.p.<.a.G.D.D.[ s ; - - @       . + @ @ @ @ . X - - ; s / K.Z.m.3.>.>.>.o.o.1.1.#.p.J.J.f.^ l ; = ; = = = X X . .             . . . . . X . X @ @ @ @ + + + . . . . @ @ X X X - - : e f H } H.I.I.U.K.z.l.x.k.7.$.+.+.U +.<.m.Z.Z.m.1.1.3.k.V././.V.3.%.b 6 3 4 4 4 w z C ~ f p : @ @ # , 0 0 0 9 0 0 & # 0 0 0 0 9 p p p s C D D F I { g.b.b.f.i.d.d.d.g.K ' | | } T x h #.p.k.k.3.1.1.k.z.B.J.J.h.{ H s : - X .                     . + $ $ u u u , u u : - - - @ @ @ @ + + + @ # $ # + # + # : : : > 2 h x U s.h.s.p.<.#.#.#.i.i.R i.h.Y.H.D.[ e @ . @   . O $ $ O + .   . @ - q D | G.b.a.<.R #.#.#.%.#.$.k.V.Z.Z.B.k.1.>.>.>.>.o.o.@.1.+.#.i.h.d.H 4 - < p p p p < - X - - - : : > 2 F H { i.i.i.i.<.<.p.<.L U k.V.k.j.c.c.x.F.f.Y l 4 ; X o o X X X X X @ - @ @ X X X X X X X X - - @ @ X @ @ @ @ X X @ : , < : , , 0 0 0 0 0 9 8 , : - - - - - : > > : - - @ @ - - : : : , , , , , , : : : : : @ @ @ @ - : : : : : : 2 y D T d.G.Y.",
"u 0 , # # @ @ @ @ # , , , , : # # # + + + + # 0 , 9 u 9 9 , : , , , , 0 u u u u , , , , # @ . . . . + @ @ # @ $ $ + + .     .   O + $ & 0 & # # # @ @ # $ $ + + @ > C [ D.H.H.D.{ i.i.i.i.R P L <.i.a.a.b.L.I.H.I.| G e : @ @ : X @ 1 5 i i i i % @ # e H / d.h.p.p.p.p.i.#.<.p.B.V././.m.>.o.+.B +.+.<.i.p.h.G.G.} G > @ X @ X     + @ $ , $ # X . o o o = 2 C h.Z.V.3.1.8.1.o.N +.1.p.s.f.h.S.d.Y 4 = = = = o X X X . . .           . . . @ - - : : , , , # @ + + . . . . . . . . X X X - : < A ( D.I.U.P.K.V.Z.V.l.k.k.1.<.+.+.+.:.k.V.V.k.+.k.l.^././.V.k.$.#.E z h w l C H J ! ~ s 9 , : , 9 9 9 9 u 0 0 0 0 0 9 e p s A G H ^ | g.G.G.L.L.L.J.h.i.R E ^ { | [ T J T I E R p.z.z.z.j.p.k.B.J.J.h.i.T C 4 - X . . . . . O O O O O . . + % 5 u u u u p a d f a e < : , , , # # # , 0 0 , 1 @ @ # 0 9 8 > w z L ` s.B.B.p.<.<.#.#.p.p.i.<.i.h.G.H.D.G > @ @ @ + $ % 0 i % $ + . . . @ > s [ g.G.h.i.<.#.#.#.+.#.$.p.z.Z.Z.V.k.>.8.8.>.o.o.>.7.3.1.#.i.i.R l 4 < p d d s p < - = - > > 2 e C H d.i.} } i.i.i.i.i.i.#.U p.V.B.1.$.j.c.F.f.E r ; X X - @ X X X X X @ - - - - X @ X X X X @ - - < - @ @ @ - - - - : < p a a p u 9 9 9 9 9 9 9 e a 9 < : : : : > < 9 < : : : : < 9 < 9 9 p p a a a a e e e e 9 > : - - : : : : > > - : : q t F { d.",
"0 , # + . . + + . + @ @ # , , , 0 0 # @ + @ , 0 9 u a d d d a a u u a f W W W W a a a u u , # @ # : , 0 u u u u i i i % $ + + O O O $ $ # # # + + + + # # $ $ + @ @ : s [ D.H.G.d.g.f.p.p.<.U M R #.<.i.h.J.L.Y.0XqX0X .t - - e - : < u u i i i i $ + : s H } h.p.p.p.p.p.<.<.<.V./.oXP.8.+.o.+.B +.<.+.<.h.J.H.D.[ s : X X X . + + @ , u u u u - . . o X X > t ` B.P.k.s.k.8.o.N V #.s.s.i.i.Y.Y.S.^ 3 ; ; ; = - - - # # # # $ + @ # - - : < e p a a d a u u u 0 5 $ # @ @ . . . X X X . . X X ; r H } S.J.J.V./.K.V.V.V.B.z.s.+.V b V 1.V.V.k.k.k.l.V.V.Z.W.K.).P.h.i.R L H H H T [ [ ! G a e e e e e e a a a 9 a f G G G ! ( } G.7XtXtXwXL.b.a.a.i.{ R Y Y Y | [ J F F / h.Y.p.p.h.h.z.B.J.J.G.g.^ C r ; X o . . . + $ % % % % % + + + $ 5 u d i u p d f W W ~ s p 9 9 u 9 0 0 u u a u u - @ @ < a s e y x E a.h.B.B.s.<.<.1.+.<.p.s.i.<.i.h.g.D.^ e : : : @ # # u i i i u , @ + X @ : y H } G.b.p.i.#.R #.+.#.#.3.z.W.Z.m.3.1.k.k.@.%.+.1.1.1.p.p.i./ Z r 4 p d ~ G f e e > < 2 q e t H | n.g.g.{ { i.i.i.i.p.L P B.P.p.<.s.p.c.F.h.^ l ; = - - < p < < < < < < < < < < < < < < : < < e 9 < - - - : < 9 p p p d f d d s p p 9 9 9 9 9 9 a a p p p e e e e < < < < < 9 e p p p p a s f f f f s s s s s s e e > > : : : > > > > > > > 2 y C F ",
"0 0 # # # , , 9 , : : @ - : < 9 9 0 0 , # @ : , , 9 a a d d f f a a d f W f W f p u p u 9 , : - , < 9 u a a a i f a i u % + + + $ O + + + + @ @ + + + + + + $ % $ @ @ : a !  .D.H.S.h.p.p.i.#.+.P P P #.p.h.b.G.Y.0XtX0X .D e 2 > > < < , % & & % +   @ < A ^ d.f.p.p.s.s.p.p.1.V././.V.1.B o.+.B >.1.+.<.J.Y.G. .J e - @ . .   + + + @ , u u u , @ . . X - : e n 1.V.B.k.M.8.+.N N +.s.s.<.i.J.Y.Y.f.Z 2 2 2 - - - - , , 5 5 u , 5 0 < < 9 p a d s d a a u u u u i % $ @ . . . + @ # @ @ . . . X = > r Z ^ d.h.P.K.B.B.K.J.B.s.<.2.1.U b V :.m.k.k.k.k.k.V./.).@X@X@X@XU.b.g.} T T ^ { { ^ H D C t y y y t g D K K J J T T { g.0XeXtXkXtXI.h.` ` { i.i.{ R T T F K T i.f.h.S.S.h.f.f.S.Y.U.Y.g.} H a ; X X . . . + $ $ 5 5 i i u , # @ @ $ 5 u a p u 9 p d f ~ ~ G s e a a a a a f f W a u - X : e G C z x I i.J.J.V.k.<.R <.1.1.3.s.1.<.i.p.G.g.[ s : - < : X @ : 0 u a a i 0 # @ X - ; 2 C ^ G.b.h.p.<.#.+.#.#.1.k.V.Z.V.k.1.k.k.j.+.%.1.1.+.$.s.S.d.Y l 3 r s f G f a e e y s t t F [ g.H.H.h.g.i.i.a.p.i.i.R P <.P.K.#.U s.S.Y.S./ r ; - : < e a d a p p p p p p p p p p p p p p p s a p < - - 1 < < p s d d d p p p < < < < < < < 9 9 e e e p s s s a < < : > e a s s s s s s s f f s s s s s s s s s s s < > : : : : > > 8 8 > > > 2 q q ",
"# # 0 0 u i f W d a 9 > : - < : 9 9 9 9 9 , : , , 9 9 p a a s d a a d f f a a a 9 9 9 9 < 9 < < p a a d f d d a a a a i u 0 $ @ $ $ + + + @ # # + + + . . + $ & i , # @ : a !  .H.H.h.i.i.i.p.p.N v N P #.i.p.h.h.G.Y.0XtX0X} z r e 2 < , , % % O     . , s ! | a.h.s.s.p.s.k.k.V.P.Z.j.+.o.+.+.o.>.1.1.s.J.G.D.! s : @ + .     + + . + # 0 u p , # X . X @ - ; h P B.V.B.k.8.1.+.B U <.p.<.i.h.h.S.S.R z 3 2 2 ; - - , , 5 i i i i p p p e a s f s p p 9 , , , 5 i i % $ @ @ @ @ # , , , # # - X X X = ; r Y / J.B.B.J.L.L.B.B.B.B.m.1.U N N +.k.k.k.k.x.V.V.Z.B.P.@XpXdXtXeXwXY.b.i.{ { { / / T T F x z m K J [ [ ' T i.G.9XtXkXkXwXU.J.f.i.` i.i.{ T T T T { F I i.h.S.h.f.d.Y.S.S.S.Y.H.} ! s p - X . . @ @ , 5 u i i Q Q i d i u u u u p u < , : - : < p d G G s s s s f f f f W f a 9 , : a A ^ Y Y R i.z.K.K.z.1.#.U <.1.8.8.3.<.<.s.h.G.d.H > = - < - X - : : 9 u a u 0 , @ X - - ; 4 A g.h.B.h.p.#.#.1.1.j.x.Z.V.m.s.1.k.k.$.+.$.1.1.#.#.z.S.*.Z 4 4 r A s s s s r s D F J { g.L.L.b.a.a.i.i.i.i.<.R R L p.J.B.p.p.1.<.S.D.} C > - > a s f f f d s f f p p p p p p s d d f f f f f p < < < e p d f ~ ~ G s p < < < < < < < < < e e e e < < d s s d < < > e s G G G G G G G G f C s r s e e e e e e s s e e > : : : > > > > > > > > 2 2 ",
"# # 0 0 i f f f f f s e < : 1 - 9 9 a a a 9 9 9 e e e e 9 9 e a f f f f d a e 9 < > < < 9 e a s f f G G ~ f d a p a d f d u 0 , $ $ $ # , 0 0 0 : @ + + + + $ $ i i 0 $ @ : a ! D.D.S.f.i.<.p.j.$.B N B +.+.<.p.h.b.J.[.kXkX0Xg./ H s e e u , +     . @ , u f ! i.h.b.s.1.s.B.V.V.V.k.+.U +.+.B @.>.1.8.k.B.h.g.G 9 @ + + + O $ % # # # , u p a < : @ X @ - - - 2 k i.K.Z.s.3.k.k.+.N U <.p.p.i.p.p.h.h.i.F r r e < < < 5 u d d Q Q f d p a f G A s p < , , , , 5 u i i u u u u u u i i u u u u , - X o X ; r C T { h.J.L.L.L.L.J.B.s.s.B.z.<.M 1.3.k.k.m.k.l.k.B.B.P.@XrXdXjXjXkXrXU.B.p.p.f.f.a.i.` T T ' ` { { { a.b.U.rXdXjXtX9XF.i.#.#.<.i.i.` T I F F T ' i.i.i.<.p.h.z.F.Y.Y.H.D.} ^ C e , # . . + $ 5 u a d d W W W W W W f ~ ~ ~ ~ d a - : - - - : p s H H H D s a a f f f f d a e p d ^ / / / d.h.J.V.K.V.k.p.<.<.i.1.8.8.3.:.1.h.b.g.( t - = : < < : 8 8 8 e a f a u , @ @ - - - < A { g.B.B.s.<.$.1.k.x.V.V.z.s.p.s.z.#.#.#.p.1.1.$.p.f.f.Y r ; 2 4 s e e t C D J { { | G.I.U.J.a.R 2.i.i.<.R R U U <.B.B.<.<.h.h.i.D.( s > - : p s f f s s s s f f s d s s d d f f ~ ~ ~ G G f a e s s G G G G ~ ~ ~ s e < < e r a s d s s s s a a < e a s s r r r s D H ! ^ ! ! ! H G G G A s a r e q e 2 2 q s D C s r q e q r r e e e e e e e e ",
"0 0 9 u a a f f f G G A s r 4 2 < 9 a a a a a a f s s a e 9 e e f G f s s e : - : : : : < e s G G G G G G f a p p a f f d p , - # # 0 u u u a u 9 # + + @ % $ + % i i 0 + + : p } g.S.h.i.<.p.f.x.$.B N N N U <.s.B.P.L.U.wXiXtXY.g.T D s a , +   . + % , , p G } b.B.s.<.3.V.Z.V.k.1.B U #.#.N 1.>.1.k.B.b.g.d.C > X + $ $ % i i i 0 0 u u p p p < : - , < < - > h <.P.K.2.1.k.V.1.N N #.s.p.<.p.#.p.B.B.R z r r e < < < 5 u d Q f d a p p s G A s e : - @ @ # $ 5 u i i i d W Q W W W d i i u u 5 - X X - > 2 2 z ' g.G.J.L.L.B.B.P.K.V.k.1.<.1.1.3.3.3.8.k.k.B.m.v.m.Z.%XdXjXvXjXjXtX/.B.z.z.s.p.a.a.a.a.n.b.b.J.U.rXdXdXdXtXK.z.*.E R #.i.i.` ` ` T I I ' ' h.s.f.f.c.z.F.Y.F.Y.D.} ~ r > : . . . @ , u i i d a d d W W W W f G ~ ! ! ~ G s < e e e > e f ~ ^ [ ( G y 8 8 a f s a a e a f H d.d.d.i.z.K.).K.x.z.k.k.s.s.p.3.8.8.6.>.2.B.b.d.H 2 = - < p s A t t y t f G f a 9 - - < < - < A / a.J.J.h.1.1.3.V.Z.W.V.p.1.p.z.p.#.%.p.p.$.$.j.f.p./ Z 3 ; = ; r > > r H ^ { g.G.L.U.P.B.a.<.` <.i.p.i.<.<.<.<.@XB.<.<.p.s.s.h.[ d : @ : 9 a f a e 9 e e s a e s d s s d s f G G G G G s s a s G H ! ! H A A A A r 4 4 4 r r r G H H H H A C C r r r r C C A A ! ! ^ [ [ [ [ [ H H H G C C t r y y r q 4 e C G ^ J F C C s C D s s s a e e r t ",
"u 9 0 0 0 : 9 a G G H H H C C C s s s G ! G G ! G G G f s a s s G G G C a e > - : > > 2 e t A G G ! ! H s e e < a s f d p < : @ : , 9 a s s a e : @ @ @ $ % $ O % i i i +   . - s ^ g.h.h.h.h.1.$.V.V.N c b #.<.s.B.J.J.B.J.[.iXkXeXG.T G ~ d u % % % $ % u u p T a.B.s.s.m.V.V.k.1.+.+.U U R #.%.0.V.l.k.B.i.F s > @ @ $ % i Q i a W W d a a s e > < p d p 5 : 2 h I s.J.V.k.3.k.+.+.+.#.p.h.R #.<.s.B.U.L.d.H H C s p p u p p p a a p e s G J ~ G C e < : , , u u a d W ~ ~ W W W W W d a a a p p p < : @ X X - > t F T a.b.L.@XU.J.z.h.z.B.V.s.<.+.+.1.k.V.V.s.2.2.2.k.V./.#XgXvXvXSXvXuX/.z.s.h.h.B.U.J.a.s.L.rXjXDXvXtXz.#.%.f.z.f.p.p.*.L R I F K ' { g.a.#.p.z.K.K.F.c.f.F.d.! A a 9 - . + + $ i i Q W W d a a a a d d f A C H ! ( [ ( ^ C s a r s G } H.I.H.} F q > : : > > : : > a G ( d.f.f.F.^._./.V.l.j.1.3.s.s.p.1.5.5.6.8.B.B.a.T y 2 > e A ~ ) ~ T K m D K G f s p p p < 1 - < r F / z.P.J.s.3.8.Z.Z.W.V.1.+.p.K.p.P E p.$.#.f.f.*.R S l 4 ; = = > < r H [ g.H.G.tXiXrXP.s.:.<.s.<.1.p.<.#.<.z.K.s.z.p.<.R p.B.Y.s < X @ p d a a , > 9 e e r s s C A G A f s s C s G J G s s C D ( ( ^ H H A C C C C r r l C C C H H ^ ^ ^ H H A A C C C A H ( } g.g.g.| ( ^ ^ ^ H H H J H H C y r y r r w 2 r F T ^ ^ J H T ^ J ! ! G s s e e e ",
"a e u a 9 8 e t D H ! T H H A H ( ^ ^ [ ^ ! [ ..} ..[ ! ! ! ! H H ^ ^ H C t r q r r r q 4 r C D ( ( ^ C r 2 e s G ! ~ ~ s < : - 9 9 a s G G s s 9 > : : , u 0 % % i i i , . . - e D / i.f.h.h.f.$.3.j.1.+.N P N U <.h.B.B.B.U.wXiXiX0Xn.[ ~ W i i i % $ # 0 i a T 2.s.s.k.M.M.M.8.>.+.+.+.R #.<.@.0.l.k.k.s.R z e > : , i Q Q Q W f f f f G C s C s s d ~ W Q p q w F ` b.J.B.m.k.3.1.<.U #.i.#.s.3.1.s.B.J.h.d.^ J G s a p u 9 < 9 e e e s H ^  . .[ ~ f s s d d ~ ~ ~ ~ ~ ~ ~ d d d d a a a a d d d d p 9 : : X - q y z F ` a.U.P.K.K.J.J.B.B.k.k.3.1.>.:.>.>.m.3.8.3.3.m.Z.oX#X%XaXxXvXvXfXuXP.P.B.s.B.n.n.L.rXdXjXdX@XK.z.p.#.=.p.$.#.#.R P L I R ` g.a.n.a.p.c.x.K.^.K.F.f.R Z r > : : - @ , u u i d d a a 9 9 9 9 e e e e w w l F T { } } } ^ H H H J } D.d.{ H t 2 > > q q 8 q q r G ^ } f.f.F.K.^.^.^.V.l.j.7.1.3.s.k.k.0.0.9.M.V.B.` C 2 2 e s G G H H I n n F H H G s G G ~ ~ d p 5 e l I h.J.z.s.k.k.Z.Z.V.k.3.#.p.h.R E #.*.E %.p.f.*.E x 3 2 ; ; ; 4 r ~ ( } g.I.0X0X[.P.z.1.<.1.3.<.:.+.<.1.k.B.V.s.s.p.s.z.h.<.F e - X : a a a 9 9 9 e q 2 4 y s A G ~ H A C r s C C z r t F T T T H Z Z F Y Y Y Z C l z Z Z Z C Z F Y Y ^ ^ / / ^ ^ } D.S.I.7XI.G.g.{ T T T T J Y J T T T J F z C z C D C z C J { { { ^ / } } { [ ( ! H G C s s ",
"t y t s s y y t F Y ^ ^ Y H Y ^ g.D.D.} |  . . . .| ^ ^ [ | [ ^ ( } } T C z C z C C C r 4 w C H } } T z 2 2 t H ( [ ! G s e e s s s C G H H D C s e 9 > 9 u u u i i Q W u @ X = > w F Y i.f.z.z.k.#.#.k.z.<.M M M P i.s.h.h.B.J.eXeXeX{. .! W W i i % $ $ 0 i a K ` a.s.m.M.k.8.7.@.+.+.#.#.*.p.7.0.l.k.k.<.M w w e e 9 d W ~ W W f f f G ! J H T ^ ! ~ !  .) ~ y w z L a.B.P.P.s.k.k.1.#.E #.<.k.8.3.s.h.B.L.Y.} { ! H G s e < < < e e e t H [ n.g. .[ ! ~ ! ! ! |  ...! ~ G s 9 9 9 e e e u u p p a d d a a e - - > > 2 w n I h.J.U.@X@XU.J.B.k.B.B.k.<.U B B 3.8.m.m.m.m.M.N.N.Q.OX;XxXDXFXFXdXtXP.p.i.` a.[.iXdXdX).z.p.p.p.#.#.#.#.E L L P E R i.a.n.n.n.s.V.c.c.x.F.z.=.E l 3 ; - - - > 9 u a f W W f a 9 : > 9 9 e e > 2 2 3 w x T d.g.S.S.d./ T H H ^ { T L Z w 2 q q y y y y t D ^ } S.S.z.F._._.x.l.W.l.l.7.1.1.3.z.V.9.u.R.E.V.s.L w ; 4 G ! ~ H H F L M M F F J J ! ! ~ ~ ! ) ~ d r 3 F d.B.k.s.m.Z.W.V.k.3.k.s.p.#.E R p.*.v E f.f.*.L l 3 2 2 2 4 r G (  .d.S.0XkXL.h.p.<.1.1.3.1.1.+.+.:.k.V.B.k.s.1.i.s.K.B.M 2 ; @ - 9 s f a 9 e y e q 2 2 w C H ) ) ! H C r r z r w w x T { T F z l Z Y { d.{ L F L L Y L L Z S S Y E / d.d.h./ d.S.7XeXtXeX7XG.d.R T I T Y F I T R { { ` T F F F F T T Y Y T { } d.d.g.H.S.d.[ ^ ! G C s t t ",
"C t t D C t z x H T / / Y Y Y / } D.S.} } D.D.| ^ J H G J ! ^ ^ { g.S.} Y F Z x F F Z z r l H ^ d.{ Y C z C T { ( ! D s r C ! [ H H F J T T H F F C s a a a a i f W W W u - @ - 2 4 r x I i.h.B.K.f.#.p.h.p.R I n I <.a.a.i.a.a.b.L.[.I. .! f d u u $ $ $ 0 i f D I 2.s.B.N.8.5.@.o.%.+.#.*.i.f.k.9.l.V.3.P k h z C s > < f ~ ~ W f f G J [ { { d.D.g.[ .. . .~ s t r n ` B.K.P.1.k.s.1.<.U U p.1.3.k.z.V.J.J.Y.d.| [ ^ ! G s e a a t y y t F T { | [ [ ! ! [ .. .n.D. .^ H t 2 2 > > > > > < < > > 9 e a a a a e e > > 2 w l l Y { S.U.wX@XP.J.z.B.B.m.3.1.:.:.o.>.8.N.V.M.8.1.M.N.V./.;XcXSXDXDXBXtXL.h.` ` b.[.wX[.J.f.p.*.#.#.+.+.p.#.L v L i.i.i.i.{ a.n.b.K.x.z.c.j.#.v 6 3 2 2 : : > 9 a a s ~ ! ! ~ G s s s s C C C t t x x L E d.h.h.S.d.{ T Y F C Z Y R E L F z z z D D t t t C H } D.h.f.F._./.k.k.W.7.l.k.j.7.j.x.V.9.u.E.W.V.p.L w ; e G ! ^ H H L M N I I T { }  .( ! ~ (  .! G s 3 x / f.z.B.Z.Q.V.l.7.1.k.z.p.L #.i.h.*.P #.z.h.#.L h 3 3 w q 2 e A (  .D.S.7XtXp.<.+.+.1.1.1.1.1.+.+.1.k.B.k.1.k.s.<.s.h.s.v 4 = - > s G G s e a s s r 2 3 z H Y ( / ( ^ Z l l l l z z L R I n x x L E i.g.i.i.E E E E E E E E E R #.*.i.i.f.f.R d.h.Y.7X7XY.S.g.} R T R T L F L I { d.g.d./ I L Y I / { { / { i.d.h.G.Y.Y.S.d.T H C r r w r y ",
"H Z z x x x Z L ^ { { / R Y R / d.H.S.} ^ ( ^ F C D D s y y s D { S.I.Y.S.g.d./ Y T Y F z Z T { i./ I T { d.d.} T H C C T | D.D.{ ' T R R ` R T T J K G G G f d ~ ~ ~ f < @ - 2 C r w z L { f.h.b.h.i.` <.i.` I L I U ` ` { i.` a.g.n. ...f u , @ @ @ $ 0 i a f D n ` m.V.M.0.5.O.O.N %.#.*.d.f.k.l.V.V.3.V k x x H F > - e f f s G G K T T ` i.h.Y.Y.D.D.8X .W t y y x R a.z.B.k.k.1.<.p.+.L <.$.1.k.z.V.K.J.J.{ { [ J K D t a s D D t t z F I I I T K K K J T { i.d.i.} / F z z t w q 4 q e y q 8 8 e a f f f G s e e r r w 2 3 l L i.z.J.J.J.B.B.k.m.m.B.m.k.>.+.o.1.k.M.k.8.m.8.8.m.Q.+X<XhXSXJXJXjXwXg.T { g.g.h.f.h.F.h.*.+.+.1.z.f.U L L i.i.<.` ` a.a.B.V.c.c.k.j.#.v 6 3 3 w q 8 8 : : e s G [ |  . .| | | | | | | | } f.p.h.z.J.z.f.i.R Y Z Z Z z Z Y R R ` R T K K K J F D t t x Y { i.<.s.K.V.k.l.W.7.l.l.l.k.k.c.x.9.u.R.V.B.p.L r > e s D H F F L M N #.R { d.H.7XH. . .D. .( A r r z Y i.z.V.V.V.M.8.1.1.k.z.i.P i.i.p.*.R f.B.p.#.L x x x z r q 4 A ) ( D.S.F.Y.R #.#.$.$.1.7.7.@.+.@.1.k.k.s.1.k.B.B.p.i.R M h ; ; 2 D ^ J D y t D H C l l Z Y ( d.d.d./ Y L F x L U I I I N M L #.s.B.z.p.i.<.#.R R U P U R #.#.*.p.h.h.f.p.i.P E R i.h.h.f.i.i.{ R I L F n n x L R h.J.b.f.{ R { i.i.d.g.f.g.h.G.L.Y.Y.h./ F z r 3 2 2 w C F ",
"d.R L L L Y R d.d.d.d.d./ / / d.S.S.S.{ Y Z z r r C F C q > > w / h.I.0X0X0XI.G./ R R I Y I R { i.{ { d.S.S.d.{ H Y ( g.H.I.D.g.g.a.i.i.i.a.a.a.i.} } | ..[ ..~  ...! d : @ > s T F z Z T { i.g.{ a.i.R I ` T n F K I ' ` { g.g.` ' J J G a : @ . + @ , i a f f D I a.B.V.9.5.5.O.O.N %.#.*.d.f.k.M.Q.V.8.+.L L x T T C q q e e s G J T I I U R p.J.Y.H. . .) d e q t m I <.i.s.V.V.<.+.f.U k U j.1.1.3.k.B.B.J.` ` ' J D t t t D K K F m n I T I I K m t y t t z L <.i.p.h.h.a.R T T F F F F H K D s f G ~ ~ ~ f s e r C C 3 2 ; 4 h x E i.h.B.P.B.m.m.V.Z.V.M.l.>.N N o.8.M.N.>.>.>.3.A.Z.oX$XkXCXJXCXkXH.^ ' T T T R h.Y.Y.z.<.1.s.z.z.i.R R E E E ` <.a.a.s.k.c.x.x.x.j.#.U x z z t y 8 # @ 8 e C J | g.H.H.Y.H.H.G.Y.I.I.[.@X).).P.K.z.p.R S x l l z Z L R R <.i.i.{ { { { } [ T D z t C F L U <.s.k.x.V.W.l.l.l.l.l.k.c.l.R.~.!.W.V.h./ D e e e y z F F n M +.i.i.i.d.H.0XqXqXqX7XH.! s e Z z Z R k.V.M.8.M.7.1.3.j.p.*.#.f.R #.#.#.s.z.#.#.R U T T J D t r r A ) ( ( / E E #.p.j.7.$.7.7.o.%.@.>.1.3.k.k.k.K.U.J.p.#.L n w 2 w F [ ' F D F H Y H Z Z Z Y S.S.S.f.d./ R E <.p.s.<.U :.<.2.s.B./.P.V.s.1.<.<.<.<.U U U #.<.p.j.z.K.K.z.f.p.L L P U R ` ` <.i.i.R L x x x n x L R f.L.L.L.J.h.Y.Y.G.h.h.J.Y.Y.U.7XY.h.R z 3 4 2 2 2 w C Y / ",
"J.f.*.*.i.f.h.J.J.h.f.f.f.h.h.h.Y.g.{ T Z w 3 w z F { | T D y y Z I d.G.U.U.Y.h.R R R / d.i.i.i.h.h.G.G.h.i.R Y T { Y.7X7XH.S.g.G.h.p.a.p.s.h.h.h.h.S.n.D. . . . . .~ s 8 > y H [ H F / d.g.d.i.` T T T T F F F F K I ' { | a.{ I m t t e > @ @ + @ , u a W W ~ J ` v.Z.V.8.;.O.O.O.N %.#.d.d.f.k.V.W.M.k.k.p.U L I R ^ H C y q r C H ' ` ` U P R i.g.} ^ A a p e t F T R i.p.B.V.P.<.U p.P c #.k.1.#.#.p.z.z.h.R { { J D t K [ [ [ | | ' ' ` ` ` ` I n t q q q h N 1.p.i.s.B.J.J.J.Y.Y.G.G.g.g.| | [ | ....~ ~ p p e r r l l 3 3 3 h z L i.h.B.P.K.V.V.V.V.N.M.W.k.+.N V o.8.Q.>.>.,.3.m.N.N.Z.[.iXkXeX0X| F F D x x F / S.Y.J.s.m.k.s.p.s.h.h.*.E L I <.a.2.<.1.j.z.x.K.K.K.P.B.a.` K K g q 8 q q w z F ' g.G.G.L.Y.[.0XeXtXiXrX#X/.V.z.p.#.R L x h z L Y / i.i.p.p.p.a.g.g.n.G.b.g.{ T F x z x I U U 1.Z./.W.R.l.l.l.l.k.j.7.R.~.(._.).L.g.^ D s t y z x n M U 1.s.i.R / D.7XqX7X8XH.^ s r s Y Y Y R s.B.M.8.8.>.1.k.f.#.#.z.f.E P <.i.p.p.U R <.i.i.} { T H G A A C A F Z l E #.j.z.k.7.5.7.@.+.o.o.+.>.3.s.B.P.).P.J.h.i.R I x l L { a.{ T T T T Y Y ^ *.d.Y.J.F.d.*.E E R h.K./.P.V.P.$X%X#X#X@XP.B.s.s.s.B.B.B.m.k.s.k.B.^./._.)._.K.K.z.s.s.p.<.L M M L <.` R R R U L M x n U i.J.U.wXwXwXtXtXY.h.h.Y.Y.0XtXwXY.{ L h 3 4 3 w Z Y / i.d.",
").K.z.z.F.J.K.U.K.J.h.h.J.L.L.J.h./ Y F l 3 3 z T } Y.0X0XH.{ I 3 h x U i.p.i.L L L E <.f.h.h.i.J.U.U.J.i.L Z Z / S.7X7XY.S.S.G.B.s.s.<.s.s.k.z.B.B.b.h.G.H.I.8XH.| G t q q z J { Y T d.G.G.g.i.h.T F T T z m ' I K T ' | | [ ' z w 8 > : - - , , , 9 a f G ~ [ ` a.B.P.V.>.o.@.o.O.N +.#.i.d.f.k.V.V.k.V./.B.U <.R R d.d.T Z l 2 w x R i.i.#.U v M L Y z > ; < z F T { i.h.J.P.B.K.#.P p.P c <.p.$.+.$.f.z.s.<.R ` i.T F F | H.n.G.G.b.h.a.a.s.b.s.a.R n j w h k +.k.s.+.U 1.B.U.@XtXtXrXwX[.I.H.H.D. . .| ~ s : < e r r r l x L L L L R p.J.P.J.K.P.K.B.k.m.m.V.V.8.+.V V 1.N.k.8.m.m.m.m.v.s.G.I.H. .| C 2 e 2 y t C T d.h.f.B.Z.B.<.#.h.K.Y.J.i.L x I ` 2.<.#.p.z.z.z.K.).tXdXeXJ.g.` ' ' I q 2 2 2 w x I { g.h.Y.I.wXiXtXdXtX_.x.f.p.<.#.#.#.P L Y / d.S.L.B.B.v.s.a.a.b.G.I.{.I.G.| T D z z I U N <./.OXW.Q.R.9.8.j.j.7.7.9.~.(.#X#XwXL.g.T J F x z m n L <.j.z.i.L L { S.D.D.} G 2 ; r H / / <.p.k.B.M.k.8.>.8.V.p.P #.K.p.L E p.p.i.<.#.R <.a.h.d.| | | ^ ) C l l l 6 6 P #.j.x.x.l.7.7.7.>.o.O.o.+.>.1.Z.P.V.V.P./.K.p.s.U v U p.b.h.i.R R I I / h.Y.7XY.F.f.R L v v P s.P.rXyXdXgXjXjXfXyX/.B.k.k.k.B.#X#X#X#X#X/./.#XuXuXuXyX#X@X/.P.yXtX@XB.U k k k L U i.h.J.B.<.M x M L i.J.@XtXdXtXkXdXU.i.i.z.L.).tXwXh.E x h h l Z R d.h.S.h.b.",
"tXdXdXdXtXtXtXwX).K.s.z.J.K.K.z.i.U x w 3 3 h h L L <.b.[.wXU.J.<.P M b M M M M N <.h.B.B.B.B.B.z.B.s.U k h M ` L.U.[.U.G.g.g.h.h.B.z.s.3.k.Z.OX#X_./.@XrXrX@XY.g.T z w j F T ` ` h.J.J.G.Y.G.g.R ` R I m m F J ' ' [ | | | ' g 8 8 : > < e s A G G H H F H T { b.P.P.B.s.1.+.B +.N P 1.p.#.p.K.k.V.k.>.k.#XrXV.k.p.p.f.F.h.*.S c c v U p.s.s.i.R U L h 2 2 w x U R <.a.h.z.J.K.K.p.#.<.i.#.R #.#.o.+.1.k.k.1.P E R R R R { S.U.Y.J.L.P.U.K.k.1.1.k.V.s.P v v P N k.Q.k.+.+.3.s.B.Z.].$X@XP.J.J.H.I.7XD.! s e e e r C D F F J T 2.v.P.@X).K.F.S.).K.J.B.B.B.B.s.+.+.o.>.8.8.8.8.8.3.s.v.b.b.g.d.D.[ G a 9 : : - - > e y r z L R s.B.K.B.s.i.i.i.f.b.J.g.R L I { h.f.d.d.h.J.L.K.).@XrXrXrX$XB.s.<.` N k h j L R f.h.h.h.S.S.Y.Y.p.p.p.i.i.i.p.h.J.d.R d.f.h.S.P.B.C.C.B.C.C.{.[.0X0X0XI.H.| J D H F Y #.p.k.Z.OXE.M.l.8.7.>.>.+.8.W.(._.#X;X#XP.k.s.` I F F K T P p.h.i./ { T C z z r 3 2 3 Z R 1.<.k.Z.Z.k.3.k.+.k.Z.V.p.#.p.z.#.#.i.h.h.<.R <.R i.a.a.` ' ` d.S.d.^ Z l l l h v E p.k.k.k.k.k.3.1.1.@.%.%.@.1.1.k.W./.W.^./.#X/.k.%.P #.h.J.K.B.i.L k x L R ` E P P U R <.<.<.p.B./.rXuXpXdXfX#X/./.V.k.k.k.k._.yXxXvXvXfXxXvXFXDXZXpX+XoX#XrXdXdXpX$XB.<.N M k x P i.z.J.J.B.p.U x k L p.P.wXtX@XJ.p.i.h.@XtXdXwXh.L c h k x E i.J.U.L.b.z.B.",
"@XyXjXfXdXuXuXtX).K.z.f.s.f.p.#.L x h h h h k x M x M R h.U.wXwXP.B.<.U N U U +.B.P.@X@XP.B.s.p.<.+.M k h k L R h.B.J.a.R L I R i.p.p.1.1.k.V._.-X#X#X#XrX@XK.h.R F z j n ` s.b.b.L.U.L.G.G.G.g.` I F n m F K T ' [ | | | [ g y 8 8 > 9 s G ! ^ ! H Y Y Y E <.<.m.Z.Z.m.<.<.U N P +.#.#.#.p.z.z.V.k.1.1.M./.#X#Xx.z.j.z.F.F.=.P N b N U p.B.z.z.p.R M h 3 h n R <.1.p.s.k.B.K.K.h.i.#.#.*.#.*.p.%.%.$.j.k.k.$.%.E E P E R i.S.Y.J.L.U.)./.V.c.1.l.W.^.V.j.#.#.1.k./.OXm.<.1.k.B.m.s.B.B.C.B.B.J.H.D.^ D r w r r z Z Y ` | g.b.b.P.oX$X#X@X).K.K.F.F.K.K.B.s.<.<.U +.1.1.8.8.8.8.k.k.B.G.G.D.| [ G s 9 : @ @ + + @ : > > > 2 w z ` s.B.J.B.h.i.i.a.f.h.h.d.d.{ { / / / { d.h.h.f.B.P.#XdXfXpX#X/.Z.m.<.U L M x x P E R d.D.S.d.*.i.R U L L U i.J.U.K.Y.Y.U.U.9XtX@X&XoXoX].[.[.[.0X0X0X0X8XH.| ! H H T / #.1.k.Q.W.E.e.0.8.>.>.>.8.V.W./.OX-XOXE.M.m.s.` I F F F R h.J.h.d.d.T Z 3 3 3 3 h L #.1.>.8.V.N.V.M.k.3.+.z.K.p.#.p.z.p.#.<.p.z.p.R U ` ` i.p.a.` R I T d.d.d.R S l l l v L #.p.z.V.V.k.k.k.3.@.%.%.%.%.1.7.l.V.W././._./.V.j.1.1.s.V.P./.K.b.2.I n n n M L U i.B.J.h.<.<.p.z.P.@X#X#X#X/.Z.V.k.k.1.+.+.x.#XfXSXSXSXJXKXKXFXSX<XoXZ.oX$X$X$X%XrX@XP.s.<.L M v M #.s.B.K.z.p.#.P L U p.z.B.s.s.s.B.).rXdXP.h.P k k M R s.J.P.U.P.J.J.J.K.",
"f.K.wXtXuXuXtX@X).K.z.s.p.#.E L x x x x L R R i.L n x x L a.U.tXdXdXrXwX@X@XtXtXdXjXdXrXP.p.R P U v h 6 h L R i.i.i.{ L z z Z L E R #.#.#.3.l.^.(././._.P.B.i.E L Z x F ` b.P.[.[.[.[.L.h.g.g.i.i.L z j n T ' ' [ | | | [ f y 8 0 8 9 s G ! .. .^ ^ Y T R i.p.p.B.B.B.s.<.+.P V P $.p.#.#.z.x.k.Z.+.B 3.V.V./.uX/.K.z.z.x.F.c.p.#.N V U p.K.P.P.J.i.M h h x { h.B.k.s.s.B.V.V.B.#.<.#.#.#.p.p.p.%.$.j.z.k.p.#.#.p.<.R R f.Y.L.Y.Y.Y.U.@X)./.^.W.^._.#X#X_./.K.K.@X#X@Xk.+.#.p.p.i.i.i.i.i.{ R R / F w 2 w x F L h.a.i.a.b.U.eXiXiXrX#X@X).K.F.z.z.F.F.z.<.P N N +.1.k.k.8.1.7.k.B.B.J.G.D.} J f 9 , # @ + + + + + + @ @ - - : > x L ` n.J.b.h.g.a.a.a.h.J.J.f.d.T I T R i.i.i.i.p.B./.%XpXfXfXfX%XoXB.k.p.<.R L x z Z Y *.d.*.E L x j w w x <.B.@XeXiXtXdXkXjXkXdXrX$X@X[.[.L.G.G.H.H.H.8XH. .! J T / R R +.7.V.E.E.M.9.0.8.8.8.3.k.V.Q.OX#X*X!././.V.s.` I F n R z.P.L.J.g.R x l w w x L i.p.p.1.Q.OXQ.M.V.k.1.1.V.x.#.#.z.z.#.#.i.s.h.i.R R R <.2.a.a.i.R M x R d.d.d.E Z x x x x L #.z.K.K.K.x.k.7.1.+.+.+.+.1.1.1.k.V./././._._./.V.p.p.z.K.@X@X$X[.b.2.' I h.b.L.wXdXdXP.s.P N U :.s.m.B.k.m.m.k.3.:.B V b U k.#XfXgXjXSXFXDXSXpX].B.v.v.m.s.B.K.@XtXrXU.B.i.U v k x U h.K.tXtX@Xs.L h h h U U <.C.rXdXrX@X<.P k j M <.B.U.rXwXU.K.K.P.@X#X",
"v #.f.z.K.K.K.J.z.h.f.p.#.P v v x Z L R i.f.h.h.i.R L l h F i.S.J.U.tXdXdXdXkXkXjXdXtXU.p.U x k x c h h S E / / Z x l w w w l l x v v v v N +.$.7.1.1.$.#.E v l L L T { b.[.[.[.[.[.U.b.g.{ / T R F j z F ` { ' | | | [ D y 8 : 8 9 e f ~ ! [ [ H H L E i.s.z.z.V.B.m.1.+.U N N %.$.$.#.$.j.z.j.z.U N 1.k.z.K.tXrX@XK.B.z.z.z.z.1.U V M <.B.P.@XJ.i.L x x R g.J.B.k.k.z.K.K.B.z.#.<.#.E #.h.z.p.+.3.V.V.p.#.R R #.L j z L R I F L E <.i.p.k.V./.#X#XuXfXfXfXfXdXuXtXK.#.M L P E R R i.i./ F l w l w w z R g.b.J.U.P.P.).rXtXdXdX%XoXP.V.z.z.f.=.c.c.p.#.U U +.:.s.k.k.k.k.s.s.s.J.J.G.g.[ G p < @ + + O O O $ $ O O + @ @ - : : 2 w m T d.b.G.b.h.g.i.p.h.z.z.h./ R I I R i.i.i.s.s.B.V.P.#XfXSXgXdXrX@XP.K.B.s.R P x x Z S S Z l h h 3 3 h U p.U.tXjXBXSXJXJXDXjXrX[.L.b.h.} ' J K J [  . ...~ H H T R P P 1.M.W.W.E.M.9.8.8.k.1.p.k.V./.OXOX(.#X#X/.V.2.U n x #.z.).wXU.b.R x x x L E p.z.z.k.M.oX#X/.V.k.k.1.k.z.f.#.$.z.f.#.p.p.<.#.#.R #.<.#.<.i.a.p.` M j S Y / *.R L Z x h h x L <.z.L.P.Z.V.k.3.p.3.1.+.+.+.$.3.k.Z./././.#X#X/.V.k.s.k.K.@XiXhXhXiXeX$XiXiXrXiXrXU.p.P v k V V U :.1.1.s.2.1.:.B V k h k V :.s.B.Z.Z.C.@XK.s.<.R U P L M L <.h.J.P.J.B.B.s.P M m I <.s.V.].@X@XV.B.B.C.B.C.@XrXdXrXC.<.N M M P s.K.@XrXrX@X/./.#XyXfXjX",
"P #.#.#.p.z.z.f.#.#.#.#.E P P P R / { g.G.Y.G.G.G.S.g./ F Z F L I i.U.tXtXtXtXeX).U.z.i.L n x x x L P R i.i.i.R z l w l Z F F Z S S S v v v N %.%.%.N S S S v x R / i.G.[.wXeX@XP.L.J.b.a.R Y F L F F L T { { { | | [ D y 8 8 8 9 u a f G G G G C z x L <.k.B.V.Z.B.s.<.+.U P P #.%.%.p.j.-.p.c.#.R U #.p.s.z.K.dXtX).V.z.z.V.P.B.2.U N U s.B.C.i.` U R 2.h.b.J.B.k.k.V.P.P.k.1.<.<.#.E <.z.z.#.1.z.K.B.i.U U R R x 3 2 w j w 2 w j k M N <.m.Q.#X#XyXfXvXDXvXjXtX9Xh.E x x Z Z Y Y Y ^ Y C r 3 l x L i.J.U.@XwXJ.).yXvXDXvXyX/.Z.B.k.j.j.p.$.%.$.%.%.%.$.s.m.B.k.k.s.k.B.B.B.B.G.g.| ! d 9 1 @ .       O O O O O O O $ % $ $ : : : > y F | g.G.G.h.p.i.i.p.z.z.B.a.` I I ` i.a.s.p.s.s.s.V.#XdXDXDXDXDXfXrX).U.K.z.i.L c 6 3 3 h z x z j z F I a.[.dXBXSXJXDXBXiX[.b.` T L F z w q e a G ~ ~ G C Z L I L N +.8.R.R.R.R.9.9.9.l.3.p.p.z.W./._.OX-X#X#X/.k.<.P N #.z.).wX@XJ.{ L n I <.p.B.K./.oXOXoXOXOXZ.3.1.k./.p.#.p.j.p.#.$.z.p.%.M P #.<.<.#.#.<.i.p.i.U M x Z S L Y Y L x h h h j x R h.J.P.K.K.V.z.k.p.<.P +.$.<.1.s.K././._.#XrX#XP.B.s.B.B.@XdXBXJXJXDXBXjXiX[.b.2.U N N B U B V V U :.:.:.U B B V V V b k k k V B V V h w 3 3 w h 3 2 h k M I R 2.b.L.].P.B.s.<._ U U <.s.P.%XdXjXSXDXjXjXhXiX@XB.<.B V U 2.C.@XrXrXrXP.P.oXyXvXDXFXFX",
"z.B.z.s.z.z.z.k.z.k.z.z.B.B.K.K.U.I.7XwXtXtXwX0XwXwXeX7XY.g.d.{ a.h.J.U.[.@X@XwXJ.h.a.i.<.i.a.h.h.J.@XrXtXwXU.Y.G.h.g.G.0XtX0XI.Y.K.K.F.x.c.l.l.j.7.$.-.-.p.f.f.{ d.G.[.eXeXwX[.L.b.h.h.a.R L L Z L T { { { { { | ^ D t q 8 q e a a a f G G C r z z Z P 1.k.V.Z.V.k.1.<.+.U %.+.p.E %.j.c.-.=.z.P R #.R R p.s.i.tXrX#XP.V.B.V.P.oXZ.k.2.<.<.s.s.` <.a.b.L.P.L.J.k.k.V.Z.P.V.s.+.1.<.+.#.p.s.f.#.z.B.B.p.R I I R i.I j w z z w q z x x n N :.k.N.V.Q./.%XpXdXpXtXU.J.i.E L L S Z Z z l Z Z Z Z Y <.s.B.K.P.@X#XrXfXfXfXfXuX-X/.Z.k.k.p.p.p.-.$.$.$.%.$.p.z.V.k.s.k.s.3.s.B.J.J.G.{ ^ G p , @ + + O     O O % % % % % $ $ % % % # # # # : q D [ | g.f.f.p.#.$.c.x.P.B.2._ U U U ` <.i.s.p.s.B.B.K.yXjXJXKXJXDXfXdX@X).U.z.#.P v x x F L I L F x k k I s.C.].@X].P.s.` M j w 3 2 2 2 2 > > e s s C t x n L L M B +.l.M.R.R.T.9.l.l.j.p.p.k.x.Z./.(.OX*X-XOXQ.l.8.1.+.3.B.K.J.h.i.R a.b.J.K.B.V./.#XyXOXQ./.V.1.1.z.^.#.E f.z.#.%.p.z.p.P b b E #.#.#.#.#.i.p.p.i.#.L S Z S E R L x z x z l l x R g.P.P.).P.V.s.1.<.+.#.<.#.#.<.z.P.^./.#XyXuXrX/.B.1.<.s.B.@XrXiXiXkXrX[.b.2.` <.2.2.s.s.2.B V B U _ _ :.:.4.3.v.m.4._ V V U _ B M U R R i.f.h.p.i.U ` 2.2.2.s.P.rXiXpXdXrX@XZ.v.3.3.3.m.C.].oX$X$XpXrX@XC.2.<.2.s.C.P.$XiXiX$X].Z./.OXuXSXFXKXKXGX",
"@XoX/.V.V././.V././././.@X#X#XrXrXeXeXeXiXiXeXeXeXeXiXiXeX[.I.L.B.B.b.b.B.C.K.K.L.C.C.L.P.P.[.[.rXrXdXhXjXdXiXeXiXeXeXiXjXjXjXkXdXuXuXuXyX-X-X-X^.^.^.^.K.V.K.K.h.G.I.eXiXeX[.L.J.a.i.i.{ I L I L I / d.d.d.} { T F t q q e t s f f f G G G H C F L R #.3.k.M.V.x.p.#.#.#.+.+.#.$.#.$.-.c.j.j.p.L R *.E E <.i.<.P.@XrX%XoXC.Z.].$X$X$XP.m.s.s.v.B.C.].@XeX[.P.B.m.V.Z.P.V.k.1.+.<.#.<.1.1.#.<.p.K.B.s.#.U I U ` ` I n n K K K K I I I P _ <.3.3.m.M.N.Z.oXoXoXP.J.J.h.b.J.S.f.f.d./ T R / { g.G.P.oX$X%X%XrXpXfXJXvXuX(.l.l.l.M.k.j.p.1.$.$.$.$.j.c.c.c.z.k.3.<.k.z.z.B.h.f.i.{ C s e , X . + $ $ $ O $ % % & & % % $ % i i i % # # # : : 8 t F T *.p.j.j.j.j.k.B.v.s.2.2.<._ U ` <.<.a.p.s.p.s.V.oXpXSXJXJXFXDXuXuXrXwX).).).U.h.h.b.G.G.h.` U m m V _ _ _ ] ] I M n j j j j j F F F D D G H J F n I R R P V N 7.9.R.R.R.9.9.l.k.p.#.p.k.x.Z./.OX-X;X;X-XOX(.Q.8.k.m.m.m.b.B.J.rXrXrX@XP./.#XyXaX#XZ.k.k.3.k.k.x.$.#.f.f.#.%.p.j.f.#.b c v %.#.#.#.#.#.i.p.h.z.i.*.R R R R E L Y L Z z z x F L p.B.P.P.V.s.p.<.<.<.#.U U <.f.z.V.V./.#XyXyX%X#Xm.s.2.<.2.v.B.C.B.b.v.s.s.v.B.C.oX$X$XoXB.3.3.3.m.A.C.].&X$X%X,X&X].'.C.C.'.C.C.b.B.J.L.P.P.L.B.P.].].].C.].%XpXgXNXBXNXdX%XoX].v.3.3.3.v.m.Z.C.C.C.B.s.2.s.Z.@XrXpXpXrX$X].].oXaXxXDXGXKXFXDXxX",
"/.Q.Q.N.Q.oXoXQ.Q.N.N.N.N.Q.Q.Q.C.C.C.C.L.L.L.C.].].].].].].].].].P.Z.C.].oX@XoX].].oX@X$XoX].].$XoXoX&X$X$X@X].K.P.].[.[.[.[.@X#X#X_._.(.(.(.!.!.(.Q.W.V.l.k.s.J.U.wXtXiXwXL.b.b.i.R R R L L I I R { d.g.g.d.{ F z w 2 r t C s f f G G ~ ^ ^ T / i.p.p.j.k.l.V.k.1.+.+.#.+.+.$.#.p.p.$.j.x.x.=.E E R R E E <.s.B.oXpXdX%XoXZ.].@X%XpXrXoXZ.Z.P.$XrXiXiXrX@XL.B.V.Z.Q.P.V.3.:.+.+.+.1.s.<.P #.z.K.B.<.P I I R ` n.a.n.n.n.n.L.}.{.L.P.].$X$X&X|.Q.Q.|.|.oXoX].P.P.U.@XtXdXdXtXrXeXwX0XwXwX[.wXwX$X%XyXfXxXvXSXSX-X;X-X(.R.9.0.j.j.p.1.#.%.N o.@.7.j.c.k.7.7.k.k.B.K.P.K.f.R F C > : - @ . . $ % $ $ $ $ % i i i % % $ 0 i d i u # & 0 0 : : > w z L p.z.x.x.j.7.:.4.3.m.B.v.2.:._ U P U <.p.p.s.V.V.Q.#XfXDXDXDXDXjXyXrXtXuXfXdXjXkXkXkXkXiX@X].C.2._ 4.4.] ] _ _ <.2.2.s.v.n.n.b.b.G.G.g.| | g.` ` ` a.<.U V V >.9.R.W.R.9.9.l.z.p.#.p.k.k.V./.OX-X:X:X:X:X:X:XOXoXQ.Z.C.].rXdXjXhXdXrX%X;XfXSXaXyXZ.>.>.k.V.k.p.p.p.p.=.#.#.=.p.c.p.N c c S %.#.#.#.R #.p.z.K.S.z.h.f.i.R R E i.E F x n x z l L i.J.P.B.s.p.s.s.<.U P U #.i.p.k.l.Z./.#XyXyXpXpXyX#XK.B.B.Z.oX[.].@XrXhXBXBXhXjXBXSXgXhXpX%X&X%X,XhXNXBXNXBXNXgXNXNXgXhXiXpXpXgXjXjXjXgXdXdXpX%X%X%X%X+X&X&X&XpXhXhXpX,X%X%X%XrX%X&X'.C.C.].&XC.].@X@XoXoX@X@X$X$X$X].P.@XdXSXFXFXGXGXFXxX1X=X",
"<X<X<X1XaXaXsXaX<X<X<X<X<X<X<X<X,X,X,X$X$X$X%X,XrX,X,X,X,XiXpXhX,X,X<X<XpXpXpXpXhXpXpXpXpXpXpXpXsXpXpXpXhXpXpXpX,XrXrXiXiXiXiXpXpXpXaXaX:X:X>X=XbX:X;X=X*XOXOXoXwXrXiXiXeXU.J.h.i.i.i.i.L L I R R d.d.d.h.h./ x l w r w r C H H G J [ [ | | } { d.i.s.k.k.l.l.k.1.#.U #.#.#.#.$.#.j.z.=.p.F.F.=.f.R Y R E L R s.<.B.rXhXhXpX%X&X,XrXpXpXpXpXrXiXhXhXhXpXrXeX@XZ.Z.Q./.Q.k.:.+.1.+.%.+.1.3.p.k.k.k.s.<.U P I ` _ a.n.C.{.{.{.[.eXeXiXiXiXrX,X<X<X+X+X+X&X&XoXoXoXoX$XrXpXhXgXhXhXpXpXdXiXdXdXdXdXpXfXSXSXSXxXaXaXQ.Q.W.l.7.5.0.l.k.p.#.N N %.$.7.7.7.j.k.k.k.m.B.K.h.p.i.I z 2 > : : , @ . + 5 i u , : 9 a a a a p , @ : a W f a 0 0 0 0 0 > : ; 3 h P $.c.l.j.7.8.3.q.w.m.m.k.s.2.<.<.U U R i.s.k.k.M.V.(.yXcXSXvXSXSXvXfXuXfXvXSXBXBXBXBXBXBXBX$X$X&XoX'.'.'.'.'.'.&X$X%X,XiXiXeX$X[.[.[.{.{.L.C.b.s.s.<.:.N b %.>.9.R.R.u.u.9.V.z.p.p.p.k.B.Q._.(.*X>XcXxXxXxXaXfXfXfXdXgXjXjXDXSXjXgXgXxXxXfX#X#XZ.1.+.k.V.k.$.p.j.p.=.=.=.p.=.%.%.#.P 6 c P i.p.i.E E i.z.z.S.f.f.z.z.i.R R i.` I L F n j w h M <.B.K.K.B.k.s.s.<.+.U P U <.s.k.M.Z./.#X%XyXgXfXdXyX%X%X#X%XiXiXhXjXBXSXSXSXSXSXSXSXSXSXSXSXSXSXSXSXSXZXSXZXDXDXSXNXNXNXZXZXSXSXSXBXgXgXsXsXsXpX2X<X+X.X.X.X<X<XhXhXhXhXhXpXhXpXpX,X%X%X,X%X$X%X%XrXpXpXpXrXpXrXrX%XpXgXDXKXKXFXAXcX1X=X XE.",
"GXGXGXGXGXGXGXGXGXGXGXGXGXGXGXGXGXGXDXHXDXDXDXDXDXDXSXDXSXDXDXGXSXDXDXHXGXGXGXGXKXGXGXGXGXGXGXGXGXGXGXGXGXGXGXGXGXGXGXGXGXGXJXGXFXGXGXFXFXFXFXAXAXAXAXAXZXZXgXfXdXtXrXwXU.L.h.i.d.i.R E L L I R i.a.g.d.i.i.T x 3 3 3 w l C Y T  .|  . .| { / / d.i.h.k.M.l.8.k.<.+.U #.#.#.#.1.#.f.c.p.c.z.z.=.f.*.E E E E R <.p.m.oXrXpXpXhXpXpXpXhXhXhXhXpXpXpXdXgXgXgXgXrX$X/.Q.Q.Q.8.:.>.1.+.+.>.3.k.k.k.k.s.2.<.:.:.<.2.s.v.C.].].{.$X$XiXiXiXiXpXpXpXsX1X1X1X<X<X<X<X<X<X&X&X+X+X+X%X%X%X%X%X%X%X%X%X%X%XSXDXGXFXxX;X/.W.W.W.W.l.7.7.7.7.p.$.#.%.#.$.7.l.7.7.7.k.l.V.V.V.k.<.L n z 2 > > > < , , , , u d e > > y s C C D s e > 8 s G G f a a a f g s q 2 ; 3 6 b o.&.0.l.M.w.3.,.3.3.m.V.k.s.<.P N P <.s.1.1.7.8.M.Q.#XyXDXDXFXDXvXxXvXvXSXBXSXBXSXDXDXDXGXDXDXDXDXSXSXZXNXNXZXZXZXNXNXgXhXiXiXiX$X$X$X$XoXP.B.m.s.1.U N %.@.7.l.u.u.u.l.V.k.1.1.1.1.k.Z.W.Q.`.>XcXAXAXFXFXFXFXFXJXJXJXLXDXDXDXSXDXSXxXpX#X/.k.3.3.k.k.1.1.f.f.p.=.*.p.c.#.P P #.P v c S *.i.*.P P *.h.z.f.i.#.i.p.i.i.p.i.R I I I I n k k k N <.V.P./.P.B.s.1.<.<.U P U 1.3.k.V./.#XrXyXpXfXfXjXvXvXSXSXSXDXDXDXDXDXDXDXSXSXSXSXSXZXSXZXZXZXSXZXZXZXZXZXSXZXgXgXsXgXgXxXZXZXxXsXsX1X1X2X2X2X2X2X2X3X3X2XpXsXgXNXNXgXsXhXgXhXhXpXpXhXsXgXgXgXgXgXgXgXgXxXvXxXSXDXFXKXKXKXFXAXzX=X X!.E.R.",
"HXHXHXHXHXHXHXHXHXHXHXHXHXHXHXHXDXHXDXDXDXDXDXDXDXDXSXZXSXSXSXDXSXSXDXDXHXGXGXGXGXGXGXGXGXGXGXGXGXGXGXGXGXKXKXKXGXGXGXGXGXGXGXGXGXGXGXGXFXFXHXHXFXFXGXKXKXGXFXSXjXtXU.J.J.h.d./ d./ P L M L R ` a.h.f.i.{ ` I F L Y T { g.G.I.7X0X0XI.H.g.{ { / *.i.z.B.V.M.8.3.#.U U R #.#.#.p.p.p.f.z.F.z.f.*.h.f.*.E E #.#.P +.<.k.oXpXSXFXKXGXGXKXLXLXKXGXFXJXKXLXLXLXFXfX#XV.N.N.8.>.o.o.>.@.>.1.k.k.V.V.Z.Z.V.V.Z./.oX%X%XpXhXNXBXBXBXBXDXDXDXDXGXGXGXGXGXGXGXGXGXGXGXGXGXGXGXGXHXHXDXDXHXGXGXFXFXDXDXDXSXSXDXDXvXyX/.V.V.V.V.V.k.3.@.+.+.E R #.#.$.1.7.7.1.7.8.l.l.k.8.3.U n h 3 2 2 q e a 9 , < u d d s y w w x F L L I L x w r D K J G a a f .. .H.H.g.E E N O.O.&.0.l.E.M.e.8.8.M.N.V.V.V.V.k.<.<.<.s.1.>.5.7.0.M.W./.uXcXvXFXKXKXKXFXJXJXJXLXLXLXLXLXLXKXLXLXGXGXGXGXGXGXGXGXGXGXHXHXDXDXDXSXSXSXZXSXgXfXyX%X#X/.B.8.3.7.8.9.R.R.T.u.l.k.s.1.<.#.1.m.Q./.*XbXAXFXGXGXKXKXKXKXLXLXLXLXJXLXLXKXKXKXxX;XOXM.3.k.x.k.1.%.p.f.f.p.=.=.c.F.%.S S E #.S v v E #.*.E L R i.f.z.p.*.i.p.z.).tXrXtX@XP.P.B.s.<.U N N :.B.oX%X%X/.V.B.B.B.3.+.U 1.1.8.M.Q.#X;XyXaXxXSXLXKXKXKXKXKXKXKXKXKXKXKXKXLXLXKXKXKXKXKXKXKXGXGXGXGXGXFXFXFXFXHXDXDXFXFXFXFXHXHXHXAXAXAXAXAXAXAXAXAXAXHXHXHXFXGXGXGXGXFXDXDXDXDXSXSXSXDXDXFXFXFXFXFXFXKXKXKXKXKXIXIXKXKXDXzX2X XE.E.R.y.e.",
"aXaXaXaXaXaXaXaXsXsXaXaXaXaXaXaXsXsXsXsXsXsXsXsXNXNXsXsXsXsXsXsXgXxXZXZXZXSXDXDXDXDXSXZXZXZXSXSXAXAXHXHXFXFXFXFXDXDXSXZXZXZXSXSXDXDXDXSXSXSXAXAXAXAXFXFXGXFXSXgXrX@XJ.h.f.f.d.d./ E L L L R <.<.s.h.h.a.i.` ` { a.h.J.Y.0XeXtXtXkXiXeXI.h.i.{ i.i.p.z.K.V.k.3.1.U U R R R R <.p.p.i.p.z.F.f.=.*.p.h.f.R P #.#.P U U 1.Z.fXLXKXPXIXIXIXPXPXIXKXKXPXPXPXKXKXFXfX/.M.8.8.8.>.o.+.1.8.8.k.l.V.W././.#X#X;XaXfXxXSXSXGXKXKXKXKXKXIXIXKXKXIXIXPXPXPXPXPXIXIXIXIXPXPXPXPXPXPXIXPXPXPXIXIXIXIXKXKXKXGXGXxXfX;XoXZ.Z.Z./.m.k.k.3.<.+.U E R #.#.p.p.1.1.1.7.8.l.k.8.>.+.B k j h w z D J ! ~ s > > a f f t w j n R <.<.<.2.i.R n x F T T [ s s K  .0XkXkXiXrX).W.k.7.7.0.9.9.M.E.E.Q.N.l.8.M.Q.#X#XZ.m.s.s.k.l.9.8.8.9.M.E.Q.(.;XxXFXKXKXKXKXKXKXKXLXKXKXLXLXGXGXGXGXGXGXGXHXHXGXGXGXGXGXGXGXGXKXGXGXGXGXFXFXDXvXvXgXfXyX#X#X/.W.W.!.!.R.9.k.k.s.1.#.U :.s.P.oX;XcXAXFXGXGXGXKXGXFXFXDXDXDXDXJXJXKXKXFXxX+XV.3.1.V.Z.p.%.P p.f.p.p.p.f.F.F.#.S v S E E P S S L R R E E / i.z.f.f.p.z.U.dXDXLXJXDXvXgXpX%X&XV.m.k.k.Z.oX#X;X#XoX/.oX#XQ.M.8.k.k.M.V./.#X%X;XaXfXSXJXKXKXKXKXKXKXKXKXKXKXKXKXKXKXKXKXKXIXIXIXIXIXIXIXKXKXKXGXKXKXGXGXGXGXGXGXGXGXGXGXHXHXHXHXGXGXHXHXHXHXHXHXGXKXGXGXGXGXFXFXGXGXFXDXDXDXDXDXGXGXGXGXKXKXIXIXIXKXKXKXKXGXxX:X XE.E.e.e.N.E.E.",
"Q.Q.Q.Q././.oXoXQ.Z.N.N.V.N.N.N.Z.Z.Z.Z.Z.Z.Q.Q.oX|.Z.Z.Z.Z.Z.Z.Q././.oX&X+X%X#X#X#X+XoXoXoX+X+XOXOX*X;X;X;X:X;X;X;X#X#X$X#X#X%X$X$X$X%X%X+X;X;X;X;X;XpXpXpX%X$XP.K.B.p.i.i.d.d.Y L L E <.p.s.2.s.s.s.h.a.a.h.J.U.U.wXtXtXdXkXdXiXrX@XJ.i.R R i.i.f.z.J.B.k.1.#.P U R U E R <.i.f.i.*.p.h.f.=.p.#.h.z.*.P E #.#.<.<.3.Z.yXvXDXFXDXDXDXDXDXDXDXSXSXDXDXDXFXSXuXQ.M.M.N.Q.N.8.8.M.M.M.M.N.V.W.Q./.*X-X;XaXaXxXxXxXZXZXZXSXSXSXAXDXDXDXDXFXGXGXGXGXGXGXGXGXGXGXGXGXGXGXGXGXKXGXGXGXGXGXGXFXFXDXSXxXfXyX/.V.B.B.B.z.s.s.<.R E E E E i.p.f.z.k.k.M.M.9.e.M.M.8.>.B I I I ` | n.H.H.H.| G q > e D z t j M <.B.B.B.Z././.B.i.I F F T ^ J D K | Y.[.[.@X)./.^.V.l.l.l.9.0.9.E.!.E.R.9.5.k.W.OX#XoXN.M.m.E.E.E.M.9.9.e.M.E.E.!.=XcXxXxXxXvXvXZXxXxXxXgXgXZXZXZXZXZXZXSXSXZXZXZXZXAXSXSXSXSXSXDXDXDXSXSXSXxXxXxXcXcXfXfXfXaX;X/.Q.!.!.~.R.8.k.k.3.:.P U 1.m.B.oX+X1X1X5XzXaXaXaXyXyXrXrXrXdXdXfXgXvXgX;XV.k.1.j.Z.V.+.N #.p.p.p.p.f.f.c.F.*.E S v P R R Y x Z E R R R E R f.f.p.*.p.B.tXfXjXgXgXsXsXsX1X1X%X#X#X/.Q.Q.OX;X;XOX/.+X;XOX/././.Z.Z.Q./.OXOXOXOX#X;XuXfXxXxXvXxXBXBXSXSXSXSXSXZXZXSXSXSXAXAXAXFXFXDXAXxXxXxXxXxXxXxXcXcXcXcXzXzXMXzX5X5X5X5X5X5X5X5X5X5X5X5XzXxXgXgXgXgXfXfXfXgXgXgXsXfXfXfXaXcXzXxXxXxXxXZXxXcXaXaXxXxXxXaX;XE.r.e.r.E.E.E.N.",
"+.#.<.<.1.1.1.1.1.1.<.#.#.#.<.:.+.+.+.+.+.+.:.:.<.<.:.:.:.+.+.+.1.1.1.1.1.3.3.3.k.k.j.3.3.3.j.k.M.M.R.W.W.W.W.W.W.V.V.x.z.z.V.B.s.s.s.s.m.m.m.m.Q.Z.Z.Z.P.K.C.B.B.B.h.i.R E E R L L R i.f.h.s.s.2.2.s.s.s.s.B.L.@X@XwXwXwXwXwXwXK.Z.B.s.U L R i.h.h.z.z.z.s.<.U I R ` U I R <.i.i.R L L R i.f.p.R f.F.f.%.P #.<.+.+.1.B.#XyXuXyX%X,X<X<X<X;X%X+X#X;X;X;XyXuX(.M.M.M.Q.Q.E.N.N.Q.W.V.N.M.V.V.V.W.!.!.`.*X*X*X*X*XOX+X+X+X3X.X3X+X,X<X<XpX1X1X2X5X1X1X1X1X1X1X1XsXZXZXZXZXZXzXsXsXaXaXaXaXaX:X;X-X_./.K.V.V.B.s.i.i.<.R I I T { { d.i.f.z.z.V.V.N.M.M.M.M.m.3.2.2.v.L.{.0XqXqXqXqX .[ y q q z m z L ` J.@XrX%XrXpXyXrXU.g.T F F J [ K F { h.h.B.B.V.V.Z.W.W.W.R.R.R.R.R.R.W.W.R.E.W.Q.Q.Q.Q.Q.Q.Q.E.!.!.E.E.M.M.M.R.R.M.E.!.OXOX X|.|.|.|.OXOXOXOXOX+XOX+X+X+X+X+X<X;X;X;X;X;X:X:X;X;XuXaXuXuX:X>X>X>X>X:XuXuXfXfXyX#X/.Q.E.!.~.R.e.8.8.3.<.U U <.2.m.Z.Q. X X X XQ.Q.Q.Z.Z.V.B.B.P.@XoXoXOXOXQ.l.3.3.k.V.j.P P p.=.=.p.f.f.=.=.*.*.*.E x S R *.E x x L R i.R I Y d.f.f.#.E <.x./.#XOX=X=X=X2X=X=XOX;X;XOXQ.Q./.OXQ.Q.V.Q./.Q.Q.Q.oX/.Z.Z.Q./.Q.V.M.M.V.Q./.OXOX#X%X%X%X%X%X%X%X;X;X;X;X;X;X;X=X>X:X:X>X>X>X>X>X>X>X*X*X*X*X X X`.XXXXXX.X.X X X X!. X X X X*X=X=X+X%X+XOXOX+XOXOXOXOX+X+XOX+X+X+X*X*X;X;X>X=X*X*X*XOXOX*X;X;X*X*XE.r.r.r.N.r.e.w.",
"#.#.#.#.i.i.p.p.f.f.p.p.p.p.i.p.$.$.$.$.$.1.1.1.p.p.p.p.p.p.p.p.p.p.j.j.j.k.j.k.x.x.z.k.z.k.z.x.(.(.(.(.(.(.(.^.^.^.^.K.^.K.K.K.J.b.b.B.B.B.B.B.k.k.z.B.J.J.b.b.h.s.i.R E L L S Y E *.p.h.z.s.s.2.<.2.v.s.s.s.B.p.p.p.p.p.p.p.i.2.3.2.:.P P #.i.J.J.z.h.p.<.R U L ` ` I I R { i./ I x 3 z / f.i.#.p.z.z.#.P P $.N P +.k.Z./././.Z.Z.Q.Q.Q.Q.N.N.Q.E.W.W.W.W.W.l.e.e.e.M.M.9.9.M.N.M.M.l.k.l.l.l.R.R.R.R.R.R.y.e.E.E.E.y.r.r.4X.X'.|.|..X X.X.X.X.X.X~.~..X.X|.|.|.|.Q.E.N.E.E.E.E.E.W.W.E.M.l.l.l.V.K.K.B.s.i.i.R I I T ' | | } d.d.f.z.k.m.M.M.M.M.r.A.A.A.A.C.].[.eX0XqXqXqXI.| [ D y j n M I a.B.wXdXdX%X#XrXdXdXiX[.g.T H H T n L i.h.s.z.V.V.V.V.V.V.V.W.W.!.!.~.R.R.~.!.(.!.W.M.M.M.N.Q.Q.E.R.R.E.M.9.9.9.5.5.5.6.0.0.0.6.6.6.6.8.w.w.w.w.N.N.N.N.N.N.N.N.Q.Q.W.W.W.W.W.W.W.Q.(._._._.(.!.!.`.!.(.(.#X#X#X@X/.V.N.E.E.E.E.M.8.8.w.2.:._ _ 2.v.Z.Z.Q.E.E.E.Q././.Q.P.P.K.P.B.B.Z.V.V.V.M.k.3.k.z.k.#.P #.c.#.=.p.p.=.E Z c R i.*.S x Y R E L x x Y { { T I *.f.f.#.P #.k.M./.!. X X~.~.y.~.E.E.!.E.W.M.E.E.9.8.8.e.M.8.0.8.V.m.k.m.M.V.M.k.8.k.k.l.M.M.V.V.Q.Z.Q.N.Q.Q.Q.E.|. X!.E.!.~.E.~.~.~.~.~.~.~.~.~.y.~.~.~.~.~.~.R.y.y.y.y.y.y.u.u.R.R.R.E.R.E.!.!.Q.Q.Q.Q.Q.Q.W.Q.V.V.V.Q.Q.Q.Q.Q.W.R.~.!.~.E.!.!.*X*X`.!.!.!.!.E.E.r.e.r.r.6.6.,.",
"i.i.i.i.i.i.i.i.p.i.i.*.*.*.*.*.i.<.#.#.#.<.p.i.p.p.p.p.p.p.p.p.p.p.p.p.p.p.p.p.c.c.p.p.p.p.f.f.x.x.x.c.c.z.z.z.z.z.z.z.z.z.z.z.h.g.g.i.i.i.i.i.p.s.h.J.L.L.Y.b.s.<.U L E E L S E R i.p.s.s.s.s.<.<.2.s.s.i.<.i.i.i.i.i.<.i.i.<.<.3.3.<.U U <.h.J.J.h.p.<.R U U L ` ` I L T { } T H w ; 3 T g.d.p.p.f.z.p.P P #.+.#.1.k.z.k.k.k.8.w.w.w.8.8.8.1.7.7.7.1.7.l.x.l.M.w.8.8.8.7.8.k.l.k.k.8.8.8.k.k.l.9.9.9.9.6.6.5.8.9.w.w.w.6.6.r.w.w.w.r.e.e.e.e.e.e.e.e.e.e.A.M.M.r.w.8.8.e.M.E.N.W.W.W.W.R.l.l.x.K./.B.<.E U #.L L I T { a.a.a.h.h.F.K.V.V.k.8.N.M.e.8.l.M.N.P.P.[.[.I.I.[.I.H.| ' F n x M U <.J.@XdXdXrX/.V.P.#XtXdXeXY.d.^ T Y M U p.h.p.p.z.k.k.7.7.k.k.V.V.W.R.T.l.l.R.W.W.R.l.8.8.8.w.8.>.8.0.8.0.5.>.>.@.@.>.>.;.O.O.O.V o.o.o.o.;.o.o.B :.:.:.:.:.:.:.:.1.3.3.3.3.8.k.k.k.k.k.V.V.V.l.l.T.R.R.V.V.V.K.P././.Z.N.N.R.R.R.R.w.8.k.s.<._ _ 2.s.C.Z.Z.N.E.E.8.8.k.8.s.s.s.s.1.s.m.k.3.3.3.3.k.k.k.1.U E #.z.*.i.f.f.*.S 6 4 Y d.d.L z L I Y R x l F / { R / E i.f.R P #.k.V.k.9.e.e.e.0.0.9.M.M.l.l.l.M.k.k.7.1.8.8.8.>.o.>.k.3.1.1.k.k.k.8.3.8.k.k.k.8.7.1.k.8.3.3.8.m.m.M.w.8.8.0.0.8.5.5.0.0.0.0.0.0.0.0.0.0.0.9.9.9.9.9.0.0.0.0.6.7.5.5.9.8.8.7.7.8.k.k.k.8.k.3.8.8.8.8.k.k.k.k.k.k.8.8.7.0.0.9.9.u.R.R.*X*X X!.!.~.~.E.E.r.w.6.6.6.6.6.",
"s.s.s.s.s.a.p.g.i.{ i.d.i.d.d.d.d.d.g.g.g.a.a.i.i.p.p.s.k.k.k.z.f.f.p.i.*.*.=.=.f.f.f.f.d.d.f.d.f.f.j.p.p.p.1.1.p.p.1.1.p.p.p.p.p.a.h.h.s.i.` ` ` i.g.J.I.I.Y.h.{ { I L L L E E #.#.<.p.p.s.s.s.s.a.i.<.{ { d.d.d.i.{ ` ` ` ` ` <.3.v.:.U _ s.k.B.V.B.<.U +.E M U U R R / } } | ! e @ @ : e ! D.h.d.d.i.f.p.i.R p.1.1.s.k.k.s.1.1.1.1.1.1.7.1.1.j.j.f.f.f.h.z.z.s.s.1.<.<.<.1.s.s.s.3.3.3.s.k.k.k.7.7.7.7.7.1.1.8.8.k.k.k.k.k.3.3.3.3.2.3.3.w.m.3.3.s.s.3.2.1.3.3.8.k.k.7.j.k.l.l.W.W.W.T.l.l.W.x.z.z.f.p.#.P v L U R U <.s.m.B.z.F.K.K.K.V.V.W.x.T.l.l.l.T.T.W.l.x.x.z.z.z.z.f.E #.#.#.P %.j.V.rXuXdXrX/.B.s.p.V.@XfXjXtXK.i.R R L E h.K.z.p.f.p.i.#.R <.i.i.p.3.1.1.3.7.8.3.3.3.3.1.<.:.:.:.:.+.+.+.+.+.+.+.+.+.+.B N N N N N L L L v n n n n M M M I B B P P U U U U U U U U 1.3.3.s.k.k.s.s.k.k.k.B.B.B.J.K.z.x.V.V.M.M.R.E.E.Q.M.1.1.1.:.B s.:.4.'.&XA.A.|.w.3.3.4.4.<.4.2.2.2.4.4.4.2.2.2.v.v.a.U L U i.d./ d.S.d.H 4 ; ; A ! } } H C F R T L x h F { d.R Y { d.i.P U p./.k.3.+.+.k.1.+.3.3.1.1.<.<.p.p.p.+.<.3.3.>.+.o.+.<.<.+.+.<.<.1.1.s.s.s.s.s.k.k.s.<.<.2.2.2.4.4.<.:.1.2.1.<.#.#.1.$.$.$.$.$.$.$.$.$.1.$.1.1.$.$.1.p.p.p.p.p.1.<.<.1.1.<.:.+.:.<.<.<.<.<.<.<.<.<.<.2.s.2.<.:.U :.:.O.&.5.0.9.9.l.M.!.*X*X!.R.T.T.R.6.w.6.;.;.;.e.E.",
"U ' U I I I I I I T R ` { { { { [ [ [ ' ' ' T I U U U #.#.#.#.#.R R R R R R / / d.*.d./ { / { / *.<.#.#.#.#.#.#.#.#.#.#.+.#.<.<.2.` ` ` ` ` ` ` i.a.g.G.G.h.g.{ { ' T L L L P %.#.1.p.j.p.1.<.<.<.<.i.{ / / ^ ^ d.d.i.i.{ ` ` ` 2.v.v.4._ <.s.B.B.B.k.<.+.%.P N +.U R U R } } ..f > @ @ @ , f ..D.g.d.i.g.g.i.R <.i.s.s.s.s.s.s.k.k.k.k.k.k.k.k.k.z.z.z.z.h.h.f.p.p.p.s.h.h.h.h.s.s.1.<.1.s.s.s.s.k.3.3.3.3.1.s.1.1.s.s.s.s.s.s.1.<.<.<.<.<.2.s.s.h.z.B.z.h.h.z.p.j.k.k.k.k.l.l.l.x.W.W.l.l.l.l.k.f.<.#.R R R E L R #.<.1.m.N.V.K.K.F.z.x.V.^.^.l.c.c.j.-.-.&.-.j.l.x.x.c.l.j.$.$.@.%.%.%.7.^.#XfXuXrX@XP.V.k.1.1.V.rXfXuX@XB.s.i.E R h.J.z.f.f.*.*.*.i.d.i.{ ` #.+.#.+.+.#.<.<._ _ _ _ _ _ _ U +.#.#.#.#.#.#.R <.<.<.#.<.<.<.i.i.d.d.{ { { { { | g.g.g.a.s.s.p.h.h.s.s.s.s.s.s.v.v.v.m.m.m.k.v.h.h.b.h.h.h.h.h.j.k.z.k.l.l.T.R.W.Q.V.8.3.3.1.:.B _ 4.m.C.C.C.N.3.3.4.:.:.:.<.<.2.2.4.<.` ` <.` a.2.` U R ` i./ g.S.D.( C > - - 4 A ( } ^ D D T T L x h L R / Y T { d.i.#.#.k.K.V.z.p.s.K.h.i.h.p.i.i.i.i.i.i.i.p.p.p.1.2.2.1.1.<.<.<.<.<.<.<.<.R :.<.<.<.<.<.<.a.a.a.a.2.2.2.4.<.2.s.p.p.p.f.f.z.c.c.c.c.c.j.j.j.j.j.j.j.j.j.j.f.f.f.f.f.f.f.p.i.<.<.<.<.<.<.<.` ` #.<.<.<.<.<.1.s.1.<.U U U +.@.7.9.l.M.M.E.W.!.!.!.!.!.~.~.R.e.,.;.t.e.N.R.e.",
"I I I I I I I K I I T ' ` ` ` ' I I I I I I I N N N N P U B U P I N N I L L I I T T T I T T T T R R R ` ` ` ` <.` ` R R R <.<.<.2.` R I I T ` { i.g.h.h.g.i.{ R ' T L L S L E %.p.j.k.k.1.+.B N L I I I Y Y F Z ^ T R R ` ` ` ` 2.v.m.3.<.2.k.B.V.k.1.<.+.P P U +.R U E {  .} ! 9 : + + + @ 9 G D.g.} d.g.g.i.` 2.s.B.B.s.<.s.m.s.s.s.k.k.k.k.k.k.z.z.z.h.f.a.i.i.i.i.a.h.h.a.2.a.a.i.i.i.i.i.i.s.p.1.1.1.1.p.p.<.i.p.s.p.s.p.s.p.<.1.<.<.<.i.i.#.<.i.p.p.i.i.*.1.7.j.l.l.l.l.l.l.l.x.x.l.l.9.k.<.#.R E E R / / E R i.p.k.V.V.m.V.B.B.z.z.V.V.W.k.c.c.j.7.7.7.7.7.j.l.l.k.k.j.$.j.$.o.%.$.x.#XfXfXrX).P.P.B.1.P U p.P.tXuXyX).P.p.R E i.h.z.c.z.*.#.E U I I L L E U E U U U R R U U U U U U U U R R R R R R R R U U U U R R R *.i.i.{ { ' ' ' ' { { { a.a.a.a.a.p.p.s.2.2.2.2.3.<.<.<.<.<.<.<.<.<.2.i.i.i.<.#.#.#.#.$.@.@.7.8.l.R.E.R.8.8.8.3.:.b :.2.:.s.oXoXm.3.2.2.2.<._ _ _ 2.2.` ` ` ` ` 2.2.2.` ` ` a.i./ S.S.D.! 4 - - : - r ! } ^ D C F T L x z L E R L / / i.i.<.p.k.V.x.k.p.s.z.#.P <.i.} } { { } i.d.h.i.R R <.2.2.<.<.<.<.<.` ` U U P P U P U U U P ` ` ' ' ' _ _ _ _ :.2.<.i.i.i.i.f.f.f.f.f.p.p.p.p.p.p.p.p.p.p.p.p.p.p.p.i.i.i.i.<.<.<.<.<.<.<.<.<.<.<.i.<.<.1.<.<.<.<.+.U B B B 1.8.M.W.Q.Q.Q.Q.Q.N.N.E.E.E.E.9.6.;.,.8.E.E.E.M.",
"' ' ` ' ' ' ' ' ` ` ` { { { ` ` _ _ _ _ _ _ _ U U _ :.:.:.:.:._ _ _ _ I I I I I ` ' ' ' ' ' ' ' F F F L F K I I I I I I I I I I I I L n n F I I a.h.G.h.d.{ { { T I L M v P #.#.j.k.z.j.+.N V M n n F F F Z Z Z F Z F n L I U ` 3.v.v.2.<.2.s.m.V.1.+.+.+.N P #.U U E R }  .[ G , # @ +   . # f  .g.g.g.d.} a.a.` 2.a.<.I M V U I B B B B B P B U U U U P I L L I F F L I I n j I I I L L L L L L N P N N N L L L P U U U U U U U U P P P P P P E R R *.*.#.R P $.1.j.k.l.k.l.l.l.k.k.k.j.3.1.1.U R #.i.i.i.*.R *.i.h.z.B.V.k.3.<.1.s.B.z.k.3.1.3.p.j.j.j.7.7.3.$.7.$.@.@.7.k.j.k.1.%.@.j./.yXfXrX).K.K.K.k.U v E #.z./.tXyXtXwXz.R v E f.z.z.x.p.U v c k x n L x Z Z z z z x F n n x x x x n x x x x x x x x x Z x Z F L L L L L I I F K K K K K K K I I I I L U I P P B B B B B B B P P P P L I I U U U U E P E E P N %.o.@.7.9.l.l.9.8.7.1.1.N :.1.:.s.].oXB._ _ _ I V V m m V V n n I ] ' ' 2.a.a.<.i.a.f.d.D.D.( r ; = - < - < A [ [ K D m K F F n x L Y Y { R E E <.p.k.k.k.k.1.1.#.v c L F F F H H H T T Y F x j k n V m m n n n n n k k m m m k k k m m m m m m j j j j k k n n n x Z Z Z Z Z Z Z Z x x L L L L L L L M v v v v v v v v M M L L L N M M P P P P P P U U <.<.:.:.+.+.:.:.k.m.V.Z.Q.Z.N.N.Z.N.M.8.8.8.8.6.;.6.e.N.e.e.M.E.",
"g.a.a.a.a.a.a.a.n.n.n.n.v.n.a.2.4.,.,.3.3.3.3.3.3.s.s.s.s.s.s.s.2.2.2.` ` ` ` ` a.a.a.| | | | | | | { { { { { { a.a.a.a.2.a.a.a.h.s.a.a.a.a.a.a.g.h.S.g.d./ R R U I L L P +.#.1.x.l.k.1.+.V V N L F F F F Y Y T T Y F x x M I _ s.v.s.2.2.s.B.k.B.<.U U #.P P #.P E R { g.} ~ p # @ + .     + 9 J | G.G.| { g.b.G.L.b.v.a.2.2.<.a.s.s.s.s.s.s.s.3.3.1.<.<.2.2.s.b.a.{ { a.a.i.` g.g.a.a.a.a.i.i.i.<.<.2.<.<.i.i.i.i.a.a.a.a.s.p.s.f.f.f.p.p.p.p.f.f.f.f.z.f.f.=.$.7.j.l.l.l.l.l.k.k.7.3.1.1.+.+.R <.i.f.f.p.f.i.z.F.K.K.V.V.k.<.B U <.2.<.<.U P U U +.#.+.+.U B %.%.%.%.%.7.k.k.3.@.@.7.W.-XuXuXwXU.K.K.z.<.P P E U #.h.U.tXuXdXU.p.P +.z.K.K.x.$.P v k v P ` ` { } } { / / { d.{ { { ` R R R R R R R R R R R R / R / R R R / R R R R ` ' ' ' ' ' ' ' ' T T R E R R +.U +.+.+.+.<.<.<.:.#.#.#.<.U U U R R R R R #.#.+.%.%.%.+.>.9.9.l.l.9.7.7.1.1.+.U <.s.B.B.C.n.n.n.a.2.` ' ' ' ' ' ' ' ' | | a.b.b.p.<.i.f.S.D./ C 4 X X - < < < e G [ T D z z F I L x z F / g.` E P #.s.k.V.l.l.3.1.+.b k E | | |  . . .} } } } i.i.` _ _ ` _ ` ` ` ` ` _ _ <.<.<.:.:.:.<.<.a.a.` ` ` ` _ _ ` ` 2.2.i.i.i./ / / ( / / / / / { { { { { { { i.<.<.<.<.<.<.<.<.<.i.p.p.p.i.i.<.p.p.1.p.p.p.1.1.1.1.3.3.k.k.m.m.Z.Z.Z.Z.Z.Z.m.m.Z.m.m.3.:.:.3.8.8.e.E.E.e.8.M.E.",
"b.b.b.b.b.b.b.b.C.C.B.b.v.v.v.s.,.6.6.8.8.8.3.3.s.s.s.h.s.h.a.a.2.2.2.2.a.a.a.n.n.n.n.n.n.n.n.n.H.H.H.L.H.H.H.G.L.L.L.L.L.L.P.].[.[.[.[.U.U.U.L.b.h.g.i.R Y L L L P P U +.#.1.3.k.k.1.+.+.+.U U ` { / / / { } d.g.{ R L M L I U v.v.s.2.s.B.B.B.s.+.P P U U U R P R d.d.} [ d : @ + +   * * O # t T n.G.a.{ g.L.iXeX[.].@X@X[.].@X@X@X$X@X@X_.#X#X/./.Q./.oX$X%XeX[.U.L.U.[.[.[.[.[.[.[.0X[.[.[.U.P.P.P.P.].].@XP.P.P.P.P.P.]./.).)._.).).).).).K.K.K.K.).U.Y.F.c.l.W.W.l.l.l.l.j.3.1.:.:.:.:.<.s.s.p.p.p.s.z.J.K.^.^.V.Z.Z.k.1.:.:.:._ _ _ U :.:.:.<.<.U I M k b N %.@.1.8.k.7.@.@.1.V.#XuXyX-XuX).J.z.i.E R i.E P P #.h.).tXdXyX/.k.k.V.^.V.k.%.P N P <.s.h.h.I.7X7X7XI.Y.I.I.I.Y.Y.L.L.Y.J.J.Y.Y.Y.Y.Y.Y.L.L.S.S.h.h.h.h.h.f.s.s.s.s.a.a.a.a.a.a.g.a.a.f.f.h.z.z.k.k.k.k.k.k.m.k.k.s.s.h.z.h.p.s.s.p.p.p.p.p.p.f.p.$.@.@.1.7.l.l.R.R.l.0.7.k.k.B V <.s.<.a.L.$X{.{.{.].{.L.L.L.G.H.n.n.n.n.n.h.J.J.h.i.i.h.Y.d.^ r - X X @ - 9 > < f ^ [ K D z F T I x l Z / g.i.R #.#.3.x.Z.l.k.1.1.1.P P i.0X0X0X0X0X7X7XI.I.0X0X[.P.C.C.C.L.P.P.P.P.P.P.P.].P.C.Z.Z.Z.Z.P.[.[.[.].P.P.].].].P.P.U.U.U.U.Y.7X7XI.I.Y.Y.I.Y.I.I.I.Y.Y.Y.Y.L.K.K.P.P.P.P.K.K.P.U.).).).).).).P.P.^.P././././.k.k.k.B.Z./.oXoXoX].Z.Z.Z.Z.m.m.m.m.m.3.4.2.m.Z.OXQ.M.M.Q.Q.W.M.",
"z.b.B.B.B.B.B.B.B.m.s.3.3.3.3.8.6.6.6.6.8.1.1.1.<.<.i.i.i.} { ` ` ` ` ` ` ` a.a.a.| | g.a.n.n.n.| | | | | g.g.g.g.a.a.a.a.s.s.v.b.b.b.b.b.b.b.h.b.g.{ R I L L L L P U +.1.3.p.k.p.1.+.+.+.1.1.<.g.g.g.g.g.g.g.g.d.d.` R U R ` ` s.s.s.2.s.B.B.s.<.R P L P #.#.P R *.d.} ( ~ p # + + + O     O + q F d.G.b.g.G.I.U.L.b.v.B.B.B.B.B.B.B.B.V.V.l.l.V.M.l.l.M.M.N.Q.B.B.b.s.s.B.B.J.B.J.J.J.L.J.J.J.B.B.m.m.B.B.B.B.m.m.m.m.m.m.m.B.k.z.z.z.z.z.x.V.K.x.z.x.K.).^.^.x.W.W.l.l.j.j.k.3.<.+.U <.<.s.s.s.s.k.k.k.k.V.Z.^.W.x.l.V.W.T.8.k.s.2.2.2.2.s.s.k.m.B.h.p.2.U N b N +.>.7.8.8.>.1.7.M.(.yX;X#X/.wXK.z.h.p.P E *.#.P P P *.S.).tXuXyX_.^.V.x.x.k.$.%.N +.<.s.s.i.g.S.Y.Y.S.g.g.S.S.h.h.h.f.p.p.p.f.f.h.h.h.f.f.f.h.h.h.h.h.h.h.s.s.s.s.s.s.s.2.2.s.s.s.h.h.h.h.z.z.z.z.k.k.k.k.k.k.k.k.s.h.z.z.B.B.B.B.B.B.B.z.z.z.z.z.z.p.p.j.k.9.l.R.^.R.7.7.l.l.B b U <.R i.B.B.B.C.C.C.L.B.G.b.b.n.| | | | { g.J.L.S.f.h.S.S./ C ; = X - - - : : > s J J J K m F I I x l x I R i.<.<.#.1.k.V.8.7.1.1.1.+.N <.b.D.H.H.H.H.D.g.b.b.b.b.v.s.3.s.b.b.h.s.s.s.s.s.k.s.s.3.1.3.8.k.s.h.p.s.2.2.s.s.s.s.s.p.h.h.f.d.g.g.g.g.d.d.g.d.d.a.a.a.a.a.a.a.s.2.2.2.s.s.s.s.z.z.z.z.z.z.F.F.z.z.z.k.k.z.z.k.k.k.k.V././.OXOXoXZ.Z.V.V.m.m.k.k.k.s.v.m.B.Z.P.oXQ.N.V.Q.(./.V.",
"f.f.k.k.k.k.k.k.8.3.1.>.>.>.8.8.7.7.7.7.1.1.<.#.R R R / ^ ^ ^ T ` ` ` ` T I I T T T T ' [ { { | [ [ | | | g.g.g.g.g.a.p.p.s.h.s.h.h.h.h.h.b.b.b.h.i.R R R R I L L P +.<.p.s.k.k.<.+.E #.1.k.s.i.g.D.D.D.g.g.d.} Y I I U R ` <.<.s.s.1.<.s.B.B.s.U R U M P <.#.L *.d.d./ ! f u @ + + $ + O O O O > z { b.Y.Y.L.P.L.B.h.p.s.s.s.h.h.z.z.z.z.z.l.j.j.7.7.0.9.9.9.8.V.B.B.k.s.s.s.s.s.s.B.B.B.B.B.B.s.s.s.k.k.m.m.m.m.m.8.8.8.w.M.M.k.k.k.k.k.k.l.x.k.j.1.p.x.K.^.K.W.W.l.l.7.1.1.1.1.#.P U <.s.B.B.1.3.M.V.M.M.M.V.l.l.7.5.9.T.T.9.M.V.Z.Z.Z.V.B.z.V.K.P.P.J.B.p.<.B o.@.@.>.8.8.8.k.M.Q.#X;X-XQ.k.K.z.f.S.h.E S L i.#.E P E i.F.K.#XyXuX_.x.c.k.l.j.$.N b N U U U d.g.G.G.h.d.i.d.f.f.f.p.s.h.s.s.i.i.p.p.p.p.i.i.p.p.p.1.1.p.p.1.3.3.3.3.1.1.<.:.<.<.1.p.p.f.f.f.p.p.3.3.1.1.1.1.s.s.s.s.f.h.h.h.p.a.h.h.b.J.J.J.h.h.z.z.h.s.k.k.k.k.M.W.l.7.5.7.l.+.b M R i.g.J.s.s.B.B.K.P.P.Y.L.G.G.n.n.g.g.g.d.S.Y.S.S.S.S.d.Y r = X - > < : @ - < s G K J ' F F F I F z z F L E <.<.#.+.1.k.l.8.1.1.7.B b U ` } d.g.G.S.g.g.b.h.a.s.v.v.q.3.s.a.i.<.<.<.#.<.p.1.1.:.@.>.>.1.1.<.<.#.#.<.1.1.1.<.#.p.f.f.f.i.d.{ { { { ` ` { i.{ ` ` ` ` ` ` <.<.<.<.<.<.<.p.s.p.p.p.f.f.h.z.z.z.k.k.k.k.k.k.k.8.8.k.V.Q./.Q.Q.Z.m.k.k.k.k.8.k.3.s.m.Z.P.K.B.B.Z././.V.V./.#X",
"-.$.$.$.$.$.$.$.o.o.@.@.@.@.@.@.@.@.$.7.j.k.z.h.d.d.d.D. . .} } ^ / { d.d.d.d.d.D.} } ( } }  .D.D.D.g.g.g.D.D.S.d.d.i.p.J.P.).U.U.B.b.L.P.b.h.B.i.i.i.{ I L L L P R <.p.s.s.i.<.U R <.p.p.p.i.i.} D.D.D.D.D.g.{ ` I L U R U U _ s.3.p.1.s.k.s.<.<.U L R #.R U R / d.{ ( G p - + + $ % % $ $ O + - 3 Z / d.f.J.U.U.K.J.J.K.K.J.z.K.F.F.x.x.K.W.W.!.W.T.T.~.~.R.E.Q.V.M.M.V.Z.V.V.B.B.B.B.B.B.B.m.m.m.m.M.N.N.N.N.M.M.e.e.M.E.E.E.E.E.Q.E.Q.M.M.l.k.l.V.V.W.Z.Z.V.l.l.l.l.j.1.+.B P #.s.z.h.a.a.h.k.l.e.M.M.M.M.M.R.R.T.T.T.T.T.T.^.^.V.V.V.V.V.x.z.z.B.V.B.z.p.+.N @.o.N >.8.7.1.M.Q.OXOX/.Q.Q.Z.#.f.h.f.E x 6 3 h R h.*.S L *.i.K.#XfXyX^.l.x.V.k.$.%.+.+.+.+.<.i.h.z.h.i.p.z.B.K.z.h.s.z.z.z.s.h.h.h.h.h.s.p.p.+.<.1.3.3.7.3.3.7.>.1.7.k.k.k.7.k.1.#.p.x.K.z.=.#.#.1.p.s.k.k.k.k.s.s.p.p.f.f.g.h.a.i.` / / d.d.f.h.h.h.d.i.i.p.$.k.V.V.l.l.l.7.%.7.j.#.P R d.d.z.B.K.P.P.P.).wXwXI.7X0X0XI.I.7XY.Y.Y.Y.Y.I.D.^ C ; X @ < 9 9 9 - - > s G D K T F n F L Y L z h R L L <.#.B +.k.k.l.1.%.1.#.%.+.<.i.h.J.J.h.h.b.J.B.s.s.v.v.s.s.B.J.z.z.B.z.h.p.1.j.l.l.l.8.9.l.c.j.p.p.p.1.1.$.+.j.K.F.c.c.c.c.f.f.f.p.i.i.i.i.a.a.s.s.s.s.s.a.a.s.s.s.s.h.h.z.J.J.K.F.F.S.Y.).^.K.V.V.V.V.V.V./.Q.V.V.V.Q.Q./.M.M.M.l.j.7.@.@.l.W./././.K.B.B.B.K.P.P.K.K.P.U.",
"$.$.$.$.@.@.@.@.$.&.7.7.7.5.5.&.@.@.$.$.p.p.p.d./ ( } }  .( ) ) ( *.*.d.D.d.D.D.D.D.( (  . . .D. .} } } } } d.d.d.d.i.h.J.K.K.J.h.B.B.B.B.B.h.i.i.` R E L L L L R i.i.p.f.i.i.{ i.a.h.h.G.J.S.S.D.H.H.H.S.S.g.{ R I L U U U U R 1.s.s.p.s.k.s.<.#.P P R R R R R d.{ { ^ A 9 @ . + $ & % % $ O + - 3 l Y / h.Y.U.U.U.Y.K.U.U.K.K.K.Y.Y.^.^.^._._._.!.W.^.~.~.~.~.!.Q.W.Q.Q./.Q.Z.V.Z.Z.Z.P.K.K.K.B.m.V.V.Z.N.N.N.M.M.M.M.E.E.E.E.E.|.|.Q.N.M.M.M.E.Q.Q.Q.Q.V.M.k.W.l.7.$.+.+.+.<.<.s.h.h.h.h.b.B.M.M.R.R.R.R.R.R.!.~.~.~.~.W.~.W.^.^.^.^.^.^.^.^.K.V.x.z.z.p.#.+.N >.+.o.>.8.7.8.Q.(.#XOXOX/.V.k.<.p.f.i.L x S P L L R R R E R i.B./.#X_.^.x.x.x.k.$.+.+.+.U <.<.p.h.B.s.<.i.p.s.s.p.i.<.p.p.p.p.p.i.i.i.i.i.1.1.1.3.3.3.1.1.1.1.@.>.@.1.7.7.7.7.-.j.c.c.c.c.j.-.p.p.p.s.k.s.k.s.<.<.i.a.f.h.d.{ g.a.d.d.g.g.S.S.D.H.S.S.S.h.h.h.h.K.K.K.Z.V.l.7.@.1.1.#.E E / R z.z.V.K.K.F.J.J.F.S.Y.I.I.Y.Y.I.H.H.H.I.I.8XD.^ r ; = - 9 9 9 , - - > r D D J T K F n L Y L Z l L L L #.#.U +.7.k.l.3.+.1.#.U #.<.<.s.J.B.h.i.p.h.s.p.s.s.s.3.s.B.S.h.h.z.z.z.z.j.k.x.x.l.l.l.j.x.x.x.x.x.x.l.k.c.c.K.x.F.F.F.F.f.f.h.f.p.i.i.a.p.p.p.s.s.a.s.a.a.a.s.v.b.b.b.b.f.f.h.F.F.F.F.F.z.z.k.k.k.V.V.V.V.V./././.Q.V.M.V.l.8.7.7.7.l.T.W.^.^.^.^.P.P.P.J.Y.J.b.g.d.d.g.",
"-.-.$.@.%.%.O.O.7.j.l.T.T.l.j.7.$.$.$.#.#.E E Y ^ ( ( ( ( ( ) ( ( ( ( ( ( ( ( ( ( ( ( ( ) ) ) )  . . .} } } } } ^ E R *.=.i.*.#.#.h.J.p.p.h.p.R R E L L L L Y E d.d.g.h.d.} | } D.D.H.H.H.H.Y.Y.D.H.H.D.D.S.h.i.R I L P U U U U 1.s.k.s.s.s.p.#.U P U R R E R i.d.{ ^ G p : @ . @ % i i % $ + @ - 2 3 Z ^ g.Y.Y.Y.Y.Y.Y.Y.Y.Y.F.F.z.F.K.^.^._._.W.W.^.W.W.W.W.W.Q.Q.Q.Q._./.V.m.m.B.B.B.J.J.P.K.P.P.@XoX@XoX/./.Q.Q.|.OX X X X XN.N.N.A.e.e.e.N.|.|. X|.Q.N.m.8.l.7.@.%.+.+.1.s.z.h.f.p.f.b.J.J.V.M.M.M.M.M.M.R.E.E.W.W.W.W.W.^.^.^.^.^.)._._._.^.K.x.c.p.$.#.+.B >.>.o.1.8.8.8.oXOX#XOXOX/.k.+.h.i.R U E <.p.h.i.L x E i.R R i.p.z.V.K.K.x.c.x.k.1.+.+.#.U ` <.s.z.z.<.P L L L L L L L L Y Y Y I I L L L E R <.i.p.s.p.1.$.$.$.+.%.@.@.$.-.&.$.%.-.c.c.j.$.$.p.z.z.k.k.s.s.3.2.s.a.a.h.Y.Y.G.g.| | g.n.H.H.H.H.H.H.H.H.H.D.H.H.G.L.P.P.P.W.V.j.@.@.1.1.#.L Y E p.j.z.x.z.p.#.E E Y / ( ( ( ( } [ | }  .D.D.( A < ; - < a a 9 : - - ; e t D J ` T L n L Y Y S z z F E R R U +.+.k.k.3.<.1.<.R <.<.1.k.V.z.i.R E R R E U R ` R R { / / *.d.h.z.z.z.k.l.l.l.l.7.7.j.c.x.^.^.^.^.^.^.x.j.=.=.c.c.=.h.h.h.h.h.g.f.h.h.h.s.a.a.a.p.a.i.{ | a.a.a.g.g.d.d.i.h.F.F.S.f.#.<.1.s.k.V././.V.N././.Q.N.m.8.l.k.7.7.j.T.^._.^.T.x.x.K.U.U.U.G.D.} ^ J H D C ",
"c.j.-.$.@.%.%.o.-.7.j.c.l.l.l.l.c.j.-.#.E Z l 6 4 4 > < < u p d A d d p p p p p p 7 p p p p 5 5 5 5 5 < 5 < 4 4 4 r l 6 3 6 x S <.p.B.p.i.i.i.R R L x x L E R / d.d.g.} { [ [ ..........} .. . .} } [ ( } g.h.a.R I N L U U P U 1.k.z.k.s.s.<.P L U R R R R i.d.i.{ F t e - @ . $ 0 i i 0 % $ @ : 2 4 r H ( / } / ^ ^ ^ ^ ^ / ^ Y Y E *.c.F.x.c.-.j.l.j.7.7.l.l.V.M.m.V.V.m.<.U U I R R ` { { } } { { { ` ` ` #.<.<.<.1.1.:.+.o.;.,.,.w.w.r.M.N.Q.Q.Q.Q.N.N.k.8.+.+.+.+.1.3.s.k.B.h.p.p.h.J.L.L.K.V.l.M.M.M.l.k.M.M.V.V.V.K.K.K.F.F.Y.Y.Y.Y.K.).K.K.F.z.p.#.+.+.B 3.1.+.1.k.k.k././././.Z.V.8.+.B.<.M L p.J.J.p.p.U M L R R R #.#.<.s.x.z.z.x.K.z.p.#.#.R U ` a.s.B.s.U k w 3 3 3 2 2 4 4 r r r r w 4 2 w l x F E *.p.h.p.1.1.p.$.#.#.$.$.$.$.%.%.$.-.p.=.$.p.p.z.z.k.k.k.s.1.<.I M n F T { { ^ T ' [ | } } } } }  . . . .}  . .g.g.g.h.B.Z.V.k.7.@.@.1.#.L S P #.1.k.z.p.E l 3 3 3 r r r < 4 a e a s s G G s e - - - p f f u , 1 ; ; 2 r z H R { I L L Y E L Z w Z T E P U U P p.s.p.<.p.<.R p.<.1.z.B.p.P l h w w w w r z t t r r r C F R i.f.h.f.1.$.1.@.%.%.v %.$.p.j.k.x.V.V.f.E v x S S l l z C x z z z z x x z z z z z m F D D D z x x x l l h h l l l 6 b N +.3.B.Z././.Q.Z.N.m.w.8.8.8.1.7.k.l.W.W.^._.T.x.c.x.K.L.G.g.| ! D t e e > : ",
"j.p.1.1.$.$.$.#.%.%.#.$.p.j.z.z.F.x.z.p.R S z l ; = X o o X X - = = - = = X X o X X X X X X . .           o o o X ; ; = = = r Y p.p.p.h.p.R R i.E L S L E *.d.d.D. .} ^ G G f ~ f f d d d d d s d d r C T | g.a.U I N I U P U U p.z.B.z.s.p.#.P L U R R R R i.g.} T D q > : @ @ 0 u i i u , $ : > > > q e s e < e < < 2 > > < 4 4 2 w x *.i.#.P N %.+.P B +.1.<.p.p.p.p.i.U x w 2 q q q e e s s s e e 2 > 2 2 2 w l h h h h h h b B >.m.N.Z.N.Z.Z.Z.V.B.m.s.2.1.V B :.1.s.k.B.B.z.h.h.z.L.Y.Y.F.h.f.p.i.i.i.<.<.I R R { { } } } ( ( *.( / / d.d.i.h.z.z.p.+.%.+.+.3.1.+.<.s.s.k.V././.V.k.k.s.2.<.U U <.h.B.p.<.<.s.i.P M P U U P #.p.z.z.f.F.).z.f.i.#.E U ` a.b.b.s.L w ; = X X X X X X X @ @ @ X X X X - > 4 C H { g.S.S.h.S.f.p.i.p.p.p.#.#.#.E P E #.p.p.i.s.s.B.B.B.v.s.2.M j w 2 2 w r q t t t s a a p p d d f d d d f f G G H J { s.B.k.l.1.%.@.#.L L P U <.h.B.f.I w ; ; - - = X o o X + + @ @ : 8 < - - X - a ~ ~ d p < ; ; 4 r l F R i.E L L L E E L w C H T Y E P M #.p.i.i.p.` E i.i.p.h.S.d.Z 4 = X X X X @ @ @ @ @ - - : 4 C T { h.i.R U P N V v 6 c c v P U 1.s.h.p.U h 3 2 ; = = - - - = = = - - - - ; : > > > > > > ; ; - ; ; ; ; = = = = 4 3 v N :.k.V.Z.V.m.Z.N.m.3.>.,.3.w.3.8.l.W.W.W.W.T.x.c.z.F.J.h./ F s e : @ @ @ . . ",
"1.1.1.<.<.<.i.i.E E E R #.p.h.z.F.z.z.z.f.i.{ { H D e : - @ @ @ @ @ - - # @ X . X @ @ @ @ @ + + . O     . . . X X - ; - - 2 H d.J.i.i.h.p.U U i.E E E E *.i.f.h.D. .! f p < , , $ # @ @ @ @ - - = = ; 2 D | g.a.U I N P U P U +.p.z.B.z.f.p.#.P L R R R R i.d.d.' F y 8 > > , , u a d a u , , , 0 0 : , 0 : @ . @ @ @ . . . X X - : q z T R L x v L L x x U <.` { } | { J t 2 : - @ @ @ @ @ @ # , # @ X X X X - - ; ; > 2 w w l N :.k.Z./.P./.P.V.B.z.s.1.<.#.<.<.<.<.2.s.s.B.B.B.B.J.L.L.J.f.*.S Z l l l z t w 2 2 2 e e p u 5 r d s r r r l z L R f.h.<.U N P U s.p.+.<.1.s.k.V.P.P.B.s.s.k.k.k U p.h.i.<.<.i.<.B.B.<.M L U L P R i.f.p.p.F.wXF.z.p.<.E L R a.G.G.n.J q - X . . . .                   . . @ - 9 p G (  .D.H.H.S.g.g.g.f.i.*.#.<.P M M R i.a.` 2.s.B.B.C.B.v.v.` I z q > ; ; - > > - @ X X X X @ - 1 - - @ - - < 9 9 q x ` s.k.V.7.@.+.#.E P P E i.h.J.G.{ C q > - X X .     . + O + + + : , : - @ : a ~ ~ f d a 4 4 r l z Z Y R R P P L P E E C C F H I I L L U #.i.f.h.{ I i.d.f.S.S.( A ; X o                   . @ : e D J | } ` T I I M x k x x x L R 2.s.h.h.a.F w 2 ; - X X X . . . . X @ - : , < 9 9 9 9 > : ; - - ; ; ; 2 2 2 3 l L R s.m.Z.P./.P.V.m.m.3.3.3.,.3.3.3.m.m.m.m.l.l.c.c.x.z.z.h.g.T D q - @ .           ",
"s.a.2.2.2.2.i.i.` ` ` / i.d.d.i.s.s.z.B.J.J.L.L.G.g.[ D y 8 - @ : , , , , , , , # , , 0 0 0 0 & O O       O + @ @ , 9 p G !  .H.f.p.i.i.i.R P L P R *.i.i.f.h.S.D.) d < - @ .             . . X o o X > C } g.a._ I N B U U U #.p.z.x.z.p.<.#.P U R R E / d.g.i.K D q > 8 9 p p f f f a u < < 9 0 0 & & & # # + # # @ + . . . + @ 8 g K K F F F T I L j x T ` T ^ | ..! s > - @ @ + + . . . . .                   . X - < s ~ ^ h.B.P.@X@XU.P.P.B.h.p.i.R R *.i.s.s.3.s.v.m.B.B.B.J.J.S.f./ S l > = = = - ; - - . . . . .       X X - - = = ; 2 Z T g.p.<.P N P +.k.p.+.#.1.p.k.V.V.V.k.p.p.1.#.P <.B.b.a.2.s.B.s.b.B.s.<.U P L <.E R i.i.i.F.9XK.F.h.i.I L R g.H.H.D.J e : @ + + $ O O   * *           O . + + # # , p ~ .. . .D. . .g.g.g.i.i.i.` R I K I ' ' <.1.s.s.m.m.b.b.a.{ ' F y > - - : - @ X X . X . o . X X . . . + @ # @ - 2 n <.k.M.k.1.+.+.<.R L U ` a.b.G.n.[ K e : + + + + + + & & # # # 0 0 , : - : p W ~ W ~ A A A Z Z Z Z L E R #.E S S E R ^ C C H T Y L L L E i.h.G./ Y d.d.S.Y.8X .A 5 X @ .     O O O       . + + : u f [ [ [ | ' I n n L F F F I ' ' ' g.n.H.| [ D q : .             . + $ $ 5 u u 0 , u 9 9 < > > < e > 4 r Z T d.S.L.@X@XoXoXP.C.m.m.3.3.3.3.3.3.3.q.C.m.m.k.k.k.k.z.z.f.i.R F y 8 : @ @ + + .       ",
"n.n.a.a.a.a.a.g.g.g.g.g.i.i.{ ` <.1.s.m.C.P.[.[.iXeX0XL.| K g q : # # # # # : 0 # # # # & & & & % $ O O O + $ # , , 9 G  .H.H.D.} a.a.<.R <.P h P R i.f.h.h.h.D.( ~ 5 @ + .   * *         . . @ o o = > F } g.a.` P N P +.U +.+.p.z.x.k.p.$.#.E R R R I / g.g.| D y 8 > 8 a a d f W f d 5 < < u i i 0 0 0 0 i i 0 0 0 # @ + @ # @ y [ [ K D D J ` ` L j z T { T H [ ..~ p - @ @ @ + + O . .     O O $ % % % $ $ + @ , a ~  .8XqX[.@XwXwX).P.J.B.h.p.i.R R i.p.h.2.3.m.B.C.C.B.B.J.Y.Y.g.^ C 4 = = X o . @ - : @ @ + + + .         . . X o X - ; F T f.h.2.U U #.U k.p.%.#.1.p.k.B.B.k.p.1.<.U b B.s.s.s.B.K.P.].V.s.s.B.B.<.B P p.P L R i.i.S.).K.F.z.p.P M U a.b.G.n.J a , # @ 5 % % % O * *   O O O O $ $ $ + .     . u W ~ !  . . .d.g.g.i.i.` a.s.` n j n I <.<.<.<.<.s.b.b.J.I.0XI. .! C s : : - - - @ @ @ . . + + . . + + + + @ @ ; z <.s.k.l.8.>.1.p.#.M I I ` a.b.G.g.| s > @ + # # , 0 i i i i i a u 9 9 , , p f ~ f ~ ) H H Y Y F S Y Y R #.R S v P R } C r H / Y F L x L i.S.J./ L d.h.S.Y.8XD.~ 5 1 5 % % % % % O O O O O O O # 0 u f J | | | ' K n F F n n F n m j | n.H.H. .[ s 9 , $ $       + $ 5 u i Q Q d i u , : : : : > e e C Z T S.0XtXdXtX@XP.Z.m.s.3.2.3.3.3.>.:.3.3.m.C.v.v.m.m.k.k.s.s.h.i.T C q : @ @ # % % $ + + O + ",
"} d.d.d.i.i.i.i.g.a.p.a.i.<.<.<.:.<.1.k.m.m.B.B.P.P.].].].C.a.' D t q 8 8 q 8 : : 0 8 0 0 9 9 u $ + + + @ # 0 9 9 a f [ D.H.H.D.| { { ` U M P #.P <.f.S.D.D. .[ f u $ +     O O   * O % % % % $ X X X 4 H { g.h.<.U N U +.+.@.@.1.z.F.z.-.%.%.%.*.R R / } | | ^ t q q y s s f ~ ~ ~ d p < < < p u i a f d d f f W u , - : , , : q F { ' F F F F R x x U <.R R i.[ [ ! s e < , @ @ + + + + + + + . + $ u u u 0 : - - > s | I.qXeXwX@XV.s.1.s.k.s.p.#.%.+.p.z.z.k.8.8.M.V.V.B.J.Y.S.d.^ A p < X . .     + # 0 0 0 , # # @ $ % $ + $ @ @ @ . . X > z T h.h.<.#.#.#.+.j.1.%.$.j.j.k.1.k.m.1.B V :.3.m.N.V.k.k.K.).@Xx.z.k.p.p.3.>.N B U R #./ { i.f.z.k.9.0.@.V o.1.B.v.a.' t - X @ $ % % & % % $ + + + # 0 0 0 # @ + .   . X , d ~ ^ ^ { d.f.p.p.p.<.<.p.h.f.#.E P P U #.#.#.<.p.s.F.Y.I.Y.S.D.} ~ p 1 = - 9 < , 0 $ + + $ $ O O O + + # , > q n ` s.k.k.3.3.1.#.N U I N R h.J.Y.S.Y r ; : < , # # u u a f d d p p 5 , - : e s f ~ H Y / / ^ T L L Y E R R P L L Y Y H F Z Z F Y T F F E d.f.*.R p.f.i.h.U.S.C > : , u i % $ O $ O O O O O + + @ - 9 C [ | } R I L M I E L x j L R I { d.g.G.n.[ C p u - X . X - , p d f d a a e e > > > e r C D F } h.L.@X@X@X@X#XP.P.Z.m.3.1.3.8.>.7.l.V.V.V.V.V.B.v.s.h.B.B.f.{ T F t q q 8 > : u u u 5 % % % % ",
"( { } g.d.d.d.i.i.i.<.<.<.<.<.:.B +.>.1.8.k.k.3.B.Z.].oX$X$X&X].g.{ F t w q w y 8 8 8 8 8 8 0 , @ @ @ @ # 8 e y g D J | D.H.D. .| [ ' T U N P <.<.p.f.h.n. ...f u 5 +           O O % % i i % % X o = 4 H } h.f.<.U N +.@.@.@.@.$.k.K.x.-.%.%.#.E R / { g. .[ G y q e a s s s G G G d p < < < u 9 u f W W W ~ ~ d u , < e e e y F I { I F F L L L n M R <.R R i.{ [ H s e < , @ .   . . + @ # # # , 0 u a a 9 > - ; > z { L.0XeXP.P.m.1.<.1.<.+.$.$.$.1.k.k.l.l.V.V.V.V.B.z.h.h.{ G < X . .       O O + $ 0 i u u u u i u i i i i 5 , $ X . - > x T f.p.1.#.#.#.@.j.$.%.$.j.7.k.8.s.3.:.U U 4.m.m.l.k.l.V.Z.K.K.K.V.z.j.3.7.1.+.b +.<.i.R T d.h.k.l.u.u.5.O.@.1.m.k.s.` C > @ @ # % u u i u 0 , 0 0 0 u a u 0 , @ .     . @ 5 p H Y Y / i.p.p.1.i.#.<.f.f.f.f.f.P N P P #.$.p.p.=.f.S.S.H.8XY.D.s < - < p a 9 0 # + + O $ O O O O O + : : > z I a.s.m.s.<.<.<.+.U B N +.k.V.F.F.=.S l 4 < : - @ : 9 d W W d d p u < < : < e f H H Y ^ / / / R Y Y R R R P L L L L Y Y F Z F Y T F F I { i.#.*.p.p.#.p.L.S.F > : : 0 u 0 , % $ $ O O O O + + @ # < a H ^ { ` ` R L U E I x x L E L R d.g.G.G.g.^ C s e - - @ - : d s G f s a a t t s C D J [ d.h.eXrXrXtX#X/.Z.V.K.V.B.k.3.1.7.7.8.l.V.V.V.z.z.z.B.z.h.h.h.a.T F w q > 8 9 e a a u i i i i u 5 u ",
"s G ! [ } g.g.h.h.i.<.<.p.s.s.1.+.+.+.:.>.1.3.3.s.m.B.C.].$X%XiXeX0XL.| I z j j y y y y a 9 , # @ @ @ : 0 e g D J [ | D.n.g.} | | [ T I L P #.p.z.h.h.g.D.| G 9 , + .           O % % & i i 5 # o o = < H d.h.f.<.U B +.@.@.@.@.$.c.K.z.-.%.%.#.E E d.g.D.| J s e e e s s s s s ~ G f d a p p a a f ~ ! ~ ~ W W < - - 9 e q a D { { I L L I R I M L R i.<.U U i.{ T D e 2 > : @ @ + . @ # , , # # : , 9 a s s a > > 2 z T G.[.eXK.V.k.1.<.<.+.V +.1.k.k.l.l.V.V./././.Z.z.i.R T w > - X .         + $ & & 0 u a a a u u u u u u i u u , @ X - > x R p.p.1.#.#.#.%.j.$.O.$.j.3.k.k.3.:.+.:.2.m.m.N.8.8.V./.V.z.z.^.).K.x.k.k.k.8.%.+.+.R R ^ { <.k.l.R.R.9.5.>.8.m.k.s.i.F q - @ @ # u a d d a u u 9 u a a a 9 9 : @ . .   . @ - 4 3 l Z R i.i.i.p.<.#.i.f.f.c.F.p.<.U P E E E E =.d.*.d.D.Y.D.} s < ; < s s e , , # + $ $ O O $ . . + @ - - w n <.s.B.s.:.+.<.1.U B N U p.z.F.F.F.=.Y Z r > - - - 9 f ~ ~ ~ d p d p e < e s ~ ^ H T / / { / R R Y Y E E E P L x S Y Y Y Z Z F T Z F L L E i.p.f.p.#.p.J.G.H 2 - - , u u i i u i O O   . . + @ # < < y C T { a.i.R R R U L L L E L I / d.g.G.G.g.^ ~ A e 1 - - - 1 < a s t t C D H T | g.G.Y.wXiXdXtXrX@XoXP.V.k.B.k.s.3.3.8.7.7.7.l.V.Z.Z.V.B.B.z.h.h.a.i.L x t q q q 8 8 > 9 9 u u i i Q Q Q i ",
"- > a G ! | D.H.G.h.a.p.h.h.s.p.k.1.:.o.o.:.3.k.2.s.m.m.m.B.].@XkXkXkXiX{.a.' m m m D D K f e : : : - : 8 t K J  .n.n.n.g.} { { | ' I L L U 1.k.B.J.G.g.| J u # + O             O % & i i u , @ o o = 4 ^ g.h.f.<.U B +.@.@.@.$.j.c.c.c.-.#.%.%.E / d.g.g.[ G t e e s f s s a s f f ~ ~ ~ f ~ ~ ~ ~ ! ! ! ~ d p - X - a s y C [ } T F F R { { R x L i.p.<.L U <.{ T z q 2 > : - : - - , u p p p 9 8 9 e a s t t q q q w F i.L.[.P.P.V.s.3.1.:.B +.1.j.x.V.W.^.^././.K.J.f.E l 2 - - - @ @ + . . + + 0 i u u a a a a a d a u u u a u , - @ - > y n R p.s.$.$.#.+.%.7.$.O.+.7.1.3.8.1.:.:.3.s.m.m.m.3.8.V.K.p.*.i.J.U.).K.z.k.k.k.8.+.M L / } { U s.k.R.R.u.9.0.8.l.m.B.a.Y e - X @ , u d W ~ W f f f s f a a a p a 9 , @ . . . X = = 2 w z Y i.i.f.i.R i.f.f.f.f.h.p.p.#.P P P E p.=.*.*.D.D./ F r e < e s s e > 9 , , u u $ $ % + + @ @ @ - 2 l U s.B.k.<.:.<.1.:.U P U <.k.x.K.F.c.i.R Z r 4 > : e G ! ! ~ ~ d d d r a C H ^ ^ T T ^ / / / R R R Y L E R R L x Z Y ^ Y Z z F T Z Y L F L i.z.z.p.#.<.B.J.T 2 = @ : 9 a d W W i $ $ + + . + @ @ : : 2 y F T { a.i.<.R R E E L L Y I T / d.h.S.S. .[ H a > - - ; ; < r s t C K ' } g.Y.0XwXeXkXjX@XU.K.K.P.P.V.B.s.2.1.3.8.k.k.8.l.M.Z.Z.K.K.K.J.h.p.i.I x z w y C D s a > - - : u u u u d W W ~ ",
"+ @ : 8 a G [  .g.g.h.f.i.i.p.p.B.k.3.:.:.+.:.:.3.3.v.v.s.v.B.C.eXrXiXhXhXiX].n.| ' K K K K D t a 9 > > q g J { n.n.n.d.{ T / { / T I L P #.k.k.z.J.G.} K a , + O           O   $ i i d d a < - o X = r ^ g.h.f.<.U N +.@.@.$.$.c.j.j.j.j.-.#.E *.i.d.d.{ J C t e e s f s e p s a d G ~ ~ ~ ~ ! ..! ~ ! [ ! G e - - < G K D T g.} T F L { i.` I L R p.p.<.U U <.R L l q 2 > > < : : : 9 d ~ ~ ! J K D D D D D z z w w l x R h.L.@X@XP.B.k.s.1.:.1.1.1.k.Z./././.K.F.p.R L h ; = > - @ . . @ , i 0 0 0 u a a a a s f G ~ ~ W f d d u : - - ; w x L ` s.f.p.$.#.%.%.7.@.N +.1.1.3.1.1.1.1.2.3.v.m.B.s.s.z.i.x l Z { S.U.U.J.z.s.3.k.1.U L I ^ R R 3.8.9.9.0.9.l.M.V.V.B.i.Y r ; X @ , u W ~ ......! J J G D f s s f d p < : @ @ @ o = ; 2 2 w F / d./ *.f.h.f.*.*.R 2.a.<.U E *.f.#.E *.f.S.d.Y C r t C C s t a a a a a f d u , , $ , , : - - 2 w L R s.s.s.s.1.:.<.` U U #.p.z.K.x.F.c.*.L Z z r : 8 t G ! ! ~ ~ G A C C H ^ H C F Z F Y T / / R R Y L E R R P Z Z Y Y Y Z z C F F I Y Z L i.z.z.j.$.1.B.J.R 2 = - : 9 a d ~ W W % $ $ @ @ @ @ @ : > e y t m ' { i.<.R R R R E L L L L I { d.g.G.D.| H y ; ; ; 2 C H J T T [ | n.[.eXdXdXdXiXrXrXwX@XK.V.V.B.B.m.2.1.1.3.l.M.N.M.W.W././.K.V.z.h.i.R L l 3 3 r C t s s a 9 > , < u 5 , < p W ~ ..",
"# + @ @ # 9 s G ( } S.h.f.i.p.f.3.3.k.k.3.:.B V B :.:.4.2.v.m.C.B.B.P.$XhXBXBXhX{.L.{ ' J [ [ | J D t y y D ' { n.n.d.{ T T / { T I L L U 3.k.k.s.h.g.J a 0 # + O O O O $ $ O + $ u d d d s e ; = = ; r ^ g.h.p.<.U N +.@.@.$.$.c.j.j.j.j.p.=.%.f.f.f.{ T D t t a a s s e 9 e s f G ~ ! ! .. . .D. .[ [ } ! s > ; 4 s H T T { d.{ I F I { / I F R <.i.i.<.U U R L x l w 3 4 e s s a e s G ! [ [ [ ' T T T ' T T F F z l j L i.b.P.@XoXV.k.3.3.1.3.1.@.3.V./././.K.f.Y h 4 ; = X - : , , 0 u i a a a a f f f s q q e s G f f d d p < - = - ; 3 z E i.h.f.p.$.$.%.%.7.$.O.+.1.3.3.+.<.3.3.3.3.v.m./.K.B.i.Z 2 ; 4 A } I.7XU.P.B.k.7.k.k.<.F n I i.<.7.0.0.5.9.M.V.V.Z.B.i.Y C < - X @ < p ~ ~ ....T T H D C C C G G G f a u 9 , , - ; > ; - ; w Z H Y / S.S.f.*.*.I ` a.2.U P #.f.*.#.=.F.F.=.S l 2 t D D t t D D ! ! [ ..~ p < < u d a 9 - - 2 2 x L <.s.m.B.3.U <.<.R U +.$.c.x.^.^.K.j.#.P M z q q y D ^ }  . .( ( ^ H ^ { Y l l l r C L / { { Y L L L R R E L Z Y Y Y Z z C F L I Y L L #.f.z.j.1.p.B.B.` w ; - : e a f ~ ~ W , , , , , - - - < e e e q y m ' i.i.<.<.R R R E F x Z Y T { d.S.g.{ F w 2 2 r C H T { d.b.L.0XrXjXvXjXjXdX%X/.V.@XP.K.B.m.s.s.s.s.3.s.k.M.V.W.W.l.l.V.V.K.B.h.f.Y F l 2 2 r C H r p p e e 9 9 p p 9 < < < d !  .",
"& $ + + + @ : > G ^ { h.h.h.h.z.:.1.s.m.k.2.:.U B B B U :.2.s.m.s.s.m.C.%XdXjXBXhXiX{.L.n.g.g.g.| | J K F K ` { g.a.i.{ R T R R Y E E U <.k.k.k.1.<.T t 0 # # $ $ % & i i i i , , a f f s C t 2 ; ; > s ^ g.h.p.<.U N +.$.$.$.$.j.j.c.c.j.=.=.=.f.h.h.{ H t y e a e e e > : < a G ~ ~ ! .. . .8XH.D.D. .[ G 2 = 4 r H Y ^ } } ` R T L R { R L L a.i.<.R R R R R x k j z w w t G [ ! G G [  .D.n.g.a.` a.a.a.a.a.` R L x x x R p.V.oX#XP.k.1.1.1.1.+.$.1.k.Z.^./.U.h.Y 3 2 ; ; - X : a W W W f a f f ~ ~ G D t q q y t s e e 9 < < - - ; 2 w l z R p.z.k.p.$.$.%.%.7.$.O.+.j.3.8.+.1.3.3.s.m.m.B.@XP.f.F 2 = = = < H D.I.0X@XP.B.7.m.V.s.I F L R +.>.5.5.5.l.V.V.W.W.z.<.I H C e - - - < e s A H Z z z l r r C G ! ! ~ G f f d a a e : - - ; 4 4 r Z ^ d.d./ ^ R T ` ` ` ` R #.#.p.=.f.F.c.E x h q D J J K [ | | H.H.D. .! s p p W ~ W p : > 2 2 l n U <.k.B.s.:.2.a.<.U %.#.j.l.^._.^.c.j.1.U M z j t F } H.H.D.} D.d.^ Y / T Z l r 2 w Z T { { L F Z L L E E E L Y Y Y Y F Z C T Y L Y E E #.f.1.1.j.x.B.i.x 2 - > e f ~ ! ~ G p p p p d p p p a a e 8 8 y z K <.<.i.<.R R R R L F F Y T T / d.d.` L x z Z Y / / { d.J.wXdXBXSXSXxXaX;X#XoXV.k.B.B.m.s.s.s.s.s.s.k.m.m.M.M.N.V.8.8.k.k.s.p.<.R l r 3 3 r C C G G f s p p p p p a s p < < p ~ ..",
"& & $ + + + @ - e t H / f.z.z.s.<.1.1.3.s.s.s.s.<.U B B :.<.2.3.k.m.B.Z.Z.oX%X,XhXjXjXiX0XI.H.g.H.g.| { ' ' ` ` i.i.i.i.{ R T Y L E R #.1.k.M.8.1.R n q # # $ $ & i Q W W W Q i u f ! H G H F r 2 > < s ^ g.h.p.<.U N +.$.$.$.$.$.c.x.c.-.#.=.f.f.h.S.{ H t e e a e 9 > - - > a f f ~ ~ ~ .. . .[ | D.D.( C 4 ; r H ( ^ } h.g.R I L L R { T I R h.a.R U R <.#.E k j x z l w C ! ! H D ! D.7XtXiXeX{.].C.C.b.s.a.i.i.R L x x E i.k./.%XoXk.1.1.1.+.+.1.j.k.x.V.^.U.S.( Z A r < : - , u a d W W X.~ X.....J D t y J J H C e 2 < < < - : a G H Y E i.h.z.z.p.$.$.o.%.j.$.O.$.j.3.8.1.1.1.3.m.B.Z.Z.B.p.L 2 = o o o o < ! D.Y.[.P.B.M.k.s.s.g.} Y x N @.5.5.5.M.W.x.W.W.z.<.R T ~ f p < < - 1 > e r l l l l l z F J ! ! ! ..! ~ ~ ~ ~ p - @ ; > 4 4 2 r Y ( / Y S L I K I ` a.h.p.i.=.#.=.c.f.E S z C J { | | H.{.[.eX0X7XH.( C r p ~ ) ~ a > > 2 2 w x U <.s.k.k.<.a.a.<.#.%.+.$.c.W.^.^.x.l.k.3.P I m z F } H.S.d.^ } ( Z l F Y Y Z r 2 4 l F T / Z Z x Z L L E E Y Y Y ^ T Y F C I F L R R L E p.1.1.j.V.B.i.F w ; 2 t G ! [ ! f s d G ~ ~ ~ ~ ~ f a 8 > > y g m R <.i.<.R R R R R Y Y R T Y Y / i.` E L Y R d.S.U.Y.U.wXkXBXDXDXgX;X!.E.Q.Q.N.k.m.B.B.m.s.<.2.s.m.B.V.V.l.k.l.M.W.V.k.p.#.L x w 3 2 4 r C H A C ~ G s s d d f d f A A a e e G } "
};
