/* XPM */
static char *c04a6c5c06ff4425f97d8b7d480190eaK4UN7etsIxo7wItD[] = {
/* columns rows colors chars-per-pixel */
"600 600 256 2 ",
"   c #110E10",
".  c #29170E",
"X  c #312718",
"o  c #0D0D31",
"O  c #152C32",
"+  c #2F3130",
"@  c #231A2B",
"#  c #523011",
"$  c #6B340A",
"%  c #4B382D",
"&  c #5D2818",
"*  c #274639",
"=  c #744F0F",
"-  c #584937",
";  c #514932",
":  c #685539",
">  c #6F522E",
",  c #746731",
"<  c #695A18",
"1  c #050648",
"2  c #040657",
"3  c #0D1451",
"4  c #102F50",
"5  c #2D334D",
"6  c #050667",
"7  c #09136F",
"8  c #0D2C6F",
"9  c #2A326D",
"0  c #261851",
"q  c #4A374F",
"w  c #105151",
"e  c #314D52",
"r  c #0E6659",
"t  c #2D685A",
"y  c #174E6E",
"u  c #385967",
"i  c #2C536F",
"p  c #13726D",
"a  c #396777",
"s  c #277877",
"d  c #387778",
"f  c #2D6D6B",
"g  c #595549",
"h  c #485659",
"j  c #575957",
"k  c #4C4B4B",
"l  c #685947",
"z  c #6C594E",
"x  c #546A55",
"c  c #77654A",
"v  c #696558",
"b  c #776958",
"n  c #726F52",
"m  c #475A66",
"M  c #4F576C",
"N  c #48656A",
"B  c #586569",
"V  c #486878",
"C  c #576A77",
"Z  c #477779",
"A  c #58757A",
"S  c #4E776A",
"D  c #676967",
"F  c #766C64",
"G  c #7A7567",
"H  c #687679",
"J  c #777977",
"K  c #686F71",
"L  c #685968",
"P  c #86560D",
"I  c #8C6910",
"U  c #8B6C2E",
"Y  c #906427",
"T  c #87755A",
"R  c #8B7052",
"E  c #877967",
"W  c #867C74",
"Q  c #917968",
"!  c #9D7453",
"~  c #84390A",
"^  c #178678",
"/  c #27857A",
"(  c #358777",
")  c #2F8E6A",
"_  c #4F8878",
"`  c #6F8877",
"'  c #678858",
"]  c #55853D",
"[  c #AF942E",
"{  c #CFB132",
"}  c #D2AB22",
"|  c #958755",
" . c #AC9052",
".. c #978469",
"X. c #8A8478",
"o. c #968878",
"O. c #8F896F",
"+. c #A89172",
"@. c #B4A963",
"#. c #CCB34E",
"$. c #CCB169",
"%. c #DDC862",
"&. c #DDC435",
"*. c #061489",
"=. c #0D2A8B",
"-. c #233291",
";. c #2D548D",
":. c #387986",
">. c #326F8D",
",. c #356EAB",
"<. c #1C5C93",
"1. c #486B86",
"2. c #497788",
"3. c #587788",
"4. c #497897",
"5. c #577B96",
"6. c #516C8A",
"7. c #667A88",
"8. c #757C86",
"9. c #657C95",
"0. c #6F728F",
"q. c #4E7AA7",
"w. c #546395",
"e. c #3C6EC2",
"r. c #867A87",
"t. c #188C88",
"y. c #278786",
"u. c #388887",
"i. c #349192",
"p. c #3593A9",
"a. c #34A5A8",
"s. c #488788",
"d. c #578889",
"f. c #499489",
"g. c #57958A",
"h. c #498897",
"j. c #588798",
"k. c #489697",
"l. c #589797",
"z. c #678689",
"x. c #778689",
"c. c #67968A",
"v. c #678798",
"b. c #768998",
"n. c #679798",
"m. c #779599",
"M. c #75958A",
"N. c #55A397",
"B. c #6CA499",
"V. c #4A86A7",
"C. c #5988A7",
"Z. c #5997A7",
"A. c #588AB5",
"S. c #5A95B7",
"D. c #4A91AE",
"F. c #678AA7",
"G. c #748CA6",
"H. c #6895A9",
"J. c #7696A9",
"K. c #668CB5",
"L. c #6896B7",
"P. c #7698B6",
"I. c #748CB4",
"U. c #53A7AD",
"Y. c #67A5A8",
"T. c #77A5B8",
"R. c #6FA9B0",
"E. c #5893C6",
"W. c #6798C4",
"Q. c #739AC6",
"!. c #74A7CA",
"~. c #58ABCC",
"^. c #46AEC6",
"/. c #878987",
"(. c #958C84",
"). c #9A9488",
"_. c #889599",
"`. c #989897",
"'. c #878E93",
"]. c #A69889",
"[. c #A69C94",
"{. c #B0998A",
"}. c #AAA499",
"|. c #B6A899",
" X c #B4AB8F",
".X c #8698A7",
"XX c #8B9AAF",
"oX c #90A8B1",
"OX c #A9A8A6",
"+X c #B6ACA5",
"@X c #BAB4A9",
"#X c #B9B8B6",
"$X c #A9B2B5",
"%X c #95A49B",
"&X c #C6B295",
"*X c #C6B8A9",
"=X c #C5BCB5",
"-X c #D0BAAD",
";X c #D1AA8B",
":X c #B0C4B7",
">X c #CCC4BB",
",X c #C9C3B8",
"<X c #D6C8BA",
"1X c #D3C9AF",
"2X c #E4CFBB",
"3X c #DED195",
"4X c #8BADCB",
"5X c #AEB8C9",
"6X c #93A5D3",
"7X c #B6C8CD",
"8X c #A8CADD",
"9X c #CBC8C5",
"0X c #D3CCC4",
"qX c #D7CCC7",
"wX c #D5D2CC",
"eX c #DBD4CC",
"rX c #DAD4C7",
"tX c #DBD5D2",
"yX c #DDDAD4",
"uX c #D9D8D8",
"iX c #CBD1D4",
"pX c #E5D7CA",
"aX c #E3DCD4",
"sX c #E3DDDA",
"dX c #E8DBD5",
"fX c #EBD5CA",
"gX c #D9E2DA",
"hX c #E5E2DC",
"jX c #EBE4DC",
"kX c #EAE4D7",
"lX c #F4E7DA",
"zX c #F3E9D3",
"xX c #D1D9E7",
"cX c #D9E6EC",
"vX c #E5E4E3",
"bX c #EBE5E2",
"nX c #ECEAE4",
"mX c #ECECEB",
"MX c #E6E8E9",
"NX c #F3ECE4",
"BX c #F3EDEA",
"VX c #F7EBE5",
"CX c #F4F2EC",
"ZX c #FBF4EC",
"AX c #FDFAED",
"SX c #F9F3E5",
"DX c #EBF5F8",
"FX c #F4F4F3",
"GX c #FAF5F3",
"HX c #FDFBF4",
"JX c #F5FCFD",
"KX c #FDFDFC",
"LX c #F7F7F8",
"PX c #ECEEF0",
"IX c #E4DEE2",
"UX c #C6BCC7",
/* pixels */
"T T E W F J 8.9.5.q.q.q.q.q.F.F.K.K.K.K.I.I.I.I.Q.P.L.j.h.Z.U.N.g.g.l.R.Q.P..XoX(... . .+.+.o.K i ;.;.-.-.<.;.;.L.L.H.4.;.,.e.e.,.q.a u K W Q Q Q J H b.P.W.E.E.S.L.T.4X8X5X:X4XY.T.4X4X4X6X4X6X4X4X!.!.4XoXXXXX7XiXvXnXnXnXkXaX,XyXBXCXCXZXnXkXjXHX<XaXVX0XkXSXqX(.T E T z % X . ; o.=XqXBXKXbXZXAXKXHXaX#X=XsXHXKXKXHXKXKXCXhXeXkXaX0XBXsX8.K H 0.0.9.b.b.v.v.b.b.b.b.G.G.J.H.H.j.2.s.s.s.s.h.l.2.a 5.4X6XQ.Q.4X4XXXx.J (.+...+.).K w.q.e.e.,.,.,.i i 6.6.1.w.q.e.e.e.,.w.M 8.].Q Q ].8.0.Q.Q.!.!.!.!.!.P.H.Z.Y.R.R.R.n.c.m.m..XoXoXJ.J.J.J.J.J.m..X_.x._.JXDXKXKXLXFXLXKXKXKXKXKXGXFXKXKXKXFXKXCXKXKXGXZX=Xv E b b - . X z b G  XSXSXCXKXJXJXJXMXmXLXGXGXBXhXbXvXIXyXIXBXBXjXnXkXFX:XA N i a F.9.9.G.XX.X9.V N Z c.B.R.n.j.3.m B J X.X.E X.X.J J J G G G T R , c z k 9 ;.w.w.q.y w Z.Y.f.Y.l.B.l.y >.q.q.q.i q g R R ! ! T E E W E E O.....Q Q E E D _.G.Q.T.J.m.b.8XJ.I.4X4X4X!.T.J.J.J..X_.=X=X+X}.0XHXHXaXaXqXwXqX@X}.+X=X+X=XqXsXbXbXbXSXrXNXVXVXlX@Xb l - X # l b c T Q E ].-XzXlXpXpXSXAXCXCXCXKXKXKXKXKXFXbXbXbXNXBXZXHXNXhXGXvX'.M H A V V 3.7.A 3.z.` _ ` c.A A C D X.E E E Q X./.r./.W b , U Y P Y Q E @ o 1 1 1 1 a :.h.u.:.:.<.8 8 7 =.8 3 5 L g & > > = = $ $ & > & & & & & # . % F (./.x.b.m.v.v.b.b.m.b.'.'.(.Q +.+.{.&X&X{.-X",
"c b E X.J J 8.3.5.q.q.q.A.K.F.K.K.W.K.K.I.I.I.I.P.K.C.h.Z.Y.U.N.N.g.Z.L.!.Q.P.XX(... . . .+.X.K u ;.;.-.-.;.<.;.C.H.L.q.>.,.e.e.,.,.i e D W Q Q Q G H v.I.W.E.E.S.L.T.4X5X$X$X5XT.T.4X4X4X6X6X6X4X4X4X4X4XoXoX$XxXcXvXhXnXjXkXrXwXhXCXCXCXCXCXBXAXAXyXrX>X>XlXlX(.T b E T c : - . # c ].=XkXGXhXNXBXGXGXjX9X9XtXbXBXFXLXKXKXKXHXZXAXZXaXsXmX#X8.0.8.0.7.9.v.v.G.b.G.G.G.G.J.J.J.j.2.2.s.l.l.l.l.d 2.j.P.4XQ.Q.6X4X4XXXx.J o.+.o.+.o.B 1.q.e.e.e.q.;.i V 9.6.;.q.q.e.e.e.,.;.M '.].....{.W 0.4X!.Q.Q.Q.Q.P.P.H.j.H.H.R.R.H.n.n.z.m..XXXoXP.P.J.G.J.m.m._.M.5XJXKXLXGXKXKXKXKXFXCXyXbXCXLXKXKXKXKXLXFXCXHXGXqX(.z F b b - . . - c b X.<XjXZXHXMXJXPXDXKXKXFXNXNXbXIXvXIXuXIXBXnXdXkXhXhXuXoXC 1.5.v.F.G.G.9.6.6.C A d.n.c.s.2.5.G.C B D G v c n b D D D D b b n R R T E L h 1.w.4.;.y >.Z.N.N.N.l.B.Y.:.i ;.,.q.i q z T R R R T b W W W G b b T R Q T F L XXXXQ.L.J.J.oXxX5X4X4XP.4X4XT.J.G.J..X_.#X+X+X=XdXZXbXwXqX0XeXaX>X*X=X=X>XUXqXjXGXZXbXhXjXkXSXZX<XW z z % . # l c z T Q o.o.].<XlXlXpXlXAXCXCXFXKXKXKXJXKXKXGXCXZXGXZXGXbXjXdXbXMX$X8.C 7.C 3.7.3.A Z d.` _ S Z S A H J F b c c b T G F E T , > Y P = > R b @ o o 1 3 8 >.u.h.u.u.i.,.<.=.7 8 8 3 O j % & & & # # $ # $ & & & & & & & # % z (.'.x.m.n.v.v.v.b.m._._.x.J Q {.{.&X&X&X X-X",
"b b E o.W J 8.9.F.C.A.A.A.K.K.K.W.W.K.K.L.L.L.L.P.C.h.h.Z.Y.U.N.l.l.Z.W.!.Q.P..X(..... ...o.o.K i ;.;.-.-.<.<.;.4.C.C.q.,.,.e.e.,.,.i e D W Q Q Q F H b.P.W.E.E.W.L.T.4X4XoXoX:XoXH.4X4X4X4X6X6X4X4X4X4X4XXX5XiXDXFXCXCXBXNXkXeXjXCXHXHXZXCXHXHXAXSXSXjXqXdXkX*Xb b E Q c l : : # X % T |.qXbXsXNXBXZXZXNXhXyXwXbXBXHXKXGXKXKXKXHXHXBXeX=XIXIX8.8.8.0.9.v.v.F.G.G.G.G.G.J.G.F.F.j.5.j.l.H.l.s.Z f d.J.oXoXI.I.4X4XoXoXx.G o.+.+.o.X.B 1.q.,.e.,.q.y i F.P.1.a q.q.e.,.e.q.w.M `.).....+.E K XX4XQ.Q.Q.P.XXJ.J.J.H.H.R.R.H.J.m.M.n.M.n.J.J.P.P.P.J..Xm._..XcXJXKXFXFXKXKXKXKXFXnXwXhXFXKXKXKXKXKXCXKXGXHXBX}.v b b z b - . . % l G b ].eXAXCXhXPXFXFXLXFXbXbXBXZXbXBXBXbXBXGXZXNXhXhXiXMXiX9.9.F.F.F.9.6.M M 6.v.3.A Z Z 3.j.F.J.b.8.` ` O.O.O.o.X.(.(.(.o...........(.K 5 i 5.1.y i Z.l.g.Y.g.N.N.Y.Z.>.y ,.q.i 5 j F T T T E W F W W G E Q Q Q Q Q W K _.J.P.P.R.n.J.v.3.P.4X4X4X4XT.J.J.b._._.#X}.}.qXNXjXeXeXjXaXdXjXaXqXwXeX9X9XqXjXZXBXhXyXNXkXZXdXo.l l z . . X : c c T E Q Q o.].|.|.<XSXAXGXGXHXKXKXKXLXKXKXKXGXGXGXVXNXjXNXdXyXMXiX`.B 7.7.7.7.3.A Z A _ S _ d.7.7.J F l : > > > , c l l , = = P P = = Y z @ o o o 3 i i.i.i.u.y.i.p.p.<.8 8 8 4 O k % & $ $ $ $ $ # # & & & & & & # . X z W /.b.m.v.d.d.d.v.m._.b.H D Q ;X&X&X&X&X&X-X",
"E E E X.W 8.8.9.F.C.A.A.A.K.I.I.K.K.K.K.L.L.L.L.!.Z.h.Z.U.U.N.N.f.l.S.W.!.Q.P..X/.........o.o.J i ;.;.-.-.<.<.;.;.4.5.4.,.,.e.e.,.q.;.m K W Q Q Q G 8.G.P.Q.W.W.W.S.L.oXoXoXoX:XJ.2.H.4X4X5X6X6X4X4X4X4XXXXX7XcXDXFXFXBXjXhXyXyXNXCXGXGXGXHXHXHXSXjXAXAXZXZX-XE v b Q E l : : - ; X X l o.@XqXaXBXBXNXbXBXAXbXwXbXFXKXKXFXmXCXGXGXGXsX9X@XtXBX`.x.8.8.b.G.G.F.F.G.G.G.G.F.v.5.5.j.j.j.j.d.Z d a z.m..XXXoXXXXXXXoXoX`.X.X.o.+.+...(.H w.q.e.e.,.,.y 1.T.oXj.>.;.q.e.,.,.A.q.u J ].+. .+.Q J XXXX4X4X4XoXoXoXoXoXm.v.n.n.v.m..X.XM.z.d.j.v.G.P.XXJ..X_.M.$XJXDXKXKXGXGXHXKXKXGXFXbXCXKXKXKXKXKXGXBXHXKXGX0XW z E b z z - .   X - b b W @XkXCXvXhXLXmXbXbXhXBXGXZXyXbXbXIXbXNXnXjXjXhXwXcXcX.X9.F.5.6.1.V 1.w.G..X3.V V A n.T.P.P.z.H ` /.O.o.o.o.X.X./.X.X.E R R ..O.(.D 5 i 5.>.4 2.R.l.g.B.g.N.N.l.R.4.y ,.q.;.5 k L F F G J r.r.r.r.G F T R R Q Q W F b.J.T.R.j.2.H.2.5.XX4XP.!.4XP.P.J.b..X`.=X+X@XdXZXjXeXdXaX0X=X=X+X+X=X>X=XqXdXbXbXhXhXjXNXAXlX}.z l z % .   . % : c R b E o.o.Q E E |.lXHXHXHXKXKXKXLXFXKXLXGXGXZXBXNXbXNXNXdXtXMXMX$XK 7.7.7.7.3.3.3.3.d.d.v.J.m.x.G l > = = = = > > > > P P P I P P P > l + o o o 8 >.p.i.i.y.y.t.y.p.,.<.8 8 9 5 h % & $ $ $ $ $ # # & & & & & & # . X g J /.M.n.j.s.2.3.v.m.m.x.H F ].-X-X*X-X&X&X1X",
"Q E E X.X./.x.7.9.C.C.A.K.K.K.K.K.K.K.L.L.P.P.R.C.h.h.Z.U.N.N.N.h.Z.W.!.!.!.Q.XX/.X...+...o.X.H i ;.;.;.;.<.<.>.y 4.4.4.q.q.e.e.q.q.w.V 8.o.Q Q Q G 8.G.P.W.W.W.W.S.L.T.oXoXoX$XoXA z.oX4X8X5X4X6X4X4X4XoXoXiXJXvXMXnXsXqX9XeXjXnXNXCXHXHXHXAXCXNXNXSXVXAXpXo.b b b T b : : : - % X . % b (.*XeXNXNXhXaXNXHXBXtXtXbXHXKXLXCXFXKXKXKXIXwXeXsXGXuX`.8.8.b.b.9.G.9.F.F.F.F.F.v.j.3.j.j.3.Z V V 3.z.A H H K H 8.H K D D v g l c c : ; g k V q.,.,.,.y >.L.!.T.H.4.;.,.q.,.,.q.q.5 j b R Y U c z J H 7.7.7.H J K K H z.7.z.z.3.v.J..Xm.m.z.5.9.v.F.v.b.b._.x.xXKXJXKXKXLXLXLXKXKXKXHXKXKXKXKXKXKXKXFXFXGXKXdX).b b b b c l % .   . % l b E o.=XnXCXyXmXvXbXbXsXNXZXnXhXMXMXvXvXbXbXdXkXyXhXhXcX5X9.5.1.1.6.5.F.I.I.G.3.3.z.m.J.J.P.XXz.H ` X.O.O.O.O.o.X.(.(.o...Q Q o.X./.K 5 M 5.i y Z.Y.N.N.g.g.N.g.g.Y.Z.;.>.1.i M L L L L K 0.0.0.0.J F E Q Q Q Q Q b D b.oXR.l.d d R.j.T.4X4XP.P.T.P.P.J..X.XOX#X=XqXbXNXdXeXaXdXaXaXeX>X>XeXaXqXaXbXbXbXbXBXZXZXHX,Xb z z - . . . . # - l b b T Q o.o.o.o.].<XHXHXHXKXKXKXLXFXKXLXGXGXZXZXVXNXNXhXtXtXvXmXiX.XC 7.7.7.7.z.z.v.H.v.F.m.x./.E : = = P = = = = = = P P P P P P P > : + o o 3 i h.i.i.t.t.t.^ t.i.p.,.<.3 4 5 M % & $ $ & # # # & & & & & & & $ & # l X.'.m.n.l.s.2.d.n.m.m.b.'.).&X-X-X-X1X-X-XzX",
"o.G F W X./.x.7.9.F.C.A.K.K.K.K.I.L.P.P.P.H.H.H.a :.h.Z.Y.N.g.g.h.L.!.!.!.!.!.XX8.X.+.+...o.X.K i ;.;.;.<.<.;.>.y >.4.>.q.q.,.e.,.q.w.V r.(.Q ..E G 8.G.P.W.W.W.W.W.L.T.oXoXoXoX7Xm.n.m.oX5X5X5X4X4X4X4X4X7XcXKXFXPXNXdXwXwXhXHXZXCXHXHXHXHXZXSXhXAXAXZXlX}.b T E b c c : : : > # X . X g E [.qXjXNXbXsXbXHXGXbXtXhXCXKXHXFXGXKXKXKXmXbXNXaXjXHX#X/.8.8.7.9.9.9.v.v.F.F.F.v.v.v.5.v.v.v.z.v.m.m.J /./.X./.X.W X.X.X.G G T Q R c z D M 6.q.q.,.,.y D.R.Y.Y.T.S.:.y ,.,.,.q.w.u K E ! R ! ! Q o.X.x.x./.W W W G G J H b.m.z.z.v.v.v.v.v.G.G.F.v.9.9.A x._.DXKXKXKXPXFXLXKXKXKXFXPXHXKXKXLXHXKXKXHXKXGXGX=XF z E b b c - # .     X - T T E [.aXHXnXbXbXbX0X#X9XbXZXCXLXFXMXnXBXNXjXyXyXCXvXPXcX.X3.6.5.F.I.I.K.I.G.7.3.3.z.J.J.J.J.m.z.` X.O.O.o.o.X././.(.(.o.o.o.).'.`.8.M M a 4 a Y.l.N.N._ N.N.N.g.l.Z.>.y 9 9 9 5 5 5 5 5 9 9 5 5 5 q k F Q Q T Q E K 8.J.s.d d d h.:.H.!.4XQ.Q.T.P.P.G..XoX$X+X>XdXjXdXwX>X=X=X,XaXjXeXwXeXwXbXbXIXhXnXZXZXNXHXdX(.z v l X . . # % - % - c R T E E o.].].|.<XHXHXHXHXHXHXLXLXKXGXGXCXZXZXZXVXBXdXaXdXsXIXuX5X8.H H 7.z.v.v.v.F.C.F.b.x./.E > = P P P $ = = = = P P P P P = = > l +   o 4 ;.D.i.t.t.t.t.t.t.t.p.p.;.4 4 4 M q & & > > > % & & & & & & & & $ & # g ` M.c.g.s.u.d f.n.m.b.'.%X@X*X-X&X*X1X-X<XSX",
"|.W b E X././.8.9.v.F.F.K.K.K.I.P.P.P.P.H.n.j.h.:.h.Z.H.Y.N.g.g.H.T.!.!.!.!.XXm.K E +.+...o.X.K i ;.;.;.<.<.<.;.;.q.4.>.q.q.,.e.,.q.w.V 8.X.Q ..Q G 8.G.P.W.W.W.W.W.L.J.oXoX$X$X7XoXoXm.m.XXXX$X4X4XoXoX5XiXMXLXLXBXBXBXBXNXGXKXHXHXHXHXHXBXNXCXaXHXAXZX-XE F T E b c c l : > % # # . . % l W *XtXhXbXhXhXZXHXGXnXnXCXGXGXFXFXKXKXKXKXFXbXqX>XSXeX`.x.x.7.7.9.9.F.F.F.F.H.G.F.v.3.v..XoXoXoXJ.x.G X.X.o.o.O.O.O.O.O.O.O...+.Q T W J M V q.,.<.y >.U.R.U.U.R.U.S.>.<.<.,.q.w.m 8.E +.! ! | ..o.X.(./.o.o.....Q E F J b.J.m.m.v.v.3.v.G.J.P.J.G.F.9.7.x.7XKXJXKXKXmXCXHXKXKXHXmXhXnXFXKXKXHXKXKXKXKXKXeX(.v b T c c l % .       . % c b E (.*XZXHXnXnXsX=XOX=XhXGXbXnXMXsXbXBXNXjXkXjXBXmXDXDX5X9.9.F.K.K.F.F.I.P.v.C N A v.J.J.m.z.J ` O.O.O.o.o.(.'.'.'.'.'././.8.0.0.0.M i 9 4 2.n.n.g.g.g.g.g.g.N.j.F.1.4 9 9 i M M M i ;.;.;.w.w.w.M k L Q Q T (.X.J N d.d s s :.:.j.T.!.!.P.Q.!.T.J.J..XOX#X+X0XjXdXwX0X,X=X=X>XaXjXdXaXeX0XNXNXbXsXbXBXBXNXNX}.b l l X . . X # > - % : c b T Q E W X.o.|.rXAXHXGXGXHXHXHXHXGXLXGXZXGXZXBXVXNXaXsXsXtXuXIXiX_.8.H 7.z.z.3.d.j.j.F.m.b.X.T = = P P P ~ $ = = P P P P P P = > : E q o o 4 >.D.p.t.t.t.t.t.t.t.y.p.>.8 4 0 M k z Q o.(.(.W L z - & & & & & $ & X g ` c._ ( / / s f.n.n.x.'.OX#X*X1X-X&X-X1X2XSX",
"qX].F b E X./.x.9.v.F.F.F.K.K.I.I.I.J.J.v.d.2.a H.R.R.H.n.n.c.c.J.XXT.P.P.4XJ.x.v T ......o.o.K i ;.;.;.<.<.<.y V.W.C.>.q.q.,.E.e.e.w.1.8.W Q ..Q W x..XP.Q.W.Q.W.Q.P.G.J.$X:X$X:X:X$X_.x.x.'.oX$X$XoXoX5XxXIXgXvXtXtXBXKXKXZXnXAXAXAXSXkXeXaXnXSXAXjXdX].z Q b b z c c c : > ; % # .   . % z ].=XeXsXaXaXjXZXHXGXBXmXFXLXFXLXKXKXFXKXKXsX>X,XkXjX}.'._.9.0.G.9.F.F.H.H.H.H.v.v.z.v.b.m.XXoX.Xx.J W E ......E O.| O.O.O...+...Q (.8.u i w.q.>.y V.~.R.U.R.R.U.~.~.>.<.,.q.w.u K E +.! ! | ! ....X.X.o.o.........b D 8.m.J.J.J.v.d.v.G.P.I.I.G.G.G.b.x.MXKXFXmXFXCXCXFXHXHXCXbXhXhXFXKXKXKXHXHXHXGXZX@Xb v T c c l : # .         % : z Q W o.eXHXjXjXjXtXwXsXNXhXbXhXhXhXBXKXKXZXNXSXkXmXPXPXcXG.9.5.C.F.K.L.L.I.v.7.3.3.z.v.H.J.x.J X.o.O.O.O.X.L M M M m 9 5 5 M M M i 9 5 4 5 3.d.R.g.g.B._ g.f.Y.g.j.1.4 i i M w.w.w.w.w.,.,.w.w.w.q 5 j F E F X.G B t g.f.h.s u.d Z.!.P.4X!.!.!.T.J.J..XOX#X=XaXNXjXwXqXeXaXjXdXjXjXaXaXdXeXsXBXCXbXsXhXBXZX0XE l l %   . . # # # % - c R l T E E W o.o.{.*XZXAXAXGXGXGXKXKXKXHXHXHXHXAXSXVXaXqXaXsXeXvXFXvXOXx.H 7.z.3.A 3.j.j.F.v.x.X.T > $ P P ~ ~ ~ P P Y Y Y > Y Y > R T ).K 5 4 i 1.V.p.a.t.t.t.t.t.t.t.p.>.y 9 4 M 0.q L q q q 5 5 + @ % & & & & & & X g ` g._ / / / u.k.H.J.b.'.OX=X-XfX2X-X1X<XpXAX",
"jX|.X.G b W (./.b.G.F.F.F.K.F.F.G.9.3.v.v.3.j.R.T.H.H.n.z.z.m._.XXoXoXoX4XoXXX`.b Q +.+.Q +.o.D ;.;.;.;.<.<.<.,.V.W.W.q.>.,.q.,.,.q.w.1.K W Q Q ..G J .XXXI.Q.6XI.I.XXG.x.x._.7X$X:X$XoX_.'.'.x..X.Xx._.iXLXmXIXbXsXaXsXBXGXGXZXHXAXNXhX0X>XyXNXlXZXSX@Xb b E b b c z : : : : # # . .     . g W [.=XtXaXaXbXGXKXKXBXwXuXHXHXBXKXKXLXKXKXGXkXrXkXSXyX%Xx.b.0.0.G.F.C.F.F.v.H.T.oXm.z.b..X.XoX.XH F ........T E E O.O.O.O.o.o.o.W r.H 5 i q.4.y ;.R.U.~.U.U.U.U.~.U.V.>.>.q.1.m M W Q Q Q ! ....Q W X.W Q Q ! ! Q b v H m.J.F.F.v.v.F.H.I.I.I.G.G.G.7.$XmXKXKXbXvXsXnXGXHXCXbXhXyXbXKXKXGXHXKXHXHXKXqXo.b b T R R c # # .         . % z T E W }.lXAXjXeXyXsXsXsXbXhXhXbXnXBXCXBXnXVXSXCXCXKXKXMX5X9.C.Q.A.C.L.K.P.J.6.3.v.V 2.H.J.x.K X.o.o.+.).G q 5 9 9 9 9 8 8 9 9 9 9 0 9 4 4 e v.n.B.B.g.N.g.N.f.B.n.u e M u M i w.w.w.,.q.q.,.;.;.M m h L F ).x e t _ l.f.i.s s :.S.4X!.Q.!.!.F.P.oXb.oX5XOX>XaXZXZXjXaXaXaXZXAXAXZXNXjXjXjXnXnXCXnXsXbXZXNX).F v g .   . . X X # # : c b c b b E E o.].{.}.aXAXHXBXbXbXnXCXGXGXGXHXGXZXVXlXaXeXdXjXsXbXFXPXiX'.C z.z.7.3.Z j.s.d.z.x.X.R U $ P P P ~ P Y & - z z z z l l g L L M m 4 9 5.V.p.t.t.t.t.t.t.t.y.i.4.;.4 3 0 9 0 1 0 1 2 2 3 0 o @ q & & & & # + x _ _ / / / s u.h.H.J.b.'.OX+X*XzXzX-X<XpXaXHX",
"NX,X].E G W (.'.x.9.9.5.9.9.5.9.9.9.9.9.j.v.H.H.v.j.v.v.z.x.'.'./.'.'._._.'./.X.E Q ! R R T Q D i ;.;.;.;.y >.D.S.L.W.A.q.,.,.,.e.q.w.6.0.W E Q E F J _.XX.XI.XXXXI..X8.H H H %XoX:X7X7X5X$XOX`..X_.'.OXiXFXmXbXGXBXnXBXGXGXGXBXHXZXSXjXeX0XrXkXlXAXrXo.b b T b b l : : : : > # # # X .     + z X.+XeXjXjXNXCXGXGXnXwXuXFXLXBXKXKXLXKXKXKXNXkXaXAXjX#X'.'.b.0.v.F.K.K.K.F.G.J.XXJ.z.z.x._.oX.XK b E T T ........O.X.X.X./.(.(.r.oX9.m i w.>.;.V.R.U.U.U.U.U.U.U.U.k.s y 4.4.u 7.K W o.o.Q Q o.X.(.(.X.Q Q ! ! ..E F 8._.G.j.C.j.F.H.H.P.P.I.I.G.b.b.iXJXKXKXbXIXbXmXHXHXFXmXnXhXbXHXKXGXHXHXHXHXGX@XE b b R R c > # X .   .       % - z E W ].<XSXjXaXwXtXaXhXbXnXjXbXbXbXnXbXjXkXkXjXnXGXKXLXcXG.5.K.K.A.W.L.P.F.6.3.m.d.2.h.d.7.D X.).O.O.(.J 5 0 9 -.=.-.8 8 8 9 7 9 0 9 4 o O v.J.n.n.l.N.g.N.g.g.d.b.oX8XxX6X9.;.;.q.,.,.,.,.,.;.;.i h B J B h t S f.f.i.i.:.u.h.S.!.!.!.4X!.H.P.XX.XOX#XOXwXdXNXNXaXeXaXjXBXZXZXZXNXbXjXjXjXnXZXNXsXNXZXaXW F g X .   . X X # X # - c b b b b E Q o.o.].{.*XpXZXZXNXnXBXBXCXCXZXZXZXVXjXdXaXaXdXjXdXsXbXsXIXOX8.7.z.z.z.3.d.s.s._ ` D l < = P P P P = = . @ 0 0 @ @ @ @ o 0 0 o 3 o 4 6.C.p.t.t.t.t.t.t.t.p.V.V.;.4 o o o 3 1 7 6 7 7 6 2 0 o q % X . # - x S _ ( / / y.y.i.h.H.J.x.'.OX+X&X2X2X-X<XpXkXHX",
"ZXkX@XX.E W X.).'.9.9.9.F.F.9.F.G.XXG.9.3.v.H.j.C.v.G.b.x.` X.X.W W W X.X.X.X.O.....! R R T Q K 9 -.;.>.<.y >.S.~.S.S.W.S.,.,.,.q.q.w.6.K F b T b v F J 8.0.0.0.0.0.H D D K B x.oXoX7X7X7X7X7X$XoX_.%X9XIXmXFXCXHXGXGXZXZXCXCXNXSXSXSXjXyX0XrXyXSXlX}.b b E b b b : : : - ; ; % % # % X .   . + D [.eXBXCXBXCXGXFXCXhXyXmXKXHXKXKXKXKXKXKXHXkX0XSXCXwXOX'.x.8.b.F.K.K.K.F.F.v.v.m.z.z.H x.oXoXH b E T T Q o.E F J J ` x.x.r.'.'.9.6.M 1.1.i >.Z.R.U.U.U.U.U.U.U.R.R.u.y 4.w.9 3.0.8.r.r.r.r.r.r.8.x.G E Q Q Q Q E G x.m.v.j.V.Z.F.H.L.L.P.P.I.G.v.oXPXKXKXKXNXsXBXCXHXHXGXCXCXCXCXGXHXHXHXGXHXKXaX).b b b b c : % # # . . X X . . % - l b E o.}.kXjXdXwXqXaXsXhXCXNXbXvXvXhXsXdXaXpXkXNXGXGXPXcX4X5.C.L.S.L.L.L.H.6.3.J.n.h.h.2.A K ` ).X.X.(.8.u 9 8 =.=.=.=.=.-.8 7 9 w.XX0.5 o u z.m.l.n.R.g.N.c._ c.$XxXxXcXDX8Xq.;.q.,.,.,.,.,.;.;.i u C B u N S s.f.f.k.u.:.h.Z.T.!.!.!.4XP.P.J..X%XOX#X#XjXbXNXhXaXaXjXZXNXNXNXNXjXsXaXaXsXkXZXNXdXZXBX*Xv v +     . . + % % % % ; l b T b b E Q Q o.o.).{.*XkXZXjXhXBXbXBXBXnXNXNXjXdXaXdXaXdXkXaXaXsXtXvX7X'.H 7.v.v.d.s.s._ _ S x g ; > P P P P > >   1 2 2 2 1 1 o o o o o 0 5 5 6.F.i.i.t.t.t.t.t.t.y.:.2.V 5 0 0 3 2 1 7 6 *.*.6 6 2 o 5 q + X % F ` _ ( / ^ ^ t.y.i.k.J.J.x.`.@X*X1X1X1X1X<XkXNXAX",
"CXAX<Xo.E E W (.`.b.v.F.G.F.F.P.I.XXXX9.3.j.H.j.H.H.J.m.x.X.o.o.o.o.o.o.o.o.O...+.+.+.! Q +.o.J 9 ;.w.;.y >.D.U.U.D.S.~.E.p.,.,.q.q.w.w.K F b T T F F L L L L L J D D D K J K x.J.J.XXoX5X5X7X#XoX_.$XIXMXMXFXGXZXZXNXjXjXjXNXCXSXSXkXpXrXrXyXkXAX<XX.v E E b T b : : : ; % ; ; ; % X X       @ k W =XjXBXNXBXGXGXHXmXyXvXLXKXKXJXKXKXKXKXHXjX>XjXCXhX#X'./.x.b.F.F.F.F.F.v.v.3.z.M.m.z.z.z.x.H G O...E E W z k 5 e e e e 9 e m V i 9 9 4 4 2.L.U.U.U.U.U.U.U.U.U.R.k.y i i 4 M M M M M M L M M h M j v Q Q T E W G z.m.j.h.Z.S.H.H.L.L.P.P.I.F.G.7XJXLXMXCXBXsXCXGXHXHXGXGXGXHXGXCXGXHXHXGXHXGX#XG v b b c c > % % % X . X + . X % - l b E E O.,XaXjXeXqXaXsXtXZXNXNXbXsXsXsXdXaXdXlXHXKXCXIXxXxXG.5.K.S.S.L.L.P.5.6.F.Z.k.k.k.d.A H ` X.).`.x.m 9 -.=.=.=.=.=.-.8 9 I.8XDXxXXXM + C oXn.l.R.g.g.g.c.$XcXFXMXcXDXcX6X;.,.e.e.e.,.,.,.;.y i u u S _ g.f.f.k.k.h.d Z.T.!.4X4XQ.P.P.P.G..XoXOX@X0XBXjXdXaXdXjXNXZXbXNXjXaXqX0X0X0XyXsXCXNXjXGXdX(.z g X   . X X + % % % % ; g b E E E E E Q o.o.o.].}.pXVXpXaXNXhXnXnXbXhXdXdXdXkXjXaXdXdXdXaXdXtXwXwXOXH 7.b.z.d._ _ s.s._ S x x : > = = > > -   2 6 6 6 2 2 2 1 1 0 M 0.G.0.0.v.h.p.i.t.t.t.t.y.u.2.v.b.0.0..X9.9 6 6 6 *.*.*.6 2 1 0 5 k h D ` _ ) / / y.t.t.i.k.Z.P.J.'.OX9XpX2X1X1X2XpXjXZXNX",
"FXHXkX}...E E X.`.'.b.G.G.G.I.I.G.XXI.F.j.j.L.T.P.P.J._.x.(.].{.{.+.+.+.+.+.+.+.+.+.+.+.+.{.o.K 9 w.w.i y i.U.U.U.U.U.S.S.D.p.,.,.q.w.w.0.J E Q Q W W F L F J F W W W W W J K b.XXP.H.P..XoXoXOX%X`.5XPXPXMXCXGXZXVXjXaXrXyXjXCXSXVXjXpXrXaXlXSXlX].b E E b b b c : : : - ; - - - X . . X @     X g (.9XhXhXbXnXGXHXFXyXwXbXKXLXFXKXKXLXHXHXNXtXhXCXCX9X`.'./.8.F.K.F.F.H.G.v.z.z.m.m.m.H h e h G O.O.X.G W k k h u u i i i i ;.;.i ;.i 9 i j.Z.U.U.U.U.U.U.U.U.U.U.Y.:.y i i M 9 9 9 9 9 9 9 9 5 e e j E Q Q E X.K A d.j.k.U.U.Z.H.L.P.W.L.L.G..XxXJXFXmXCXBXaXGXCXGXGXGXGXHXHXCXnXCXHXCXGXCXhX).v n E n c c > ; - ; X . . X . % ; l l l b E E |.qXNXlXsXhXsXeXbXlXbXbXsXsXaXaXaXkXNXHXHXFXbXMXcXoX5.K.S.S.S.L.P.5.2.j.Z.D.U.U.Z.d.A ` ` x.'.b.u 9 -.=.=.=.*.*.=.-.q.xXcXDXPXPX7XK B m.m.n.n.g.B._ B.iXMXCXKXPXcXcX6X;.;.,.,.e.,.,.,.;.y i Z Z g.g.f.f.k.k.h.h.:.H.!.4X4X4XP.P.P.XXJ._.OX$X=XaXjXeXqXeXjXNXjXdXjXlXjXeX>X=X>XqXaXdXNXVXNXZX>Xv j X .     . + + + + ; ; ; g v F W E E E Q Q o.o.].].<XlXaXaXbXaXbXbXjXsXwXeXjXSXNXaXaXaXqXpXaXeX9XuX$X8.H z.z.d._ ( s.s.s.d._ ` n : < > > : -   2 6 6 6 6 6 2 2 0 0.6X5X5XoX.Xz.s.f.i.t.t.t.i.i.s.d..XoX$X5X5X5X9.;.2 6 *.*.*.6 6 1 3 e N A d._ ( / ^ y.y.t.y.p.Z.H.J.b.'.@XdXlXfX1X1XfXfXjXNXeX",
"HXHXSX,X+.E E X.`._.b.G.G.G.G.G.I.I.P.H.C.j.H.T.T.T.XX_./.(.].+.+.+.+.+.+.+.+.+.+.+.+.+.].].X.L M w.w.y >.Z.U.k.U.U.U.U.U.U.p.,.,.q.w.6.0.r.W W Q W Q W W W W Q Q Q o.Q W W K 9.4XQ.Q.P.J.J.m._._.OXiXLXLXFXHXHXZXSXjXaXeXeXjXSXlXVXlXkXaXkXlXSX,XE b E b z b z l : : : - - : : ; X . X + + @     X v +XaXhXsXsXGXHXKXbXiXuXHXKXFXKXKXKXKXKXKXCXbXGXKXuXOX)./.x.F.K.F.F.F.F.v.z.m.m.M.m.M.S e e G G O.(.J /.q M 1.1.1.;.;.;.;.w.;.;.w.1.i a j.H.U.U.U.^.U.U.~.~.R.Y.Y.h.i 9 i 9 4 9 i ;.9 8 9 -.i i e h J W Q W X.K A j.k.U.U.U.Z.H.L.L.W.L.L.J.4XcXJXJXKXZXnXeXCXCXCXCXGXGXHXHXGXnXGXKXGXHXCX,XJ v F E c c : > - > # X . . + X + % - l g z G E o.-XlXZXBXBXbXaXdXdXdXsXaXaXtXyXjXkXlXSXBXNXMXMXcX5XF.C.L.S.E.W.L.C.5.h.V.p.a.a.D.Z.l.d.S S H z.i 8 8 =.=.=.*.*.-.-.Q.DXcXvXbXFXMX9X8.h n.B._ B.g._ oXmXkXkXZXMXDX5Xq.;.;.,.,.,.,.<.<.;.;.4.j.s.f.f.u.u.k.V.h.4.Z.T.4XT.4X4XXXXXXXXX.X.X$X#X0XVXlXeXqXdXNXNXjXaXaXjXjXdXqX0XeXdXkXdXjXVXVXaX[.l ;     X   . + X + + k k k k g v X.W E E Q ..o.o.(.(.*XjXNXjXbXaXhXbXhXyXqXrXjXZXNXaXdXpXqXqXpX0X0XwX#Xx.H 7.z.d.s.u.u.u.s.s.s.` S x : : - g g o 2 6 6 6 6 6 6 2 9 6XiXiX7X5X$X_.Z _ u.i.i.t.y.i.d z.oX#X$X#X$XOX5Xw.1 2 6 6 6 6 6 o o u d.s.s./ / ^ ^ t.t.t.p.D.L.P.I.b.'.#XjXlX2X1X1XpXpXdXaX=X",
"HXHXAXpX X..Q W ).`..XG.F.G.P.I.P.P.P.L.Z.Z.Z.Z.T.T.oX_./.(.+...+.+.+.+.+.@.+.+.+.+.+.+.].[./.K 9 w.;.i V.U.k.k.U.U.U.D.U.U.a.p.<.q.w.M C r.r.W E E Q Q Q Q Q Q Q ! Q Q W r.0..X6X4X!.4XT.G.b.b.'.5XMXFXLXKXGXAXCXZXSXNXjXkXjXjXjXNXlXdXaXkXzXjX).G b T E b z l l : : : - : : ; X X X + + + O @ X X ; (.9XaXsXsXCXFXKXCXwXyXHXKXFXLXKXKXKXKXKXGXBXBXKXnX#X`.`.b.9.K.F.F.F.v.z.z.c.m.c.m..Xc.A S G n n /.J '.5 1.w.w.w.,.,.,.q.q.;.;.i ;.i i d.R.U.U.U.^.^.U.~.~.Y.R.s.2.V i u 9 9 9 9 -.=.7 =.-.;.i i m J /.W W G K z.n.Z.U.U.U.V.Z.L.L.W.L.L.P.8XDXJXKXKXnXhXeXCXCXCXLXGXGXGXGXHXCXHXKXGXHXhX}.D F b b c : > > > ; X . . X % X + X ; g - l G E E |.dXZXBXBXBXjXfXfXfXpXtXtXtXyXjXSXNXjXjXnXbXIXcXxXI.C.L.S.S.L.L.L.Z.h.p.p.a.a.p.D.Z.f._ S N A u 9 9 =.=.=.=.=.-.-.Q.DXDXFXBXnXhXmX$XN A n.d.B._ B.7XCXNXlXZXGXxXG.i 8 ;.,.,.,.,.<.=.;.4.H.Z.s.f.u.u.u.k.C.C.K.!.!.4XT.4X4XXXXXXXXXXXoX#X=XpXAXVXjXdXNXZXNXjXjXeXaXjXkXjXdXjXjXdXjXaXkXkX@XF g X     . X + + + + * k j j k g v W W W Q Q ....o.(.o.|.pXZXZXBXnXbXbXsXeXwXaXjXSXlXaXaXdXpXpXpX0XeXwXiXOXz.7.z.v.s.u.u.u.i.h.f.s._ ' n n l g g @ 1 6 6 6 6 2 2 1 M 6X7X7X7X:X:X$XM._ ( u.i.y./ u.g.m.$X,X#X@X@XOX9X0.o 2 6 6 6 6 2 1 4 2.k.( i.^ ^ ^ ^ t.t.p.D.S.L.P.J.b.'.#XdXlX1X1X1X2XfXjXaX=X",
"HXCXHXlX|.o.Q E (.`.XXb.v.J.P.K.I.L.L.H.H.Y.Z.h.H.P.XX_./.).+...+.+.+.+.+. X X]. X].].[.[.OX`.0.9 w.;.;.L.R.i.U.U.D.a.D.U.U.a.p.>.q.q.M M 0.r.r.r.r.r.W W E Q Q Q ! Q T Q r.8..X4X!.!.!.T.H.v.b.x.iXPXMXPXGXnXhXNXSXAXAXCXBXnXjXjXlXkXrX<XrXpXpXF X.b z E E z l c l l : - : - + X X + + + + + e + @ + D +X0XeXtXbXbXHXFXwXwXLXKXKXHXHXKXKXKXLXFXMXvXFXBX,X}.`.'.G.K.K.K.F.F.n.n.d.B.M.c.B.m.c.c.` x x x.8.'.5 1.w.w.;.,.,.,.,.,.;.;.9.6X6Xz.A n.Y.U.U.U.^.~.~.U.Y.R.a d.XXb..X9.w.;.9 8 =.=.-.-.;.i 9 M 0./.J K B A c.Y.U.U.U.U.h.Z.L.W.L.L.L.P.xXJXDXJXKXsXaXaXCXCXLXGXHXHXGXCXCXnXGXHXBXAXwXW v G b l : : > ; - #     . X * X + X + g g g n G G ].qXlXNXnXBXnXdXfXfXpXeXeXaXdXjXSXAXSXCXHXCXvXxXDXoXC.L.S.A.S.S.!.L.V.p.p.a.a.p.D.p.k.l.s.d a >.y ;.8 8 =.=.-.8 9 Q.DXcXPXCXnXnXbXDXoXN z.B.g.g.7XcXgXgXyXgXMX$X6.4 4 y ,.q.,.<.<.,.D.C.h.l.l.N.f.u.h.h.j.F.4X4X4X4X4X4X4XP.XXXX.XoX$X#X>XdXAXZXNXNXCXNXjXdXjXqXwXaXkXNXNXjXdXaXdXeXpXpX).g g   @     + + + * * e h B j j j v G E W X.o.......].(.].>XZXGXBXGXnXhXyXtXyXkXjXjXjXaXdXkXkXjXdXeXeXwXuX7X_.7.z.v.j.h.u.u.i.k.k.s.g.` ` ` x x k o 1 6 6 6 6 2 2 1 M 6X7X7X:X:X:X$X$Xc.S ( u.( ( f.n.%X:X=X+X+X@X$X5X0.o 1 2 6 6 6 1 9 ;.h.u./ i.p ^ ^ t.t.p.D.S.L.L.J..X'.`.=XkXzX1X1X<XfXlXVXdX9X",
"GXGXCXAX>Xo.o.E W [.`.x.G.I.I.K.K.Q.L.j.n.B.B.d.v..X.X/.X.].+.+.+.+.+.O.G ` x._._.0.'.'..XXX0.9.i y y >.W.D.p.U.a.a.a.^.U.D.D.S.;.;.>.i m 3.0.0.0.r.r.8.J J W W E Q Q Q W r.r..X4X!.!.S.4.j.v.z._.uXMXbXCXhXhXbXBXCXCXGXHXCXCXhXyXlXAXhX>X<XSX}.F G b b b b c : c c - ; l g + @ O O 5 e e 5 e K h h + + /.9X0XqXkXNXHXGXhXIXDXJXKXHXKXKXKXKXKXFXnXbXsXhXhX@XX.'.b.G.F.F.H.H.H.l.d.d.c.B.B.n.n.n.` S D B 7.7.9 1.w.w.,.;.,.,.,.<.w.6XcXDXPXiX_.N n.U.U.~.U.U.U.U.R._ _ 7XcX5X5XoX.X5.8 8 7 =.-.=.-.9 9 i 9.7.A A l.l.N.k.U.U.a.a.i.W.L.K.!.P.G.oXcXJXKXKXKXhXaXZXHXFXFXLXKXKXJXFXGXCXKXCXHXSX[.F F F b c : < ; ; ; X   @ O O + e 5 + e k j v b b ..Q |.kXNXbXmXIXbXdXpXeXtXaXdXhXNXZXHXHXHXGXCXbXLXxX7X3.P.A.V.E.E.E.~.E.D.p.D.D.p.p.p.i.i.p.p.p.p.,.<.=.8 8 =.-.8 y 1.6XDXDXDXMXMXFXDXMXm.H c.M._.iXDXgXgXgXiXiXn.2.i y i i ;.i >.>.V.h.h.D.k.k.k.k.s.s.s.2.v.J.F.J.oXXXXX4X4XoX.X.X$X#X@XqXZXAXAXCXNXNXNXkXjXlXqXqXeXjXNXjXjXjXkXrXfXdX*XF v @       O + + + + e h N N h B B x G X.o.O.E Q ..+.o.].).}.dXKXKXKXKXFXmXmXnXaXeXeXhXsXsXbXNXlXjXjXBXhXPXcX%X7.z.z.v.d.s.s.s.k.i.u.f.f.f.d.d.A e o 3 2 2 2 6 2 2 2 9 4XcXxX7X:X:X:X7X$Xc.S Z f.d._ M.:X:X$X@X$XOX7X5XM o 1 0 2 2 2 8 <.p.i.t.t.^ s / s y.i.U.S.S.S.L.J.G.'.OX0XdXpX*X1X<XpXlXjXeXqX",
"HXFXZXGXqX].o.E W ).[.'.'.G.I.I.W.W.L.n.n.B.B.c.m..X.X/.X.o.+.+.+.+.o.v k M M V 6.M w.M M 6.V 6.;.;.;.A.S.S.~.p.a.a.^.a.a.D.D.S.;.;.1.1.u V V M C C C M L L L L W X.Q W W r.r._.4XL.R.D.h.j.v.z.$XhXyXgXBXvXsXbXGXCXCXCXmXbXhXgXeXkXNXjXkXlXpXX.b b b b b T b l c : : l z ; + O O + e e e e m H M h 5 + j OXqX>XaXjXGXGXuXuXvXFXFXBXGXKXKXKXKXCXvXCXGXCXsXOX(.`.b.b.v.F.F.H.Z.l.g.d.g.n.B.Y.Y.B.c.` M.A C V 4 w.w.w.,.,.,.,.,.<.6XxXJXLXLXvX#XM.d.Y.~.~.U.U.U.U.R.c.:XPXLXbXIXxX5XI.8 8 -.-.-.-.-.9 8 i 1.4.s.k.k.U.U.U.U.U.a.i.V.W.L.L.T.J.J.5XDXJXKXKXKXCXbXHXCXFXJXJXKXJXLXKXGXGXHXCXHXdXX.b E E b , > < ; ; + + O + O O O w 5 e e e j F G v E E {.pXbXbXIXsXaXdXaXeXeXtXsXbXBXCXZXHXGXGXCXCXPXMXxXb.G.A.A.E.E.E.~.~.E.D.V.i.p.p.D.a.p.p.a.p.p.p.,.<.-.-.8 8 8 y y 5.5XxXDXDXDXDXDXDX$X_.b.x.7XcXcXcXcXxX7XoXR.n.j.4.i 4 y >.:.h.D.k.D.k.k.U.i.k.k.Z.j.j.v.J.b.J.P.P.L.P.P.J..X%X@X@X@XrXSXSXnXnXjXnXnXjXjXNXaXeXpXjXjXjXsXaXkXrXzXfX{.z %       O O + e e 5 5 u N N N N B B D ` (.X.Q Q ..+...+.].[.0XCXKXKXKXKXLXFXNXdXaXaXhXsXsXbXNXbXjXjXNXbXPXcX$Xx.7.z.v.j.d.s.s.s.i.i.i.k.k.k.f.j.Z i 8 8 2 1 2 2 2 2 3 w.oX4X7X7X:X:X7X7X$XM._ Z _ _ _.:X:X$X$X#X$X$X9.9 o 1 1 1 3 8 <.,.p.t.^ ^ ^ s s u.h.Z.S.S.L.L.P.J.b._.#XaXkX2X-X1X<XpXlXjXpXpX",
"HXCXHXZXdX@XW E E X.[.%X'.9.I.I.W.W.L.H.n.c.c.c.m..X_.x.W o.+.+.{.].X.j k M M ;.;.w.w.i i 1.m V i y >.W.S.D.~.p.a.a.^.a.p.D.S.S.>.w.1.1.1.a i i i M M M M M M h J W Q Q W r.r.b.oXZ.Z.l.j.n.z.x.iXvXwXuXBXbXhXbXGXGXCXmXbXhXgXyXhXkXlXSXSXAX|.b b b b b b T b c c : c G l + @ O + 5 e e u m C A C m k + @ J qX0X0XpXBXHXbXiXuXPXbXnXBXHXKXKXGXBXsXBXHXHXhX+X(.`.'.b.v.F.F.H.H.Z.n.d.d.c.n.B.Y.B.M.M._.z.A u 4 >.w.q.,.,.,.,.,.;.8XDXKXKXKXKXcX7Xn.l.R.~.U.U.~.Y.g.R.cXDXmXGXMXDXDX6X9 8 -.=.*.-.-.8 8 y >.h.k.U.U.U.U.U.U.U.k.i.S.W.L.L.P.J.XX7XJXJXJXKXKXKXGXHXnXFXKXKXLXFXLXKXKXKXBXjXNX=XF b b T c : > > : ; X + 5 e e O O e e e e e h F G n b E o.-XkXbXtXwXqXeXaXpXeXeXsXNXCXZXZXHXHXKXHXHXMXDXDXoX5.K.W.E.E.E.~.~.W.W.A.V.p.p.D.a.p.p.p.p.p.D.D.V.,.;.8 8 8 ;.;.4.F.J.7XDXDXJXPXDXiX7Xb.x.xXcXcXcXcX7XR.Y.R.R.T.L.>.4 y 4.h.h.k.V.D.k.k.k.k.k.Z.R.T.H.J.P.G.P.P.I.I.I.J.G.b.%X@X+X+XpXSXkXhXhXhXjXjXjXlXNXjXdXaXjXjXdXsXaXkXpXlXfXW g X     O O O e e k e 5 u N N N N B B B J /.o.o.......+.+.].].@XhXKXKXKXKXKXKXBXjXaXdXhXsXhXnXNXjXdXdXaXyXhXcX7X_.7.z.v.v.j.d.s.s.u.i.u.i.k.i.s.k.k.h.;.;.8 1 2 2 1 1 o 4 V v.$X7X7X7X7X7X7X$Xz.S ` z.oX:X:X$X$X:XoX.XV i 4 4 1 o 4 i V.p.y.p p ^ ^ p s s.Z.Z.S.L.L.P.P.J.b.`.9XNXkX1X-X1X<XpXlXjXdXdX",
"KXCXHXBXVX0XW W W W `.OX'.9.G.I.W.K.L.P.n.c.c.B.J.J.m.b.x.X.o. X{.].(.L M 0.5.q.q.q.q.w.5.w.u m V i i L.L.V.U.p.a.a.a.a.D.U.Z.h.;.1.1.i i i i ;.;.;.;.;.i i i e D E o.W W W 8.x.H.s.l.H.H.m.x._.uXhX0XuXnXsXbXBXGXGXGXCXbXhXgXhXjXSXSXSXzXdXX.b b b b b b b b b z l b G k + + + O e e e u M C C C M M 5   k @XsX0XeXbXHXFXuXiXmXhXbXnXCXKXKXGXCXbXbXBXGXCX0X[./.'.m.b.v.C.F.K.H.H.n.d.d.c.n.n.n.B.M.m.n.n.5.i ;.>.,.,.,.,.,.,.;.6XcXKXJXKXKXJXcX5Xl.l.R.R.R.R.R.c.7XJXJXmXKXKXLXJXXX9 8 -.=.=.-.-.=.8 ;.D.U.U.U.a.a.U.D.U.U.Z.Z.L.W.W.P.P.J.oXxXJXJXLXKXKXKXGXFXbXPXKXKXLXLXKXKXKXHXhXeXeX].v E b R c > > : : ; X + e e e e e u e e e e k v G G b E X.|.pXbXtXeXqXqXtXaXaXaXhXNXBXNXCXGXHXHXGXGXvXPXDX8X5.K.W.W.~.E.W.W.!.!.W.L.p.D.D.D.p.p.p.p.p.D.D.D.q.;.8 3 y q.C.C.j.d.oX7XcXDXcXcXxXiX_._.xXcXcXiX:XR.Y.R.R.R.T.L.4.i a 4.h.i.u.i.k.D.i.u.Z.Z.R.!.!.P.P.P.XX4X4XP.I.P.P.J.b.OX#X+X,XjXSXyXkXhXhXjXjXjXlXbXbXjXjXjXjXjXkXjXpXdXSX<Xb %     O O O * e e k e + e N C V C A C B J /.(.o.o.....+.+.].].[.wXKXKXKXKXKXKXCXjXjXjXbXhXbXNXnXdXpXpX>XqXwXgXcXoX7.b.v.v.v.j.s.s.u.u.u.i.i.i.u.i.k.k.D.V.;.4 3 1 1 3 4 i V d.m.%X:XiX7X7X7X:XM.H ` M.$X:X:X$X:X$Xm.z.j.2.1.i 4 4 y >.i.>.>.p p p s s u.h.Z.Z.Z.S.L.L.I.J._.%X9XSXkX&X-X1X<XpXjXdXaXbX",
"HXCXGXnXZXdX).X.X.E (.`.'.b.G.I.Q.W.P.T.R.n.B.R.J.J.J.m.x.` ` o.[.).r.M M w.q.q.q.,.,.q.w.;.1.5.XXG.9.F.P.Z.U.U.^.a.a.a.U.U.u.i i w.9.1.i i i ;.;.;.;.;.;.i i e D W o.W E G H z.n.s.Z.Y.n.M.x.$XvXbXwXvXnXsXbXBXGXHXHXFXbXhXhXhXCXSXNXjXrX*Xb G b b b b b c c b z v F v + O + 5 5 e m u u N C 3.C C B M 5 + J bXtXaXhXHXKXuX9XuXsXNXbXbXKXKXGXGXBXbXBXKXKXjX+XX.'.'.b.v.C.C.K.K.L.H.v.v.d.g.l.n.B.c.n.n.R.H.4.>.;.;.<.,.,.,.,.;.I.xXJXJXPXLXKXJXcXT.j.Y.R.R.Y.n.oXDXJXKXLXKXKXDXxX1.8 -.-.=.-.=.=.-.<.,.~.^.a.a.a.a.a.D.D.A.L.L.Q.Q.P.P.P.J.5XcXJXJXKXKXGXHXGXCXhXCXHXHXHXKXHXGXNXBXaXpX>XX.z E R c : > : : - + + e e e e e e u u u e e k k D X.b W W ].0XjXaXpXeXeXtXaXdXjXnXNXbXhXjXCXGXCXBXmXuXcXxXxXF.F.L.W.E.W.W.W.Q.W.Q.L.D.D.D.i.p.p.p.p.p.p.D.V.V.>.i 8 >.C.C.F.H.v.n.d.oXcXDXcXcXgX%XoXcXcXxX:XR.Y.R.R.Y.R.R.Z.Z.V.h.h.i.i.i.i.h.h.k.h.!.T.!.!.!.L.L.Q.XX4X4XP.L.P.P.J.b.$X=X=XeXZXSXyXhXhXhXjXjXNXNXbXNXNXbXjXdXjXhXkXpXzXlX@Xk +   @ O O O e e e e e O e N Z A 3.A A C H /.(.(.o.....+.o.].].).,XCXKXKXKXKXKXFXnXjXkXbXhXbXbXbXdXpXpX0XeXwXvXDX5Xx.x.9.v.v.j.3.2.s.h.s.i.i.i.i.i.i.a.D.V.:.>.y 3 o 4 4.j.j.v.z.z._.:X:X:X7X:X_.K ` %X:X$X$X7X$Xm.z.d.g.f.j.2.i i :.u.:.s s s s s / u.j.j.j.Z.C.F.F.F.F.G..XOXwXSXpX|.*X1X<XpXjXdXaXNX",
"CXCXCXjXNXlX+XX.o.W X.'._._.G.G.I.K.P.T.T.n.n.R.R.R.R.J.M.` ` ` /.r.0.M ;.q.q.,.,.,.,.q.;.;.XX8XxXDX5XG.F.Z.S.D.U.a.a.U.U.k.d i b.5XxX6XF.;.y ;.;.<.<.;.;.;.i i H X.X.F D D ` n.n.l.Y.B.c.` '.9XCXFXnXFXBXsXBXBXGXHXKXFXbXgXgXvXCXjXaXdXqX[.z b b b b b c c c b b F v k @ O e e u N V V m V 3.3.6.3.C H C @ 5 #XsXbXbXGXKXtX#X9XtXNXbXsXFXKXGXKXbXbXGXKXHXjX=X(.'.'.b.v.F.A.K.L.K.H.G.H.n.g.l.n.B.B.B.Y.Y.Y.Z.D.>.<.<.;.,.4.w.w.i XXcXJXKXKXJXJXDX7XR.d.n.R.B.c.7XJXDXJXKXLXLXiX9.4 4 8 =.=.-.=.=.,.E.~.^.a.a.a.^.^.U.~.S.L.L.P.Q.W.P.P.J.P.7XDXKXKXKXKXFXGXHXBXhXmXLXHXKXKXFXbXtXsXdXkX=XG z b R , > : : - % + 5 e m m u e e e u u u m h k j X.G W W o.*XdXjXdXaXtXaXsXjXNXNXNXnXhXhXBXGXCXCXCXvXuXxXDXoXv.K.W.S.W.!.!.W.L.K.K.C.Z.h.i.i.k.i.i.k.k.h.h.V.h.:.>.h.L.Z.Z.Z.l.l.g._ oXcXDXDXMX%X$XcXiX7XoXY.R.T.R.R.!.R.Z.U.U.U.D.u.i.k.k.u.u.Z.!.4X!.!.!.!.L.L.Q.P.4X4XQ.L.P.I.G._.#X9X,XaXZXVXeXhXkXhXjXjXNXNXbXbXNXNXjXdXaXyXeXrXkXpXo.+ .   @ O O * e e e e e w e u V 2.3.3.3.7.7.8.(.).o.....+.+.].].).@XhXHXFXKXKXHXCXhXyXwXhXsXsXbXbXdXpXpXpXdXwXvXJX9Xx.H 7.9.9.j.j.j.j.l.k.k.i.i.i.i.i.i.i.k.k.Z.:.4 O w j.j.d.d.g._ _ M.$X:X9X9X}.F K OX9X$X$X:XoXc.d.s.s.s.l.f.s.2.s.:.s s s s s s u.l.H.F.j.C.F.F.F.F.v.b..X#XyXlXrX@X*X1X<XdXNXdXaXVX",
"BXAXnXaXdXNX0XX.X.X.W X.'._.G.G.K.K.L.P.H.n.n.H.R.R.R.Y.n.c.` ` 8.0.0.1.;.q.,.e.e.e.q.q.;.5.xXJXLXKXDX5Xv.4.Z.D.U.a.a.U.k.k.g.m.xXLXJXDX8Xq.;.;.<.<.<.<.;.;.i i H J J B D ` c.B.N.Y.Y.l.c.M.%XgXLXKXLXHXBXbXGXZXGXHXHXCXbXhXbXCXCXhXaXjXqXW v b E b c c c c c b F F g + + 5 e u V V V a a V 6.3.3.9.3.7.7.5 + J uXbXbXCXKXsXUXqX9XbXsXtXCXGXFXKXbXhXBXHXCXjX>X).(.'.b.b.F.F.K.K.K.K.H.J.n.g.g.g.c.B.B.Y.N.U.R.U.D.>.<.<.;.;.;.1.5 7.$XxXJXKXDXJXJXDX7XM.M.m.m..XcXKXKXKXKXPX5XXX6.9 9 8 8 8 =.<.,.D.~.^.U.a.a.^.U.a.p.D.S.L.P.P.L.L.P.P.J.oXxXJXKXJXKXKXCXHXKXnXhXCXHXHXHXGXnXyXeXaXjXlX|.b b c R > > : : ; + + e u m u e e e e u u m N m h j F J W W W [.pXVXdXaXsXhXhXjXNXNXCXNXsXyXbXCXZXZXHXBXvXxXDX5Xv.F.L.L.W.W.W.K.F.F.F.L.H.Z.h.h.h.h.h.k.k.k.h.h.h.j.j.j.R.H.Z.Z.h.l.Y.s.g.oXcXcXcX%X7XxX4XR.R.R.R.!.U.R.R.U.k.D.U.U.U.k.i.i.i.u.V.L.4X4X4X4X4X!.L.L.Q.Q.4X6XQ.P.P.P.G..X7X9X>XdXSXjXyXgXhXhXkXjXjXjXdXdXbXNXjXdXaXeXrXpXdX*Xb +   . @ O + e e e e e e e e e f V 2.5.5.9.7.8./.).o.o...o.o.o.).].}.,XmXmXLXKXLXCXnXaXwXtXtXaXsXjXdXdXdXdXaXwXsXLXuX'.C 7.9.9.9.v.v.F.F.l.h.s.u.i.i.i.i.i.k.l.l.j.f w y 2.s.d _ g.d._ ` M.OX:X9X,XX.b +X7X$X$XoXc.g.l.s.f.f.g.l.f.f.h.u.s s s s s u.f.l.n.n.v.F.F.F.F.v.b.b._.7XjXkX2X*X*X1XrXjXSXdXaXBX",
"nXHXhXaXaXNXdXo.W o.W J '._.b.G.I.K.L.P.H.F.l.l.H.Y.Y.Y.Y.B.B.c.7.3.6.1.;.,.,.e.e.,.,.w.;.I.DXPXFXCXKXDXJ.a C.U.U.D.D.D.k.l.4XcXPXIXxXDXDX4X;.;.<.<.<.<.;.;.y y N K B B _ n.B.Y.l.Z.N.l.m._.%XhXLXHXFXHXBXnXKXGXZXGXHXCXbXbXPXKXCXNXnXBXqXv b E E b z c b b b b G v + + 5 e e V 3.V i i i a V 1.3.v.3.3.7.m 5 k iXMXbXBXKXIX9XsX#XsXtXwXBXFXCXKXGXhXbXZXGXAXeX).(.(.'.b.v.F.K.K.K.K.H.J.H.v.s.s.c.n.Y.Y.U.U.R.U.~.D.>.;.;.;.i i 9.x.b.oXiXMXDXKXJXJXiXoX_.z.b.7XJXJXKXLXDXiXK B 9.5.;.3 y y 8 ,.^.^.^.a.U.U.a.U.U.i.>.>.V.K.L.P.K.K.P.P.J.4XcXJXKXFXHXKXCXKXKXhXhXCXKXKXGXCXhXwXaXaXkXjX].l b c , > ; - - ; + e e u u u e e e u e u V N m m m j J J X.W (.0XSXdXaXhXjXbXhXjXNXZXbXeXqXyXbXNXCXHXHXFXMXDX7Xv.K.L.W.W.L.A.K.F.K.K.4X4XT.H.j.h.h.h.h.k.h.h.s.f.l.Y.j.H.h.Z.Y.k.l.k.R._ c.7XgXiX%XiX7XB.Y.T.R.R.R.R.~.D.i.i.U.U.U.U.~.k.:.:.Z.T.!.4X4X4X4X4X4XQ.W.Q.Q.6X4XQ.P.P.J.b.$XiXwX<XkXSXjXjXhXhXjXhXsXjXaXeXaXjXNXjXjXdXsXeXrXpX}.g %   + @ + + e e t e e e w w w t a 2.5.5.9.7.8./.).o.o.+.o.o.o.(.].).+XhXmXLXKXKXHXHXNXsXtXwXeXdXjXjXlXlXdXaXeXsXLXMXOX7.z.v.9.v.v.F.F.F.H.j.h.h.k.k.k.k.f.f.s.f.l.d.Z d f.f.s.u.f.f.s.d.S M.%X7XgX`.F }.:X:XoXc.d f.N.u.f._ _ f.f.f.l.f.( ( d d s.l.n.v.j.v.F.F.F.F.F.v.m.z._.9XBXlX2X1X*X<XpXVXAXkXdXBX",
"kXjXhXaXbXBXpX|.G o.X.J /._.b.b.I.I.I.L.P.H.H.j.H.H.Y.Y.Y.B.B.B.n.v.2.i <.,.e.,.,.,.,.;.1.9.xXKXHXAXCXJXcXv.i U.D.D.D.k.l.4XcXDXBXZXmXMXcX4X4.;.,.<.<.<.;.y y w u N _ c.n.n.l.Z.U.Z.Z.Z.z.m.7XmXLXmXCXFXBXHXKXBXsXBXBXhXbXHXLXbXBXBXZXVX[.W b b b b c c E b v G v k + + e e N 3.V i y u i e u 2.j.j.j.3.7.A h + /.KXMXGXGXGX9XsX=X9XsXbXsXbXGXKXKXyXbXHXZXSXjX@X(./._.x.9.F.F.K.K.I.F.G.H.H.v.j.2.d.l.Y.U.U.U.U.U.U.S.h.i 4 i v.oX$XoXm.M.$XcXJXJXJXJXiX`.x.oXPXLXKXJXPX$XN e x.v.J.F.>.4 8 >.~.^.^.a.a.U.U.U.Z.>.V.A.A.q.4.j.F.L.C.P.P.J.5XDXJXKXKXGXKXKXGXnXbXnXNXGXKXHXNXeX>XaXNXAX<XE v b c > < > : ; * h h e V a e w u Z f u a V V N N m h H /.J X.X.|.kXjXjXbXnXNXbXeXtXZXsXaXeXeXtXjXNXCXGXPXmXcXxXb.5.L.F.A.C.F.K.P.Q.Q.XXXXXXP.P.H.j.s.h.j.s.2.d.Y.R.R.j.H.Y.l.k.Z.U.Z.l.l.l.B.oXM.'.$Xn.Y.R.T.T.R.R.!.p.p p D.U.U.U.U.~.k.s :.R.!.!.4X4X6X6X!.!.!.Q.W.Q.4XQ.Q.Q.I.G..X7XuX>XqXlXZXHXnXBXBXjXkXhXaXaXdXaXaXdXdXdXaXyXeXpXrXF g +   + + + e e e e e e w w r t w y >.4.5.9.v.7.8.(.].+.+.+.o.o.].].).}.wXHXHXHXGXKXHXBXCXBXsXqXqXpXpXlXSXpXdXaXtXnXmX$XH 7.5.v.v.v.v.F.F.v.F.F.C.j.s.s.s.f.g.s._ c.c._ g.g.f.( u.f.f.f.f.g.c.` %X,X/.J ,X:X%Xc._ u.k.k.f.f.g._ f.f.f.B.f.g.s.s.d.g.n.v.v.v.F.F.F.F.F.F.v.b.b.'.#XnXkX1X1X1X,XaXVXNXbXbXjX",
"yXaXeXqXsXBXaX*XE X.X.J /.'.'.0.F.K.I.L.L.P.H.H.Z.H.Y.Y.Y.Z.Y.Y.B.Y.l.:.<.<.,.,.,.q.q.;.i 0.xXKXAXHXHXDXDX8XH.s.Z.Y.Z.l.R.8XDXPXBXjXsXPXcXJ.i ;.;.<.<.<.;.y i i s.d.n.n.n.N.N.U.U.Z.Z.l.n.oXgXJXLXCXCXCXCXGXNXtX9X9XqXtXhXbXuXuXBXCXbXqXW E T E c b c b b b b G h e + 5 e u V 2.i y y a a i a 2.5.j.j.5.7.7.C h H MXPXKXGXBXtXtX=X9XqXyXmXCXCXCXGXsXbXZXnXNXjX,X).o.`.x.9.F.F.K.I.I.I.P.P.P.T.R.H.s.s.Z.R.U.U.U.U.U.R.R.2.y 1.4X$XoXoXoX.Xb.oXxXJXKXKXvX$Xx.$XDXKXPXDX7XS N c.M.m.m.j.2.a :.D.~.^.^.a.p.k.U.l.:.L.!.6X6X4X!.T.T.P.L.T.P..X7XJXKXKXKXHXKXKXHXFXmXKXHXHXHXBXjXtXeXdXVXSX-XE c b c > < : : ; e h m u u u w e Z Z d t f a a V V N m B x.x.X.X.[.fXkXjXZXNXsXyXhXjXbXbXjXaXtXtXdXjXNXCXbXvXcXxXb.6.9.F.F.K.I.P.P.P.P.I.XXXXXXP.P.H.H.j.j.d.d.l.R.oXT.H.h.a :.Z.R.Z.h.h.Z.l.d.z.x.` H n.T.T.Y.T.4X~.>.y w <.U.U.U.U.U.R.i.s V.!.4X4X4X4X6X!.!.!.!.Q.Q.Q.Q.Q.Q.Q.I.J..X9XwX>XpXZXZXHXBXBXBXjXjXkXjXkXjXaXaXpXeXeXwXwXrXpX,Xv ; X   + + e e u e e w w w r r t f y i >.j.5.v.7.8./.).].].+.o.o.].].).}.,XCXHXGXGXKXKXGXHXGXbXdXdXdXpXdXlXpXpXeXeXvXMX#XH 3.5.j.v.v.9.F.F.F.F.F.F.j.j.j.s.s.g.d._ _ c.d.g._ f.f.f.f.i.u.u._ g._ ` %X` ` :X%Xc._ ( f.i.i.U.l.g._ g.g.g.B.g.g.g.d.z.v.n.G.F.F.F.F.F.F.F.F.v.v.x._.9XCXdX*X1X<X>XdXZXBXNXbXdX",
"aXaXeX0XdXBXkX>Xo.E X.X.X./.'.8.v.F.L.L.L.L.L.H.j.Z.Z.H.Y.Y.Y.N.Y.Y.U.Z.>.<.<.,.,.q.q.5.m M $XJXKXHXFXJXJXDX8XH.l.H.l.n.7XDXJXPXGXBXnXMX7X3.i >.;.<.<.;.y i a 2.l.l.B.N.N.l.U.U.Z.Z.H.H.J.5XcXJXLXLXnXnXCXCXsXqX9X#X=XwXyXwX9XwXvXGXhX+Xb b E E b c b b b F G D e e 5 e u a V 1.i i a :.1.a a Z 5.j.j.5.5.v.7.C C iXJXKXFXmXIX9X=X9X9XyXFXBXIXBXKXnXBXGXNXSXCXpX].o.).x.7.v.F.F.I.I.I.P.XX4X4X4XT.H.h.h.Z.U.U.U.U.Z.Y.R.d.u 5.5XoXoXoXoX.Xm.m.oXgXJXHXLX$XJ $XJXJXMX$X` _ c.c.c.n.d.2.2.j.Z.Y.U.U.a.a.U.N.h.d.v.6X8X8X8X8X8X4X!.!.!.4XoXoXxXKXKXHXKXKXHXHXHXFXbXeXjXHXHXZXjXeXqXdXVXkX}.b c R c > ; - - k e m u u u w w t d Z d f f a a Z Z V N u 7.x./.W ].<XkXjXCXnXyXyXjXnXhXnXjXsXaXaXsXjXbXCXyXwXIXcX.X6.v.F.K.L.P.P.P.P.P.I.I.P.XXP.P.P.P.H.j.j.n.R.oXoXoXT.Z.f w >.:.h.Z.Z.Z.j.v.z.A B A oXT.T.!.!.A.>.y 4 y i.~.U.U.U.U.U.s s T.8X4X4X6X4X4X!.!.!.!.Q.Q.Q.!.Q.Q.P.J.J.XX7X=X=XkXZXlXNXnXnXhXhXhXyXsXaXdXeXqXqX0X0X0X0XqXpX*Xg +   O + * e e u e w w w w t r r s f y f 4.5.v.z.8./.(.).].).o.o.).).].}.+XSXHXHXGXKXHXCXCXGXCXNXBXNXdXdXlXdXdXaXtXsXMX9X'.3.5.j.v.v.v.F.F.G.F.F.F.F.F.v.d.Z _ d.z._ ` c._ _ f.f.u.i.k.i.u.s.g.d._ ` ` ` _.B._ ( u.k.k.D.Z.d.S g.c.g.g.g.g.g.c.z.v.v.G.G.F.F.F.F.F.F.F.F.b.b.x.%XuXHXpX*X1X<X0XkXAXZXNXbXaX",
"jXjXsXeXaXbXdX<X[.G O.X.W X.`.8.F.I.P.L.K.L.L.L.H.H.j.Z.Y.R.Y.Z.Y.U.U.U.U.p.>.<.,.>.4.5.V e b.7XgXgXJXJXJXDXcX7Xv.n.n.oXxXJXJXLXHXKXPX7Xx.N a 4.>.>.;.;.i :.j.H.l.l.N.N.N.N.Z.Z.h.Z.T.oXoX7XcXJXFXHXvXyXnXnXsXsXsXwXqXwXwX,X9XwXwXBXhX[.b b E b b b b F v F F k * e e e u 2.1.a i a :.:.2.:.a a 5.j.j.5.5.9.7.7.C $XKXKXGXmXmX=X@XqXwXtXbXtX9XPXKXFXGXGXCXAXHXSX Xo.).'.x.b.F.G.P.P.P.XXXX4X4X4XT.4XT.h.2.k.Y.U.N.U.Y.g.s.2.n.oXoXoXoXT.T.oXoXm.$XMXHXHX$XB $XJXMX:X` _ B.B._ _ _ Z Z Z s.k.l.U.U.a.k.U.Z.s.H.4X8X6X6X6X6X4X4X!.4X4X4X4X5XcXKXKXGXKXKXHXHXKXMX9X+X0XZXHXZXdXeX0XpXjXrXo.c c R l > ; - ; k e m a a t w r t f d f f f f a d 2.2.V u C 8././.(.*XjXNXhXhXhXsXyXhXnXjXhXsXdXhXNXBXZXVX9X,XuXcX$X7.G.F.F.L.P.P.L.L.I.I.P.P.P.Q.Q.Q.P.T.H.j.H.R.oXT.R.R.T.2.w 4 y ;.V.S.Z.Z.H.m.A A _.4XT.T.!.V.y 4 8 4 <.D.~.U.U.U.U.h.a h.4X4X!.!.!.4X!.!.!.!.Q.Q.Q.Q.!.!.P.P.G.m.%X#X|.@XdXlXeXaXbXnXhXgXyXeXeXeXeX0X0X0X0X0XqXrXwXdX}.- +   O + e e e u e w w w r r r r s s y y :.5.v.b.8.8./.(.].(.].).o.).].}.}.kXAXHXAXHXHXCXCXmXBXGXGXZXlXlXlXlXdXdXdXhXmXuX%X3.3.5.v.v.F.F.F.F.F.F.F.F.F.v.v.a f A c.z.` c._ g.s.f r s k.Z.k.u.s.s.d.H ` M.` _ _ f.u.k.Z.V.>.e e d.n.f.g.g.g.d.c.v.b.F.F.F.F.F.F.F.F.F.F.F.b.b.b.OXuXCX0X*X<X<XrXjXGXGXBXbXtX",
"jXNXNXdXaXdXaX0X@XG O.X.X.W OX'.v.G.I.L.F.H.P.P.T.R.H.Z.l.Z.Z.Y.U.U.U.U.U.~.D.>.;.>.1.1.u C m.z._.:XJXJXPXJXJXxXm.z.m.7XcXDXDXJXDXcX7Xm.N u a 1.4.;.y ;.:.Z.Y.Y.N.N.N.N.N.N.l.h.H.P.4X4X$XiXDXJXmXLXbXuXnXbXsXbXNXnXbXuX9X,X9XwX9XbXeX(.b G E b b v b F F F v + e e e u V 2.:.a a :.:.:.:.2.d a 5.j.v.j.5.9.9.7.7.XXJXKXKXFXFX#X@X0XqXwXsXwX9XPXGXFXCXBXBXAXHXSX*Xo.).`.b.J.J.J.P.XXXXXXXX!.!.!.4X4X4XP.h.h.l.Y.Y.N.g.s.l.n.n.c.oXoXR.oX4XT.R.oX_.iXjXZX$XD $XDX7XM.c.B.g.( ( f _ d d Z s.f.k.N.U.U.U.i.s.R.4X4X8X6X6X4X6X8X4X4X4X4X4X4X7XDXKXKXGXHXHXHXHXGXuX#X>XkXSXVXdXpXaXdXpXdX-XW c b b : : : - ; h m u a f t w t f f s d d f f f d s.2.1.V V H '.`.(.|.jXNXhXhXyX9X0XnXGXdXsXdXjXNXZXGXHXjX=X@X9XuX$X7.J.v.F.L.L.L.L.L.P.Q.Q.Q.Q.Q.Q.Q.!.!.L.F.H.R.R.R.R.R.4XZ.i y y y y ;.C.L.H.v.z.M..XP.!.L.4.y 8 8 8 8 >.E.~.U.U.U.U.s.3.P.4X4X4X4X!.!.!.!.!.Q.Q.Q.P.!.!.!.T.T.J.m._.,X X*XlXjXaXsXCXCXnXhXhXhXdXaXaX0X0XqXeXeXyXyXpXlX].g +   O O e e e u e w w w r r r p p s f f i 2.v.b.8.8.W (.[.).).o.o.).}.}.}.@XhXCXCXHXKXKXHXMXmXGXKXHXSXlXlXlXaXkXjXyXbXuXoX3.3.5.v.j.F.F.F.F.F.F.F.F.v.v.v.2.u V z.z.` ` ` c.s.f w w f 4.V.i.u.s.d.z.z.M.` _ g.l.k.h.:.i 4 O 4 z.n.g.g.f.g.g.z.m.m.F.F.F.F.F.F.F.F.F.F.F.F.b.b.$XuXhX,X*X1X<XrXlXHXZXBXbXtX",
"jXSXZXbXsXjXkXdX,XE O.O.X.J OX_.9.F.H.I.K.L.P.P.H.R.R.Z.2.:.h.Z.U.U.U.U.U.!.!.S.>.;.i a 2.v.J.z.A M.7XDXJXKXKXMX`.H _.iXDXDXJXJXxXoXn.n.d.2.2.a >.;.;.>.Z.Y.Y.N.Y.N.N.N.N.g.s.2.XX4X4XoX$XiXJXKXMXFXCXbXnXbXsXsXbXGXKXmXyXyXhXhXwXgX#XG v n E T b v b F G K j + e e u V 2.2.:.a s :.:.:.:.2.2.2.4.5.F.F.v.v.9.9.9..XcXJXKXKXGX9X=XqXwXwXvXvXIXCXGXGXBXjXnXSXHXAX1Xo.(.`.x.m..XJ.J..XXXXXXX4X4X4X4X4X4X4X!.Z.j.n.Y.s._ B.R.B.g._ c.oX4X4XT.T.R.R.m.$X@X:X%X` %X:XM.M.B.B.f.( ( u.( f f Z l.l.f.f.U.U.i.u.Z.4X8X4X6X6X6X6X8X8X4X4X4X4X4X4X7XDXKXGXHXHXHXHXKXFXuX#XkXSXZXjXaXaXkXlXpXfX&XE b b c : - : ; k h m u a t t t t f f d s.( d f f d s.2.2.2.V C x.`.(.).aXnXnXnX9XOX9XHXHXjXhXjXNXBXZXGXHXVX>X=X9XiX7X7.J.G.F.H.L.L.L.P.Q.Q.W.Q.Q.!.!.!.!.!.!.L.L.Y.R.R.R.R.4XT.4.i ;.;.8 8 >.q.F.H.z.z.J.P.P.4.8 4 8 8 8 8 ,.~.E.U.U.U.k.Z v.4X4X!.4X4X!.!.!.!.!.!.Q.Q.P.!.!.!.T.T.J.m.%X0X+X2XlXjXjXbXLXmXnXjXjXnXNXlXjX0XeXaXjXjXjXhXdXdXW g + O O + e e h u e w w r r r p p p p s f w Z z.z.x.8.r.(.[.].].o.o.).].}.[.|.rXSXSXGXKXKXLXmXFXKXKXHXSXlXkXlXrXkXjXyXvXgXOX3.3.5.v.j.C.C.C.C.C.K.F.C.j.v.n.H.Z Z d.z._ ` c.d.d.s.y O 3 9 ;.V.i.h.j.z.` ` ` g.f.f.k.:.y 4 3 o u n.n.l.l.g.l.g.n.n.G.G.F.K.K.K.K.K.F.K.K.F.G.v.m.5XMXhX>X*X*X>XeXNXHXBXbXsXeX",
"NXZXZXNXBXZXZXVXrXX.O.E (.J [._.z.F.G.K.K.L.P.P.F.H.H.F.j.h.C.Z.Z.U.Y.Y.U.R.!.!.C.i y 4.H.Z.Y.Y.n._ m.7XMXLXJXJX7X'.OXMXJXLXLXcX5XH.j.Y.R.Y.j.>.a >.:.C.S.Y.Y.l.N.N.N.f._ _ d.z.oXXXXX.XOXgXKXHXFXPXCXmXbXbXbXtXsXBXHXHXFXLXLXLXnXyX}.v v z b E v b v F J D k e e e u Z 2.d a :.:.:.:.:.:.s.s.s.4.5.j.F.F.v.v.9.7.b.xXPXFXKXLXsX=XtXhXsXIXnXCXCXGXKXZXsXyXjXSXAXpXo.X.'.x.m._.b.J..XXXXXXX4X4X4X4X!.!.4X4XoXH.n.g.s.g.R.R.B.g._ f c.R.R.R.!.T.R.%X%X/.(.X.` M.M.z.B.l.f.N.N./ ( f f d g.l.l.f.f.Z.s.u.Y.4X8X8X8X!.!.6X6X6X8X4X4X4X4X4XoX7XJXKXGXHXHXAXHXHXFXMXtXhXlXSXzXaXdXdXdXkXfX Xb b b l : - l k k m N u u t t t f f f ( f.( ( f f d :.h.2.4.V C H '.(.(.0XnXnXCX0XOX9XGXCXjXjXNXNXBXZXZXAXZXaXeXtXuXiX7.v.G.F.F.H.L.L.L.L.W.W.W.!.!.!.!.!.!.!.!.R.H.R.R.R.T.T.!.K.i y ;.;.y 9 i 5.H.d._ m.P.1.9 8 8 8 8 8 -.E.~.D.U.U.k.u.1.J.4XoX!.!.!.!.!.!.!.!.!.4XQ.P.T.!.!.T.J.m.%X$X0X@XdXlXdXNXCXFXbXhXhXnXNXNXbXkXpXaXkXNXNXNXnXjX<Xl g X + + * e e e e e w w r r r p p p p s s t a d.z.x.x./.(.[.].].).).].].].[.|.kXHXSXCXKXHXFXLXKXKXKXAXSXjXpXkX<XdXjXuXvXbX$X7.9.9.9.C.C.C.A.C.C.C.C.Z.j.j.j.H.l.s.d.z.z.` z._ n.v.a 4 o 1 8 <.>.h.j.3.A H _ c.g.s.d y 4 3 3 5 9.J.n.l.g.g.l.l.n.n.G.F.F.C.A.K.K.K.K.K.K.F.G.b..XiXmXtX-X=X-X<XyXAXHXbXdXaXqX",
"ZXZXNXbXBXGXAXSXpXo.X.G (.G `.`.z.v.G.G.K.I.I.I.I.F.F.H.T.!.L.Z.Z.Z.Y.T.R.Y.Y.R.j.a i j.Y.Y.R.l.R.n.d.z.$XDXKXJXHX#X9XLXFXDXcX$XH.Z.R.R.R.R.Y.:.a :.V.Z.Y.Y.Y.N.N.B.N.g._ d.n.XXXX.X'.'.OXvXKXCXKXCXnXbXsXnXBXaXwXtXsXnXCXLXHXHXHXeX}.l b l b E v b b F J j e e e e u Z 2.a a :.:.:.u.s.2.s.s.s.2.5.5.j.v.v.9.9.9.7.7XcXMXKXLXFX+XtXFXbXwXtXbXbXFXKXBXwX9XwXjXZXlXo.o.)./._..Xm.m..X.XXXP.Q.4X4XQ.4X4XP.4X8X4XH.2.n.R.R.R.B.B.g.t e f Z.!.T.R.4X$X%X%X` ` /.M.M.B.n.Y.Y.l.u.s w w f j.Y.H.f.f.l.h.C.R.!.8X8X4X!.8X8X8X6X4X4X4X6X4X4X4XoXiXJXKXGXHXHXAXHXHXCXLXHXNXSXVXdXeXaXdXpXSXfX{.b b b : : - g k e M V u f t t f f f s ( u.( ( s f s :.2.4.2.6.3.C x.'./.=XNXsXnXjX=X>XbXnXhXjXbXNXBXZXZXZXAXlXjXhXIXxX8.v.v.v.F.F.L.L.L.L.W.W.W.W.W.W.W.W.W.!.!.L.Z.Z.Y.Y.T.H.4X!.;.y ;.;.-.9 8 y 2.n.v.v.5.y 3 8 9 9 8 8 <.E.~.p.D.U.U.u.5.XX4X4X4X4X!.4X!.!.!.!.4X4X4X4XP.4X4XT.J.m.oX9X0X,XlXSXdXZXGXBXNXjXnXNXZXBXnXsXsXhXbXNXNXNXNXlX*X% g X + + e e e e e w w r r r p p p p p s s s d d.z.z.x.x./.`.}.].].].].).].].|.kXAXSXCXHXKXKXKXKXKXHXZXZXlXaXpX=XrXaX9XgXvX#X7.7.9.9.9.j.C.C.C.C.j.j.j.l.j.j.j.H.n.d.v.c.` z.z.z.v.2.9 1 1 2 3 y 4.5.3.7.z.z.d.n.2.w 3 3 3 3 i P.H.s.g.f.g.l.l.n.F.F.F.C.C.C.K.F.F.F.F.F.G.G.b..X7XuX>X@X-X-X<XdXHXGXdXaXtX0X",
"lXZXVXdXjXZXAXjXyX).X.X.X.G F OXM.b.v.G.I.F.q.K.Q.P.Q.Q.Q.!.!.!.K.L.P.T.T.R.n.n.Z B.l.g.Y.R.Y.R.B.B.B.g.z.7XJXJXKX9X9XmXJXcXoXR.U.U.U.U.U.U.U.k.:.k.Z.l.l.Y.R.n.B.c.z.n.T.4X8X4X4XoXXX.XiXFXKXNXHXKXGXCXGXCXbXbXnXnXKXKXnXGXKXbXKXkXX.l v b E E z b F K H h 5 e u a 1.2.Z f a 2.Z s.s.s.s.s.s.d.d.2.3.F.F.F.F.F.5.G.oXcXcXPXGXGX0X,XCX#X@XsXnXhXBXGXnXwX9X0XyXNXZX|.o.).'.'._..X.X.XXXP.P.!.!.4X4X!.4X4XT.4X4X!.R.H.T.R.n.B.B.B.n.f y i >.D.!.4XR.oXoXM.` H H M.B.g.Y.H.2.f w w w Z.Z.Y.h.l.l.h.h.L.!.4X8X4X4X8X4X4X4X4X4X4X4X4X4X5XoXoXxXJXLXCXHXSXSXCXCXnXCXFXHXAXbXaXaXaXqXpXlXpX+.c c c : - k k h h m N u t t f d s s s y.i.i./ s u.u.d :.h.4.5.1.A 7.x._.$XeXeXaXjXdX,X0XNXaXkXNXBXBXVXNXVXZXdXsXsXFXPXXX7.b.b.F.G.J.P.L.L.L.W.Q.Q.W.Q.Q.Q.P.!.!.T.j.2.j.4XR.Y.T.T.4.;.-.;.;.-.-.8 9 1.j.d.i 8 9 3 8 -.=.8 ,.E.E.p.U.U.U.k.R.!.T.P.4X4X4X6X4X6X4XQ.Q.4X4XXXF.XX4XXXb._.OX#X,X>XSXHXlXNXGXdXkXVXjXbXGXZX9XOXOXUXGXGXjXVXNXlXo.% X X + e e e + e e w w r r p p p p p p s s :.s.d.z.v.z.z.b.`.}.{.].].].].].].].rXAXAXHXHXZXHXHXKXKXHXZXNXjXdXaXeXrXrXrXrXyXyX7.3.7.9.9.9.v.3.v.j.5.j.v.n.v.3.v.3.v.z.3.z.z.c.d.g.v.v.6.8 1 6 2 7 9 1.7.x.z.x.v.V y 4 1 3 8 3 >.Y.k.s.g._ f.s.j.H.K.A.K.L.F.H.F.F.G.b.b.b.x.x.8.`.$X+X@X*X*X@X>XqXZXZXqX=X>X=X",
"VXlXjXkXjXNXNXBXnX[.X.X.X.E F ).x.z.7.j.F.K.Q.6XQ.4X4X4X4X!.!.!.!.P.K.H.P.Y.n.d.B.B.B.l.g.N.Y.Y.Y.N.B.B.g.n.7XJXuX@XhXJXxX$XR.Y.~.^.^.^.U.U.U.k.k.l.l.l.g.n.n.m.m.m..XoX4X8X4X4X5X5X5XoXxXMXmXsXGXHXHXKXKXBXbXCXKXBXBXGXBXKXKXKXHXyXX.v b b T b z b G G D h e e V 2.3.2.a f d Z _ _ _ _ _ _ s.s.d.Z 2.v.F.F.F.F.5.F.XXcXDXLXKXKX=XOXtX9XsXGXnXtXtXCXHXNXsXtXhXHXVX+XX.(.)././.'.m.J.J.P.P.T.!.4X!.!.4X4X!.4X4X!.!.L.L.R.R.B.B.B.n.2.a i ;.>.q.L.4XoXB.B.m.` ` m.n.Y.Y.a w y y w i Z.Z.Z.k.Z.l.h.C.!.4X8X8X4X4X4X8X6X6X4X4X4X4X4XoX4XoX5XcXKXKXKXNXnXNXZXAXCXGXHXNXNXaXqXqX0X>XqXlX<XO.c c z - - k h h h N N u t f f d s s s y.y.y.:.s u.s s :.j.4.5.6.6.3.z.b.%XsXbXkXaXeXeXaXZXZXZXBXNXNXNXZXGXdXdXnXbXmXMX$X7.b.b.b.G.J.J.P.P.L.L.L.P.P.P.P.Q.T.4XoXoXH.3.d.R.T.R.R.R.C.;.y ;.-.-.;.9 4 y 2.2.4 4 9 9 8 9 8 8 ,.E.~.D.U.U.k.h.!.4X4X4X4X4X4X6X4X4XQ.Q.4X4XoXXXG.XXoXXX'.'.`.OX=X>XVXNX0XqXBXVXkXlXlXBXKXBXtXUX=XtXGXGXNXVXVXkXG X X X + e e e O w w w r r p p p p p p p p >.:.:.d.v.v.v.z.b._.}.{.].].].].].].].<XAXAXAXHXZXHXHXGXCXNXNXNXNXNXjXkXrX>XrXkXzXyX.X7.C 7.7.7.7.b.7.v.b.v.z.z.v.b.7.7.m.m.7.z.z.z._ d.d.v.w.9 2 6 7 6 3 9 M 9.x.7.5.9 3 8 7 7 3 3 :.U.f.s.f._ g.j.H.K.K.K.K.F.v.J.XX.X.X.XXX$X$X$X$X#X9X#X#X=X0X0XqXqXdXdX-X*X=X+X",
"jXpXpXkXjXaXsXNXHX+XX.X.X.E G W J H 7.v.F.L.Q.Q.Q.Q.Q.Q.!.!.!.!.!.Q.Q.H.j.j.n.B.R.R.R.Y.f.l.R.R.N.N.Y.R.Y.d..XxX7X$XDXDXoXB.R.R.~.U.U.^.U.U.U.i.U.N.l.l.g.d.g.z.v.J.4X8X8X4X4X4X4X4X5X5XcXPXKXFXCXCXGXKXKXbXsXGXBXsXhXGXKXBXnXBXCX0XX.v G b b v z b G G h e e e 1.3.5.V a a Z Z s.s.s.s.s.s.s.s.s.Z 2.j.F.F.F.F.F.F.J.xXDXLXGXKXNX=XwX9XwXtXwXaXtXGXKXKXGXnXnXGXZX>X(.X.`.`.'.'._..XXXoXoX4X4X4X4X4X4X4X4X4X4X4X4XT.Z.Y.T.R.B.R.R.Z.a y >.>.;.>.L.oXoXm.` x._.M.H.Z.h.w 4 i y w h.Z.Y.Z.k.Y.k.j.T.4X6X4X6X4X4X4X4X4X4X4X4X4X4X4XoXoXoX5XcXJXLXFXZXZXZXHXHXHXLXGXjXNXaXeXtXeXqXaXSX1X..c n l - g k h h m N V a i f s s / / s ^ / y.s s / s f :.j.4.5.6.3.7.7.z._.tXNXdX>X0XjXNXZXHXAXNXjXdXjXNXZXnXNXbXbXIXIX5XK x.x.b.v.b.G.G.J.J.H.J.J.J.P.P.XXJ.J.XXoXXXv.z.J.oXT.R.T.W.>.8 -.-.;.-.8 4 i 2.2.4 3 4 9 9 8 8 =.p.~.~.U.U.U.k.l.R.!.oXoXoXoXoX4XxX8X8XxXxXxXxXiX5X8XiX7X7X9X9X0XwXeXVXlXqXaXGXHXVXVXNXGXKXIXqXuXmXFXGXBXjXVXVXaXl X X + + e e h O * w w r r p p p p p p p p s s :.2.v.m.b.v.b.'.}.{.].].].].].].}.,XSXSXSXHXHXHXHXZXbXhXhXNXCXAXNXNXkXrXpXSXlXwX'.8.x..X.X.XoXoX$XoXoXoX$X5X5X5X5X7X7X5Xx._.z._ _ d.z.v.w.9 2 6 7 6 2 3 9 6.v.6.i 3 2 7 7 7 7 8 V.k.s.f.f._ l.l.Z.F.F.I.I.F.J.5XcXxXxXxXcXcXcXxXIXMXnXbXsXbXbXkXkXeXqXeXqX0X>X@X",
"dXeXaXlXnXsXsXNXZX@X(.X.X.W E F G J b.J.J.L.L.L.P.Q.Q.Q.Q.!.!.!.Q.!.4XT.j.j.Y.oXoXR.R.R.l.f.l.Y.U.R.R.Y.R.n.c..X$X$XgX:Xn.R.!.U.U.U.^.~.U.U.k.k.U.N.Y.Y.n.d.d.n.T.oX4X4X4X4X4X4X4X4X6X5XxXxXcXgXbXnXBXGXGXbXyXbXtXwXsXGXHXtX9XyXNX#XW v G G b z v b J K e e e e 1.3.3.V a Z s.s.s.s.s.s.s.s.s.d.d.Z a 2.F.I.F.F.F.F.G.xXJXFXBXCXsX9XtXsXbXbXeXyXBXHXHXGXKXHXnXbXHXpX(.F X././.'.'._..X.XXXXXXXXX4XXXoX4XoXoX4X4X4X!.H.H.T.R.Y.R.4XR.>.y ,.,.<.;.>.H.4XJ.S A m.m.j.>.w w y i y y Z.Z.U.k.Z.Y.h.H.4X8X8X4X4X4X8X8X4X4X5X8X8X8X8X7X7X7X7XxXDXKXKXKXKXHXHXKXHXHXLXGXjXNXjXaXsXbXbXZXAX*XO.n c l - g k h h m N V a i d d s / / / ^ s y./ s s s s :.s.j.j.5.6.3.7.H '.9XjXaX=X0XNXAXBXZXZXNXbXjXjXjXjXZXjXqXdXyXuXuX8.8.x.x.x.b.b..XXXXXXXXXXXXXXXXXXXG._..XXX.Xz.7.m.oXoXT.!.!.q.8 =.-.-.8 8 9 2.n.j.1.9 3 3 9 9 8 y p.^.^.U.U.U.l.n.oX4XoXoX$XoX5X7XDXDXDXJXJXDXDXDXJXDXDXLXLXKXHXHXBXkXjXlXjXZXKXZXZXZXNXNXBXIXuXIXKXKXGXBXbXNXSXqXg X X + e e e u O O w w r p p p p p p <.t.p :.:.d 2.j.n.m.v.v.b.}.}.}.].].].].].}.*XjXVXNXAXGXHXKXZXNXbXbXnXNXZXNXNXjXkXjXSXkX,X5XiXMXcXIXJXKXJXKXDXDXDXDXDXDXcXxXDXDXDX$X7X%XM._ g.d.v.9.i 3 6 6 6 7 2 1 9 1.i 3 7 8 7 7 7 8 8 S.h.u.f.f.s.l.l.j.F.I.I.G.G.oXxXcXxX7X7X7X9X9X7XuXhXhXhXbXbXsXdXdXeXqXdXkXdXqX=X",
"dXjXSXCXCXCXCXNXtX@X).X.X.W E F F J x.b.H.L.W.!.Q.Q.!.!.!.!.!.!.!.!.!.P.P.R.R.R.R.oXR.R.R.d y d U.!.U.Z.Y.Y.c.z.` _.%XB.R.T.U.U.~.~.~.U.y.>.k.U.Y.Y.Y.R.H.n.H.oX4X4X4X4X4X4X6X8X6X4X6X5XcXcXcXxXtXbXbXhXnXBXhXsXbXwXqXbXBXtXwXBXkX}.G v b G b c b b J D e e u u V 3.3.V V 2.s.s.s.f.g.g.s.s.d.f.g.2.a a F.K.F.F.F.F.v.7XJXLXPXBXKXbX=X@X9XbXyXtXBXHXHXGXKXGXhXtXBXeX).G W /.8.x._.'.b.b..XoXoXoXoXXXoXoXXXT.4X4X4X4XT.H.T.R.R.R.R.!.V.;.>.,.>.q.;.>.C.T.v.3.z.G.a y 4 y i i 4 i S.Z.U.k.k.Z.k.R.5X8X7X4X5X8XcXDXcXcXcXcXDXJXDXDXcXxXxXPXFXFXKXKXHXHXHXKXKXKXKXKXdXjXsXaXsXbXNXAXAX|.b n c - ; - * e h m V V a f d s s / / y.t.s y.s s s / d :.2.j.j.5.6.3.H 8.'.=XaXdXeXjXAXHXAXAXZXZXVXNXNXNXNXNXwX=XtXtXyXBXUXuXuXxXxXxXxXcXDXDXDXDXDXDXDXPXPXiX9X5X5X$X.X'..XP.4XT.!.!.V.y 8 8 -.-.8 ;.C.P.H.P.4.9 3 9 9 8 <.^.^.^.a.U.U.n.n.oXoX.X.X%X%X$XiXDXDXDXDXPXcXMXFXJXDXPXMXmXBXBXNXAXjXaXaXjXZXZXhXNXZXjXaXbXBXBXPXFXGXIXBXZXZXVX=Xg + X + e e h u O * w r r p p p p p <.t.t.t.t.y.:.2.j.v.v.v.v.m.`.}.}.}.].].].].[.|.pXjXhXBXFXGXKXGXZXZXBXNXhXjXdXeXyXkXjXkXrX0XyXIXIXiXuXPXKXmXMXMXMXuXiX9X9X9X9XcXDXJXiXcX%X_ z.c.z.v.9.;.3 2 6 6 7 2 o 4 i y 1 7 7 7 7 7 7 8 S.u.u.f.f.f.f.l.n.J.G.9.b.XX5XcXPXuX7X$X#X9XuXuXuXtXwXqXeXaXdXdXeXqX0XaXjXaX0X=X",
"dXSXHXSXCXHXGXnX@X=X).W X.Q Q E ; j H v.F.L.W.Q.Q.Q.Q.!.!.!.!.!.!.!.4X!.T.H.R.R.R.4XR.R.4Xs.w w <.>.D.S.T.Y.n.c._ ` c.c.oXT.U.!.~.D.i.p y >.U.R.Y.Y.n.n.n.n.T.8X8X6X6X4X4X6X4X4X6X4X4X5XDXDXcXcX9XsXsXtXbXGXBXbXBXwX,XtXnXBXBXGXyX(.F b b T b b b F G j e e m m A 3.3.V Z d.d._ s.g.g.g.f.s.d.f.j.s.a a F.I.F.F.F.F.v.5XJXKXKXGXKXHXtX9X9X9X`.W qXNXKXKXHXbXtXtXdXeX=X+X#X#X#X#X9X7X5X7XiXxXxXxXxXxXxX8X4XXXoX4X!.4X4XL.H.R.R.R.R.R.V.;.;.,.,.,.,.y i 5.P.J.3.a 4 y y ;.i ;.4 >.S.D.U.k.Z.h.l.oX5X7X7X7X7XxXcXDXJXJXDXDXDXJXJXJXuXiXiXIXuXsXnXBXGXKXKXKXKXKXJXCXyXjXsXaXsXsXhXVXAX|.b c l : - ; * e m N V V a f f f s / / y.y.^ s s s / u.u.s.s.C.F.5.3.7.7.8.'.@XeXjXbXZXAXAXAXHXAXVXNXNXBXAXAXbXeXwXyXwXtXFXFXFXLXLXDXMXMXDXKXKXKXKXKXKXKXKXKXKXKXvXiX9X#XOXoXJ.T.T.T.!.A.;.8 -.;.-.;.q.Q.P.F.Q.K.w.9 9 8 8 <.^.^.a.a.U.l.c.m.J.n.z.M.`.`.OXwXPXPXMXMXvXhXnXCXFXMXIXyXaXaXaXaXSXSXlXdXjXNXBXBXNXAXbXtXsXBXBXBXmXbXUXeXbXNXAX>X; X @ + e e N u w e t r r p p p p p <.t.t.t.t.y.:.:.j.v.F.v.v.m.`.}.}.|.}.].].].|.}.eXNXjXCXKXKXKXGXGXHXZXjXaXaXaXqXwXdXjXaXaXnXNXqXqXIXBXbXsXqXtXtXwXwXtXtXwX9X9XwXwXuX#XiX%X` z.c.d.n.F.1.9 2 6 6 6 2 3 i 1.>.8 3 2 7 8 6 7 ;.Z.i.i.s.f.g.s.n.n.m.z.7.XX5X9XiXmXIXuXiXiXwXiX9XtXyXsXsXhXbXjXsXaXaXqXaXjXaXqXpX",
"kXSXAXjXhXCXCXnX@XwX[.E o.Q Q E + k H b.H.L.L.S.W.W.W.!.!.!.!.Q.Q.!.4X!.P.H.H.R.T.4XT.R.4XY.a 4 4 8 <.V.L.R.R.n.c.c.B.n.R.!.~.!.D.>.y w y k.R.Z.Y.n.l.n.n.J.oX8X4X6X6X6X6X6X4X4X8X4X4X5XcXiX7X5X9XtXtXwXsXnXBXCXsX9XqXyXyXbXCXhX0XX.F b b E b b b G F k e h m V 3.2.V Z 2.s.s.s.s.g.g.g.f.f.f.f.j.g.a a F.I.F.F.F.F.v.oXJXKXKXKXGXHXqX#XOXOX).`.=XsXGXKXGXbXwXwXwXtXbXCXCXCXHXFXFXFXDXDXLXJXKXKXJXJXJXDX7XoXoX4X4X4X4XT.Y.Y.R.R.R.R.C.;.;.,.,.<.>.>.i i 4.F.a 4 4 ;.;.;.y ;.y V.S.D.k.k.U.u.Y.4X7XiXiXiXiXiXiXuXPXPXmXMXMXMXmXmXIXwXuXMXbXNXZXbXZXKXKXKXKXLXmXvXsXnXbXhXbXbXbXZXAX Xn c l l g ; * e m N V V f f f f f s / / t.^ s / / u.u.f.s.s.C.F.5.5.7.7.7.'.OXaXZXNXNXZXZXZXHXZXNXNXNXZXAXHXAXbXjXyXyXnXBXHXHXKXKXLXnXvXPXKXKXKXKXHXHXGXHXGXGXCXwX@X#X#X`.x.J.T.T.T.!.L.>.8 ;.-.8 -.q.Q.L.K.K.q.;.9 9 8 8 ,.^.^.a.a.U.k.z.m.J.J.m.OX#X#X,XhXCXCXMXgXkXkXlXlXZXbXbXjXdXaXaXdXjXSXZXNXNXNXNXCXZXAXNXsXbXIXsXIXBXbX#X9XdXNXAX,X+ + X e k e N u w w t r r p p p p p t.t.t.t.t.y.:.:.j.F.F.F.F.m.x.`.}.+X}.[.].[.|.}.eXZXnXGXKXKXKXZXCXGXZXsXeXtXtXeXeXaXjXjXNXZXtX=XeXZXVXtX9X=X>X#X+X=XdXBXsX0X>X#X#X#X$XiX$X%Xz.g.d.d.F.w.9 2 6 2 1 3 i 4.j.h.>.y 3 3 8 3 8 ;.k.i.k.u.f.g.Z n.z.b.m.XX$X7X9X9XCXCXCXFXCXhXwX9X9X0XtXsXsXsXtXeXsXdXeXaXbXsXtXNX",
"NXSXCXjXhXnXCXCX=XNX}.E o.Q Q E g D 8.b.F.K.W.W.W.W.!.!.!.!.!.!.!.!.Q.!.!.T.R.H.4X4X!.R.R.!.h.4 8 8 8 y >.H.oXn._ c.oXB.Y.!.~.,.<.<.>.<.>.Z.R.Z.Y.H.n.n.R.oX5X5X5X5X5X5X6X4X4X4X6X4X5X8XJXMXcXuX9XwXwXwXyXyXhXGXyXtXbXyX#X9XbXtX,XW F G b E b T b W v ; k h N C 3.V V Z s.d.d.s.s.g.g.g.f.s.f.l.g.l.a a H.P.F.F.F.I.v.J.DXJXKXKXKXKX9X9X,X#X`.`.9XyXbXBXGXBXtX0XqXwXCXKXHXFXKXFXmXCXLXCXMXMXmXLXJXJXKXDX7XoXoX4X4X!.4X4XY.Y.R.R.Y.R.R.:.y <.,.,.>.,.;.i i i 4 4 y ;.y ;.8 ;.8 S.S.D.k.k.Y.d Y.:X7XiXuXuXuX9X9XuXyXbXHXKXHXFXGXHXbXtXsXNXnXGXGXdXsXNXGXKXKXKXPXvXsXnXNXBXBXBXBXAXSX].n l : : g ; e h m V V V u t f f s / / / ^ p s y.i.i.u.u.u.2.C.F.9.9.9.7.H x.OXjXHXNXjXZXZXCXAXZXZXBXZXAXHXAXKXBXnXwXnXHXZXZXAXHXHXCXjXkXBXHXHXHXHXHXAXAXAXAXHXAX0XOX@X#X`.D m.R.T.R.R.!.V.8 8 8 8 8 ,.q.K.!.q.;.8 7 9 8 8 p.^.^.a.a.U.k.v..XoXXXoX#X9X=X*XqXAXCXvXyXkXNXlXaXjXdXdXkXdXpXpXdXpXjXNXNXGXCXhXyXjXjXdXbXbXtXtXbXIXbXUXsXGXZXNX}.+ + + k h e S u O w w r r p p p p <.t.t.t.t.t.y.s :.h.F.H.F.F.G.x.'.OX+X}.}.[.}.|.].qXNXbXGXKXKXHXNXNXBXNXaXeXtXqXeXtXtXsXNXNXsX>XqXNXbX0X*X=X,X*X@X*X>XaXdXaXqXaX>XwX=X5X7XoXz.z.d.d.j.H.5.9 1 2 2 3 8 1.j.2.:.V.:.y 3 3 3 9 >.k.k.k.s s.g.Z n.z._.$X7X9XOX+X0XyXyXyXsXsXsXsXsX9X9X0X0X0XqXtXdX0XqX0XwXjXaXqXbX",
"SXjXjXSXGXKXnX9X@XwX*XE o.E E o.F F '.b.5.K.W.S.W.W.!.Q.Q.Q.!.Q.!.!.!.!.!.!.T.H.R.4X!.T.T.!.Y.4 8 ;.-.;.y i H.R.d.m.m.R.4XV.y y <.p.>.y h.R.Y.R.Y.B.d.z..XoXoXoXoX5X5X4X4X4X4X4XoXXXoX5XiXiX9X9XtXtXtX0X#XwXbXyXtXtXyXwX#X#X9X0X0XG b E b E E b b F v + e N u 3.V 3.u 3.3.d.s.g.s.s.f.f.f.f.f.f.f.s.Z 2.F.P.K.K.F.j.v..XiXMXIXGXGXKXwX9XtX,X,X#X,XyXbXNXCXbXqX,XbXFXHXFXFXKXHXCXCXGXCXbXbXCXGXCXKXLXKXKXMXb.oXoXoX4X4X4XR.Y.R.Y.B.R.R.h.y >.,.,.>.4.>.y i i 4 4 y ;.;.y ;.y ;.S.V.U.U.U.l.l.R.$XiXyXtXqXyXsXeXwXwXyXNXHXZXjXkXlXnXBXBXaXeXnXGXnXwXIXKXKXGXuXuXmXnXCXnXbXCXGXGXHXSX].G l : g - ; * m C V V a u t f f / / / / ^ ^ y.i.s u./ u.d h.j.F.F.9.9.9.x.x.}.yXAXNXnXSXnXhXNXCXHXAXZXCXNXjXHXyX0XbXHXHXAXHXHXHXAXSXlXlXSXAXHXHXHXAXAXAXAXAXSXSX0X}.OXOX/.K A m.oXR.R.T.Z.;.8 8 8 7 7 ;.q.A.;.8 3 8 8 7 <.p.^.a.a.^.U.Z.G.XXXXoXoX$X=X+X@XpXHXAXSXjXjXVXlXzXpXaXkXjXlXkXfXpXkXfXdXZXHXHXBXnXhXyXyXsXbXbXnXFXBXwXtXGXKXnXBX).X + + e e u N V O w r r r p p ^ t.t.t.t.t.t.t.^ i.:.h.H.L.P.L.F.7.x._.OX@X[.(.}.].+X=XBXBXGXKXLXGXnXjXNXNXjXsXhXNXhXeXeXnXKXGXaXdXAXAXrX+X+X*X@X+X=X<XqX@X+XeXlX<X,XOXOX%X'.b.z.z.n.g.d.n.j.i 3 3 2 3 ;.4.V.h.:.V.4.8 3 4 1 4 V.k.i.i.i.u.j.H.n..X$X$X$XOX,X=XrXnXyXqXwXeXeXeXeXtX0X=X=X0XaXbXbXsXaXaXdXaXeX0XqX",
"jXNXkXeXhXGXCXyXwXaX+XF o.Q Q Q F k K 9.9.K.Q.W.!.Q.Q.Q.Q.!.6XQ.Q.!.!.!.!.!.T.H.H.!.T.!.!.4XT.y 8 -.;.;.y y a v.m.M.m.J.C.;.<.>.>.,.<.i V.R.Y.R.n.B.m.oX5X7X7X7XiXxXxXxXiXxXxXxXcXxXxXIXIXuX9X9XhXqX9XqX9X9XsXBXsXtXyXtX9X,X9X>X,XF b T b E E b b G j + e m u 3.A 3.u 3.d.d.s.g.s.s.f.f.f.f.f.f.g.d.2.2.F.L.K.F.F.F.G.b.$X9X9XbXKXKX=XOX+X#X9X0XwXhXCXKXGXwX=XwXmXKXKXHXHXKXKXCXnXBXnXhXjXSXHXGXKXHXKXFXcXx.XXoX4X4X4X4XT.Y.R.R.B.Y.R.h.s >.,.>.q.;.y y 5.F.i 4 8 8 ;.y ;.y >.E.D.D.Z.Z.l.n.oX7XgXnXsXwXeXhXaXaXdXrX0XkXVXjXaXrXjXdXjXjXdXbXBXBXbXIXsXbXBXvXtXwXsXNXCXFXKXKXGXHXNX).n l l l ; + + h M N V V f f f f s / / / t.^ / u./ u.u.s.:.h.j.C.F.9.9.b.x.'.%XyXHXNXjXjXsXyXwXnXAXCXSXAXHXHXyXeXhXHXHXHXCXSXAXAXAXAXAXAXAXAXHXHXAXNXNXSXAXAXAXHXwX}.%X`.` H N z.oXR.B.R.Y.4.4 8 8 8 7 7 8 ;.7 7 8 8 8 8 <.~.^.^.^.a.a.Z.J.XX4XoX.X`.+X+X*XfXAXAXAXZXSXSXlXdXaXpXpXpXaXfXfXfXkXaXpXjXZXGXGXHXBXNXnXBXBXnXNXFXGXNXCXHXGXNXBX(.  @ e h m N N N O w r r p p p t.p t.t.t.t.t.t.^ :.s a :.1.4.4.4.3.8.'.OXOX).X.[.[.|.*XZXZXGXGXGXHXBXNXZXBXbXhXnXZXbXsXbXGXGXNXjXNXSXlXrXrXaXaX0XrXaXeXkXaX>X0X>X|.}.).`.'.8.z.7.d.g.d.d.j.v.V 4 1 1 3 8 ;.q.A.V.;.y 3 3 8 3 8 q.i.y.i.i.h.l.H.J.$X$X$X$XOX#X@XeXZXjXyXwXwXqXwXtXtXeXeXtXsXsXsXsXdXtXeXdXsXsXaXaX",
"eXNXsX,XyXCXCXnXBXZX=XG o.o.o.W W + h b.9.F.K.L.4XQ.Q.4XQ.Q.4X!.Q.!.!.!.!.!.T.T.H.R.!.!.!.4X!.a 8 8 q.;.y y w V v.m.J.5.a i ;.q.,.>.y >.Z.R.H.R.:XiXcXcXcXDXPXDXDXDXJXDXDXDXJXDXJXJXKXKXnXsXtXaXsXtX9XwXyXyXsXGXGXbXbXbXsXsXtX0X=Xb v b b E E b b G k + e e N 3.3.d.u 3.d.d.s.f.f.f.f.f.f.k.k.f.l.d.2.2.F.L.K.K.K.H.G.v.$XuXuXCXKXKX9X[.}.#XwXtXwXbXGXKXNXqXwXGXFXKXKXKXHXKXKXGXCXCXNXjXjXSXAXAXKXKXKXCXvXJ _.$XoXP.P.P.H.F.H.R.B.B.R.Z.a ;.,.>.>.y i 4.H.H.2.>.8 8 y y y y ,.S.S.Z.Z.l.l.B.oX$XMXNXyX>X9XrXwXeXdX<X,X0XkXjXdXpXdXqXeXNXbXsXsXbXGXbXtXtXbXBXbXtXwXBXKXKXKXKXGXHXlXo.n l z l ; + + e e u N a u f t f f / / / y.y.s / / u.u.s.:.h.j.j.5.9.9.v.b.x.`.eXHXSXkXyXrXeXrXNXAXCXBXZXSXnXqXsXZXKXHXCXNXSXNXSXAXAXAXAXAXAXHXAXZXNXkXNXSXAXAXHXgX#XOX`.x.M.S ` B.R.B.R.R.H.8 8 8 8 8 7 8 ;.7 8 9 8 8 y ,.~.^.^.^.a.D.Y.oXoXXXoXoX$X+X}.*XfXSXAXHXGXZXZXNXkXaXpXpXpXpXfXfXaXdXpXpXdXNXCXGXHXHXGXGXGXBXnXBXGXNXGXKXGXNXBXGX/.  @ + 5 e e u u O w r r p p p p p p t.t.t.t.t.y.y.s a >.>.4.q.5.9.z.b.$X$X`.X.[.}.|.@XSXBXNXCXGXGXCXNXNXbXsXaXsXaXaXNXKXKXKXNXNXBXjXyX>X0XyXrX,XjXkX,X>XeX>X=X+X}.}.`.OX`.x.b.v.z.d.g.g.d.n.3.9 2 2 6 6 8 ;.4.>.8 4 3 3 8 8 y V.i.i.i.i.h.Z.P.J.7X5XOX@X+X@X#XaXZXNXjXsXwX9X9XqX0XwXtXaXsXaXtXwXaXeXeXaXbXnXbXsX",
"rXSXdX0XnXGXNXZXGXHX0XE E E E E E + h b.9.5.F.K.G.G.P.XXG.G.P.P.4X4X!.!.!.!.!.T.H.R.!.!.!.!.!.:.8 9 ;.;.;.;.y y V J.G.i i >.,.,.,.<.y :.L.R.n.R.xXDXJXJXJXDXPXPXJXJXKXKXKXJXKXKXLXKXKXGXBXbXjXNXeXbXyXwXnXGXNXnXKXCXGXHXGXCXNXyX@XG b b b E T c b F % e h e A 3.3.z.N 3.3.d.s.s.f.f.f.f.k.k.k.f.l.d.2.2.H.L.K.L.L.F.5.7.7XJXPXNXCXKXnX=X+X=XwX9X0XnXBXsXsXbXFXKXmXLXKXHXHXHXHXCXCXCXBXlXNXAXAXSXGXKXHXCXbXJ x.$X.XJ.F.F.F.d.j.B.R.B.R.Y.>.i ,.,.y y V.L.C.j.j.F.;.y y 8 8 ;.D.S.S.Z.Z.Y.R.oXoX$XPXCXyX,X,X>X>X>X0X>X<XrXdXkXlXSXdX0XwXbXsXtXsXbXFXGXBXsXsXNXNXhXyXCXKXKXKXGXGXHXjXO.l z z l ; + + e e e m u u f t t f / / / y.y.s u.( u.u.( d 2.j.j.5.5.9.7.z.x.'.wXHXSXsXeXeXsXNXSXCXZXZXnXeX>XnXCXHXGXCXCXCXNXjXSXAXAXHXAXAXAXAXHXAXSXnXSXAXAXZXHXhX7X$X.Xb.m.z.z.B.R.R.R.R.Y.>.8 3 3 8 8 9 ;.8 8 8 3 8 >.D.^.U.U.a.D.Z.T.4X4XXXXX6X$X[.(.*XlXVXSXBXBXBXZXZXNXkXkXkXzXjXkXdXpXdXdXaXkXNXZXGXGXHXHXHXZXBXnXBXGXnXGXKXBXbXnXBXJ @ @ O O O 4 e u w w t r p p p p <.<.t.t.t.t.t.y.u.:.h.C.C.A.K.C.F.v.b.oX#XOX).[.|.}.|.VXVXjXbXBXZXZXBXNXsXwX0XeXtXsXBXKXKXCXBXGXnXjXeX,X@X@X@X=X>X>X+X*X0X=X*X+X|.}.[.OXXX8.z.z.n.s.g.l.d.z.d.i 3 6 6 6 2 7 8 8 3 3 4 8 4 8 <.S.p.y.i.i.V.Z.P.J.5X7XOX@X@X=X9XsXnXnXBXnXhXwX9X=X9X9X9X9X9X0XwXeXtXtXtXdXbXbXbXsX",
"jXVXdXdXHXCXjXHXZXCX0XX.W E E E b ; D x.7.9.G..X4XoXoX$XoXoX4XoXoX4XT.P.!.4X!.T.Y.Y.!.!.R.!.R.V.8 ;.;.;.>.;.i 4 i J.6.4 ;.q.;.>.,.<.y h.R.Y.n.oX7XcXJXDXFXFXPXPXFXLXLXKXJXJXJXKXKXKXKXGXZXZXZXZXyXnXsXtXBXKXBXnXBXbXCXHXGXGXBXaX|.G b b T E b c b b + e h u 3.3.3.v.V d.3.d.s.f.g.f.f.f.k.k.k.f.f.s.2.2.F.F.C.F.F.j.6.3.5XDXsXqXsXGXKXqX+X#X9X=XqXsXyXwXbXHXHXHXbXPXHXHXHXHXFXCXnXnXNXSXAXHXSXNXZXKXHXBXmXJ 8..XG.I.J.J.G.d.d.R.R.B.R.R.>.;.;.,.;.i 4.C.C.H.j.:.;.y y y 4 >.S.Z.Z.Z.Z.Y.oX7X7X7XCXHXbXwXwXwX0X0X9X0XrXaXaXaXjXlXjXaXtXsXaXIXmXbXBXKXKXNXsXjXjXaXNXKXKXKXKXGXGXHXkXO.v l l g ; k h m u m V V a f f f f / / / y.y./ u.u.u.s.d :.h.j.C.C.5.9.7.z.x./.0XSXNXhXsXkXCXAXNXNXCXNXyXwXeXKXGXnXhXBXHXHXNXCXSXAXHXHXHXAXCXFXHXHXGXAXHXHXHXGXHXuX$XoXm.7.v.b.d.z.B.R.R.R.H.H.i 4 3 4 4 8 ;.8 3 3 8 >.D.S.~.U.D.k.Z.T.T.T.T.4XXXXXXXX.X.*XlXzXjXbXbXBXGXGXBXjXlXlXVXVXlXdXaXlXlXlXbXNXAXHXHXHXKXHXCXnXnXBXCXGXCXCXBXnXhXyXD   @ + 5 e u u a u f f f p p ^ ^ >.>.t.t.t.t.y.y.s :.h.C.C.A.A.q.F.9.9..X5X$X[.[.|. X|.lXVXlXNXNXZXAXGXBXsXeXwXtXZXGXGXbXsXIXBXGXnXhXwX,X@X+X=X0X}.=X=XwXpX=X=X*X@X@XOX$XXX7.v.v.n.s.g.l.d.g.c.V 3 2 2 7 6 2 7 7 7 3 4 3 3 <.q.D.i.y.i.p.D.S.P.P.4X7XOX@X@X9XwXwXsXhXnXmXmXvXwX9X9X9X,X=X=X>XqXeXtXyXsXsXhXbXbXbX",
"AXVXdXjXZXbXhXHXZXjXqX+X>X,X<X*X<X*XyXgXiXxXcXcXDXxX7X7XiXcXcX8XXXXXXXP.T.!.T.T.R.Z.T.!.R.!.~.S.8 ;.;.>.;.y ;.8 a j.i 4 >.4.;.,.,.y >.Z.R.H.m.oXiXDXJXFXKXKXKXKXHXLXKXKXKXJXJXKXKXKXKXKXHXKXKXHXGXvXtXsXBXBXNXHXhXsXBXGXCXBXnXyX].b b b T Q b b E v k k m m A 3.3.v.V d.3.d.d.g.g.f.f.f.k.k.k.f.l.s.2.2.C.C.5.C.5.j.v.z.$XxXwXwXsXBXKX9XOX#X9X9X9X9X9XbXKXKXHXHXbXPXLXKXKXHXGXFXCXCXCXAXAXSXhXeXAXHXGXNXhXK H 7.0..XP.J.P.v.d.B.B.B.Y.R.q.;.;.,.,.;.i i 4.H.2.y 4 y i ;.8 >.S.Z.Z.Z.l.n.oX$X7X9XmXHXLXbXvXhXyXwXyXwX0XrXsXaXwX,XjXsXtXwXwXbXCXbXbXBXZXNXNXZXVXdXHXKXKXLXKXKXGXHXkXO.n l - - - g B B M C 3.V a f f f f / / / y.y./ u.f.u.f.d s.Z.C.C.F.v.9.7.z.z.(.>XNXNXjXjXBXHXHXZXCXNXyX0XhXHXHXnXsXhXGXKXKXZXHXZXZXCXCXCXBXnXCXHXKXHXHXHXHXHXKXFX7X_.b.b.0.G.G.5.d.n.Y.R.R.R.!.C.1.i 4 3 4 y 3 4 y >.S.U.U.U.U.h.h.H.T.T.T.T.4XXXXX$X[.[.-XpXpXdXjXNXGXGXGXnXNXjXkXkXjXkXdXdXjXlXjXdXdXNXAXHXHXKXKXFXnXnXnXnXGXbXbXCXFXbXyXD   @ 5 e e u V V V d f f p p p p >.>.t.t.t.t.y.y.s :.C.A.q.C.A.A.C.C.5.G.$X#XOX[.}. X|.lXSXSXZXSXNXZXGXBXsXtXdXbXGXKXKXCXBXCXBXbXsX>X@X@X@X@X=X>X+X*X>XpX=X*X>X=X,X,X#X5XXX9.v.H.j.s.g.g.d.c.n.5.i 7 3 7 3 2 3 8 3 3 3 3 8 ,.D.i.i.y.i.p.D.S.P.J.oXiX$X#X#X9XiXUXhXvXvXhXMXMXbXhXwXwX9X9X9X9X9X9X0XtXsXsXsXhXbXbX",
"AXSXNXVXNXhXjXZXjXyXsXdXHXAXAXAXSXSXAXPXDXJXPXDXLXMXuX9XgXDXcX:XG.P.4XXXT.T.T.T.T.Z.R.!.R.!.R.~.y y ;.<.<.y y ;.C.C.>.i i ;.;.,.>.y >.Z.R.H.B.oXiXDXJXFXKXKXKXGXKXLXHXHXKXJXJXKXJXKXKXJXKXKXKXKXKXbXsXbXbXnXCXHXnXbXCXHXGXCXnXeXo.G b b T T b b W g k h N C V 1.3.3.u A d.d.d.g.g.f.f.f.k.k.k.k.l.s.2.h.F.F.C.F.C.F.J.m.$XiXwXIXGXCXKXtX@X9XwXqX=X0XsXGXKXKXHXKXFXFXHXKXHXHXHXHXKXHXGXHXHXNXyXqXHXGXZXbXyXJ J M 7.J.G.G.J.v.d.n.B.Y.Y.L.S.,.;.,.,.;.;.y ;.1.i y 4 y i i y h.L.Z.Z.Z.l.n.m.%XOXOXbXHXKXCXPXvXuXwXyXwX0XwXsXyX>X@XeXwXwXwXwXvXbXuXsXhXhXbXZXHXSXlXBXKXKXLXKXKXGXHXjXo.n v - - - j M C C C 3.V u f f f f / ( / y.y.u.s.k.s.g.d h.Z.C.F.F.F.j.v.z.z.'.,XnXNXBXBXCXHXGXHXCXsXwXyXCXKXCXBXNXCXHXKXKXKXHXCXnXnXnXnXBXmXFXKXKXKXHXHXHXHXKXLX5X8.0.G..XXXI.F.j.j.l.Y.R.R.T.!.T.F.6.i e e i 6.C.S.U.U.U.N.h.h.H.T.oXoXT.T.4XXXoX#XOX|.1XfXzXlXlXNXGXHXFXhXjXkXkXkXjXjXdXaXdXjXdXaXeXhXjXNXCXKXKXHXFXCXNXhXnXsXhXBXGXBXhXD   O + 5 e u a a V a f f p p p p >.>.t.t.t.t.t.y.s :.C.A.C.A.E.A.A.F.F.b.oX5X@X[.}.|.|.lXlXSXZXVXNXZXAXNXaXaXnXGXBXCXGXKXKXGXIXqX9X+XOX@X=X*X=XqX0X*X=X0X+X+XqX=X@X#X$X5XXX3.3.j.j.f.g.g.d.g.c.v.5.i 9 8 3 1 3 0 3 3 4 w a h.p.y.i.t.i.D.S.W.Q.I.oXiX$X7X#X=X9X5XMXvXIXuXuXuXMXMXsXyXtXtXeXqX9X=X9XqXwXtXtXsXhXsX",
"SXZXHXAXjXjXnXnX0X0XjXNXAXjXVXSXSXSXNXhXKXKXMXPXbXCXZXkXhXFXvX$X7.J.oXoX.XJ.oXoXT.l.R.!.U.~.U.~.>.8 y y <.<.y q.L.L.K.>.8 ;.,.<.<.y :.L.Y.n.B.oXiXDXKXFXKXKXKXKXHXFXLXLXJXPXPXLXJXKXKXKXLXKXKXKXKXCXBXnXhXGXKXnXGXBXGXKXHXGXbXwXo.E E b T T b b W - k h B A V 3.3.A e V 3.j.f.f.f.f.f.k.k.k.k.k.k.h.2.j.L.L.K.P.L.P.J.G.$XiX9XyXKXFXKXhX,XwX9X,X9XBXKXFXGXKXKXHXHXLXLXLXLXFXHXKXHXGXCXHXKXZXnXkXHXAXZXjXtXJ 8.h C G.G.v.J.H.d.n.n.R.R.L.W.,.;.;.,.,.;.y i i 4 y i i y y i L.R.Z.Z.l.n.n.m._.`.`.MXKXKXLXFXvXwX9XqXwXwXyXyXyX0X,XwX9XqXyXsXvXMXuXvXvXvXbXnXlXjXkXsXCXHXLXKXKXGXHXlXo.n c g g k j M C C 3.3.V u t f f f ) ( ( u.i.u.f.N.s.l.d s.j.C.C.C.C.5.v.v.x._.,XjXCXCXCXCXGXNXZXjXwXyXHXHXCXGXKXKXKXHXBXLXKXKXFXmXnXbXCXCXHXKXKXKXKXGXHXKXKXKXKX5X8.0.G.G.G.P.I.H.j.2.l.R.R.R.T.4X4XoXJ.3.u F.P.T.Y.Z.U.k.h.l.R.oXoXT.T.T.R.oX.XoX%XW X.1XlXAXSXlXnXCXHXCXjXeXaXkXjXNXjXaXqXdXnXNXjXsXhXdXaXjXCXHXHXHXHXCXhXjXjXnXNXCXmXuXj   O 5 e u u a a Z a f f s s p p p >.t.t.t.t.t.:.y >.V.A.q.A.A.q.V.L.F.v.XX5X$X[.}.|.|.dXkXVXVXkXAXHXHXbXtXsXBXKXGXbXIXbXbXtXUX=X@X+X@X0XeXqXdXHXpX@X-XeX*X-XdX*X,X9X7XiX$X7.5.v.j.l.g.f.g.g.z.v.v.3.a 9 3 o 3 o o 4 w a h.u.i.i.i.y.p.D.S.W.Q.I.oX7XOX9X5X#X9X9XMXMXvXwX9X9XtXuXmXbXsXdXdXaXeX0X>X9X9X9XwXtXtXwX",
"wXNXHXGXNXsXeX0X=XhXCXNXNXSXAXAXSXSXAXAXAXAXSXNXAXAXSXSXSXHXSX}.8.H _.oXoXoXXXoXJ.H.R.!.~.~.~.~.V.8 8 y 8 ;.L.K.P.C.C.L.>.y <.>.y y h.Z.Y.Y.B.oXcXDXJXKXKXHXHXHXHXKXKXKXLXLXLXKXKXKXKXKXKXKXKXKXKXHXHXHXCXhXsXbXBXGXKXHXGXBXhXtX[.b E E E E v b E k k h M 3.6.3.3.G.e a j.Z l.s.k.k.k.k.l.l.h.h.j.a 2.L.P.K.P.L.P.K.P.J.5XxX9XwXHXFXCXmXsXiXiXyXFXLXKXKXKXKXKXKXKXCXvXLXKXLXGXKXGXHXKXHXCXCXGXHXAXaXBXjXbXG /.h j 8.b.v.F.J.F.2.n.n.Y.Y.Z.>.;.y ,.,.>.;.8 y y 8 y y y y >.L.R.l.H.n.n.m._.'.`.#XCXKXKXKXKXGXBXbXyXtXsXhXyXyXwX,XrXwXbXKXFXtXiXIXPXLXPXmXCXNXbXbXNXhXbXCXCXGXHXSXlX].c z z g k h m V A C 3.3.V t d d d ( / / ( i.f.f.l.l.s.2.h.H.C.C.C.C.j.v.v.b.`.9XnXBXGXHXGXHXZXeX9XsXCXAXCXHXKXKXKXLXLXLXKXKXHXHXHXLXFXFXKXKXKXKXKXLXFXLXKXKXKXKX9X7.7.G.F.P.F.I.P.H.F.j.j.F.H.H.oXoX4XoXz.7.v.v.v.H.H.Z.Z.Z.T.T.oXoXoXT.T.4XXXoXoX`.(.].1XlXSXNXjXkXjXNXZXAXkXkXkXSXjXjXVXNXNXZXGXZXbXsXsXjXdXkXNXCXHXHXHXSXNXeXjXHXFXmXvXh o 5 5 e u i V a 2.2.a f p s s p p t.t.t.t.y.y.>.s >.D.S.A.C.A.A.A.C.K.5.J.7X$XOX}.@X XpXlXzXaXZXAXZXNXbXbXmXLXKXMXwXtXvXtX=X+X}.|.>XaXeX0XrXzXVXqX*X>XdXdXlXlX>X0X9X9XiXoX7.3.j.j.j.j.j.v.v.v.v.z.z.7.C m e 5 O u V d.h.h.i.i.i.p.D.U.~.W.W.L.P.6X5X5X$X#X#X#XwXmXmXvXtX0X9X9X9XwXaXIXbXbXIXsXsX>X=X=X=X9XqXqXqX",
"yXyXsXNXnXaXwXqXjXZXZXNXCXCXBXCXSXSXSXAXAXAXSXlXNXSXSXlXlXSXlX|.J D W (.`.OX%XXX.XJ.R.!.!.~.~.~.S.y 8 8 8 y q.K.K.P.L.A.y 8 <.>.y f l.Y.Y.B.B.oXxXcXJXKXHXKXKXKXKXKXKXKXKXKXKXKXKXKXKXKXKXKXKXKXHXHXHXHXCXhXuXuXnXCXHXHXHXZXbXaX[.b E E E E v b G k k h M C 3.9.9.G.u u d.s.f.k.k.k.k.k.k.k.h.Z.Z.:.4.L.L.L.P.K.Q.K.L.G.5XcXiXwXLXmXbXMXbXuXhXmXKXKXKXKXKXKXKXKXHXCXnXLXHXLXGXHXHXHXHXHXGXGXGXHXZXdXNXjXBXW W h k 7.b.b.J.P.C.2.d.l.n.H.Z.Z.>.y y <.>.>.y 9 9 9 i 4 4 a V.Z.Z.l.l.n.n.m._.'.`.#XCXKXKXKXKXGXGXBXBXbXhXaXwXtXsXrXkXkXNXZXbXbXMXMXIXKXKXvXMXGXGXCXZXjXnXCXCXCXAXSXSX{.c z z k k j M V A V 3.3.Z f d d ( ( ( ( ( f.( f.N.l.s.s.j.C.C.C.C.C.F.9.v.b.%XuXKXFXCXGXGXZXaXeXeXnXGXHXHXKXLXFXPXFXJXKXKXKXKXKXKXHXFXFXHXHXHXHXKXJXFXJXKXGXKXGXUXK C F.F.K.I.J.P.P.K.K.K.K.F.H.P.G.J..Xz.x.7.z.v.n.H.R.T.T.P.T.XX4XXXT.T.4XXXXXoXOX[.}.<XlXAXSXnXhXjXjXNXSXkXaXlXSXkXjXNXlXNXZXHXHXGXBXBXBXlXlXVXZXHXHXGXZXSXaXkXAXFXDXcXh o 5 5 e i i V a 1.2.a f f s s p ^ t.t.t.y.y.:.>.>.V.D.A.A.V.A.A.A.C.K.j.J.7X#X@X[.|.}.pXVXjXaXNXBXjXsXbXFXKXKXLXvXIXmXCXwX=X=X,X,XpXkX<X,XrXzXzX<X<XpXkXpXpXpX=X>X=XUXiX$XA 3.5.v.j.j.j.j.3.1.A z.x.x.M.x.H A C A 3.s.s.u.i.i.p.U.D.S.E.W.W.L.P.4X5X5X$X#X#X,XwXCXFXCXbXtXqXqX9X9X9XtXsXIXIXsXsX0X>X=X=X=X=X=X=X",
"sXwXwXhXhXeXeXhXHXZXjXhXZXHXZXAXHXAXSXSXAXSXSXlXkXNXlXlXaXlXlX|.G D G J /.`.`.`._.m.J.T.R.R.~.~.W.y 4 8 8 4 y 1.q.L.A.>.y y ,.<.y d Y.R.Y.Y.B.oXxXcXDXLXKXKXKXKXKXKXKXKXKXKXKXKXKXKXKXKXKXKXKXKXLXLXHXKXLXbXyXuXmXCXGXHXKXHXBXhX[.b G G E E v F G k k h M C 3.9.v.J.3.a 2.d.f.k.k.k.k.k.k.h.l.Z.h.4.C.H.L.I.P.K.W.K.L.F.5XDXuXiXKXPXMXMXmXmXFXKXKXKXKXKXKXKXKXKXLXLXHXHXHXHXKXHXKXKXGXGXGXHXHXHXNXjXjXjXKX(.J h e H b.v.H.L.C.4.f s.H.H.H.Z.u.s y y ;.;.i 9 i i y 4 y 4.Z.h.h.H.j.g.z.m._.'.`.#XBXHXKXKXKXKXHXHXHXBXjXeX9XeXjXnXaXsXjXhXtXBXKXmXIXGXGXMXMXBXFXHXZXdXhXnXvXkXNXSXSX{.c z l g k m C C 6.V 3.5.3.Z a d ( f.f.u.i.f.( f.l.f.s.j.j.j.C.C.K.C.C.9.9.b.$XMXKXLXFXGXNXsX0XtXnXGXHXHXHXKXFXFXPXFXKXKXKXHXKXKXKXHXLXLXHXHXHXHXKXJXJXKXKXGXKXFX#XB M v.C.F.K.I.I.L.L.L.L.L.C.H.P.v.m.m.z.b.b.b.J.J.T.T.T.!.P.P.4XXX4XT.T.T.XXXXXX$X+X@X<XlXAXAXNXjXkXkXhXpXpXpXVXSXjXkXjXjXjXjXNXZXGXGXZXBXlXjXjXnXCXCXFXZXZXlXNXNXCXDXcXh o 5 5 e i u 1.V 1.2.2.a f s s p t.t.t.t.y.y.y.>.V.V.S.S.A.V.V.A.A.C.K.v.J.7X9X#X}.|.}.pXVXlXaXjXjXdXsXnXKXKXKXFXLXvXIXuX=X#XwXNXrXVXVX<X,XaXkXrXqXpXaXrX<X<X>X=XpX9XwXiX7XH 7.9.v.v.v.v.j.3.1.V 3.7.z.z.z.7.A A d.2.:.:.:.p.D.D.~.E.E.E.L.W.L.P.4X5X5X$X5XUX9XtXGXKXGXBXsXwXqX9X=X9XwXaXsXIXbXbXdXaXeXqX9X=X=X=X",
"aXeXtXaXtXeXjXKXZXnXyXsXZXHXHXHXHXAXNXlXNXNXlXkXkXlXlXlXkXlXzX|.G F G G W /./._._.M.m.R.R.R.R.R.!.>.4 8 8 8 4 8 w.4.;.y ;.<.,.<.i 2.Y.Y.Y.B.B.oXxXcXFXLXHXKXKXKXKXKXKXKXKXKXKXKXKXKXKXKXKXKXKXKXLXLXKXKXKXLXmXbXFXHXKXHXKXKXFXbX}.b G G E E v F F k h m N 3.3.v.v.b.v.a Z l.s.f.k.k.k.k.h.k.l.h.:.h.K.L.L.I.P.L.L.L.P.F.5XDXgXwXKXLXMXMXPXFXLXKXKXKXKXKXKXKXKXKXHXKXKXCXCXLXKXHXKXKXGXCXBXCXZXGXNXVXaXaXKX).J j k 7.9.9.F.L.L.C.t Z j.l.Z.Z.Z.Z.:.i y i 8 4 9 y 4 i 4.C.Z.Z.Z.H.j.j.v.m._.'.`.$XBXGXKXKXGXGXHXKXKXGXNXsX0XtXNXCXwXeXjXaXqXNXKXBXMXmXPXGXFXyXsXHXHXlXNXZXnXkXjXSXSX{.b c l g j B C 6.6.6.3.j.d.3.a d s.f.k.f.f.f.u.k.l.s.s.j.C.j.C.C.K.K.F.9.F.b.7XvXLXFXFXBXyX0XtXNXKXKXGXGXHXLXKXKXLXJXKXKXKXHXHXHXHXHXHXKXKXKXHXHXKXJXKXKXKXFXGXFX#Xj m 9.C.C.F.F.K.K.K.K.L.L.K.L.T.J.J.m.7.z.XXXXXXoXT.T.T.T.P.P.4X4X4XXXT.T.4XXXXX$X+X+X<XSXAXSXjXhXyXeXrX<XeXpXVXAXjXdXkXjXaXpXaXjXBXZXZXBXjXkXkXhXbXPXFXHXAXZXZXnXbXPXcXh O e e e i i 1.1.1.5.4.2.d s s s t.t.t.t.y.y.>.>.D.D.D.A.A.A.A.V.A.C.C.j.b.5XiX#X}.|.|.lXVXjXaXdXpXdXBXGXGXLXGXLXKXwX#X,X9XeXNXAXjXSXNXeXqXdXaX>XpXdXqX=X>X0X0X<XqX9XaXiXiXC 3.3.5.5.j.F.F.v.j.v.z.z.z.z.z.7.3.3.3.2.2.h.V.D.S.S.~.W.E.E.W.W.W.P.XX6X5X5X#XUXqXpXGXGXFXNXIXtX9X9XUX9XqXwXtXaXIXbXnXnXjXdXeX9X=X=X",
"hXsXeX0XeXbXHXKXHXCXhXjXGXHXZXHXAXSXkXaXaXkXkXkXkXlXlXSXlXSXlX|.G G E G G G v ` '.M.m.B.Y.R.R.Y.!.C.8 4 9 ;.8 8 ;.;.8 y >.,.<.y >.s.Y.n.Y.B.n.oXcXPXFXJXKXKXKXKXKXKXKXKXKXKXHXLXKXKXKXKXKXKXKXKXLXLXJXJXKXKXKXLXKXKXKXFXFXFXnXhX+Xb G G G E v F F k k m N 3.3.v.v.v.G.a a d.s.k.k.k.k.k.k.k.k.h.a C.P.P.L.L.L.L.K.L.Q.F.5XDXvXuXKXPXvXMXPXJXJXKXKXKXKXKXKXKXKXKXHXHXLXhXgXnXCXCXCXZXCXnXsXsXbXNXlXZXpXpXKX`.K B h 7.v.5.C.L.L.L.j.Z a s.Z.Y.Z.Z.Z.h.:.a 4 4 e i 1.j.H.Z.H.R.H.j.j.n.m.m._.'.`.#XFXFXGXGXGXFXGXKXHXHXHXNXyXsXnXnXyXsXNXnXaXbXGXFXIXbXBXKXHXsXyXZXAXjXNXSXnXhXkXdXfX{.b c l g k M C 6.3.3.3.3.5.3.Z Z s.f.k.k.f.f.f.l.l.s.h.C.H.C.C.S.L.K.C.F.F.b.5XuXFXLXnXtXqXyXBXKXKXHXCXGXHXLXKXKXKXHXFXFXHXKXHXLXLXLXKXKXKXKXHXHXKXKXKXKXKXPXCXCX#Xh e 9.9.F.F.F.K.K.K.K.K.L.L.L.P.J.J..XH C .X.XXXXXT.T.T.T.P.4X4X4X4X4X!.T.4XXXoX$XOX|.<XSXAXNXhXeXwX0X>X,X0XeXlXSXjXdXkXkXaXeXeXaXNXAXHXAXlXjXjXhXnXCXGXHXZXHXHXNXmXPXcXC O e e i i i 1.1.1.4.5.4.:.:.:.:.t.t.t.y.>.>.i.i.D.D.D.A.A.A.A.V.A.A.A.v.v.$XiX#X}.|.|.lXlXdXeXeXaXkXBXAXZXCXBXBXtX@X+X0XbXAXAXNXZXZXNXdXpXeXqX0XdXdX0X>XdXlXdXpX-XqXjXtXiXK 7.9.3.3.5.v.F.v.v.v.v.b.b.b.b.v.v.v.F.F.Z.S.S.S.S.E.E.E.W.W.W.W.Q.P.P.oX5X5X#X9XeXpXGXGXBXBXbXbXaXqX9X9X9X9X9XqXwXtXnXnXnXbXaXeX0X0X",
"NXsX9X9XhXKXKXZXZXHXZXCXHXHXHXHXAXSXkXaXaXkXkXlXSXSXlXAXSXSXzX}.G G E G G l ; G /.M.m.m.m.B.R.Y.4XL.;.4 8 ;.;.8 ;.;.8 ;.>.;.<.y h.n.Y.n.Y.B.n.oXcXDXKXKXKXKXKXKXKXKXKXKXKXKXFXCXKXKXKXKXKXKXKXKXKXKXJXFXFXJXKXKXKXKXLXmXMXMXbXhX@XF G G E E v G F k k m V 3.5.F.F.v.G.V u 2.s.l.k.k.k.k.k.k.h.:.a C.T.P.L.L.L.W.K.L.Q.F.5XDXvXyXgXgXIXMXDXKXKXKXJXJXKXKXKXKXKXKXKXHXCXhXgXhXCXCXhXnXnXjXyXeXaXjXlXZXaXdXHX`.K D k 3.v.v.C.K.S.L.R.j.2.s.h.h.h.H.H.H.R.j.i i V v.F.H.H.H.Z.j.j.j.H.J.J..X.X'.%X5XFXBXFXGXGXFXGXHXZXGXHXBXyXeXyXwXsXnXCXBXbXsXbXBXtXCXHXBXCXZXNXjXZXlXVXSXnXjXaXrX1Xo.b b l g g m C 6.3.3.5.3.3.3.2.2.s.s.k.k.k.k.l.l.s.s.j.H.K.C.A.S.S.A.C.F.F.v.$XuXKXLXsX9XtXGXHXKXKXHXZXHXKXHXGXHXHXFXCXPXHXKXKXKXHXHXKXKXKXHXHXHXKXKXKXKXKXFXBXGX#Xk 5 3.5.C.F.K.K.K.K.K.K.L.W.L.P.F.J..X7.7..XXXXXXXT.T.T.4XQ.4X4X4X4X4X!.P.P.XX$X$X+X|.<XAXAXjXeX0X0X<X>X>X<X0XzXSXjXdXkXkXdXeXwXpXjXZXAXAXVXlXjXnXbXCXCXCXSXHXHXSXFXDXDXz.O e e i i i 1.1.1.6.5.4.:.:.:.:.y.t.y.y.>.>.i.V.D.D.D.A.E.E.E.A.A.A.A.F.v.oXxX,X}.}.|.lXdXpXrXqXkXdXdXlXNXBXhXyX#XOX+X0XaXjXNXNXHXZXbXdXwX0XqXaXaXqX>XpXNXSXjXqX-XdXVXyXiX8.H 3.9.5.5.v.v.v.v.v.v.v.v.v.v.v.n.G.P.L.L.S.S.S.E.E.E.E.W.W.W.W.W.L.P.XX5X5X#X9XpXeXGXGXCXBXBXBXbXsXaXtXwXqX9X9X0XwXsXbXbXbXbXsXsXtX",
"jXeX0XyXCXKXHXBXBXHXGXBXGXHXGXAXNXNXjXjXkXlXSXAXZXSXlXSXSXVXkX[.E b G G E g % G /.'._._.m.B.R.R.R.T.j.i 8 i ;.9 8 ;.y ;.;.y <.>.Z.H.Y.n.B.n.c.$XDXLXKXLXKXKXKXKXKXHXKXKXKXKXFXPXHXKXKXKXKXKXKXKXKXKXKXFXPXFXJXJXKXKXLXMXvXMXmXBX*XG G G E E v G G k k m V 3.5.F.F.v.G.5.a d s.l.k.k.k.k.k.l.u.f 4.K.P.L.P.P.L.Q.W.K.L.F.5XDXvXyXuXIXmXFXJXKXKXKXKXKXJXJXJXJXKXKXKXHXAXCXBXBXBXBXeXhXNXNXjXdXdXkXjXZXkXVXAX`.J D e 3.v.F.C.A.A.S.L.H.H.Z.h.2.h.L.V.H.T.H.2.1.v.P.j.C.H.H.j.2.j.H.P.J.J..X.X_.OXiXFXBXBXGXGXFXGXGXCXBXCXbXwXwXeX0XyXCXnXsXbXhXyXBXsXZXNXdXlXAXZXlXHXZXZXZXSXSXlXrX XQ c b l k k B C 6.3.3.5.3.3.5.j.2.2.s.k.l.l.N.N.l.s.h.C.H.K.A.A.A.A.C.C.F.F.9.%XuXmXuXtXyXNXKXHXKXKXGXHXHXHXHXFXGXHXGXCXFXHXKXKXHXHXKXKXKXKXHXHXKXKXKXJXKXKXGXBXKX=Xk + C 9.F.F.K.K.K.K.L.K.L.W.L.P.G.P.XX7.7..XXXXXXXT.T.T.4X4XXX4X4X4X4XT.P.G.XXoXOX[.}.<XAXHXNXyX9X9X0X0X0X<X<XaXlXjXkXjXkXdXaXeXaXjXNXZXZXlXlXjXnXmXCXCXCXSXHXAXCXHXFXPXb.O i i i i a 1.1.1.6.4.4.4.2.:.:.y.y.>.y.>.>.p.D.D.D.A.A.E.E.E.E.A.A.A.F.v.oXMX9X|.}.|.zXpXrXpXpXkXdXdXdXkXaXqX,X@X}.+X=X,X>XpXlXNXNXbXaXqXwXdXnXdX>XqXbXNXdXdX-X*XlXbXwX9X/.C B 9.9.9.v.v.v.v.v.n.m.m.J.G.G.G.F.L.K.S.S.E.E.E.E.E.E.W.W.W.W.W.L.P.P.4X5X#X>XpXqXbXBXCXBXBXBXbXbXbXbXIXaXwXqXqXwXtXtXsXbXNXNXbXsX",
"yXwXsXZXHXCXBXHXBXKXGXbXNXCXnXhXaXkXjXjXlXNXSXAXZXSXlXSXlXjXaX[.Q b b E W g % G '._.%X%Xm.m.R.R.m.oXoX4.y 9 i i 8 i y y y y ;.4.l.H.H.l.n.c.c.7XDXFXLXGXLXKXKXJXLXLXHXKXKXKXFXCXLXHXKXKXKXKXKXKXJXKXKXLXPXFXKXKXKXKXKXmXbXMXGXKX,XE G G E E v G J k k m C 5.5.F.v.G.J.J.2.d 2.s.f.k.f.f.l.l.:.y V.P.L.K.Q.Q.L.Q.Q.K.K.F.5XJXvXuXuXmXKXKXKXKXKXJXKXKXKXLXLXJXKXKXCXCXCXHXAXBXnXnXrXkXBXAXAXNXjXkXlXSXlXHXHX`.J D e 3.v.C.C.A.A.L.S.L.L.L.L.S.Z.C.C.Z.F.j.1.2.j.3.j.d.5.h.j.H.R.T.T.XX.X.X.X`.$XuXFXnXbXGXKXGXGXHXGXCXBXhXeXyXhXsXtXGXhX9XnXNXhXZXNXNXdXaXlXSXlXSXlXpXaXeXeXdXrX|.o.b c b l k k B 6.6.6.3.5.5.5.j.j.2.2.s.k.l.Y.Y.Y.h.s.j.F.L.K.A.L.A.A.C.K.K.F.9.%X9XuX,XwXGXKXCXGXGXHXHXHXAXCXHXHXHXHXHXHXHXHXHXHXFXLXHXKXKXKXKXHXHXKXKXJXKXKXHXGXKX9Xk + C 9.v.F.C.q.A.K.W.L.K.L.L.P.J.XXXX9.3.9.b.G.J.J.P.T.4XXXXXXXXX4XXXP.P..X.XXX`.(.[.<XZXHXCXyX9X9XrXeXrX>X>XpXlXjXkXjXkXkXdXdXkXlXSXZXSXlXlXVXCXFXHXHXAXSXAXSXVXHXmXcX7.O i i i a a 1.1.4.4.5.j.j.h.s.u.:.>.:.y.>.>.V.S.S.A.A.A.E.E.E.E.A.A.A.K.9.oXPXwX|.|.@XlXpXpXdXdXaXkXlXkXrX=X*X@X*X+X*X<X>X=X<XrX0XhXNXaXqXsXNXBXNX0XaXZXdXqXqX-X-XSXVXbXIX#X'.8.A 3.3.v.v.v.v.v.v.v.v.G.G.v.v.j.L.L.S.E.E.E.E.E.W.E.E.E.E.W.W.L.L.J.oX5X#X=XpXqXtXbXBXBXIXsXIXbXbXBXbXIXaXwXqX0X9X9X0XaXbXnXsXdX",
"sXNXHXHXGXBXNXNXZXGXGXCXBXNXhXyXeXeXkXjXNXSXSXCXSXSXlXNXjXjXdX}.O.Q E b W v % G '.x._.oXm.3.v.oXoXR.R.T.F.i 9 9 8 4 4 y i >.h.H.H.Y.n.g.g.n.oX7XDXJXKXGXKXKXKXKXLXHXKXKXKXKXKXKXKXHXKXKXKXKXKXHXKXKXKXKXLXFXLXLXKXKXKXFXFXHXKXHX<XO.n b E E b G v B h N V 3.v.F.J.F.G.P.H.2.d 2.s.l.g.k.Z.d y s.L.L.P.P.P.L.W.W.W.Q.P.v.5XJXwXyXCXFXKXKXKXKXKXKXKXLXLXKXLXHXKXKXnXCXAXCXBXNXjXsXyXyXNXHXZXbXjXdXSXSXlXZXHX[.J D m A 9.j.C.S.S.A.S.L.L.L.L.L.L.L.L.L.C.2.2.5.5.j.j.F.H.P.T.T.T.P.P.oX.XoX_.'.UX9XPXNXnXNXBXBXBXnXBXKXGXbXbXjXhXbXbXtXsXwXeXHXSX,X,X>X<X<X<X,X*X*X|.|.[.}.}.].o.O.c b b v z k k C 6.6.6.3.3.9.v.v.j.j.2.Z f.l.l.Y.s.s.j.F.L.L.K.A.S.A.A.S.L.F.C.v.%X@X9XyXGXHXBXBXHXHXHXAXAXAXAXHXAXnXHXKXjXKXHXHXHXHXLXLXLXKXKXKXKXKXLXLXJXKXKXHXHXZXwXj + B 7.9.9.F.F.K.K.K.K.K.Q.K.P.P.P.J.9.7.b.G.J.G.H.P.P.P.oXP.XXXXXXP.J.XXXX.X`.).`.+XaXAXAXnXwX,X9XwXeX<XrX>X<XdXlXlXjXlXzXdXaXaXAX>X@XrX<X<X0X0X9X>X>X>X1X*X,X=X+X#X$XC O e u i >.>.>.4.4.4.5.5.j.j.j.h.:.u.u.:.>.i.V.D.A.A.A.A.E.E.E.E.E.A.K.C.v.oXvXwX+X|.*X1X|.@X>X1X>X<X,X*X|.].{.}.|.|.|.|.|.|.|.,XqXyXjXbXaXqXsXGXSXdXbX0XqXVXdXpX0XdXlXjXNXmXIXxX$X.Xv.7.7.v.v.9.v.v.v.b.G.J.G.F.K.L.L.E.E.E.E.E.E.E.E.E.E.E.W.L.H.J..XoX7XyXeX=X=XwXbXbXbXsXsXaXsXaXsXnXCXBXtXUX9X,X0XtX9XsXNX[.",
"nXNXNXNXnXbXbXbXCXHXHXCXnXbXbXjXeXyXkXNXSXSXSXNXNXNXVXAXSXVXjX|.E Q Q E W v + D /.x.m.J.v.3.3.3.c.B.oXoXP.F.5.1.a i i i 4.Z.H.H.F.H.n.n.H.J.oX7XDXLXGXGXGXKXKXJXLXHXKXKXKXKXKXKXKXLXKXKXLXKXKXKXLXLXKXKXKXHXKXKXKXKXKXKXKXKXKXGX<XO.b b E E b F v j h N V 3.j.F.F.F.G.P.J.n.d.2.l.n.j.s.f.d d j.L.W.Q.Q.Q.Q.W.W.L.L.P.v.7XJXhXbXGXHXHXKXKXKXKXHXKXLXHXKXHXHXKXHXCXCXCXBXNXnXjXhXkXaXNXZXjXhXjXlXkXlXNXSXHXOXJ K M C 3.5.5.A.L.S.S.L.W.W.W.W.W.W.L.L.C.5.F.P.P.J.P.P.T.T.T.T.T.P.XXXXb.XX.X`.iX9XIXsXIXBXGXGXBXbXyXnXNXbXNXBXnXBXhXwXsXwXwXjX*XX.o.X.X.O.o.o.o.O.o.o.X.X.X.X.E T b T b v z g k C 6.6.6.3.5.9.v.v.v.v.d.2.d.j.l.l.2.j.H.L.L.L.K.L.L.C.A.S.K.C.F.v.$X,XqXhXZXHXGXHXAXZXAXAXAXAXAXHXHXHXAXjX0XHXHXCXKXHXKXLXLXHXKXKXCXHXKXKXKXKXKXKXZXbX0XD + M 3.3.v.v.9.9.F.K.K.W.L.K.P.P.P.P.9.9.I..XP.J.H.P.P.P.J.G.G.XXXXJ.J..X.XoX$X#X9XdXZXHXHXCXyX9X9XwXqX<XeX<X<XaXkXkXkXlXlXlXzXaXlX}.G E o.o.o.(.(.(.o.o.o.o.).o.X.`./.e 5 e u i >.>.>.4.4.4.5.5.5.j.j.l.u.:.>.>.:.V.D.V.A.A.A.A.E.E.E.E.E.A.K.C.v..XxXwX|.}.{.].X.X.o.o.o.).).o.W Q ..o.o.o...W o.o.].-XjXZXNXqX=X0XdXbXdXpXaX9XqXNXdXeX-XdXlXbXGXKXFXDXcXxX7XoXb.z.z.v.b.b.m.b.b.v.F.F.K.K.K.E.E.E.E.E.E.E.E.E.W.W.L.H.P.H.oXiXuX,X@X=X=XwXBXBXbXbXNXGXCXBXbXbXBXNXbXsX9X,X0XtX0XaXtXX.",
"BXnXhXsXsXjXbXnXHXGXBXnXnXBXNXjXyXkXjXSXSXSXjXjXjXNXVXAXZXZXjX|.E Q Q E W v % D 8.b.b.b.v.5.V e e _ B..XoX4XoXv.v.3.V 3.H.H.H.Z.F.H.H.J.T.oX$X7XDXGXGXGXKXKXKXKXHXKXKXKXKXKXKXKXKXKXKXKXKXKXKXKXKXKXKXKXKXHXKXKXKXKXKXKXKXKXGXnX,X..b b E E b F j j m N C 3.j.F.F.G.G.J.P.R.n.s.s.l.l.s.Z Z j.R.P.Q.Q.Q.Q.Q.Q.W.W.W.P.F.7XJXMXZXHXKXKXKXKXKXKXKXHXGXHXKXKXGXGXHXHXSXSXCXSXBXjXjXdXkXNXZXjXdXlXVXpXkXSXlXAX@XK K j C 7.5.5.C.A.A.L.W.W.W.W.W.W.W.W.W.A.q.L.!.P.P.T.T.P.P.P.T.T.XX.XoX.XXX_.'.9XuXyXtXyXbXGXKXFXbXsXnXbXhXbXjXhXbXbXuXbXyXyXyX).- F b b n G E E E Q Q E W X.X.O.E T T b c v j j B 6.6.3.3.5.9.v.v.v.v.n.d.2.d.g.s.h.Z.L.L.K.L.L.L.L.S.C.Z.H.F.v.v.$X#X=X,XwXpXaXkXzXjXzXkXlXlXNXSXSXSXdX#X+XHXKXnXKXHXHXHXHXKXKXKXKXKXKXKXKXKXKXKXdXdXeX).D K H C 9.9.9.F.G.F.F.K.P.K.P.P.P.P.9.9.XXP.J.G.J.P.P.P.J.G.9.G..X.XXXoX5X7XgXmXGXHXHXHXHXLXbXwX0X0X<X>XeX0X<XrXaXaXkXlXSXlXlXkXkXo.g : E E E W E E W W Q E o.X.W (.` k 5 e u a >.>.>.4.4.5.5.5.5.5.j.l.h.:.f s h.C.A.C.A.A.A.A.A.A.E.E.E.A.K.C.v..XuXwX+X+X]...Q W W W E E E E T T T Q Q T b T E E o.*XlXNXaX,X*X0XaXdXpXqXqX>XpXlXpXqXqXjXSXBXHXHXFXLXKXJXDXcX7XoXb.z.x.x.b.b.b.F.F.F.K.L.L.W.E.E.E.E.E.E.S.S.W.L.K.F.T.J.$XcXgX#X+X,X=XtXBXBXtX9XyXbXGXGXBXbXbXBXCXBXtXwX9XqX9XsXaX(.",
"nXjXhXsXhXnXCXZXKXZXhXhXBXHXNXyXkXjXSXSXjXkXaXaXVXNXVXZXVXZXjX}.E Q Q E W F j K 8.b.G.b.F.F.6.i   * e u 3.J.XXJ.v.z.v.v.l.j.j.Z.H.P.P.T.4XoX5XiXLXKXGXGXGXKXKXKXKXKXKXKXKXKXKXKXKXKXKXKXKXKXLXHXKXHXKXHXHXHXHXHXKXKXKXHXKXKXBXaX|.E b b G E b F j j m N A 3.j.F.G.G.G.J.P.J.H.n.Z d.H.d.V 3.J.T.P.Q.Q.Q.Q.Q.Q.Q.W.W.P.H.7XDXHXHXHXHXHXHXHXHXHXHXHXHXHXHXHXZXCXHXHXCXBXAXAXSXjXjXeXkXAXHXNXjXlXlXkXkXNXjXSX9XJ J k M 7.v.F.F.C.C.L.W.W.W.W.W.W.W.Q.Q.K.C.L.Q.P.P.T.P.P.P.P.T.XXXXJ..X.XoX`.OXuXmXbXvXsXsXnXGXGXGXCXCXhXeXtXtXeXsXmXvXbXhXjXaXo.; v n n n n b T Q E E E E E W W Q Q Q R c v j j B 3.3.3.3.5.9.v.v.v.z.n.v.Z s.d.Z H.L.L.C.K.P.Q.L.L.Z.Z.Z.F.v.v.b.%X|.}.].[.[.[.|.|.|.|.|.|.@X@X@X*X,X+X].}.HXHXjXHXHXHXHXKXKXKXKXKXHXGXLXKXKXmXhX0XrXkXeX#X$XoX_.8.7.7.b.F.F.F.K.P.K.P.P.P.P.v.9.XXP.I.P.P.P.P.P.oXJ.0.b._.oX5X7XDXDXJXKXKXHXAXAXHXHXFXbXyXqX0X<X0X<X0XaXdXkXjXlXSXNXlXkXlXo.g l T T E E E E E Q Q Q Q ..X.X.G e 5 u u a 1.1.1.4.4.5.5.j.j.j.d.j.j.Z a d h.j.C.C.A.A.A.A.A.A.A.A.E.A.L.C.F.m.iXyX}.|.o.T Q ..E E E E E E Q T Q Q Q T T ..o.E o.*XaX>X,XrXaXeXaXNXpX0X0X0XdXjXdXqXdXZXHXAXAXZXNXCXFXFXJXKXJXcX5X%X'.x.7.9.b.G.G.F.I.K.K.L.E.E.E.E.S.W.W.L.C.F.P.oX5X7XiXiX,X#X@X,X=XtXBXsXUX#X=XqXIXBXBXNXBXGXCXbXFXMXwX9X,XtXsX}.",
"bXnXNXBXCXCXZXHXHXZXnXjXNXCXbXyXnXAXHXSXaXrXyXkXAXZXNXNXjXZXNX|.Q Q R b W G K 8.7.9.b.G.J.J.F.5.e e w O 4 e N C A 3.z.n.n.l.L.!.!.4X4X4X4XoX$XiXKXKXGXCXGXHXKXKXKXKXKXKXKXKXKXKXKXKXLXHXKXKXLXKXHXGXHXHXHXHXHXHXKXHXHXHXKXHXNXaX|.E T T T E b v g j M B 6.3.5.F.P.G.G.J.P.J.J.J.z.3.d.3.V v.XXJ.Q.Q.Q.Q.Q.Q.Q.Q.W.W.L.P.5XMXHXHXAXAXAXAXAXZXAXAXNXSXjXjXjXaXaXSXSXNXNXBXSXjXdXyXwXdXZXAXNXkXlXkXzXpXkXkXSXnXOX`.h M C 7.9.v.F.K.A.S.L.W.L.W.W.W.W.W.K.K.L.Q.Q.4XP.P.P.P.T.T.P.J.G.b._.$XiXIXKXLXKXGXBXbXbXNXGXKXZXBXsXwXyXyXyXhXFXbXbXhXSXkXO.; - : c c c c c T T T E E E E E E Q Q R c b v j B 3.3.3.3.9.9.v.v.v.z.v.d.V Z s.s.Z.U.L.S.K.L.P.L.A.Z.Z.H.H.v.v.b.}.}.).o.o.o.X.o.o.o.o.o.o.o.o.o.o.].o.X.}.AXZXbXHXHXHXHXKXKXKXKXGXGXKXKXKXFXyXwX>X<XpXNXnXIXxXiX$X.Xb.9.7.9.F.P.P.I.P.P.I.P.9.9.XXXXP.Q.!.T.T.XXoXXXXXoX5XiXcXDXJXJXJXKXHXHXHXHXKXKXKXFXnXaXpXpX>X0XeXkXlXVXlXSXSXSXSXzXlXo.g l c c R T T T E E Q T T Q X.X.v + e u u a 1.2.1.4.4.5.5.j.v.j.d.d.s.Z Z 2.d.2.5.C.C.C.A.A.A.A.A.A.E.E.S.C.G.b.7XuX}.}.o.T E E b T E T T T E T R R T T Q ..o.E o.@XrX,X<XjXZXlXlXVXpXqX0XpXdXkXkXaXkXSXAXZXAXSXCXHXGXCXCXFXKXJXmXIX#XOX_.b.b.b.F.F.K.K.K.K.W.E.E.E.S.L.L.L.F.P.5X7XxXMXuX#XOX+X@X@X=XwXsXtXUX=XUX9XwXsXbXBXBXGXCXbXFXLXhXwX9X9X0X`.",
"NXZXHXHXHXZXCXCXNXHXHXCXhXsXhXnXCXHXHXNXyXrXhXSXZXSXkXdXdXNXlX|.T T c b E J J 8.H 7.v.J.P.P.P.T.J.v.3.V m u u N A A z.J.T.T.!.4X4X6X4X4X4XoX$XiXLXKXGXBXBXFXLXFXHXKXKXKXKXKXKXKXKXKXFXFXKXKXmXKXKXHXAXSXCXSXNXNXNXlXjXkXkXkXeX>X X..Q T T E b v g j B C 3.5.v.F.P.G.G.P.P.J.J.oXz.u e u C v.XXJ.Q.Q.Q.Q.Q.Q.Q.W.W.W.L.J.XX5X9X0XeXeXrX0X0X<X<X<X=X=X+X|.+X}.}.<XSXSXNXjXjXkXkXrXeXaXjXjXdXdXlXdXkXrXkXSXkXAXhXwX'.8.7.7.7.5.9.I.A.S.L.L.L.L.W.W.W.W.K.K.L.Q.Q.4XP.P.P.P.P.P.J.J.XXoX5XcXPXKXKXKXKXKXKXKXBXNXBXFXZXBXhXhXnXjXsXhXGXBXBXbXAXkXE X ; - : c l l c R T T E E G G E E T Q T c b v B B 3.3.3.3.9.7.z.v.v.z.z.3.u u Z l.s.Z.L.L.L.K.K.L.A.S.Z.H.H.v.v.b.OX|.].o.o.o.X.o.o.o.o.o.o.o.o.o.o.o.E E }.SXNXNXHXHXHXHXKXKXKXKXGXGXKXFXIXuXyXjXaX0X>XeXtXtXcXxXIXuX5XOX.Xb.v.v.P.I.P.I.P.P.9.9.XXQ.Q.Q.T.P.P.XXJ.oX5XxXMXDXJXJXJXJXJXHXHXHXHXHXLXFXFXFXnXdXpXfX0XrXaXjXSXZXSXSXlXNXSXSXSX].l : c R R T T T E E Q R R T o.W g + e m u a 1.2.1.4.4.5.5.j.v.j.d.Z Z a Z 3.3.1.2.5.C.C.C.A.A.A.A.A.E.E.S.C.J.b.#XwX}.].o.Q o.o.E E E b b T Q R R R R R T Q Q T +.-XaXkXdXdXjXlXkXpXpXrX<XaXjXdXVXlXjXSXSXSXAXAXSXHXZXAXGXCXnXbXCXHXmXvXiX$X_.9.v.I.K.K.K.K.K.E.E.E.K.L.K.P.4X5XxXMXIXyX0X@X+X|.+X@X9XwXwXqX=X=X9X9XsXbXIXsXbXCXGXbXyXmXmXnXhXtX9X`.",
"GXGXGXGXZXCXnXjXNXHXHXCXsXaXnXZXCXCXBXkXyXyXjXAXSXSXkXdXdXNXjX].T T c T E G ` H C 7.v.G.J.P.P.T.G.J.T.oXoXXXXX.X7.z.m.oX4X4X4X4X8X6X4X6X6X4X5XxXLXKXGXGXCXFXCXmXHXKXKXKXKXKXKXKXKXKXKXHXKXvX#X9XyXrX0X>X,X,X*X@X@X@X+X+X|.+X}.[.].Q Q T T E b v g j B C 6.5.F.F.G.H.J.P.P.P.G.v.A e e N C 7.b.XXQ.Q.Q.Q.Q.Q.W.W.W.W.L.J.J._.`.).].].).).(.o.o.o.(.].o.X.(.E X.+XSXAXSXkXaXkXjXyXaXeXeXaXpXkXlXaXkXkXlXSX=XyXHXbXtX5XoXXXXXb.F.F.C.Z.L.L.L.L.L.W.W.W.K.K.Q.P.L.P.P.P.P.P.P.P.4X4X7XxXJXKXLXmXFXKXKXKXKXKXGXGXBXBXGXCXhXhXBXnXhXbXGXPXbXhXAXpXG X ; ; : : : : : l c c b b v z z c b T T b b D D C 3.3.3.3.9.7.z.v.v.z.z.d.Z u Z H.s.u.h.Z.L.K.L.L.K.S.H.H.H.v.v.m.+X X+.o.o.o.o.o.....o...O.O...O.X.o.G F [.ZXZXZXHXHXHXHXKXKXJXLXKXGXnXuXiXiXyXNXjXpX>XrX9XUXiXiXMXBXPXxX7X5XXXv.P.F.P.J.P.P.F.9.P.Q.Q.Q.P.L.T.4X4X7XcXLXKXKXLXFXJXJXKXHXZXSXAXHXPXbXvXbXbXjXdXlXdXdXaXkXlXSXSXSXzXNXSXSXSX].l l : c c c b b T T R R R R Q b k + k m m V 1.1.1.4.5.5.5.5.3.3.Z Z _ f u 3.z.3.2.5.j.C.C.A.A.A.A.A.E.E.A.C.J.z.$X9X].X.Q ..Q E E E E b b T Q R R R R ! T R T E ].1XlXkXdXeXeXrXrXqXpXpX>XaXdXpXVXSXkXjXkXlXAXAXSXAXSXAXHXHXSXjXnXnXKXKXFXxX5XoXI.G.K.K.K.K.K.S.E.L.A.K.P.4X5XxXxXIXUX=X*X*X*X@X@X,XqX0X9X#X#X=XUX9XBXGXBXwXwXbXCXCXwXMXbXnXBXnXdX@X",
"KXZXBXNXBXBXbXsXHXHXZXnXhXnXCXSXnXjXkXyXyXkXSXHXHXHXZXNXNXZXjX].R | R E E G X.K C 7.b.G.H.L.L.L.T.!.!.P.P.oXoXoXC z..XoX4X4X4X4X8X4X4X4X5X5X7XcXLXKXKXKXHXHXCXnXHXHXKXKXKXKXKXKXLXKXKXHXHX=XW G (.o.o.o.o.o.o.o.o.o.X.W W X.o.X...T T R b E b v g j B C 3.5.F.G.F.J.P.J.P.XXv.u A N A v.3.m 3.oXQ.Q.Q.Q.Q.Q.W.W.W.W.P.XX.X'.`.X.).o.o.o.o.o.o.o.o.].o.O.].X.o.@XlXAXSXeXrXkXjXpXpXrXwXeXaXNXlXeXkXSXAXAX).}.NXyXNXuXiXiX7X$X.XG.v.F.H.H.L.L.L.L.L.L.F.K.Q.Q.L.P.P.P.P.P.XX4X8XxXJXDXKXKXPXmXCXHXKXKXKXKXHXGXGXCXZXnXtXyXnXNXnXGXBXbXyXwXjXrXb % : : : : c c c l l c b b z z z c c T T b v D D K 3.3.3.3.7.z.z.z.7.z.z.n.d.t t n.Z.:.f :.L.T.L.K.L.K.H.H.n.v.n.m.@X Xo.Q ..o.....................E o.E b }.HXAXGXKXKXKXKXHXLXFXFXGXbXtXtXyXyXwX>XdXzXaXVXdX0XIXtXwXbXLXPXMXcXxX5XG.b.J.G.I.P.F.F.XXP.P.T.T.T.4X7XcXDXKXKXKXHXHXHXLXJXHXGXCXSXAXHXLXbXgXvXbXnXVXAXNXjXaXyXkXVXSXVXSXSXSXlXSX+.l : , , c c b b R T R T R T Q b g k h m N N 2.1.1.5.5.j.j.5.2.Z Z Z g.f t Z n.d.3.3.5.j.F.F.F.K.K.A.E.E.A.C.J.7.%X#X}.O.Q o.E b E T T c c T Q R R R R R T R T Q ].1XAXkXeXkXaX<X<XdXpXpX>XpXpX<XjXSXyXyXyXkXAXAXSXAXAXAXZXAXAXAXSXNXNXBXLXKXJXxXoX9.G.K.K.K.K.L.K.K.C.P.4X7X7XUXUXUX=X*X-X*X*X*X=X=X0X9X#X+XOX#X0XtXGXKXBXwX9XtXNXBXbXnXyXtXhXnXnX0X",
"BXbXbXBXGXGXCXZXZXGXNXjXZXAXjXdXlXSXSXkXkXSXAXAXHXSXHXHXSXHXjX}.b T T E E v g k B 7.v.F.K.L.L.L.P.Q.Q.!.!.!.!.oXV z..X4X5X5X6X4X4X4X5X7XiXxXDXJXKXKXKXKXKXHXZXGXHXHXKXKXKXKXKXKXKXKXKXKXHX>Xb - c T Q ....Q Q ..............O.o.....T T R b b v g B h C 7.9.G.9.G.b.G.J.J.5.V a v.2.a n.H.V V V P.P.L.L.P.!.Q.K.Q.Q.Q.I..X.X).X.).o.o.o.............o...o.....*XSXSXlXkXkXjXkXpXNXZXZXbXdXdXNXVXKXnXKXhXsX(.yXjXyXhXuXiXuXcXiX7X.X_.m.b.G.P.P.L.P.K.K.P.!.Q.P.P.J.J..XoX7XcXDXJXJXJXLXKXKXKXCXCXKXHXHXKXKXKXGXCXCXCXnXhXbXnXBXBXAXaXeXeX=X}.E ; : > > : l l b b b c v v v b G G G G b F F D D B 3.3.3.3.z.z.` A ` c.c.c.g.d f s.U.D.<.y :.Y.L.H.F.H.J.F.H.J.z._.}.].o.....+.+.................! R ! T c  XAXAXKXKXGXKXKXKXCXCXBXhX0X9XbXZXwX*X+X<XpXdXpXdXdX0XjXhXwXyXvXvXPXDXcX5X7Xx.9.oX.XG.9.F.XXXXJ.XX7XcXDXJXKXKXKXKXKXKXKXGXGXCXbXhXjXSXHXCXBXnXBXGXHXHXHXHXSXkXyXkXBXAXHXAXNXSXSXSXo.; > , U R c c b b T R c c T E b g + h m N V Z Z 3.5.V v.v.u e u Z _ _ ( d _ f.g.g.d.Z u u 3.G.G.F.F.V.A.W.L.G.b.`.OXX.E b Q Q T T T T T T T R R R R R R R T T ..].1XkXdXjXVXaX=X1XfXpXrXpXaXkXjXjXlXyXwXNXAXhXSXHXSXAXAXAXSXSXAXSXlXSXSXNXCXKXDX7X.XG.J.G.F.F.L.P.H.oX%X7X9X9XsXwX}.*X|.|.<XpX*X*X>XqX,X@X@X,XwXhXMXKXKXnXqX#X#XwXsXbXbXsXtXsXnXBXnX",
"CXBXBXCXBXbXjXNXhXBXNXNXZXAXNXjXdXlXSXSXSXAXZXSXSXSXHXHXSXAXaX[.E E T E E v g k H 7.v.F.K.L.W.W.Q.Q.Q.!.!.!.4X4X3.v..XoX4X4X6X5X4X5XiXcXDXDXJXKXKXKXKXKXKXKXHXHXHXHXKXKXKXKXKXKXKXKXKXHXHX<Xb : : c R T T Q Q Q Q Q ....Q ..........Q T T T b v j B h A 7.3.G.G.J.m.J.J.j.u a j.n.2.i j.Y.d.d y i j.T.T.H.J.Q.4XQ.Q.Q.XXXXXX_./.).o.o.o.......+.+.+.+...o...Q *XlXkXkXaXdXkXdXaXjXSXGXVXVXVXGXGXCXFXCXHXjX0XhXaXkXaXyXsXhXsXuXuXvXiX$X_.b.G.I.H.Q.P.P.P.P.P.P.P..XoX5XiXcXDXJXKXJXKXKXKXLXbXyXhXKXHXHXHXHXHXHXHXFXFXCXbXbXbXhXyXeXpXlXaX+Xo.b ; : > > : : l v l z z v v b b F G G G G J J J D B C 3.v.z.A N S z.c.c.c.n.g.d s u.p.U.D.u.:.:.h.R.H.H.J.v.m.m.z.%X}.].o...........| ..| | ..| ! ! ! ! T c  XAXAXGXKXKXKXnXhXGXSXrX0XwXdXZXHXVXpX<X0X<XqXpXzXfX-XpXhXwXwXyXyXgXhXuXPXiX5X$X_.b.b.3.XXXXXXoXiXPXDXKXKXKXKXKXKXKXKXKXKXHXNXyXyXjXCXHXNXBXCXGXHXHXHXKXHXGXBXnXCXCXHXHXAXSXSXAXSX..; - > > > : - l n b c c R T c - ; ; m N N V V V A 3.v.3.u w e Z d.Z ( ) f f ( f.d._ e O O w V v.v.C.A.A.q.4.6.9.%X#XW b v b T T T T b b b R R R R R R R R T T ..{.1XSXjXeX>X=X-X<XpX1X<XpXjXZXZXVXnXyXeXnXCXyXjXAXlXZXSXVXzXjXlXSXSXSXlXlXSXCXbX9X$X5Xb.9.J.J.5.F.4X7X#XwX,X=XaXpX1X>X|.|.1X-X|.|.<X-X+X}.@X9XwXbXKXKXKXmXwX#X@X#X=XaXjXbXbXbXnXNXbX",
"qXeXaXeX0X=X=X0X,XkXZXNXVXVXlXlXkXlXAXAXAXAXAXSXSXNXHXHXnXBXyX}.b b E X.E z ; k j C 7.v.K.L.W.L.Q.P.P.P.Q.!.!.4X3.z..X$X5X4X4X5X7XxXDXJXJXJXJXKXKXKXLXHXKXKXHXHXHXHXKXKXKXKXKXKXKXKXHXHXHX<XE z : l c R T T T T E Q Q Q Q Q Q E ....Q Q T E T b g B B 7.9.7.b.G.J.J.J.3.u u 2.j.l.2.f s.R.R.Z.a y a j.T.oXP.P.4XQ.Q.Q.P.XXXX_.'.).o.o.o.............+.....Q Q &XkXpXrXeXdXdXkXkXjXVXZXBXVXZXGXKXKXKXCXKXCXCXSXkXNXyXyXbXhXwX9XyXvXuXiX5XoX.XJ.G.T.P.J.P.P.P.P.J.oX7XcXJXJXJXJXJXDXKXKXKXGXbXhXBXKXKXKXHXHXHXKXKXHXHXHXFXCXbXtX9X*X,XaXaX<X+X..- > > > ; ; - g % ; ; g l v b F F F K G J J J K B C C A 7.A N N Z d.g.Y.Y.l.s.s.i.U.U.U.D.k.u.d s.Z.F.J.G.J.m.x.%X@X X+.....+.+.......| ....| | | ! ! R - {.AXZXnXGXFXKXKXCXnXsX0XyXnXCXNXBXHXGXNXaX-X<XdXSXdX<XjXhXuXqXwXyXuXuXgXPX7XiXiX$X$X.Xb.J.J.XX7XDXJXKXKXKXKXKXKXKXKXKXKXHXHXCXjXnXHXKXGXnXCXHXKXHXHXKXKXKXKXHXHXHXHXHXHXAXSXAXSXzXQ % ; < < # # % ; : l : l c z - % % ; j m N C A 3.3.d.V a f f f Z Z d d ( d f d s.g.s.d w O w a 3.j.C.V.V.q.5.5.9._.%X`.W F F E G F G G b b b T R R R R R T | .... X1XVXVXaX,X,XrXpX1X1X-X>XaXVXZXAXAXyXyXnXnXwXeXjXkXSXSXVXzXzXlXZXAXlXzXzXzXaX=X@X#X9X$X.Xb.m..X5XxXiX9X9X#X@X=X=X<XpX|.{.*X1X-X-X>X*X+X@XwXhXhXCXKXKXKXFXyX9X#X+X+X,X0XaXaXaXaXsXnX",
"o.).].).o.X.X.(.].qXNXdXaXjXkXkXSXSXSXSXSXSXSXSXAXSXAXNXkXnXnX0X|.[.(.E g + + k j C v.G.G.L.L.K.P.P.P.Q.Q.T.T.oX7.x..X$X5X5X8XxXDXJXKXJXDXDXLXLXKXKXKXKXHXHXHXHXHXHXKXKXKXKXKXKXKXJXHXGXHXqXE b l l l c c T T T T T T T T T Q E T ....Q Q Q T b k j K H 7.b.b.v.J.v.u e u d.l.s.l.u.s u.U.R.U.U.h.a a n.oXT.J.P.Q.XXXXXXXXXX.X_.).+.o.....+.+.............Q Q *XdXrXrXpXkXjXjXNXVXBXNXbXjXNXZXGXKXKXKXCXZXnXAXrXjXeXeXhXsX9X=X9XqXyXMXPXxX5XXXG.J.J.J.J.J.XXoXoXxXcXJXJXJXJXLXJXPXKXKXKXKXCXnXGXNXGXKXKXKXKXKXKXKXKXKXKXHXBXyX9X+X*X0XhXSXaX].; # # ; # X + + + + + + k k g j j j j D K J J K B H C C A A N N Z l.l.Y.Y.k.k.Z.h.U.D.p.U.U.N.u.s 2.2.j.G.J.b.x.OX+X].O.T Q Q Q R T T R R R R ! ! R R c ; o.AXZXnXGXPXKXKXbXqXwXyXsXBXZXnXNXGXKXHXaX*X=XpXSXVXdXVXhXhXqXwXgXyXeXnXCXvXiXiXiX$Xx.x.7.XX7XcXJXJXFXKXKXKXKXKXKXKXKXKXCXHXCXyXwXnXCXCXBXCXHXHXHXHXKXKXKXKXKXKXKXHXLXAXHXAXSXSXzXT % ; < < # # X % ; - : - - - - - ; ; e e e h m u u N e f Z s._ f d _ d s._ d d s.g.g.l.s.d s.s.s.j.H.V.A.K.L.G.G.b.b.oX'.J J W J G F v v v b b R T R R R Q ....o. X1XjXVXkX<XrXdXpX1X-X*X1XrXkXlXSXHXjXjXCXnXwXeXjXjXNXSXAXZXSXSXZXSXzXzXzXpX*X).[.=X#XuXiX$X$XxXcXiXgXwXtX9X=X=X*XpX-X|.{.|.=XqX<X,X*X=XwXBXHXGXKXKXKXKXHXhX0X=X=X*X,X<XqXeXeXdXBXGX",
"E E Q E E E E E W ,XjXpXqXaXjXkXZXSXVXlXjXjXjXnXAXSXCXnXnXCXCXNXSXlXqX+XW % . @ B H b.b.G.G.P.P.XXXXXX4X!.XXXXXX_.'._.$X7XiXcXJXKXKXLXPXPXLXKXKXKXKXKXFXmXbXmXCXKXKXKXKXKXKXKXKXKXKXKXGXHXqXW b l : : : c c R R T T T T T T T E T E ..Q Q Q T b g v K B C b.G.v.v.u w a d.j.f.l.Z.u.:.i.k.U.U.U.Y.j.j.n.J.J.P.oX4X4X4X4XXXXX.X`.o.....................Q ..Q Q &XlXaXyXjXSXSXCXAXAXBXbXaXaXsXNXGXGXCXCXBXKXZXHXrXaXyXyXsXhXyXqX=X=X=X9XvXLXMX7X5XG.XXoX.Xb..X5XxXJXJXKXKXKXJXJXKXHXKXHXHXKXNXsXdX9XyXFXKXKXKXKXKXKXKXKXKXKXKXmXsX,X0XyXjXAXaXo.; # ; - # . X + @ + + + + e * e * k k h B H H H H H z.z.A N V d.l.Z.Z.Y.Z.h.Z.Y.h.i.k.U.U.U.U.N.k.:.:.h.v.b.b.x.$X@X}.o.E Q Q Q T T R R c R R R R R c l % o.ZXZXNXKXKXFXiX#XwXbXsXqXtXbXZXHXHXZXCX>X+X+X=XwXlXkXkXjXnXyXwXhXyXeXnXnXHXwX9X#X8.'.%X`.7XcXvXmXPXFXKXKXKXKXKXKXKXKXKXKXKXhXOX`.OXwXbXFXCXCXFXHXKXKXHXKXKXKXKXKXHXHXHXHXAXAXSXSX..% # > > > - ; ; ; ; - ; ; ; g j j j k k h h e e e e d f f ( ( ( ( _ Z d.d.Z d s.g.f.f.f.l.l.k.f.f.Z.L.L.L.K.I.G.G.G.'.0.K K H H K D j j g j v b b T R T Q ....+. X*XpXdXpX<X<XpXfXfX*X*X<XdXzXaXdXlXZXGXHXCXjXjXSXZXlXSXHXHXHXAXAXSXSXzX2X*X{.].|.-XwXbXGXKXFXbXwX,XsXbXjX@X|.,X<XpX{.|.+X[.].+X,X>X=XeXjXNXZXKXKXLXKXKXGXyX=X*X=X>X*X,X>X<XqXaXtXqX",
"Q ....Q Q o.Q E E <XSXpXqXkXVXVXZXSXSXSXSXNXjXjXNXCXCXCXCXCXLXAXAXHXHXAXhX}.g + k B H b.b.G.J.G.G..XXXXXP.XX.X.X_.%X$X9XgXDXJXJXKXKXFXmXBXKXKXFXBXCXCXbXyXyXyXbXKXKXKXKXKXKXKXKXKXKXKXGXHXrXW b l : : : : c R R T T T R R T T E T T E Q Q Q T b g v J K 7.J.z.V u u a d.n.j.l.Y.k.s s i.k.U.a.U.Z.R.Y.l.n.R.oXJ.XXXXXXoXXXXX.X%Xo...........Q ! Q Q Q R T R R  XSXjXjXCXHXHXZXZXVXbXdXaXaXdXnXGXHXhX=XeXaXCXHXNXjXjXjXkXhXbXeX#X@X[.[.,XbXMX9X$X$XoX.X_.oX7XPXKXKXKXKXKXKXKXKXHXKXHXFXGXHXNXeX0XOX9XmXKXKXKXKXKXKXKXKXKXKXKXKXGXSXjXeXkXHXkXo.: % ; : ; . . @ O + 5 5 5 e e e k k h h B H 7.7.7.H H A N f 2.l.H.l.Z.Z.j.j.R.R.H.l.U.U.N.i.N.U.U.k.h.j.j.v.b.M.$X:XOX[.(.W Q Q Q b n n c c c c R c c c - ).SXNXNXCXhXuXwXwXmXHXCXsXtXsXCXGXbXhXjX9X@X@X+X=XjXlXaXbXCXnXyXyXsXyXeXkXjXwX#Xv j tXyXuXMXvXuXyXmXCXGXKXKXKXKXKXKXKXKXKXKXmX,XOX#XwXmXFXCXmXCXGXKXKXKXKXKXKXJXKXKXKXKXHXSXAXAXSX..% ; > > : : - ; - - g g g g j D K H K K H H A V V Z _ d f ( ( _ ) _ _ M.M._ S _ _ _ f.f.s.f.f.f.k.l.Z.H.F.F.F.F.I.F.9.3.6.C C C B m h k k k j z b E T T Q ..o.+. X|.1X<XrXpXfXfXfXfX1X1X2XfXpXrXpXSXAXKXHXCXNXCXAXHXNXZXZXZXZXAXHXAXzX2X&X+.{.*X<XqXVXNXZXHXZXdX0X0X0XjXaX(.X.<XpX<X{.|.|.].].+X>X0X0XdXhXaXhXKXKXGXKXHXbX>X+X+X=X>X|.1X<X>X>X,X[.W ",
"T Q Q T T E E T o.pXSXeX0XlXHXAXVXNXBXAXHXSXBXBXBXCXGXHXKXHXFXHXHXKXAXZXKXBX9XOXJ K K H x.b.b.7.b.G.G.J..X.XXXXX$X7XuXbXPXJXDXMXFXGXGXNXNXGXCXbXhXhXhXyXuXuXhXnXKXKXKXKXKXKXKXKXKXKXKXGXHXeXX.b b c : : : l c b b b T b b b T T n G E E Q Q E b g j J H z.z.N u t 2.l.l.g.n.Y.l.d f :.u.k.U.U.U.U.U.Z.l.H.T.T.n.J.J.XXXXXXXX.X%X).+.........! R R R R R R c c {.lXBXBXCXHXHXBXsXdXaXaXjXhXsXhXNXhX=X}.@X#X#XjXHXZXHXZXnXjXjXeX=X1X*X*X*X@X`.'.'.iX#XOXOX7XMXJXJXJXJXKXKXKXKXKXHXHXHXZXHXHXSXwX9XOXiXFXKXKXKXKXKXGXKXKXKXGXKXKXKXHXSXhXkXAXrXX.l ; - l - X @ O O 5 5 e e e u m m m m N C 7.7.7.7.A u e t Z l.l.h.h.Y.l._ c.B..XM.n.g.l.N.f.k.N.k.U.k.Z.j.n.n.M.oX%X`./.J G F b b l l g - - : : : c l z l |.AXjXjXyX9XuXHXKXLXHXKXFXnXbXmXbXyXyXhXeX=X9X#X=XjXNXsXhXBXCXhXyXkXkX>XzX0X=X).j (.ZXbXHXFXhXwXsXnXNXNXHXHXHXKXKXKXKXKXLXKXKXFXMXMXmXFXmXmXCXFXGXHXKXKXKXKXJXJXKXKXKXHXAXAXSXlXfXR # > > > , : - g g k g v v j j D H H H K B B C Z Z 2.d d _ _ _ _ ) S ` X.X.` S S _ _ _ _ ( s.f.f.s.s.s.j.H.F.F.K.K.9.9.9.5.6.V V m u m m h h h j v E E Q Q ..+.].{.|. X*X2XfXzXzXzXzX2X1X<X2X2X<XzXAXAXHXAXBXCXSXSXAXSXSXZXSXZXZXSXVX1X X+.{.&X<XfXlXSXZXVXkXdXlXlXdXrXpXdX@X}.pXzX<X-X X].}.*X=X>XqXwXaXaXeXdXGXKXHXGXNXwX@X|.@X-X<X<XfXpX*X|.}.J ; ",
"Q Q Q Q E Q Q E Q <XjX,X=XdXZXVXjXkXkXNXSXCXCXCXHXHXHXKXKXKXLXKXZXKXHXCXKXKXKXKXuX#X/.D D J x.8.'.'._..XXXXXoX$XuXnXCXhXyXvXMXyXsXNXNXhXdXNXZXNXbXbXhXhXbXnXCXHXKXKXKXKXKXKXKXKXKXGXHXHXHXpXo.T R c : - - : z z v b F b G b b F n G G E E W E F G j K S N u e Z f.f.s.f.l.n.n.d.d Z d.d d Z.Z.R.U.U.U.Y.Y.l.l.H.H.J.J.XXXX.XXX%X}.+.o.......Q T R T T R T R R  XjXjXnXnXZXZXkX0XqXwXaXjXnXdXaXaXwX@XaX0XhX).jXHXHXHXHXSXNXnXhXaX1X<XrX*Xo.G `.9XwXvXMXuX9X9XuXMXKXKXKXKXKXKXKXKXHXKXHXHXHXjX>X#X#XIXKXKXLXKXKXKXGXKXKXKXGXGXKXHXnXHXHXAXkX}.b c : : l g + O 5 5 e e e u u u u u N N C 3.7.z.z.3.u t f d.l.l.k.l.f.B.c.S H ` ` D K N z.B.g.f.k.N.i.k.k.h.l.n.d.M.m.M.x.8.J K F F v j j j g g g l g - l v @XAXjXjX,XhXKXHXnXmXFXbXbXmXFXHXCXbXhXhXtX#X>X=X=XsXnXsXaXNXHXNXyXlXlX,XqX@Xo.b ).VXHXNXHXAXjXkXlXjXkXNXAXGXGXGXGXGXLXLXKXKXKXKXKXLXCXmXMXmXFXHXHXHXHXKXKXJXJXJXKXKXHXCXHXAXlXpX-X: # > > , c l g k j j j v v j D K H C ` S u u u d d d d ( _ S _ _ ' x n n ' n x x x _ _ _ _ f.s.u.u.s.f.l.n.j.C.F.K.K.K.F.5.4.1.V V V N N N M j j D W W Q Q ..+.{.{. X{.*X1X1X<XzXlXlX1X-X1X2XfXpXzXSXHXHXHXSXAXHXAXHXHXHXAXAXZXSXlXdX{.+.{.-X<X<XdXAXSXSXSXAXAXSXlXkXrX*XpXzXpXfX<X-X<X|.}.>X0X@X@X0X0X0X0XeXdXBXZXZXVXaX=X+X@X>XrXpX2XfX-Xo.b F g . ",
"Q T Q Q T T Q Q Q fXVXaXdXVXAXNXaXrX9XwXhXnXCXCXKXHXKXKXKXKXKXKXKXKXKXHXGXKXKXKXKXLXvX#XJ J /.'.'.XXOX.X.X_.iXPXKXBXdXaXhXnXnXCXNXjXpXqXpXNXHXKXGXCXCXHXKXKXKXHXKXKXKXKXKXKXKXKXKXKXKXGXHXpXo.E T c c l % X ; l v z l l z v F G D x x v v v v v B B t * * t Z s.( l.l.s.n.oXB.N e N z.3.N N v.T.Z.U.~.U.U.Y.Y.l.n.m.J.m.b.b._.`.[.].o.E T T b l : - c l z l - |.jXnXnXBXZXjXeXeXwXyXdXdXeXqXeXkXjXqXjXjXNXdXHXZXHXZXZXZXNXlXNXkX<XfXfX|.o.[.,XwXhXCXHXFXnXhXhXhXFXKXKXKXGXHXKXKXCXZXHXHXHXZXNXbXLXLXKXKXKXKXKXKXKXHXKXKXKXKXHXHXZXAXHXAX>Xo.n z : - l v k e e e u a V a u u m m N V A z.v.d.V e t d f.f.s.f.l.n.c._ x g g : ; - - j x S c.B.g.( i.k.k.k.k.f.g.n.R.J.m.x.8.H K D B B B B B j j j g g v F >XAXrX<XjXkXkXhXnXmXCXmXyXhXbXbXnXnXhXyXNXhXsXbXnXbXsXsXsXdXZXNXeXrXaXrX|.o.l X.lXHXkXHXSXAXAXSXlXjXjXzXjXVXHXHXGXLXKXKXKXKXKXKXKXKXLXmXGXGXGXCXHXKXHXCXLXKXKXKXKXKXCXhXrX=X[.o.R : : : > , c c g j j j D D j j B H 7.z.N t t t f d d d d S _ _ S x n n , , , , , , , x ' _ _ _ _ f.h.s.s.s.d.j.C.C.K.K.K.q.q.5.5.2.1.2.1.V V M M B F W E E Q ..+.{. X X+.+.+.+.&X1XfXzXzX2X&X2XfX-X-XSXAXHXZXkXkXSXAXSXZXSXAXHXAXZXpX+X).}.@X,XaXNXNXdXdXZXHXVXaXdXSXHXkXrXqX<X<XdXzX-X|. X].=X0X=X0XqXqXdXkXjXkXdXqX*X*X+X|.|.-X<X1X*X{...T b F z + @ ",
"Q T T T T T b c E dXAXkXkXNXAXNXCXjXyXsXnXCXHXKXKXKXKXKXKXKXKXKXKXKXKXKXKXKXKXKXKXCXHXKXBX>X[.X.OX$X%X8.XX7XJXMXnXjXkXjXjXsXyXyXdXjXlXjXjXNXBXNXCXCXCXGXHXFXFXLXKXGXLXLXKXKXKXKXKXKXGXBXHXpXo.E T c z : X . X + % + + + + + + + * * * * ; ; k h B S t t t d s.f.l.f.s.g.B.c.S e j j k k k h B 3.T.~.U.D.U.U.U.Z.Y.n.n.M.x.x.'.'.` G F v l l g - g - l - l g - [.NXGXHXHXKXCXyXwXjXjXjXdXqX>X0XpXkXaXlXVXSXNXHXHXAXBXZXNXaXaXjXkX1X2X*XQ E [.,X,XNXZXHXHXZXCXbXsXbXFXKXKXKXKXHXGXHXHXHXHXHXHXGXGXKXKXKXKXKXKXKXKXKXKXHXGXHXHXHXHXHXAXnXeX@Xo.G n : : v F j m V V a 1.1.1.V V N N N A 3.3.V u f f u.u.k.N.l.l.s._ _ ' x , , , < > c E b g x _ g.N.k.k.i.i.k.k.f.s.l.l.n.v.b.8.7.K C C C B B B B B j v v b @XkX<XrXSXAXHXHXHXGXCXCXHXCXyXwXhXGXHXGXbXbXbXbXtX9X9XqXqXeXVXHXVX<X-X*X].: o.lXdXpXZXZXAXAXAXSXAXSXdX<XjXNXZXHXKXKXKXKXKXKXJXKXKXLXLXFXFXHXHXHXHXHXHXCXHXHXLXnXgXwX#X}.X.X.O.E c > : > , R b b j j B B B D K K H H A Z t t f d d d d d _ _ S x x n , , U Y Y , , , , , x x _ d.g.g.h.s.s._ s.s.j.C.C.A.K.A.q.q.5.4.2.2.6.6.1.C B B D G E E Q o.{.{.{.{.+.+.....+.+.{.&X3X2XzXSXzX1X1XlXlXzXrX,X<XkXlXjXZXjXlXAXAXkX*Xo.}.,XyXkXsXhXnXnXZXHXKXBXaXaXkXSXAXVXlXpX2XpX2X-X*X*X*XpXaX,X,X,X0XrX<X,X-X>X-X*X[.+X-X-X|.+.E b T R E T b g X X ",
"- % - z z b b l F aXHXhXdXhXNXNXHXNXhXbXnXCXHXKXKXKXKXKXKXKXKXKXKXKXKXKXKXKXKXKXKXKXGXHXHXdX=X+X(.}.OX`.5XcXKXLXNXNXlXlXjXkXhXbXNXZXAXNXhXjXbXNXHXHXHXKXKXKXKXKXKXKXGXHXKXKXKXKXKXKXZXNXHXdXW T T c c l % .           @ O O + + * * * e e k h x t t t t f _ f.s._ f.B.B.` h k j G v g g v F F B H.R.~.U.U.U.U.R.Y.l.g.c.m._..X_.'.)./.J G F K D v j v j v v j }.hXCXCXBXHXHXCXNXsXdXkXdXeXqXeXdXaXkXdXNXNXZXZXKXBXBXZXlXeXdXlXkXpX*X].].|.*XrXNXAXHXHXHXKXHXCXhXhXnXCXHXKXKXHXCXKXKXKXHXHXHXKXKXFXFXLXJXKXKXKXHXKXKXHXZXAXAXHXHX0X@X}.(.X.E b c : l v v j M 6.1.1.2.4.2.1.1.V V Z 3.3.a u t a s.u.k.k.k.k.n.c.S x x , , , < = = Y ! R - ; x _ B.l.k.k.k.k.k.f.f.f.s.d.v.v.v.7.7.7.3.A C C C C B j v b b ).@X X@X1XpXlXZXSXSXZXHXhXhXyXyXjXNXNXjXjXhXbXsXtX0X9X0XqXpXdXVXlX<X}.o.v O.<XSXlXlXSXlXkXSXAXAXAXAXlX<XdXkXjXZXHXKXKXKXKXKXKXKXKXFXFXKXGXHXAXlXjXNXHXHXSXkX>X+X).X.W F G W o...R : : c c R T b v B B C B B H H H C V f t f d ( ( d d d Z S x x c , , , I I I I < < , , , x D ` z.d.d.s.s._ s.f.h.j.V.C.L.A.C.q.5.4.6.2.1.1.1.A C B D G E E ..+.{.{.+.+.......Q Q Q ......+.-X-X{.{.&X2XzXdX<X*X1XpXlXkXlXkXSXAXpX+X|.}.,XaXAXCXbXbXbXbXFXFXFXNXaXwXaXNXNXZXSXSXlXfX1X-X*X-X<XzXpX,X>X<XrXpXrX*X|.+X-X<X-X*X|...T c b T c c R b z - + + ",
"l g z b v v z g v aXHXhXjXjXbXnXGXnXbXnXCXGXHXKXKXKXKXKXKXKXKXKXKXKXKXKXKXKXKXKXHXKXHXAXHXSX<X|.}.X.G OXmXJXLXtXnXlXlXlXVXSXGXKXHXKXKXZXbXsXbXnXnXnXnXCXHXHXKXKXKXKXGXHXHXKXKXKXCXHXSXlXHXaXW T T c c c - X .   @ @ O + + O 5 * e e e h h e t t e w r t f ( s.s.t g.B.` h k n o.T T T E Q E T D N s.Y.R.U.U.U.U.U.N.N.B.R.oXoX.Xx.x.x.J K D D D D j D j B j j /.vXHXKXZXHXHXZXnXhXhXjXjXpX<X<X<X0XkX0XaXaXNXhXKXBXZXAXVXjXVXVXaX=X[.{.=XpXeXjXHXHXHXHXHXKXKXHXCXnXnXnXBXHXKXKXZXKXKXHXHXHXHXKXKXKXKXKXKXKXKXKXKXCXHXHXHXHXkX=X}.).o.X.G X.O.O.b : l b v h V 6.1.4.4.5.5.6.6.3.V Z V f f f d s.k.i.k.k.k.g.c.` D x , < < = = = P Y Y > > - ; x S f.l.Z.k.k.k.k.k.f.s.s.s.3.z.v.b.7.7.3.3.3.A C C B F G G o.o.O.O.O.+.|.@X=X0XjXAXNXCXSXjXaXsXNXAXbXdXaXsXnXbXaXqX>XpXqX<XpX1Xo.b O.lXlX<XSXHXaXrX>XjXHXAXSXSXSXlXeXpXdXjXCXHXKXKXKXFXHXKXKXCXCXHXHXjXqXaXHXHXjX<X}.).X.E G W X.X.O.O.O.T c : : c R T E F D B C C B C C C N N N f f f f s s d ( _ f N x n , U U I I I I I I I I , , : g D A S 2.l.s.f.f.f.h.h.C.C.L.C.C.C.5.5.3.6.2.1.1.6.C K K W W X.o.+.+.+.....Q Q Q ..........! ! ....R .. X XfXfXpX<X<XpXzXdXlXlXSXpX|.].*XpXhXnXCXFXLXLXmXuXKXFXPXBXyX9XwXBXjXZXVXVXAXzX<XfX<X2X<XfXpX<XpXpXpXpXrX1X*X<X2XfX|.+.Q R R R R T R c c l v l + + ",
"v z v v g k k % v hXKXnXZXCXBXGXGXCXmXFXHXKXKXKXKXKXKXKXKXKXKXKXKXKXKXKXKXKXKXKXKXKXAXHXAXpX Xo.SX,X}.wXCXMXvXsXwXpXdXNXZXHXHXFXGXHXKXKXHXBXbXbXhXsXbXCXHXHXHXHXHXGXGXFXGXHXHXHXAXHXSXdXjX>XE E R c c n - X @ @ @ O O 4 4 w e e e e e h u e e e t t t t f ( g.g.c.c.S e ; v E T R R ! ! R R c c x N S d.R.~.U.D.U.U.U.U.Y.Y.H.n.m._._.M.7.H H 7.K C K K C B B J #XyXNXZXKXKXHXZXbXkXdXaXqX<X<XqX<XaX<XqXqXjXdXHXGXZXAXAXSXSXkX,X|.,XrXeXkXAXHXSXHXHXHXHXKXKXKXKXFXmXhXsXbXHXKXKXKXKXKXKXKXHXKXKXKXKXKXKXKXKXHXGXHXCXjXrX@X].X.G X.O.X.X.O.o...b : c b D B C 5.1.4.5.5.5.3.3.3.Z u e e f s.k.k.k.k.i.h.Y.n.N k x n c > < Y Y P P P P = = > ; ; x A d.h.k.h.h.k.l.f._ _ A A z.z.x.z.7.7.3.3.3.3.H B F G X.).o.O.| T E ..O.o.].@X>XeXkXSXSXjXaXdXbXlXkXdXjXNXNXaXqX-XqX<X-X-X{.X.o.SXSXlXlXSXVXdX,XaXSXHXAXlXlXSXlXaXdXkXkXjXBXGXKXHXFXFXKXHXCXBXAXjXjXVXSXVXqX XX.T T E E X.X.W E W E T c : : c R R T E F D K C C H H A B N N N S d f f s s d d d Z x x l , U Y I I I I I I I Y Y , > : n K C 3.l.s.f.f.f.f.h.h.h.j.C.C.C.j.5.5.3.j.5.3.3.C K K W W o.+.+.+.+...Q Q Q ......! ! ! +.! | +.....+... X*X1X1X2XfXzXfXAXlX<X|.].*XpXaXjXNXBXCXHXKXFXhXKXFXFXBXtX=X9XCXHXAXkXpXlXlXlXSXzXzX1X<X<X<XfXpX1X1X<X<XpXfX-X{.Q R c c R R c : c l z z G v + + ",
"% + ; ; + + % + D nXKXbXGXFXBXKXHXGXFXHXKXHXHXKXKXLXPXPXLXKXKXKXKXKXKXKXKXKXKXKXKXHXHXAX1Xo.O.&XSXAXlXZXyX9XuXnXeXeXpXdXlXZXGXLXKXGXGXKXKXHXGXHXBXnXmXHXKXKXHXGXHXGXGXGXHXHXHXAXHXAXzX,X@X}.E Q T c c n - X @ @ o O O 4 w w i u u e h h u e e w t t f f d s.g.n.c.x * ; v E R R R R R U R R R T E v h N h.S.~.~.a.a.U.U.U.U.S.H.n.m.m.m.b.7.7.7.b.b.b.b.x.z.7.x./.[.+X#XqXjXZXHXZXlXdXpXrXqXpXfXrXaXrXrXrXjXjXAXGXNXZXAXNXaX,X|.+XwXjXnXSXHXHXHXGXKXKXHXLXKXKXKXKXCXbXyXhXCXKXKXKXKXKXKXKXKXKXKXLXJXLXKXKXHXCXnXeX,X}.O.E E X.o.E X.O.E E E T c : l b D C 3.5.4.5.5.5.5.5.5.3.V u t f d s.f.f.k.Z.Z.j.Z N x g - c , > > U U P = P P = = < ; l ` z.d.2.h.h.l.l.k.( _ _ _ ` ` 7.7.8.8.7.7.7.7.7.7.K K F X.o.O.O.......E E E X.o.).o.].@XeXkXaXrX0XeXdXNXNXjXdXdXdX<X-X*X*X].Q {.pXAXpXlXHXSXNXZXhXHXGXCXCXZXAXSXlXlXlXlXkXjXjXBXCXKXKXHXHXHXHXHXAXZXZXlX<X].E E ....Q Q ..E T b b E E b c c c R R T Q W G K K C C 7.H H A S S S d f d d d ( u.d d c.` x : < I I I I I I I Y Y Y Y < > , ` /.` A s.f.u.f.f.f.f.h.h.2.h.j.j.j.v.5.5.5.6.6.C C K J W W o.+.+.+.+.+...Q ..! ! ! ! ! ! +.| | +...Q ! ....+.&X-X2XfXzXzXfX-X{.].|.pXlXdXkXSXAXCXCXHXHXFXvXyXuXuXwX,XtXGXKXAXjXaXkXlXzXzX2X2X*X-X1X<X2X1X|.1XpXpX1X X..R R R c : : : , R c c T b b v k k ",
"j k k k + + + + j bXKXhXmXbXvXHXHXFXFXHXKXHXKXKXKXFXMXMXDXJXKXKXKXKXKXKXKXKXKXLXFXHXHXNX].G +.2XpXpX1XyXgXbXuX=XdXdXdXpXaXBXKXKXKXLXFXFXLXLXKXKXBXnXmXFXGXFXCXCXHXHXGXCXCXBXjXkXpX1X,X].o.o.E Q T c n b - + @ O e e e e w w w i u h h h e e w w t t f s ( s.s.d.e + + g G T R ! ! U U U R R R R > - ; e a :.D.^.a.^.^.U.U.U.~.W.n.n.m.J.J.G.F.G.G.b.v.b.v.z.v.7./.).(./.(.[.+X>XNXjXdXdXfXpXqXqXpXpXkXpXpXaXNXnXZXNXZXZXaX=X+X|.,X,XyXCXCXnXCXKXFXKXKXKXJXJXJXJXLXFXCXbXhXvXCXFXKXKXKXKXKXKXKXKXKXKXKXKXKXCXeX,XX.X.O.o.o.o.X.O.E O.O.E E T T T : : z D K 6.5.4.5.5.5.5.j.5.1.a u Z s.g.f.f.f.k.h.h.Z u h J G : , , > > U U > = = P = = = < l X.x.v.j.j.j.l.l.g._ _ _ _ ` ` H H 7.8.8.z.7.7.7.7.J J F o.o.O...T | | ..E Q O.o.o.o.o.o.].|.=XqXdX0XdXVXNXdXdXdXpX-X*X|.].o.{.pXAXkXSXSXSXHXHXHXKXKXCXBXZXHXAXZXSXSXVXlXjXjXjXjXjXHXKXKXGXHXHXAXjXAX<Xo.E E E E T T R R R T T T ..b b b l l c R R Q Q W G D C C C C B N N N S S S f d _ ( d :.s.s.c.` g ; < P I I Y U Y Y P P P P = < , G X.` _ _ f.u.f.f.f.f.f.f.Z s.j.j.5.5.5.3.1.V V C C K J X.o.o.+.+.+.+.+.+.........| |  . .+.+.+.+.+...+.+...+.+.{.-X2X2X2X X{.|.*X<XzXSXSXNXAXAXSXNXZXHXHXtXwXwXwXwXeXbXKXCXBXZXVXlXlXfX*X&X*X&X*X1X2X2X&X|.1XpX*Xo.c c c : c R R R , , c R R T z v v g x ",
"B h h k k k k 5 j mXKXyXhXuXyXHXKXLXFXKXKXKXKXKXKXJXPXmXLXKXKXKXKXKXKXKXKXKXJXLXLXHXkX).v O.1X1XpX2X*XkXBXHXBXsXwXsXNXNXNXBXHXKXLXLXKXKXKXLXFXLXHXGXHXKXKXHXKXKXHXSXSXjXkXeX<X,X|.).].X.b W Q E R c n n g + + + e e i y y y f a V B B m e e e t f t f d s.d.2.S M.D g - - - > > U R ! ! R , > # > ; ; B v.H.D.p.^.^.^.U.U.U.U.L.s.d.z.m.J.b.b.G.G.G.v.b.v.v.m.8./.).).(.(.W X.].].{.*XpXlXlXjXjXpX<XlXaXaXpXVXaXNXbXAXAX0X|.+X=XhXnXFXLXKXKXKXHXLXKXKXKXKXKXJXDXmXGXHXCXbXhXbXbXHXHXHXKXKXHXKXKXKXKXHXCXhX#X).G (.o.X.E E E E E E E G E T b b b c l v K C 6.5.5.5.5.5.j.j.3.V u Z _ f.f.s.s.f.k.l.a u 7._.G l > , U , U R R , > = = = = = # % g x.x.v.j.4.4.h.k.g._ _ ` ` ` J H H 7.8.z.z.7.7.H J K G ).+.....T T | ......o.o.].o.o.o.o.o.o.}.-XfXkXkXdXfXpX>X*X{.{.{.o.].dXAXdXzXSXSXSXHXHXHXHXGXCXLXHXAXlXjXSXSXlXjXjXNXNXjXaXsXNXZXZXAXAXzX1XW E E Q Q T T R T R T T T b c b T E b c c b Q ..E E W K D B B M m u e e t t S Z S _ s.Z d :.g.n.A x ; < = P P P U , , > > > = = = = < , G ` z.d.s.u.i.f.f.f.s.s.s.g.c.d.3.3.3.6.6.3.3.9.7.8.x./.).].].].+.+.....+.+.+.....| | | ..+.+.+.+.+.....+.+.Q ..+.&X&X{. X{.-XzXlXzXSXSXAXAXSXjXjXZXZXBXBXhXyXyXsXjXCXHXCXCXHXAXlXlXfX|.&X-X&X-X2X<X1X X1X&X{.T c c R R c : > : : : : l z z b v F D k k ",
"C C M u e e 5 5 C KXJXMXBXCXAXHXLXJXKXKXKXJXJXJXJXKXKXKXKXKXKXKXJXKXKXLXPXKXKXHXGXCX}.v F }.<XpXpX2XpXlXNXjXNXKXeXwXaXjXSXNXnXnXBXFXGXCXCXCXBXbXCXGXKXKXHXGXZXZXHXSXeX=X|.].o.o.W O.O.o.X.W E T T c n b z k q 5 e i a a a :.1.1.3.3.m e e e t t _ d s.d 2.3.3.oX_.K v b b z : % > : R : > > : c ..E F G x.G.H.D.D.^.U.U.U.Y.l.B._ _ _ c.M.M.M.m.'.b.'.'.b.8.8.x./.W X.o.o...Q ..Q ..o.].].|.,XrXaXlXlXpXqXpXdXdXpXHXSX*X}.+X,XyXHXHXHXHXHXHXKXKXLXLXLXKXKXKXLXFXbXBXHXHXGXnXsXyXhXCXHXHXGXBXCXHXHXCXeX@X).o.X.E O.E E E E E E E E E T b b b n c n F J x.7.3.5.5.9.5.v.3.d.d.t f d s.f.s.s.k.s.d >.1.v..XJ g : R , , < ; R E b % l c > $ = > > - b J b.F.C.V.V.h._ _ ` ` ` ` ` ` H x.7.H x.x.H ` G G X.o.o...| T ..| ..+.+.+.+.+.+.o.o.).).o.o.o.|.|.<XdXSXzX1X].&X{.+.&XfXSXlXpXSXAXAXCXZXHXKXGXHXCXCXZXCXjXjXjXVXSXSXjXaXeXeXeX>XVXZXkX<X*X+...T T R R R R R R R R c c c c b b F n v v G ` ` J F K K D D B B B C u e u u e u A S S d :.4.C.v.H l ; = = = = = = > ; g q % : < = = = = > c K 9.K.C.V.V.V.V.h.s.g.g.` ` ` A A 7.7.9.9.9.9.9.9.9.8.'.'.`.[.[.).o.W o.O...........+.+.+.+.+.+.+.+.+.+.+...+.+.+.&X..&X&X1XzXfXfXlXAXAXHXAXnXjXNXCXCXCXyXyXmXGXHXKXHXHXsXHXZXeXlX*X<XpX-X X<XfX{.T +.+.R , , > > > > > : l c b b z l k k q q 5 5 e e ",
"3.3.6.V m M m e 0.KXKXKXKXHXSXSXKXKXKXKXKXKXKXKXKXKXKXKXKXKXKXKXKXKXKXKXKXKXHXHXNX].v F [.,XdXVX<XfXlXlXjXdXbXGXBXhXeXwXhXSXSXkXjXCXHXHXGXZXCXCXHXZXNXZXHXHXHXSX,X@X[.).o.o.X.W O.O...O.O.E E T | n T T z k q 5 e a 2.2.2.4.5.5.1.V u u u t t t _ _ 2.2.2.5..XoXx.j g W W E b b z % X X l Q +.+.o.o.W J J b.H.Z.S.S.D.U.R.Y.c._ M.c.` ` ` M.'.'.x.b.b.'.'.x.8.x.W W W o.o...............O.o.).[.<XpXkXpXfXlXlXpXdXlX<X+X+X,XtXFXKXKXKXKXKXKXKXKXLXLXHXKXKXKXHXFXbXBXHXKXHXCXnXbXyXkXnXnXHXHXAXhX@X+X[.o.W W Q E T T E T G b G G b b b b b G F n v D K H 3.6.6.4.w.w.9.1.A _ f d t d s.l.l.j.2.a j.F.m.8.v l c R > > % ; l g k q % g z : > > > > : F 8.G.F.V.V.V.Z Z ` ` ` ` ` x.x.b.b.x.z.` H ` ` ` X.o.o.......! ! ! ....+.+.+.+.o.o.+.+.o.o.+.].]. X-X<X<X&X{. X{.|.pXSXlXlXlXlXSXSXjXnXAXHXGXHXZXCXCXCXNXnXNXHXZXlXkXdXaX<X=XaX<X|.].o...T c c c R R R R R R c c c n c v b n v v j j B B x B D K K K D K C A N t t a a u u u S Z 2.2.j.v.7.D : < = = = = = > # + q 5 @ % ; > = = = < c G 0.q.K.C.C.V.4.u.h.l.c.` ` ` ` H z.b.v.v.9.9.9.9.9.9.9.b.x././././.X.X.X.O...........o.o.o.o.+.+.+.+.+.+.+.+.+...+.+. X{.-X2XpXpXlXHXHXHXBXhXhXCXCXCXnXyXbXGXFXFXHXHXHXnXAXZXdX,X=X-X|.o. X|.c l Q R , > > > > > , c : l b b v g + @ @ O + + 5 e e h ",
"3.9.3.3.C C C M 8.xXIXHXHXHXAXHXKXKXKXKXKXKXKXKXKXKXKXKXKXKXKXKXKXKXKXKXKXKXGXbX}.z b =XdXkXkXpXpXzXlXlXjXlXNXbXGXZXhXrXyXSXZXkXyXnXHXHXZXZXZXHXZXNXVXSXZXjX<X@Xo.o.O.E O.O.X...O.......Q E E T | n T T z g k 5 e V 2.h.4.4.5.5.1.V V Z A t t f Z Z a d.j.J.5X7.j j F X.X.E W (.F % . + v W o.Q Q o.o.J H b.J.L.S.D.D.S.Z.Y.c._ oXB.c.` ` M._._.b.b.b.'._.'.'./.8.J X.o.o.o.............Q Q O.X.).].|.*X<XlXzXfXfX-X[.|.0XsXnXKXHXKXKXKXKXKXKXKXHXHXHXKXKXKXKXLXCXGXKXKXKXHXZXCXhXsXNXSXBXSXyX+X(.o.W E E E E T T T T T b b b b b b b b b n v j g j B C 6.6.2.1.1.6.5.V Z _ S _ Z d Z s.2.2.2.h.H.J.v.B g c R T , - ; - k + @ q q j z z : > = & % z J b.F.C.D.V.2.d.z.M.M.` ` ` x._.XX_.7.K H K J J X.o.O.......T T ! Q Q ............+.+.+.+.+.o.o.o.]. X X X{. X*XpXSXSXlXlXZXlXNXjXhXhXCXHXHXKXZXNXCXAXZXCXNXHXZXlXkXjXNXdX>X<Xo.b b z c n c c c c c R R R c c c z l z l z l ; k k k h j j j B C C K K C A A d f f d d f f u u d 2.j.F.v.H b > < = = = > > % . @ 9 0 o @ % : > = = < , G 8.9.F.C.C.V.:.:.h.Y.c.` ` ` ` H z.b.v.v.v.v.9.9.9.9.9.9.7.7.H J J J ` W W E Q ......o.o.o.o.o.+.+.+.+.+.+.{.+...+.+...+.&X2XpXpXVXHXAXBXhXyXhXCXCXBXbXhXCXKXHXCXGXHXGXHXCXAXAX,XzX-Xo.Q &X X% X b : > > > > & > > - l l - % + X       O O O 5 e e h ",
"3.3.7.7.3.3.7.H C `.`.>X<XdXSXSXHXHXKXKXKXKXHXLXKXKXKXKXKXKXKXKXKXKXKXCXGXKXaX+Xl W ,XAXZXlXfX<XlXlXlXkXVXHXBXaXaXNXBXjXkXjXnXkXeXjXZXZXZXZXZXZXVXVXlXpX=X}.o.W o.o.X.O.O.....O.......Q E Q Q T T c R R z g k k e V 3.j.5.5.3.2.d 2.Z s.d.Z f a Z d Z v.XXoX.Xh j G (.W F X./.J 5 + 5 M L D J (.X.o.o.W J x.b.H.L.S.S.D.h.s.Y.B.oXoXB.` ` M.M.M.b.b.0.8.'.b.x.x.8.J X.X.X.W Q Q +.+.+.+.o.....o...o.o.+.&XfXzXfX1X|.[.=XjXCXFXHXLXKXKXKXKXKXKXKXKXKXKXKXKXKXKXHXKXKXKXKXKXHXHXGXCXhXNXSXrX*X|.X.o.X.E G E E b b T b b b b n n v G F b v g g k k e h C 3.3.5.5.5.5.9.5.V Z _ _ g.g.s.d a a :.j.H.n.M.H x l T T R R l k k 5 o o M 0.M q % : : > # & l L H 9.C.D.D.j.j.n.M.M.` ` ` x.M.oX.XH C H K J ` /./.o.O.....T Q Q Q Q Q Q Q ......+.+...+.+.+.....+.+.+.+.+.*XdXSXlXlXSXZXSXSXSXNXbXnXGXKXKXHXZXBXNXZXZXZXSXAXAXZXVXVXSXlXdX[.l - b l : c c c c c : : l c l l l l g g g k k % k e k h j B C C C C C C A A Z d d f f s d d a a Z 3.v.v.x.K z > = = = > > % X o 0 -.9 1 3 @ % l > > < , c G H b.F.C.V.h.h.Z.H.g._ ` ` ` A 3.v.v.v.v.v.v.9.9.9.9.9.9.7.7.7.H K K D D F E E o.o.o.o.o.o.o.+.+.+...+.+.+.+.+.+...c +.1XpXpXjXAXZXnXhXhXhXnXCXGXAXbXnXHXKXHXFXHXHXGXKXSXZXHXkXVX}.o. X1X*X..: ; - > ; ; ; % : : - % % X           O O O 5 e e e u ",
"3.7.z.z.9.7.7.8.K J G (.(.}.|.*XdXlXVXAXHXHXHXGXKXKXKXKXKXKXKXKXKXKXKXGXBXsX}.F v =XVXjXdXdXfXdXzXlXlXdXlXAXZXsX0XeXjXBXNXkXhXhXjXBXBXBXNXVXlXjXlXpX*X].o.E O.o.O.O.O.Q Q E E E ......Q Q Q Q Q R R R c z l g k h V 3.d.j.5.3.V f :.s.s.g.g.s.2.2.4.F.P.oXXXj k W W W G G /.K 5 5 5 M w.M h K `.(.X.X.X./.J 7.F.L.S.E.D.:.h.R.oXB.oXR.M.` z.x.x.b.7.3.3.7.7.7.7.H H J J J E E E ....................Q Q +.&X-X-X|.|.1XdXAXHXHXCXLXHXKXKXKXKXKXHXKXKXKXKXKXKXKXKXKXKXHXHXHXHXHXHXHXNXjX>X).o.).G G b b b b b b c b b c c v n v v D v j k k + + + e N 3.j.5.j.C.C.F.F.1.a Z g.c.c.g.l.j.2.2.j.C.v.M.` x v b T R c b g q @ o 1 3 ;.9.9 @ q l c > $ & - g j 7.F.A.D.V.j.j.n.M.c.` ` ` M.oXoX7.H 7.H 8.x.'.`.`.o.o.o.......Q Q Q Q Q Q Q Q ..........+.+.+.+.......+.pXlXSXdXjXHXHXVXAXHXGXGXGXHXKXHXGXZXZXNXNXNXZXAXHXAXZXZXSXlXpX<Xo.% % l z : z : : , : : : l l l g g g ; ; ; * e k k h h m M B C 3.3.3.3.3.A Z d d s f p f ( s.2.j.j.j.v.b.J l ; > = = < : ; @ o 3 7 -.-.6 3 o @ g : > < < , c v 7.v.F.C.C.V.V.h.l.g._ ` ` _ d.z.v.v.v.F.C.C.C.5.5.v.v.v.9.3.A C B B B D D F G E J W W W o.o.+.+...+.+...+.+...R ..&XzXzXaXZXHXNXsXhXhXnXnXnXCXGXCXBXGXHXHXGXHXHXCXZXnXCXyX0X+XX.|.<XpXfXfX|.l % ; % ; ; % % % % . .           O O 4 w w e e e e ",
"z.z.z.7.7.7.H 7.J J F X.E O...o.{.|.-XrXkXVXZXZXHXKXKXKXKXKXKXKXKXHXHXKXbX+XG v +XdXaX<XpXfXrXfX<XkXlXkXaXkXNXNXsXeXtXnXAXCXjXaXZXGXZXVXlXdXrX<X-X|.o.E E ......Q Q Q E E E E Q ..Q Q Q Q Q Q T T R T R c z v k B B A 3.3.3.V a s u.s.u.s.j.h.h.h.F.4XXXXXH k G (.G E X.X.D h 5 1.;.;.w.w.M M B (.X.X.(.(.J H 7.L.L.S.S.V.Z.R.T.R.R.oXB.c.` ` z.x.7.6.6.7.7.7.7.7.7.x.J J W W E T T R R ! Q ....Q Q Q R Q ..+.+. X*XdXZXZXHXKXFXHXHXKXKXKXKXKXKXKXKXKXKXKXKXKXKXLXFXFXFXHXHXHXHXCXHXAX}.- l E E b c c b b b c c c z z z v v v j k e + + + + O 5 u V j.j.5.4.V.C.F.v.a a d.g.c.c.g.n.Z.h.4.F.H.v.M.D x n T R R c z q 5 o 3 7 7 ;.;.4 5 M v : > $ $ & - l H v.K.A.V.h.j.l.c.c.c.M.` M._._.v.7.b.v.7.x.x._.'./.X.X.o.O.....Q Q Q Q Q Q Q Q Q Q Q Q ....+.+...E o.{.lXdXdXlXAXHXHXGXHXHXKXKXKXKXHXGXCXAXAXNXjXlXVXZXAXNXNXAXAXkX=X|.].z ; - : l c - ; : : : : l : - ; ; ; * * e e e k h h m M B C C 1.2.6.3.3.3.Z d f s s s s d d :.C.C.j.v.H v : < < = = > - + o o 2 7 -.-.6 2 3 0 5 - > < = < < : B 3.v.F.C.V.V.u.g.g.g.g.c.d.d.d.v.v.v.v.C.C.C.C.C.C.5.5.5.3.3.3.C C C B B j v v D D D F W o.......+.+.! ..+.T T 1XdXAXVXdXNXGXbXtXhXnXnXhXyXhXCXHXCXGXHXCXAXHXCXnXsXNXZX#X}.X.}.0XpXlXlXSXSX|.% % # % % X .               o O O O 4 w w w y i t ",
"z.d.3.3.7.7.H 7.8.8.J X.X.o.E o.E Q o.].|.-X<XrXNXZXKXKXKXJXKXKXKXZXBXbX=XX.W [.pXpXqXpXfXfXqX<X<XpXlXkXdXkXbXNXbXsXtXkXCXHXCXjXVXZXZXjXqX=X|.].o...E E ....T R E E E E Q E Q ..T T Q Q Q T R R T R T T b b F L B B C V V V V f u.i.i.u.h.h.2.4.K.P.4XoXx.j j W W F W (.D e e i ;.;.;.,.q.w.1.m J W o.(.X./.8.H v.H.S.A.S.S.Z.H.T.B.B.B.M.z.z.z.b.b.9.b.9.9.v.b.v.b.b.8.J J W E b b R R R R R R ! Q ......+.+.+.+.|.dXHXZXGXKXKXKXKXKXKXKXKXKXKXKXKXKXKXKXKXKXKXLXFXCXFXHXKXKXHXSXHXkX].l - z b b b c c c z l c z l l z l g k k + O O O O O 5 e N 3.j.j.4.q.V.V.F.5.u Z c.g.c.g.l.l.j.h.j.H.H.m.H n n n T R R z k + 5 3 7 9 7 ;.;.8 i 0.L ; ; $ $ $ > l D 9.F.C.A.V.h.l.l.g.c.c.` M.M.z.v.v.b.b.7.7.z.x.x.J K F G G G E E E Q Q T R R Q Q T T Q Q Q ....Q o.|.<XlXkXkXVXAXZXAXHXHXHXKXKXKXKXGXGXZXHXAXVXjXNXNXNXVXkXjXZXlX1X|.|.-X|...l - : : % % ; ; % % - ; % + * e e e k h h h m m m V C 6.6.6.6.2.3.j.d.Z d p s s / s s d s.V.C.j.z.D : < < = = > - + @ o 2 2 7 -.-.7 7 3 0 0 q : > = = = > g C 7.v.C.V.V.h.s.g.g.d.g.g.d.2.v.v.v.F.C.C.C.C.A.C.q.5.5.5.5.5.6.6.6.C B M j j B j j D F E Q Q ..| +.| ....T  XzXzXSXZXnXbXbXsXyXhXNXCXhXeXhXCXHXHXHXHXBXBXSXjXjXkXZXsX}.}.@XkXlXkXZXAXlXAXlXo.% . . . .               o o O 4 O 4 w w y i f a ",
"z.d.3.z.z.7.9.x.H 8.J W X.o.G o.o.o...W X.o.].{.rXjXAXKXHXLXJXKXHXGXNX=X(.W |.dXpX<XfXlXpXfXlXfXkXpXfXkXVXAXBXNXqXaXdXeXhXSXAXNXdXVXVXdX=X[.o.E T E E ....Q Q ..E E T T T T T T T T T T T R R R R R T T b F W K B K C V N N V f i.i.i.i.k.u.4.C.Q.Q.P.oXH j W E W W W J h e i ;.,.;.;.,.,.;.;.V j J (.W W (./.H 3.H.L.S.S.A.V.S.oXB.n.B.B.c.c.m.m.G.G.P.I.G.G.J.G.J.G.7.K K F F E E b c : : : : ! ! Q Q Q Q Q Q Q ].pXHXAXCXKXKXKXKXKXKXKXKXKXKXKXKXKXKXKXKXKXKXKXLXFXFXHXHXHXHXHX<X).).].E l l l l l l l : : l l g g g k ; + O O O O 4 4 4 w e 1.5.j.4.4.V.A.V.C.d.a d.B.g.g.g.g.s.h.C.H.H.F.m.j v n T R R c z q @ 0 0 9 9 2 9 q.-.;.9.M ; - = = = Y : v K 9.F.A.V.V.h.l.g.c.c.c.M.` A z.v.9.G.9.3.7.7.7.H B B j v v b F G E E E T R T T R T T Q Q Q ....].<XAXVXAXAXNXbXZXHXHXKXKXKXKXKXKXGXHXHXHXZXNXNXNXNXlXlXjXVXVX,X).].*XfXSX2XQ % # X X ; ; % X X X + + + e e e h h h m m m N V V 6.6.6.6.6.3.5.j.d.:.s s s s / s d s.Z.C.C.v.8.v ; = = = Y , - @ o 2 6 2 3 9 9 0 3 3 3 3 q z : = = = = - D 7.v.C.V.D.D.:.k.l.g.g.n.g.2.v.v.v.F.F.C.A.C.A.A.A.A.C.q.5.4.6.6.6.6.C C C C C B B B D G E R ! ! +.+...T ..fXSXrXaXAXHXvXyXyXnXCXGXHXNXhXCXHXHXHXHXHXnXjXjXaXkXSXAX+X).}.jXVXVXlXAXHXNXVXSXfXT %               o o O O O 4 4 w w w y i i a a ",
"n.j.3.3.z.z.v.b.7.7.x./.'.(.X.W E W X.W Q ..X.W o.}.=XyXCXKXKXGXZXdX=X].E +XlXdX<XpXdXfXpXpXdXlXkXzXlXlXVXZXZXBXwX0XwXyXsXaXNXHXlXlX<X[.W E E T T T T T R R T T T T T T T T T T R T R c R R c c T T T E G F D D B K C 3.v.3.V s.i.y.y.i.i.:.4.L.L.4XG..Xj D E Q Q W ).D + e i ;.,.,.=.;.q.;.,.6.m k /.(.E (.(.8.C C P.C.W.S.D.D.H.oXB.R.B.B._ z.J..XP.P.I.P.P.J.P.P.P.G.9.H D D v F b l : R c - : ! Q Q R ......+. X<XNXKXKXKXKXKXKXKXKXKXKXKXKXKXKXKXKXKXKXKXKXKXKXKXFXGXHXHXNX=X}.+XpXzX<X XQ ; : l l : - - l - ; + + @ @ O O 5 5 4 4 4 e i i :.h.V.q.4.V.D.V.H.a Z n.c.g.B.n.n.2.j.F.F.J.G.3.j b E T R R z % 5 0 3 9 9 1 9 i ;.E.w.1.6.k - > = = = > l D 7.F.V.D.V.h.h.g.c.B.c.c.z.A 3.v.G.9.v.v.v.9.7.7.A B B j j j j v v z b b T E E T R R c Q Q T o.-XSXHXHXHXBXNXHXGXNXbXGXHXKXHXKXKXGXNXAXZXAXZXlXkXlXAXjXZXlX*X(.[.<XdXfXpXfX2X+.#   % % % X X . + % + e e e e m m m N V V V 1.1.6.6.6.6.6.5.5.j.2.:.d s s s s s u.j.j.C.C.G.B ; < = = = , c + o 3 2 7 1 5 8._.e o 3 3 2 0 q - > = = = : g B z.F.V.V.D.i.:.l.f.g.l.s.l.5.v.v.F.F.F.A.A.A.A.K.K.q.q.q.5.q.4.w.6.6.C C C V C B h j F o.Q ! , R ..c ..<XzXzXjXnXCXmXhXbXGXCXHXKXHXHXKXHXZXCXNXSXlXrXhXSXkXNXHX+X(.+X<XlXAXkXjXVXZXSXVXNXVX>Xv             o O O O O 4 4 4 w w w i i u a a ",
"n.v.d.5.j.v.v.9.7.7.8.'.'.`.).(.W W W W E X.o...W o.).}.@XwXbXBXaX[.o.).|.dXSXpXpXdXjXdXpXqXfXlXzXzXlXjXVXZXGXZXaX0X,XqXkXjXlXNXfX[.E E E E b T b b b R R R R c R b R T T T b c b b b c b T b b E E G F v D D D B K A 7.v.3.d s.p.i.i.i.i.:.V.L.P.4X.XC j G E Q Q r.K k e i i ;.;.;.;.;.;.,.;.4.V k K (.W X.X./.K C G.K.L.E.A.D.H.T.B.B.B.B.d.z.J.P.P.P.P.P.P.P.P.P.P.G.v.7.C B j D z - - c b z : T R R Q ..T Q |.*XpXAXKXKXJXKXKXKXKXKXHXLXHXKXKXKXKXKXKXKXLXFXLXCXCXLXHXSXyX,X+X|.<XZXSXpX<X1XQ ; % : % ; g ; + X X @ O O O + 4 5 e i i a a >.>.V.C.V.q.V.A.A.C.d Z n.l.g.B.n.s.2.j.H.F.J.v.B L T E T T T z q 5 5 9 i 9 5 7.b.i 4.w.w.6.m g z > = = = : v H v.C.D.D.V.h.l.l.B.c.c.c._ 3.v.F.9.F.v.v.v.5.3.A C C B B B j j j j g l z b b E E E T T T E }.dXAXZXHXHXBXBXHXGXbXbXGXHXHXHXHXHXGXnXZXAXHXAXNXkXNXAXHXpX|.].[.1XdXlXzXpX2X2X-XQ % . % . . X + + + 5 e e e u m N V V V V 1.1.6.6.6.5.5.5.5.5.5.2.:.d s s s s d s.j.C.A.F.b.g # = = = = > l @ o 7 6 7 o L ].].D O 1 7 7 0 5 q : > = = > : x 7.F.C.V.D.V.:.k.l.g.l.f.g.3.v.v.F.F.F.F.A.A.A.K.q.q.q.q.q.q.q.4.6.6.6.6.6.V C B M j G X.o.R R R : c  XfXAXBXnXnXCXmXbXMXGXGXGXGXGXZXZXSXSXSXjXjXrX,XrXSXSXSXrX).).<XlXVXdXdXdXlXVXVXNXNXVXdX@Xk         O O O O 4 4 4 4 w w y y i i i a a ",
"H.n.j.j.j.j.v.9.9.9.9.b.b._..X`./.X.W W E W Q Q Q E E E X.].@X>X+X(.].-XdXVXZXkXjXjXjXdXeX>XqXdXzXkXzXzXlXZXGXGXbXeX,X>XaXjXkXpXqXE % % z c c c c c c c c c R c c b b b b b b v b b z l v b v v b v v j j j B B C C 7.v.v.2.:.h.p.p.p.i.i.h.S.!.!.P.XXe L W E T W /.k 4 i ;.i ;.i ;.Q.w.;.q.;.q.1.m M /.).W W (.J B 9.L.A.W.E.D.Z.R.R.R.B.B.c.z.J.P.P.P.P.P.P.L.P.L.L.I.F.9.7.C B D j k - g z z c T l c b T T *X<XpXNXHXKXKXJXJXKXKXKXKXLXFXLXHXKXKXKXKXKXKXCXmXCXjXBXHXAXyX,X@X,X,XkXAXZXpXpXpX-Xb X X X % % X .       O O 5 e e i u >.1.2.4.4.:.V.C.V.V.A.A.A.h.d s.B.n.B.B.l.d 2.C.H.H.G.9.m F T Q E T b k 5 0 9 ;.1.5 m OX:XV i 1.4.w.V M v > = P = > l K b.C.D.D.V.V.l.l.n.c.c.c.z.d.v.F.9.F.F.v.v.5.5.3.3.3.A C B B B j h j j j j v b b b E b b ].rXHXKXBXGXGXNXNXGXGXnXbXHXHXHXHXGXGXCXNXSXZXAXSXNXVXSXZXaX|.o. X2XzXkXzXzXfX<XfXfX-Xb   . . X + + 5 e e e u u u N V V V 1.1.1.6.6.5.5.5.5.5.9.v.5.2.:.d s s s d :.s.j.C.C.F.x.- # = = = > > % o 3 8 7 2 + o.$.@.O.; o 7 7 7 0 q z > = = > : v H v.V.V.D.D.>.h.l.g.g.g.g.d.v.v.F.F.F.F.K.A.K.K.q.q.q.q.q.q.q.5.4.6.6.6.6.V V V B D F W ..R ..: % ..pXSXAXAXCXbXmXnXsXsXbXGXBXNXNXnXhXjXjXjXdXdXrX,XrXSXSXpX].o.*XlXAXkXpXpXpXdXkXjXjXNXVXNXdX`.+     o O 4 4 4 4 4 4 w y y i i i a a V V ",
"H.H.j.j.j.j.j.5.5.5.9.9.9.b.b.b.'././.W W E E E Q Q E E E E o.).W ).<XSXSXjXVXSXlXjXlXlXpX>X0XdXkXkXkXzXVXAXGXZXbXaXqXwXdXlXjXdX*X).l X % - z l l l l c c c c c c c z l l z v b F F g - g g g k j j k h h h B C C C 3.v.j.:.:.D.p.a.p.i.u.h.L.T.T.XX7.e F W E T W r.5 4 ;.;.;.;.i 6.8XI.;.q.,.,.w.1.e H ).W o.(.(.K C P.A.W.E.S.V.R.R.R.B.R.B.z.H.P.P.P.Q.Q.Q.W.Q.W.L.K.F.F.9.3.C C B j h k g j b b l T z v ].VXjXNXGXKXKXKXJXKXKXKXKXKXHXLXHXKXKXKXKXKXKXKXFXCXjXNXAXSXrX*X=XrXdXrXdXSXlXdXrX,XfX*X-   % ; .         O 5 e e i u a 1.1.2.4.4.4.:.q.V.V.V.V.A.A.2.:.l.Y.n.n.B.g.f s.H.H.G.G.7.h E R R T T z q 0 3 9 w.M 5 ` 1X1XoXu a 4.w.4.M g : = P = = > b 7.C.V.V.V.V.V.Z.n.c.B.c.c.c.v.v.v.F.F.F.F.j.5.3.3.3.3.C C C B B m m j j j j g l l F b X.-XZXKXKXZXGXGXNXnXGXGXBXCXKXHXHXGXGXZXBXNXZXVXjXjXSXAXSXpX].].|.pXlXlXpX<XfXpXfXfXfXfX|.g . + % 5 + e h e u u u m V V V V 1.1.6.6.5.5.5.5.9.5.9.v.5.2.2.:.d u.u.:.:.s.j.j.5.F.x.: # = = $ U : + o 3 8 7 2 k @.$.#.@.n o 7 7 7 3 5 z : = = = > l K 9.C.V.D.D.>.u.l.l.g.g.g.d.v.v.v.F.F.F.K.A.A.K.q.q.q.q.q.q.q.5.4.6.6.6.6.1.1.C C D v F E T ..R b -XSXSXZXCXmXmXmXnXsXsXbXGXNXhXbXsXtXeXdXaXyXkXlXaXkXNXpX XE *XlXlX<X*X>XqXqXpXdXdXdXbXVXlXdXeX/.@   5 o 4 4 4 4 4 w w y i i i a a V V 1.",
"H.H.H.j.j.C.C.q.q.q.5.5.5.5.9.9.b.x.8.J W W E E Q E T Q Q E T E b ].qXSXVXjXkXdXlXkXlXVXjXqXqXkXaXaXkXlXSXAXZXNXaXeXaXjXAXAXNXaX}.*X|.v % % l z : : l l c c c c z l : : : l z v v v k + % k e k k h h h N V C C 7.6.5.j.4.>.i.D.p.a.a.i.u.Z.P.P.XXXXh B W E T T r.K 5 9 ;.;.;.y V XXiX$X6.w.q.,.w.w.i M /.W o.o.).K N F.C.E.E.E.V.Y.R.Y.B.R.R.c.H.P.T.Q.Q.Q.Q.W.Q.Q.L.L.K.F.F.5.6.C V C C M j j g g v W v ).0XVXCXZXHXKXKXKXKXKXKXKXKXKXKXKXKXKXKXKXKXKXKXKXLXFXSXSXlX<X+X+X0XlXlXkXdXdXdXVXjX<X>XaX(.+ + + .     O + e e u u a 1.1.2.2.2.4.4.4.4.V.V.V.V.C.A.A.:.2.l.Y.l.B.B.s.a j.H.F.F.b.7.B E R R R b j 5 4 3 i w.M k ].3X&X:Xe a 4.>.q.u h l > P P = > c K j.C.C.V.V.D.Z.l.l.c.B.c.z.v.v.v.F.F.F.C.C.5.5.5.3.3.6.3.3.C C C m m m h h g g g g G +XbXKXKXGXKXHXHXNXnXHXHXZXHXHXHXZXCXSXNXNXNXAXlXaXkXZXZXrX|.(.*XdXlXzXpX<X2X<X<XpXfXpXdXfX*X% + + e e e u u u u m V V V V 1.1.6.6.3.5.5.5.5.5.5.9.v.d.2.2.u.u.u.u.u.s.h.j.F.5.b.J : < = = $ U z 5 3 3 7 7 1 D @.#.{ #.| 5 2 7 7 3 5 L c = = = < : D 9.C.A.D.S.>.:.l.l.g.g.g.d.v.v.v.F.C.C.C.A.A.K.K.K.q.q.q.q.q.5.5.6.6.6.6.6.1.C C B B v G ..R Q |.zXAXSXkXbXnXCXGXCXBXZXGXGXNXhXhXsXtXaXjXkXdXlXSXkXaXrX@XE {.lXzX*X].o. XqXqXpXdXdXdXdXVXlXpXBXwXj @ O O 4 4 4 w w w y i i i a a a V 1.1.",
"H.R.L.C.V.C.C.q.q.q.q.q.q.q.q.5.3.7.H J J G W ..Q T T R T c c b o.*XdXlXkXkXdXpXaXdXlXVXjXpXpXkXpXaXzXlXZXAXBXdXaXqXaXZXHXVXqX*X*XfXlX-XT % % l l l z z c l l l : : : l l g g g k k * + * e e h h h m N N V V 6.5.3.9.C.>.>.p.D.p.a.p.p.h.Z.P.J.J..X+ 8.W E T E W h 9 ;.;.;.;.9 8.#X,X#X7.i q.,.,.q.i m J o.o.Q (.X.B v.K.S.E.E.V.Z.R.R.R.R.R.n.H.L.!.!.Q.Q.Q.Q.Q.W.W.W.L.K.K.F.F.3.6.6.6.C M M h j j v F eXHXsXGXHXKXJXJXKXKXKXKXKXKXKXKXKXKXKXKXKXKXKXKXKXKXHXHXlX<X+X+X<XkXSXlXlXlXdXpXbXZXjX+X0XqXX.X   @   O 5 e u u a 1.1.5.5.4.4.4.4.h.V.V.V.V.C.A.A.A.S.>.s.H.Y.l.Y.N.d d n.H.v.b.v.7.K R R R c v j 5 3 8 ;.;.M j &X$.$.].* N 4.;.;.i h l > P P = < , F v.C.C.V.V.C.Z.Z.l.n.B.c.c.z.v.v.F.F.F.C.C.C.5.5.j.5.5.3.3.3.C V V V M m h j g g g (.eXGXKXGXKXKXHXHXCXNXHXHXCXGXGXCXCXNXjXjXjXNXHXNXjXlXVXpX|.o.*XdXSXlXpX2XpX<X<X<XpXpXfXfXdXeX).k @ e m u u V u m V V V V 1.1.2.6.6.5.5.5.5.5.5.5.v.v.d.2.2.u.u.i.i.u.h.j.C.F.F.b.F : < = = = : z 5 3 3 7 7 1 E @.#.{ #.| 5 2 7 7 3 5 j l = = = < : x 3.C.A.D.D.p.>.s.l.g.g.g.d.j.j.j.j.C.C.A.A.A.A.A.F.q.q.q.q.q.5.5.5.6.6.4.1.6.6.C B D G E ..R ].pXSXSXBXkXbXCXHXGXBXbXBXZXKXGXNXbXjXjXjXlXjXkXaX<X|.|.}.O.T 2XSX&X+.{.{.{.<XqXpXdXdXdXdXlXdXVXVXIXOXe o 4 4 4 w w w w y i i i a a V V 1.2.",
"Y.R.R.Z.V.C.A.A.q.A.A.A.q.q.C.C.3.3.7.H D D F E Q T R R c c R Q <XkXSXjXdXaXaXdXpXkXlXlXkXdXdXkXdXkXjXVXZXAXNXaXsXaXjXZXNX>X@X*XdXlXSXlX*Xb - - l l z l l l : : - - - - - ; ; ; + e e e e e e m m m m N V Z 1.1.5.5.F.C.>.>.p.a.p.p.p.p.V.H.R.J.J.b.5 /.G E T Q D 5 9 ;.;.;.;.i _.,X*X,X.Xi ,.,.,.,.1.m K (.....X.(.K 3.L.A.E.E.Z.l.R.R.R.Y.R.n.n.L.!.!.Q.Q.Q.W.W.Q.W.W.W.L.K.K.L.F.5.5.5.6.V N D G k j `.HXKXCXHXKXKXJXJXJXKXJXKXKXKXKXKXKXKXKXKXKXKXKXHXHXHXHXSX<X|.@X<XzXlXlXlXjXNXNXpXtXNXZX+X@XaX0Xv . @ @ e u m V 1.2.4.1.4.5.4.4.4.4.V.V.V.V.V.A.C.A.A.S.:.h.Y.Y.l.Y.l.f 2.n.H.v.G.z.A K R ! U > l j 5 3 8 ;.i m v &X#.$.+.* u 1.;.;.;.u j > = P = = , n v.C.C.V.V.C.A.Z.l.n.c.c.c.z.v.v.F.F.F.C.C.C.C.C.C.j.5.5.3.6.6.1.6.1.V N m h j g /.=XnXGXGXKXKXKXGXHXCXCXGXCXjXjXHXAXSXSXlXjXjXSXZXVXVXjX<X|. X+XdXSXSXzXfXpXfX<X<XpXpXeXpXpXqXqXwXJ 5 e m u u V V V V V V 1.1.1.6.6.3.5.5.5.5.j.j.j.v.j.d.Z d u.u.i.i.u.h.h.C.F.G.b.v , < = = = l L 0 3 7 7 7 3 z +.#.{ #.| 5 2 7 7 3 3 q : = = = = > j 3.C.A.D.D.D.a d n.g.g.g.g.j.j.j.C.C.C.C.A.A.A.A.C.C.C.C.q.q.5.5.5.5.5.5.1.3.3.C B K X.o.Q +.<XSXZXSXCXCXLXHXGXBXbXdXjXbXHXHXZXnXjXbXnXjXjXkXpX*Xo.E X.n ..zX1Xo.{.*X&X*X<XqXfXlXlXlXdXlXdXSXbXsXiX8.5 4 4 w y y y y i i i a a a V 1.1.2.",
"Y.R.R.Z.C.A.A.A.A.A.A.A.q.q.A.C.F.9.3.C B h j v E E E T R R ..|.lXlXfXpXdXkXaXaXpXkXlXkXaXaXdXdXkXjXkXNXZXZXbXaXdXkXGXHXeX+X*XkXSXlXlXSXdX|.b - - - - - - - - - % % % + X + + + + e e e u u u m m N V V 1.6.5.5.5.5.L.A.>.,.p.a.a.p.p.V.Z.P.P.J.J.H k X.F E T W j 4 9 ;.;.;.-.i %X@X*X<X$X1.;.,.,.;.w.M D (.Q +.E ).J C !.A.E.E.S.h.R.R.R.B.R.Y.j.L.!.!.Q.Q.Q.W.W.Q.Q.W.W.L.L.L.K.K.F.F.F.v.5.6.H J h /.IXKXvXKXKXKXKXKXJXKXJXJXKXKXKXKXHXLXKXKXKXKXKXKXHXLXLXCX<X X].,XkXlXzXjXVXaXdXNXjXeXjXHX=X+X9XnX=Xk @ j M C V V 1.4.4.>.2.4.4.4.4.4.4.V.V.V.V.A.A.A.A.C.:.h.R.Y.l.Y.l.t 2.j.F.F.J.z.B F R U Y > : j 5 1 8 ;.9 e v &X#.%. Xg u 1.;.;.;.M j > = P P = , n v.C.A.C.A.V.C.Z.l.c.c.c.c.z.v.F.F.F.F.C.C.C.C.C.C.j.5.5.3.3.6.2.1.1.1.V M M B D #XIXGXBXBXKXKXFXCXHXGXGXHXCXyXyXKXHXZXSXSXlXNXAXlXVXlXpX|.o.+XlXSXSXlXrX<XfXfXqX=XdXpXqXfXpXeXdXmX#XH h e u V V V V V V 1.1.2.2.6.3.5.5.5.5.j.j.v.v.v.d.s.d ( u.y.i.i.i.h.j.F.v.G.x.v c , = = < c L 0 2 7 6 7 1 5 +.#.{ #.| 0 7 7 =.3 o + : = = = = < g C C.A.q.V.E.a a n.g._ c.c.j.d.j.j.Z.C.C.C.A.A.A.C.C.C.C.C.q.5.5.4.5.5.5.6.j.9.C B J o.o.E *XSXHXHXHXHXHXHXGXCXnXjXNXVXSXGXHXZXjXhXbXlXkXkXkXlX<Xo.G G n  XzX+.Q &X&X X-X<X2XfXlXVXlXlXlXlXdXjXBXvX$XK O 5 e e y y i i i i a a a a V 2.2.",
"Y.R.R.S.D.V.V.C.A.A.A.C.C.C.C.C.5.j.5.3.3.M M h j F E F b T {.lXZXjXkXNXlXkXaXqXeXNXwX*XqXdXeXkXjXNXhXNXHXNX>X=XrXSXZX,X[.@XdXSXlXNXNXzXzXdX|.z % % X X % # # % X X @ O + 5 5 5 e e e u u u u u u a V 1.w.5.9.9.F.F.L.h.<.i.a.p.a.U.i.>.L.Q.K.P..XK v E E E Q E h 0 9 ;.;.;.;.i oX,X@X,X5Xw.;.,.,.,.,.i M r.].Q ..o./.7.P.W.E.E.S.V.Z.T.Y.Y.R.R.h.L.!.Q.Q.!.Q.L.Q.Q.Q.Q.W.W.L.L.L.L.K.K.K.9.5.v.8.B x.iXJXJXKXKXKXKXKXHXHXHXHXHXHXKXKXKXKXKXKXKXKXLXKXKXhXCXHX>X).[.@XrXSXlXaXkXhXpX,X,XaXdXpXVXqX].[.qXeX).k D K C A V 1.4.V.h.>.4.4.V.q.V.V.C.A.q.A.S.C.C.S.C.:.H.Y.Y.B.B.B.f h.C.H.J.m.J D b R U Y > l j 5 4 8 8 8 4 e  X$.@.1Xh m q.,.,.;.1.j : > P = = U n z.C.C.A.V.q.V.Z.n.c.c.M.M.d.d.H.F.L.L.C.q.5.C.F.C.5.5.5.5.5.5.3.6.6.1.6.C m B `.MXbXBXKXKXHXGXGXSXAXAXHXGXsXwXuXKXKXKXHXSXSXSXSXdXAXpX].o.*XdXlXSXlXfX<X2XfXpXqXeXpXpXeXqXqXpXfXeXqX#Xh m M m 6.V V V V 6.6.6.6.5.5.5.5.j.j.j.5.9.v.v.j.s.( / / u.u.u.u.h.j.n.v.v.x.F : , P = < c g 0 2 7 6 7 2 0 W @.$.$.b 3 7 *.7 2 3 + - R P = = < ; K v.A.A.A.E.q.i d.c.` _ _ n.d.d.l.l.j.F.F.K.K.q.q.q.A.A.C.q.q.q.q.5.5.5.5.3.C 8.J W [.E [.jXKXHXHXKXHXKXKXBXhXnXnXhXjXCXAXHXZXjXjXdXpXpXfXAXlX*Xo.b O. X2X{.+.+.{.&X-X-XfXfXfXdXlXlXVXlXfXlXlXkXbXvXOXe O u u y i i i i a a V 1.2.2.a f ",
"U.Y.R.S.Z.C.C.C.A.A.A.A.A.C.C.C.C.j.j.5.3.6.C M j k j g k (.lXSXlXkXNXNXjXjXjXaXkXNX0X@XrXdXaXNXaXbXBXGXVXrX>X<XzXpX*X}.+XrXlXSXkXkXlXlXlXSXrX{.g X     . X X X . @ @ O 5 5 5 4 y y i i u u N N V Z 1.6.5.9.9.I.I.P.H.:.>.p.a.p.a.a.u.4.Q.Q.I.P.XXK v Q T T Q G q 9 -.;.;.;.;.i _.:X,X9X4X1.;.,.,.,.,.;.M r.].Q ....X.H I.W.E.E.E.V.Z.R.R.Y.R.R.h.Z.T.Q.Q.!.Q.Q.Q.Q.Q.Q.W.W.L.L.K.L.K.K.K.F.9.G.b.x.5XDXKXJXKXKXKXKXHXHXHXHXAXHXHXKXKXKXKXKXKXKXLXKXFXFXHXAXeX).}.,XrXkXlXkXrXrXhX0X@X=XdXdXqXpXqX[.[.+XeXqXW k D C C V 1.4.V.V.:.h.V.V.V.V.A.A.A.A.V.C.C.S.S.h.s.H.Y.B.B.B.g.a h.Z.H.J.m.H v b R U U > : k 5 3 7 8 8 3 + O.$.@.[.m 1.q.,.,.,.1.j l , P = = U n z.C.A.A.A.V.V.j.n.c.c.M.c.d.d.H.C.F.K.F.C.C.C.q.F.C.5.5.5.5.5.3.6.1.1.3.C M x.9XPXbXbXBXGXCXNXNXZXAXHXHXGXsXtXIXKXGXGXHXAXSXSXzXAX<X].o.|.fXSXlXkXlXdXfXfXfXqXqXqXeXpXeXpXpXfXfX<XNX9X'.k M C V N V V 6.1.6.5.5.5.5.5.j.j.C.V.C.9.9.F.j.u.( / / y.u.u.:.h.j.l.v.z.x.F : , P = = , g 0 2 7 6 7 6 1 M +.&X+.g 0 7 7 *.6 3 5 k R > = = < ; D v.C.A.e.E.q.;.j.c.c._ c.z.d._ c.n.v.j.F.F.q.q.q.q.A.A.C.q.q.q.q.q.5.5.6.9.7.K J ).(.X.wXGXKXFXKXKXFXGXnXhXhXnXnXhXhXnXAXHXSXNXVXzXpXpXzXfX1X{...T ].2X&X+...+.{.&X&X-X2X2XfXfXlXVXVXVXzXlXlXjXjXnX9Xx.e u u i i i ;.>.>.1.V V 1.2.Z a ",
"Y.Y.R.L.Z.C.A.A.A.A.A.A.A.A.C.C.C.C.C.9.9.7.7.H 8.j j k z @XZXlXdXlXVXjXeXaXlXkXkXkX>X=XeXdXaXNXGXNXZXZXaX=X*X-X1X}.].@XkXZXSXkXjXkXkXlXlXAXSXpXo.%     # % # .     @ + 5 5 w w y i i i a V A 3.Z Z 3.5.9.I.I.I.G.P.j.s >.p.^.a.a.a.u.q.Q.!.I.P.oXK b Q Q T E G 5 9 ;.;.;.;.;.9 H $X9X5XI.;.;.,.,.,.,.;.M W +.! ....X.H J.W.E.E.E.D.Z.R.R.R.R.R.l.Z.L.!.!.Q.Q.Q.Q.Q.Q.Q.W.W.W.L.A.W.L.K.K.K.F.G.9.OXcXKXJXJXKXKXKXKXKXHXHXHXHXHXHXKXKXKXKXKXKXKXGXKXnXCXHX>X).O.<XlXSXkXaXrXrX0XaXrX>X0XjXdXqX0XpX*X*X-XfXSX#XD j B A 2.2.4.V.V.V.V.V.V.C.A.A.A.A.S.C.q.S.L.C.:.l.Y.Y.l.Y.Y.:.>.D.A.K.H.b.H v b R ! U > : + O 3 9 -.-.4 O v &X@XD m 6.q.,.,.,.6.B l Y P P P U n 9.C.A.A.A.V.V.C.H.n.c.M.c.z.n.v.C.F.K.F.C.C.C.5.F.C.C.5.5.5.5.6.5.1.6.3.C 7.$XmXBXvXsXsXbXbXbXbXZXAXHXHXGXvXuXvXKXGXCXHXAXSXSXSXfXo.E |.fXlXlXpXqXfXlXzXfXfXqX<X0XqXqXqXqXqXpXpX<XlXaXwXD k C M V V 6.6.1.6.5.5.5.5.5.C.C.C.C.C.9.F.j.h.u.s / / y.:.:.:.h.C.Z.j.z.x.F : < P = = , g 3 2 7 6 6 6 2 0 E |.b @ 3 6 7 *.7 3 0 k R < = P < : K v.A.A.e.E.E.>.j.g.c._ n.z.d.d.d.c.n.v.F.F.9.q.q.A.A.A.C.C.q.q.q.q.5.5.5.7.7.K (.[.X.+XGXKXFXCXGXBXbXCXnXnXBXCXCXnXnXAXHXAXSXSXSXzXpX<XpX-X..l : o.1X2X+.....+.{.;X-X<X<X2XfXzXVXSXVXVXlXlXlXkXkXnXvX7XB u u a i i ;.>.1.1.1.V 2.Z d a ",
"R.R.R.R.H.C.C.A.A.A.A.A.A.A.A.A.C.C.C.5.9.9.7.0.H K j D +XdXlXlXkXVXSXaX=X<XdXkXdXaXqXeXjXdXaXbXKXGXHXBX<X*X*X|.o.].*XdXAXAXSXlXNXjXlXVXlXSXSXlX-XE X . % l - X   @ + 5 5 5 e i i i a a V 6.3.3.3.3.5.9.9.I.I.I.H.H.2.p >.a.a.a.a.i.u.V.Q.Q.P.J..XK b Q ! R T G 5 9 ;.;.-.<.;.9 m $XiXoX5.;.;.,.,.,.,.;.M W +.| ....X.H J.L.E.E.E.D.Z.Y.R.R.R.R.Y.Z.L.!.!.Q.W.Q.Q.Q.Q.Q.W.W.W.W.S.W.L.K.I.I.F.v.m.7XJXKXJXJXKXJXJXJXLXLXHXHXHXHXKXKXKXKXKXKXKXKXHXKXNXNXrXX.X.,XlXAXlXaXaXaXrXrX0XyXjXjXdXqX0XpXfX*X0XdXNXSXwX(.h B A 5.j.4.4.4.V.V.C.V.C.A.A.A.C.L.C.V.L.L.4.a Z.Y.Y.l.Y.Y.f >.A.S.K.H.b.H v G R R U > : + + 5 ;.;.;.9 4 k |.|.e m 4.,.,.,.,.6.B l , P P P U c 9.A.A.A.A.V.V.V.Z.n.m.M.n.n.v.j.H.H.H.C.C.C.C.C.C.C.C.C.C.j.4.2.j.6.3.3.C XXxXPXIXtXwXeXsXjXjXjXAXHXHXHXHXBXvXmXKXKXHXAXSXSXlXzX..b ].zXSXpX<X1X-XrXdXlXdXfXqX<X>X0XqXqXqX<XrXrXpX0XbXbX$Xh B B C 6.3.6.6.6.5.5.5.5.5.C.C.C.C.C.9.F.j.h.u.s s s :.:.:.:.h.Z.C.j.z.` n , < P P P , g 3 2 7 6 6 6 3 o k r.k o 2 6 7 *.7 7 0 k R = = P < : K v.C.D.e.E.E.q.4.j.l.g.z.z.n.c.S Z n.n.F.F.F.F.F.F.C.C.C.C.C.q.q.5.5.9.v.A 8.'.[.(.].dXHXFXCXGXnXtXyXGXGXCXAXHXHXCXAXHXHXSXSXAXVXkXpX<X1Xo.- # - {.1X&X+.+.+.{.{.;X-X2X2XfXfXlXSXSXVXNXlXlXlXdXpXaXbXIXx.h e m V >.>.;.a 1.1.2.2.Z f t ",
"R.R.R.R.H.C.C.K.A.A.A.A.A.A.A.A.A.C.C.5.5.5.7.7.K K J OXsXsXwXqXaXlXSXpX=X>XaXaXaXaXaXkXlXdXdXBXNXAXKXZX0X>X>X|.o.*XzXSXlXlXSXZXnXjXNXSXlXlXVXlXzX&Xl . % z l % X @ + 5 5 5 e i i a 1.1.6.3.5.5.5.5.5.9.F.F.I.G.P.H.:.p i.a.a.p.a.i.u.C.Q.Q.P.P._.D b Q ! ! | G 5 9 ;.;.-.<.;.i i XX5XG.1.w.,.,.,.,.,.1.m G o.......X.H H.S.E.E.E.S.D.Z.R.R.R.R.Y.l.H.!.!.!.Q.Q.Q.Q.Q.Q.W.W.W.W.L.W.L.K.L.I.F.v.5XvXKXJXJXKXKXJXJXLXLXLXHXHXHXHXKXKXKXKXKXKXKXKXHXHXSXrXo.l  XAXzXpX<XrXkXkXrX<X#X0XkXkXqX>X<XqXfX*X-XlXSXVXaXOXD B A 7.j.4.4.4.V.V.V.V.V.A.A.A.C.C.C.F.L.j.a :.Y.Y.Y.l.Y.Z.f :.S.E.K.L.G.H B G R U > > : ; e m w.;.;.i 9 5 J J 5 1.q.,.,.e.,.4.B l , I P P Y c 9.K.A.A.E.A.V.V.Z.n.B.m.m.n.v.3.j.C.H.H.C.5.C.C.C.C.C.C.C.C.q.5.5.3.3.A x.iXLXvXsXaXeXeXdXlXNXNXAXHXHXHXKXGXFXKXKXKXHXZXAXAXpX&Xz c |.zXfX1X<X<X-X<XfXkXlXlXdXqXqXqXqXpXrX2X2XrXfX>XhXsXIX'.h m 3.3.6.6.6.5.5.5.5.5.q.C.C.C.C.C.v.F.j.h.u.s s / :.:.:.h.C.S.S.C.z.` n , = P P P Y g o 2 6 6 6 6 7 1 0 q 5 3 6 7 7 *.*.7 0 q , < = I < : S j.V.E.E.E.E.q.4.C.n.v.z.z.c.z.N Z z.v.b.v.G.F.F.F.C.C.C.C.C.C.C.9.9.9.9.7.x.OX).X.>XAXZXbXBXKXCXyXhXFXCXnXBXAXHXGXSXSXSXnXCXSXjXjXkX<X X: # - b .. X X+.+.{.&X{.&X-X2X2XfXfXlXSXSXVXlXlXzXlXjXpXtXsXvX$XH e u V 1.1.i 1.1.2.1.V a f t ",
"R.R.R.R.H.C.C.K.A.K.A.A.A.A.A.A.A.C.C.5.5.5.7.7.8.K OXIXsXtXtX=XqXaXNXjXqXrXaXpXdXaXdXkXaXeXjXZXZXZXZXVXjXpX-Xo.*XzXAXSXkXjXVXNXjXhXNXSXVXSXSXlXZXfX].- % l c l % + + 5 e e u a a 1.1.4.5.5.5.5.v.v.F.F.F.F.G.H.T.Z.u.:.p.a.p.p.a.i.h.K.Q.Q.P.P._.D b Q ! ! | G 5 9 -.-.-.<.<.;.i 0..X6.i ,.,.<.,.,.,.>.m G ........o.H H.S.E.E.E.S.D.Z.Y.R.B.R.B.l.j.L.!.!.!.!.Q.Q.Q.W.W.W.W.W.W.W.L.K.I.I.G.XXcXJXKXDXJXKXJXLXJXJXJXJXLXKXKXKXKXKXKXKXKXKXKXHXHXHXkX|.g l |.pX<X=X*XrXlXhX>X,X,X>XeXaXqXpXfXqX1X<XpXlXlXlXVXwX).J C 3.3.5.4.V.V.V.V.V.V.A.A.C.C.C.C.H.H.2.a s.Y.N.Y.Y.Y.s.a V.E.E.S.L.G.H B G R U > : : + + i ;.;.;.;.i 5 k k e 4.q.,.e.e.,.4.m l , I P P Y c 8.F.A.A.A.E.D.V.V.l.n.n.m.n.v.3.2.3.v.H.F.C.C.C.C.C.q.C.C.C.C.5.3.3.H 8.$XMXKXIXnXbXjXkXjXNXZXSXAXHXHXHXKXKXKXKXKXKXGXAXAXSX&Xb : c {.<XpXfXfX<X-X<XqXfXlXSXNXdXqXqXqX<X<X<X<X<XpXdXdXtXuXuXD h 7.3.6.6.3.5.5.5.5.q.q.C.C.C.C.F.F.j.j.s.:.:./ u.:.u.h.h.C.S.S.C.z.` n , = P P P Y g o 2 7 6 7 6 2 1 o 5 5 0 2 7 7 *.*.*.7 5 , < P Y < : S j.V.V.E.E.E.E.q.K.H.v.M.M.c.c.d.d.z.z.v.v.v.v.G.F.F.F.F.C.F.9.v.9.9.9.C '.`.OX/.[.SXZXHXbXmXKXHXCXCXbXgXhXhXNXZXZXBXjXnXjXSXSXlXSXlX-Xz ; - c b T ..+.+.+.{.&X;X&X-X-X-X<XfXzXlXSXSXVXSXlXlXVXkXdXbXbXMXoXC u u 1.1.1.6.6.1.a u u f u ",
"R.R.R.R.Y.C.C.K.K.K.K.K.K.K.K.A.A.A.C.C.5.5.9.7.7.b.iXmXuXPXKXsXqXqXaXdXaXdXjXkXdXdXkXjXaXaXlXNXGXNXdXdXdX<X}.].pXlXSXlXjXlXVXjXnXbXSXSXVXZXZXjXSXSX<Xo.z l z b g k + k h m m V 1.1.2.5.5.5.5.5.F.9.F.F.F.F.G.H.H.s.:.i.p.a.a.p.i.i.V.Q.Q.Q.P.XX_.v b Q Q ! | G 5 9 -.-.<.<.;.;.i i M u i >.,.,.e.,.,.;.m F ........o.H H.S.E.E.E.E.D.h.Y.R.B.B.Y.l.j.C.L.!.!.!.!.!.Q.W.W.W.W.W.W.W.L.P.L.G.oX8XDXKXJXFXKXKXDXJXKXKXKXKXKXKXKXKXKXKXKXKXKXHXHXHXAXlX*XE - : +. X*X<X<XrXkXeX<XrXeX0XeXaXqXdXjXqX<XfXrXzXkXdXSXNX#X'.C C 3.5.5.C.V.V.V.V.A.A.A.C.C.C.F.F.h.2.j.l.l.N.l.R.l.a 4.S.W.E.K.L.G.C B G R > > c l + O i ;.,.,.w.;.e 5 D m 6.q.e.e.e.e.4.m l , Y I P Y c 8.F.F.A.A.E.A.V.j.j.d.n.n.n.v.v.Z Z 3.v.v.v.j.F.F.C.C.5.C.C.C.5.3.H 7..XiXLXGXBXBXZXSXlXjXSXZXAXHXKXHXGXKXKXKXKXKXGXAXHXSX1XX.- ; l Q {.<XfXzX<X<X<X<X0XdXVXSXNXpXpXrXqX<X<X<X<XqXjXaXtXyXPXOXK C 3.3.3.5.5.5.5.q.q.C.C.C.C.F.F.F.j.j.s.:.d u.u.d s.j.j.C.A.A.F.c.` n , P P P P U l 0 2 6 6 7 6 1 o 5 L q 0 2 7 *.*.*.*.7 5 , , P I < : x d.j.V.D.D.V.W.q.I.F.3.` M.M.c.m.m.b.v.v.b.z.9.9.v.v.v.F.F.F.v.v.9.9.7.H OXOX).).0XHXZXHXCXGXHXCXCXCXsXsXhXhXjXjXNXNXNXSXjXSXSXlXSX<XE X : c : l R T ..+.+.{.&X&X&X-X-X-X<X2XfXlXlXVXlXSXlXlXlXlXVXNXsXmXiX_.M m V 6.6.6.1.V i i i u f ",
"Y.Y.R.T.R.Z.j.C.K.K.K.K.K.K.K.K.A.A.A.C.F.9.9.7.7.iXDXuXIXLXFXvXaX0XqXpXpXdXNXNXkXjXVXZXVXVXVXjXpXkXkXaX*Xo.].<XSXlXzXpXaXlXZXZXZXCXZXNXNXZXZXpXfXlXlX-XQ : - l v k k h B C C 1.6.3.3.5.5.5.5.v.9.9.9.F.F.F.H.H.f.f s k.D.p.D.D.i.:.C.!.6XQ.P..X_.D b Q Q Q E G 9 i ;.;.<.<.;.;.w.5 5 e i w.,.e.e.,.,.;.m D ........(.H H.S.E.E.E.W.A.j.Y.Y.B.B.R.n.d.h.C.L.T.Q.!.!.Q.W.W.W.W.W.L.P.P.P.G.F.4XDXJXKXJXJXKXKXFXKXKXKXKXKXKXKXKXKXKXKXJXLXHXHXHXHXlX<XO.n l : .. X*XpXlXaXrXrXaXkXyXrXeXrX=X<XpX<XpX<X{.<XlXpXdXaX9X`.K A v.v.5.5.q.V.V.C.A.C.C.C.F.C.H.j.2.3.H.H.l.l.l.R.j.i j.W.W.E.K.I.b.B j n , > , R b 5 5 w.,.,.;.;.i h k [.h V ;.q.e.,.e.,.m l , Y I Y Y c J v.F.5.C.A.A.C.j.s.d.c.n.n.G.J.d.C N A 3.v.v.v.F.F.j.5.5.5.5.5.z.8.x.$XmXFXnXHXBXAXZXjXkXNXAXHXHXKXHXCXHXKXHXKXHXGXHXHXpXo.z l % c T Q {.1XfXlX<X<X>X>XeXjXZXZXlXkXpXpXpXpX2X<XpXpXaXaXnXsXvX/.B C 3.9.3.5.5.5.C.C.C.C.C.F.F.F.C.j.h.s.:.:.u.s.Z d.v.v.v.F.K.F.x.` n , I P P P U z 0 2 7 6 7 2 1 o D [.L @ 3 7 7 *.*.*.7 5 l , P I < > n ` d.j.C.V.q.L.5.G.9.C h H z.c.n.z.z.m.b.b.x.8.7.7.3.5.F.F.v.v.9.9.7.8./.OX@X(.@XVXNXHXZXHXKXHXuXyXnXyXnXnXkXeXwXaXNXSXHXSXZXSXlXlX|.% % : : l c c c ..&X X{.&X&X&X-X-X-X<XfXfXlXlXlXlXSXlXdXkXlXVXVXaXwXIX$XC M V 1.6.1.1.V u u i t t ",
"n.R.T.R.H.H.H.C.H.L.L.K.K.K.K.K.W.A.K.F.5.9.G.3.$XxXDXIXIXKXKXCXZXdXrXeXaXaXaXdXpXlXVXNXSXVXNXNXaXAXdX}.G b fXlXlXlXlXdXkXjXVXZXZXGXZXBXBXSXVXjXlXzXlXzX&Xb : z v v j k m C C 3.3.5.5.5.5.5.v.F.I.I.9.5.F.n.s.Z f d u.h.U.U.D.u.:.h.K.Q.XXXXXX.X_.j b Q Q R ..F 5 ;.;.-.<.<.-.;.i 5 8.H e 4.,.,.<.e.,.;.m K ].+...+.(.x.v.L.E.E.E.E.W.K.h.d.B.B.B.R.n.j.g.n.H.T.P.!.!.Q.W.W.W.L.Q.L.P.P.J.XX8XJXJXLXKXKXKXKXKXKXKXKXKXKXFXFXFXFXLXKXFXFXKXHXNXHXrXo.E T : - c {.|.-XpXfXpXkXkXkXaXrXaX=X*XqX<XpXdX*X|.-XpXfXrX,X=X#X%X7.3.v.v.5.C.A.A.A.C.F.H.H.F.j.j.d.2.j.J.n.Y.Y.B.d.Z v.J.F.K.K.I.P.m.D g n U = , R g + 9 q.,.q.,.;.m k ].*XK e 4.,.,.,.,.q.m v U U Y Y Y U G x.b.v.F.F.F.v.d.z.z.` z.n.J.J.m.M.z.A S 3.z.3.9.v.F.v.v.v.F.v.7.B %XIXbXnXHXNXZXSXVXVXZXAXHXHXHXKXKXHXHXHXHXKXKXHXNXNX|.z l % # : b E +.|.2XSXfXpX<X<XqXdXVXHXSXlXlXpXfXpX<X<XqXpXpXaXsXbXsXwXB A 3.6.3.5.5.5.F.C.5.C.F.j.j.j.j.h.h.s.u.u.Z Z Z _ z.z.b.b.G.J.M.` n , P P I Y R L 0 6 7 6 7 1 o + O.*X].q o 7 7 7 *.7 3 5 l , P P < , c n ` z.d.z.v.9.8.0.8.8.* + e S b.J.v.v..Xm.x.x.z.7.3.5.5.9.9.5.7.8.x./.).=X+X).kXAXHXdXGXmXbXFXHXBXhXyXBXNXNXjXjXNXZXZXNXZXlXlXSX&Xl # % - : l c R T Q  X-X&X{.-X1X-XfX<X2XfXfXpXlXSXjXSXlXdXdXdXfXdXdXdXaXiXXXM m 6.6.V a u u u u f d ",
"d.Y.oXT.Y.R.H.F.F.H.H.K.K.K.K.K.A.C.q.F.F.9.b..XxXcXMXvXmXKXKXmXbXaXrXpXdXdXdXdXpXlXZXAXAXNXdXlXlXdX|.].E {.lXlXpXpXfXzXlXZXHXHXGXHXGXZXVXSXlXkXpXdXlXSX<X+.c l b F v j B C C 7.6.3.5.5.j.v.v.v.5.I.I.F.H.n.s.Z d s.k.Z.k.h.:.f j.F.I.6X6XXXXXXX_.j b Q Q T o.G 5 i ;.;.<.-.;.w.5 B 9X$Xe i q.<.e.e.,.;.M J (.Q ..+.o.8.v.L.W.E.Q.W.W.P.H.n.c.d.n.B.B.n.n.n.g.n.P.T.Q.P.Q.!.Q.P.K.P.I.G.J.5XcXJXKXJXKXKXKXKXKXKXKXKXKXJXFXFXFXLXJXLXFXCXCXHXCXpXo.b b c : - l ..].|.=XpXlXVXzXrXjXaXaX0X>XaXpXlXlX<X|.-XdXlXkXdXqX9X$Xx.C 3.9.v.C.A.A.C.j.5.5.j.5.2.3.j.d.n.R.n.B.B.c._ _ M.J.b.I.G.G.b.x.D l c U I , , k 5 9 ;.q.,.;.M + E ;X$. X; u 4.,.E.<.4.m v U U Y I I U | ` x.x.x.x.x.` ` ` ` H H z.j.j.M.M._._.b.b.7.N V 6.3.9.9.9.9.9.H H $XMXbXBXHXZXZXZXVXZXAXHXHXHXKXKXKXHXHXHXKXHXKXCXHX<Xb z l . X - c T Q ].*XpXzXpXqX>X<XpXkXNXAXSXlXlXdXpXqX<XqXpXpXeXeXaXhXsX`.C A 7.6.5.5.5.5.5.5.5.5.3.3.3.2.2.:.:.s.s._ _ ` ` ` ` ` 8.9.x.` ' n U Y P P Y R L 0 6 7 6 7 1 @ b @.$.@.E k 1 3 6 7 7 3 0 k , P P P , , n n G H J J J J J J J g * * e u A 3.m.m.x.x.x.b.m.v.G.v.F.v.9.8.8././.+X#X}.+XVXZXVXdXCXuXyXHXHXyXwXyXjXBXZXZXZXAXSXlXkXkXaXpX*Xc X . % % - : c c R ..+.&X&X{.&X-X-X2XfXfXlXzXpXpXlXkXlXdXdXdXzXzXlXlXdXdXuX$X7.m V 6.1.V V Z 2.Z 2.d.",
"A n.R.T.R.J.n.j.F.F.H.H.L.K.K.K.K.K.F.F.G.9.b.7XJXMXIXMXLXKXFXBXjXaXpXdXjXlXkXkXwXkXVXAXAXVXlXZXVX|.l ).*XlXSXpX2X<X<XdXlXVXVXAXAXHXGXZXZXZXVXjXaXdXlXSXzX*Xo.l b b b v v B C 7.9.9.9.5.5.5.v.F.I.XXG.3.2.Z d d l.Z.H.Z.h.2.Z Z z.m.XXXXXXXXXX.X'.v T Q Q T o.J e i ;.;.;.;.;.u k }.lXaXD 5 1.,.e.,.,.,.M K (.{.+.+.o.W x.J.P.L.I.K.I.J.m.c.z.S _ n.m.n.B.m.c.n.j.C.F.K.L.Q.Q.L.L.4XP.G.oXxXJXDXKXKXKXKXKXKXKXKXKXKXKXLXPXFXLXLXKXFXJXCXnXHXSX|.G b T c : ; ; c ).|.*X<XkXSXlXpXeX0XaXdXlXZXlXNXVXrX|.|.<XpXzXZXdXeX#X`.x.7.7.v.C.C.C.5.2.6.3.3.3.3.v.n.H.R.R.n.B.g._ ` ` x.x.x._._.'.'.(.G c U I = < - g M w.w.q.;.;.e + $.$.$.$.+.* V q.,.,.w.m v U U Y I I Y R T G G F G F n n n G K H z.v.j.3.z.m.m.m.m.b.3.6.6.3.3.9.9.9.7.K %XuXPXCXCXHXHXAXZXZXAXHXKXHXKXKXKXKXKXKXKXKXKXHXZXSX(.- z %   . # l b E o.{.1XzXzXfX<X<XpXdXdXZXAXSXlXkXpXrXqXpXaXdXpXqXpXdXsXiXC B 7.C 6.5.5.5.5.5.j.3.6.A 3.s.s.s.2.s.Z A S ' ' n n G F G G G T R U Y Y I Y R q 3 2 6 6 1 o - +.%.#.#.$.E + 3 3 7 7 2 0 k c P P P = < , , , : : l l l l l l ; ; K ` z.v.3.3.A B B H z.z.v.v.F.F.F.G.b.8./.`.,X+X[.kXHXAXNXNXyXuXhXFXFXhXtXyXtXNXAXZXZXGXSXdXpXdXjXrXo.X   . # X # : c c R Q R  X&X{.&X-X-X2XfXfXzXzX<XpXkXzXlXdXdXdXlXzXlXlXdXjXaXUX_.B M 6.6.1.6.3.d.3.d.d.",
"d.z.m.J.B.Y.n.n.j.j.F.H.L.L.F.5.K.I.F.F.9.7.XXcXJXvXyXbXGXHXGXBXaXpXpXaXdXdXdXaXpXlXlXkXNXVXVXVX=XE % ].AXAX2X1XfX2XfXlXZXZXZXAXSXAXAXAXAXAXZXVXjXlXlXlXSXdX|.b c v b G D D K C 7.9.9.9.v.v.G.J.9.6.V u V d.l.l.Z.Z.j.2.V Z z.M.M.'._.XXXXXXXX`.).n T R ! T o.J 5 i ;.;.;.;.i O W 2X2X2X@XB e 4.,.,.,.w.m L (.].+...Q G J x.v.v.G.G.G.b.x.z.z.` S z.v.d.c.n.c.n.3.5.j.C.F.K.K.C.I.P.J.J.5XDXJXDXKXKXKXKXKXKXKXKXKXKXKXLXFXGXKXKXKXKXKXHXGXAX0XO.G E E l - % X - Q {.*X>XqXdXVXVXwXrXqXqXkXAXVXdXaXkX<X<XlXlXdXSXAXwXOX`.'.8.H 7.3.4.5.5.5.3.5.j.3.d.H.J.J.H.n.g.c.S S K G F F v J J J W O.c > < = = = > g M w.w.w.;.u + O.$.#.#.#.3Xn 5 q.;.q.w.M v U U I I I I U U , , c c , , , c n G ` c.n.n.d._ z.z.z.m.J.m.G.F.9.9.9.9.9.7.x.7XPXPXCXHXHXHXHXGXGXHXKXKXKXKXKXKXKXKXKXKXKXHXAXHX*Xz z l   .   X : b E E o.|.<XfXdXpX<XqXfXdXjXNXSXZXlXdXpXpXpXpXdXfXpXpXfXaXPX_.M A 3.6.5.5.5.F.F.F.v.3.A 3.s.s.s.s.s.A A D ' R R R R R E E T R ! U U Y Y U R q 1 2 6 2 1 q ..@.#.{ { #.+.v @ 3 3 2 2 9 j l P P P = = < < < < < > > > > > > ; x /._.J.J.v.J.A A A ` z.z.v.F.K.F.F.G.b.8./.[.=X|.+XHXAXjXsXnXwXbXHXFXCXGXBXsXaXNXZXNXVXGXZXjXaXkXdX|.- .   . . . . % : c R R R +.{.{.;X-X<XfXfX2XfXfX<X<XdXlXNXkXdXkXzXzXfXzXfXdXtXiX5X8.m C A 1.3.3.3.3.Z Z ",
"n.M.n.m.R.R.R.R.l.j.j.v.F.H.H.K.9.9.F.9.7..XiXPXbXnXbXnXCXHXAXNXeXeXeXeXpXaXpXeXdXVXlXeXdXjXeX=XE G : ..SXzX1X<X2X1X<XfXlXSXZXHXSXAXAXAXAXAXSXlXlXlXkXzXAXSX<Xo.b c T X.G K H K 9.b.b.v.3.1.V V M M V V 2.d.l.h.h.h.4.1.V C H ` G G W W r.r./.` ` l c c R c b j 5 ;.;.;.1.i e g *X2X3X3X2X}.k V q.,.q.w.u K W b c c : : g j j h B B B B j B B h A v.v.3.3.d.Z Z j.F.J.H.F.C.C.5.5.5.9..X7XJXKXKXKXKXKXKXKXKXKXKXKXKXKXKXLXKXKXKXKXKXLXHXHXyX).F G b v l - X . % z Q {.*X-XaXVXSXSXlX>X+X=XlXVXeXrXjXrX<XlXlXzXSXSX0XOX`.'.H K H 3.3.3.5.v.G.v.v.Z v.n.n.n.d.d.d.n.A K X.O.T T T T E E E ..R U Y U U R T F h m 6.1.u * v 3X#.{ { { #.$.% u q.,.w.M v U Y I I I I U U U U U U Y Y U U R | ` x.v.F.v.v.n.n.v.v.G.9.G.F.F.F.F.9.9.G.%XgXJXmXFXKXGXHXHXHXHXKXKXKXKXKXKXKXKXKXKXKXKXHXHXkXE z F X       X ; z T T E o.|.<XdXfX<X-X0XqXpXzXSXHXZXNXkXdXeXqXqXeXpXfXfXpXmXiXK C b.3.G.v.F.F.H.G.v.3.A A 2.2.2.s.d.z.` ' | U [ U U ! | ..| | U ! U U U ! T q 1 2 3 1 0 E $.#.{ } { #.#.@.; @ 3 2 7 0 k : = P = = = = = = = = = = = = = < ; l X.x.b.G.G.XXv.z.` z.c.n.H.H.K.F.F.G.b.8.'.+X+X@X>XHXaX9X9XwXuXLXKXLXCXHXGXnXbXZXGXSXSXZXSXjXaXpX|.z . . . . X . . # % c R R R ..{.&X&X&X<XfXzX2X2X<X<X<XpXzXNXjXdXdXzXfXfXfXfXdXeXyXiXXXC M 3.3.5.3.3.3.3.A ",
"m.m.v.n.J.R.R.R.R.n.n.d.j.j.F.F.F.9.G.G.0.5XDXmXhXNXZXVXNXAXVXdXeXaXaXaXdXkXjXaXqXkXjXeXdXaX@Xo.b E l - -XzXfX1X1X1X<X<XfXjXVXVXAXAXAXSXSXSXSXlXkXkXkXlXAXAXdX*XE c b O.E J J B 7.7.3.V u u u u 9.b.J.v.Z f a a :.4.5.v.7.H F F n n G E E E G G n c R U R R T v 5 i ;.;.a 5 h  X2X3X3X3X3X1X` e ;.,.q.;.e M G b Q Q T T E O.X.X.O.G G G ` X.J N 7.J.P.F.v.v.3.Z d.G.P.P.G.F.F.F.F.5.v.5XcXJXKXKXKXJXLXKXKXKXKXKXKXKXKXKXKXKXKXKXLXKXHXHXZX@XF F E z z l % X   . - b o.{.-XdXjXaXSXVX<X@X,XdXNX<X=X0X>X=XqXpXpXlX-X=X<XwX#X'.H 8.v.v.v.G.J.J.m.v.Z v.n.j.j.d.d.v..X` ` +.+.+.+.@.+.+.+... . . . .@. .+. XX.k e C N * *  X$.#.&.} &.{ %.].5 1.w.w.M v , Y I I I I I I I I Y Y Y Y Y U U R ` x.G.F.H.H.H.j.4.j.F.5.F.9.F.F.F.9.9.G.7XDXLXmXHXKXHXHXHXHXHXHXKXKXKXKXKXKXKXKXKXKXHXAXCX[.g F g           X - b T E o.].*XfXlXpX-X-X-X0XaXVXAXGXZXNXNXdXpXqX0XqXqXqXqXwXPX'.K b.3.v.v.F.F.F.F.v.3.A A s.s.h.h.3.H G n | U U U U ! ! | U U U U U U [  .T q o 1 1 o q {.$.{ } } } { #.$...+ o 7 9 0 % , = P = = = = = P = = P = = = = = # g /._.G.G.F.F.v.d._ ` z.j.C.C.K.F.F.G.b./.`.+X}.>XjXHXhXwXMXMXCXCXHXKXCXbXbXCXBXAXGXAXSXVXdXpX<X*XQ % . X X . # % # . # : R R Q Q +.&X-X-X-XfXfX-X-X1X1X<XpXkXjXhXdXdXdXfXfXfXlXdXaXIXIX5X8.m 3.3.5.3.3.3.d.d.",
"m.m.m.n.n.n.B.B.R.R.n.n.j.3.5.5.F.F.9.b.oXxXFXvXjXlXlXjXVXZXjXeXdXjXNXNXNXVXNXkX>XpXdXlXlX>X(.F E b l ; T <XzX-XfXfXdXpXzXSXAXZXAXAXSXNXlXlXlXzXkXjXlXVXZXAXVXpX+.c c E E W J j k h m m V 3.v.J.G.G..Xv.a f 2.h.V.C.K.G.b.J G E O.| ....+.o.o.O.O...@. .+.+.+.X.5 9 1.w.e e ).pX3X3X3X3X3X3X,XC i ;.q.1.5 k W o...! ! ! | ........| O.O.O.(.x.B 7..XXXP.P.P.v.j.3.v.G.J.J.I.I.I.P.v.XXiXJXJXGXKXKXLXFXJXKXKXKXKXKXKXKXKXKXKXKXGXGXKXKXZX0Xo.b G G v b - X .     % l Q ].*XfXjXaXkXVXaXdXdXeXpX=X+X9XaXkXlXlXdX<X*X<XjXZXuXOXx.x.G.G.G.J.J.J.m.m.Z z.j.d.n.n.j.H.m.K F O... . . . .@. .!  . . . . . .+.{.W k * N h * n 3X#.{ &.} } &.#.1XK 9 q.w.M z U Y I I I I I I I I I I I I I I U R O.x.G.H.H.Z.j.2.>.4.K.K.F.C.F.K.F.9.I.XXcXDXDXFXKXKXHXHXHXHXLXLXLXJXJXKXKXKXKXHXKXHXHXCX#XG z l .   .         X l b E o.o.|.<XlXlXqX-X-X>XeXkXVXSXBXNXNXNXdXpXeXqXqXqXqXwXvX7Xx.7.7.3.v.v.j.v.v.v.d.A A d.h.j.j.3.H F c U U I I Y Y U U U U U U Y [ [ | R j o o o @ F ;X#.{ } } } { { #.$.g 0 7 7 0 % , = = = = = = P P P P P P P = = = > n /.x.b.G.F.G.v.z.z.c.n.H.H.K.K.K.F.b.b._.OX+X+XpXAXHXZXmXKXKXKXCXCXFXmXhXbXHXBXBXBXZXVXdXeXqX<X{.z % - % . . # % - # # % c Q Q E Q {.&X-X2XfX-X&X*X<X<X<XpXzXNXjXdXdXdXzXzXzXlXlXdXsXuXiX.XM V 3.3.3.3.3.d.d.",
"%X.X.X.Xm.z.z.n.n.n.J.H.v.v.5.3.6.9.6.0.7XDXmXnXNXdXpXkXSXVXaX>XjXNXZXZXZXVXjXpXaXdXlXAXVX+XG l E l b b % +.fX2X1XfXfXpXfXlXZXVXSXSXlXzXzXlXlXlXlXVXVXlXlXSXSXSX-XT c E E W W j h C 9.G.J.J.J.J.I.G.J.v.Z d j.Z.L.L.F.v.7.K O.+.| | | ......O.O.O...@. .+.+.o.G u 9 w.1.O B 1X2X3X3X%.%.3X3X2XOXu ;.1.1.e h J X.o...............| | ..O.O.X./.J 7..XXXP.P.P.H.v.3.v.F.H.L.L.H.F.J.G.oXxXKXKXHXHXKXFXPXJXKXKXKXKXKXKXKXKXKXKXKXGXCXbXHXnX[.b F F b l b %           % b Q [.<XSXAXSXAXNXAXkX=X=X=XsXdXaXqX0XkXSXlXSXSXNXkX9X}./.8.b.G.G.G.G.G.J.J.V d.3.2.n.H.C.H..XJ G .. .@. . . . . . . . . . .@.+.+.{.W k k x * ; @.@.%.{ } &.&.&.#.@.@XC 1.w.M L c U I I I I I I I I I I I I I I U R ` x.G.H.Z.Z.Z.h.:.h.A.C.K.F.F.F.9.F.XX5XDXPXPXKXKXKXHXKXHXHXFXCXLXJXKXKXKXKXKXKXKXHXAXSXW b F +         .     X - c b E o.].-XlXlXqX-X-X>XqXaXkXjXbXbXNXeXeXdXdXdXfXfXdXsXuXLXOXA b.3.G.v.j.v.v.v.z.z.d.s.s.h.j.7.H G R U Y I I [ U ! ! U U ! [ [ [  .| E K o o o @ ..$.#.} } { } } } { $.n 5 3 2 0 k : > = = = = = = = P P P P = $ $ $ > c /.'.J.J.j.h.d.d.d.c.n.F.C.A.K.K.G.b.'.`.+X*X=XdXAXBXHXbXKXmXLXHXFXvXhXnXGXHXAXNXlXVXNXfXpXfXdXo.% % - X   . . % : : # # : Q Q T Q ..{.-XfXzX2X-X<XfXfX<XpXzXZXNXkXkXzXzXzXzXlXkXdXtXiXiX$XC V 3.d.3.3.d.d.3.",
"h j B C v.J.H.j.C.H.j.J.5.v.J.b.9.9.7.XXcXJXnXAXAXlXdXlXAXlXrXqXjXlXlXNXVXNXdXpXpXlXlXlXpXo.z E c T c c z - ..lX2XzX<X2XfXfXSXVXSXSXlXlXzXlXlXzXlXkXdXkXlXSXSXSXzX]...T T o.X.X./.'._..XJ.F.H.P.I.I.P.G.2.a 4.C.L.q.I.XX7.J O.| | |  .+...o.o.....| +.+...+.+.G 9 i M 5 + ].3X3X3X3X%.%.3X3X3X3Xx.M M C 5 5 K 8.X.X.X.O.E W Q o.T | ........E K 7.b.XXP.H.h.d.n.v.J.P.H.L.L.L.K.F.b.7XDXDXKXLXHXKXKXKXKXKXKXKXKXKXKXKXKXKXKXKXLXbXHXHX#Xn b E v F z % .             ; E ].-XdXdXlXlXjXSXaX>XtXyXZXZXjX0X,XrXjXSXVXSXNXdX9X}.X.x.m.G.G.G.I.P.L.H.2.d.2.d.H.F.L.H._.X.X.O.| |  . . . . . . . .! +.@.+.].].r.k k K * ' @.%.%.#.{ &.&.&.#.$.;Xo.M 0.M L G | , U [ , R R ! U I I I I I I | T ` x.J.H.s.( :.k.:.>.Z.j.H.v.G.9.8.8._.cXPXCXHXHXHXHXKXHXKXKXKXKXKXKXKXKXKXKXKXKXKXZXAX-Xb c % .                 + l b E Q Q {.<XlXjXpXqX=X0XaXaXaXBXZXdXqXqXeXpXfXfXfXpXjX0XMXMXH 3.G.9.9.F.G.F.v.v.v.n.s.u.h.5.9.8.E R U Y [ Y ! ! ! ..| | | ........W `.0.0 o   ; $.%.{ } } } } } } { #.@.g o 1 0 q L z > # < , , : c R > = = $ = P $ > b (.'.v.l.h.s.g._ Z d.v.H.K.K.K.F.v.b.`.}.+X*X>XHXkXNX9XsXKXFXmXKXLXCXnXnXHXAXAXVXSXlXlXjXkXSXpXz % X X +     . + : : ; % : T E Q Q o.o.{.-XzX2X-X-X2X2X1X2XlXlXlXdXdXdXlXlXdXlXlXlXeX>X>X#X'.m 7.A d.d.Z d.d.",
"j j j B 3.F.P.L.K.P.H.H.5.v..Xm.XXG.G.5XJXKXNXHXZXVXlXVXZXjXwXeXlXNXNXVXVXlXdXpXkXlXSXzX|.E b T Q l l z l % : <X2X2XzXfXfXfX2XlXlXzXzXzXzXzXzXlXlXlXlXlXlXlXSXSXlX-Xo.E E Q o.W X./.'._.G.F.H.P.P.I.P.J.d.2.j.C.L.C.I.G.B v O... . . .+...o.o.O.+...+.+.o.+.(.J 9 ;.6.5 g  X2XzX3X3X%.%.%.%.%.3X[.C M 0.M M 8.XX/././.(.X./.(.(.O.O.......o.E v J b.J.T.H.Z 2.Y.d.v.H.H.S.L.L.L.F.XXcXJXLXKXHXHXKXJXKXKXKXKXKXKXKXKXKXKXKXKXKXKXbXCXeX).n n b b b g X               X g E ].1XpXAXSXlXZXdXqXhXbXZXNXjXjXkXjXjXlXNXNXdXrX0X,X}.J x.m.J.I.I.K.L.L.j.2.s.s.d.C.L.P._.J G ..+. . . . . .+.+.+.{.+.+.+.{.}.`.r.M h k ; +.%.#.#.%.&.{ { { &.%.$.;X(.M 5 0 h ` n : c b G G E R U Y Y I [ [ , , G b.H.l.s.( u.k.:.:.L.C.G.m.b.'.8.8.$XPXCXAXHXGXGXHXKXHXKXKXKXKXKXKXKXKXKXKXKXKXKXSX<Xo.c l X             O     + g b E Q o.+.|.>XaXdXrX,X>X0X0XqXkXNXeXpXdXdXdXdXdXdXdXeX0XtXDXoX7.I.G.9.F.F.F.v.v.v.l.f.s.s.2.5.8.W ! U Y Y Y ! ! R F T T G F F F F K 0.0.w.q + : @.[ } } } } } } } } { @.b @ 0 9 5 q + + X % g k k j q % = P = P ~ $ > b X.x.d.f.f.s.f.( d Z j.F.K.K.F.v.b.'.`.}.|.*XfXVXeXnXyXmXKXbXyXmXmXCXjXhXAXAXAXlXzXkXaXkXlXpXo.% .   . X   .   X ; z z : - l T E Q Q Q Q |.<X2X-X-X-X2X<X<XfXfXdXdXdXlXlXlXdXjXVXVXdX<X>X,XOXB A A d.d.d.d.g.",
"F F D B C v.T.T.L.Q.L.j.5.v..Xb.XXb.oXcXKXmXbXHXNXSXVXVXVXkXyXjXNXNXVXVXlXdXdXaXlXlXSX<XE b E b R l T l : : X c <X<XfXfXfXfX-XzXdXfXfXfXdXzXlXlXlXlXSXSXlXlXlXSXSXzX].E Q T o.X.X./.'.b.m.G.H.L.P.G.J.H.d.j.l.j.C.F.P.b.j v O.+. .| +.+.(.].[.).).).].].).].(.8.w.;.M k W 1X3X3X3X3X%.%.%.%.%.3X#X0.m M u M 0.'.8.x.x././.r./.r.G X.o.E ..o.W D K _.J.2.Z d.n.n.z.v.H.K.S.L.L.L.J.4XDXJXJXKXKXHXmXFXKXKXKXKXKXKXKXKXKXKXKXKXKXKXmXvX}.G G b c b l +           . . .   + l X.|.pXlXlXaXkXrX9XhXbXjXdXjXSXZXjXdXdXVXNXNXdXaXNXeX`.8.b.J.P.I.K.L.P.l.Z j.s.Z j.C.H._.G G +.@. . . . .R : : z v z F F F L M M 9 5 + G @.%.#.&.&.&.&.&.&.&.%.%.;XW o 9 9 5 5 5 5 q 5 5 5 q ; < Y Y I [ [ , , G ` d.Z s.u.s.h.:.h.R.F.m..X'.`././.uXFXCXCXAXCXCXGXHXHXKXKXKXKXKXKXKXKXJXKXFXKXGXlX{.l l % X           O O @ @ + k v E E o.o.o.|.rXjXpXqX<X>X,X>XaXkXqXqXpXdXdXdXdXdXdX>XqX0XLXxX8.G.9.F.F.F.F.F.v.v.d.l.k.h.2.3.7.W | ! U ! ! ! R % @ @ @ @ @ o o o @ 0 0 9 0 q ..$.%.{ } } } } } } } { @.o.q 3 1 3 0 o o o @ @ 0 0 0 @ X > P = = $ $ % l K ` d.s.f.u.f._ Z s.j.F.K.K.H.G.J.%XOX}.*X<XlXkXaXCXmXHXCXyXgXCXCXHXCXnXAXAXSXkXrXaXrXkXSX=Xl .       X   . . . + l b z - % b E ..Q E Q {.&X2X-X-X-X<X2X<X<XfXfXdXdXdXlXjXdXlXlXVXjXqX>X<X>Xx.N A z._ d.g.g.",
"G J J K B v.XXT.!.L.H.5.v.3..Xb.b.b.5XDXLXsXjXZXNXVXlXlXNXjXhXZXNXBXVXVXkXpXpXpXlXSXzX Xv b E c c c R : : l X . {.2X<X2XfXfXzXfXdXfXfXfXdXzXzXlXlXlXSXSXlXkXlXlXlXSX&X..E T ..o.X.X./.b.m.G.H.H.G.J.J.n.g.l.H.j.4.5.G.b.D G ..| | | +.+.W W r.8.r.r.r.r.r.r.r.0.9 9 5 h [.2X3X3X3X%.%.%.%.%.3X3X9X'.h 5 5 M w.M M m m M M M M h k G (.W T O.X.G H M.A e f n.R.n.n.H.H.L.L.L.L.L.XX8XJXKXJXKXKXLXmXFXKXKXKXKXKXKXKXKXKXKXKXKXKXKXKX0XX.n G T c c % .       @ @ + X @   X g G {.pXlXlXdXkXrXqXNXBXjXjXVXHXAXkXdXNXaXaXNXkX0XdXdXOXx.v.G.G.I.K.L.P.j.f l.d.d s.:.d.'.G O.+. . . .@.! ; X @ @ + @ 5 5 0 0 0 9 0 0 e O.@.%.#.&.} } &.&.&.{ #.%.+.+ o 0 0 0 3 9 9 -.6 0 0 5 + % > U U [ [ , , n S Z d s.f.k.u.:.h.L.v.v.b.'.`.(.OXIXnXnXBXCXCXCXCXGXGXHXHXKXKXKXKXKXKXKXKXPXKXZX>XQ : : X .   @       O + + + + k v E E X.o.o.].,XkXkXjXaXrX<X<XaXkXpXpXpXpXpXpXpXpXpX<XaXaXMXDXXX9.9.F.F.F.F.H.v.j.d.l.k.h.h.3.H G | U U U ! ! c @   1 1 3 3 1 1 1 1 0 0 1 o @ z  .#.{ } } } } } } } #.@.X.k o o o o 3 3 3 3 1 1 3 0 0 @ - > = $ $ = % k S _ s.f.u.( s._ d.d.H.H.L.L.H.G..X$X@X+X=XpXSXjXCXGXCXKXNXhXyXmXCXHXHXCXHXSXjXjXrXkXqXrXlX].% . .     X X X X X X ; v b l ; l T ....Q Q +.{.2X2X<X-X<X2X2X<XfXfXdXdXdXdXdXdXVXlXVXlXeX>X<X9X_.m A z._ d.d.g.",
"T F W D m 7.oXP.!.C.j.j.H.3.J.m.b.oXxXJXmXhXnXVXZXZXlXdXjXsXbXGXZXVXVXlXaXrXpXpXlXSX-XE b T b b R c - : : ; # X : -X2X<XfXfXVX2XfXpXpXfXdXzXlXlXlXlXSXSXlXlXlXlXlXlXfX+.E E E ].o././.b.b.G.H.H.J.J.R.n.g.l.Y.Y.2.2.3.A D E | R | ..+.Q L q 5 5 5 5 5 5 5 5 5 0 3 9 5 h ).&X3X3X%.%.%.%.3X3X3X3X<X'.h 5 5 9 9 9 4 4 4 0 9 9 5 5 + D (.W E X.X.` K S f Z g.n.n.R.H.J.H.L.L.L.L.L.5XcXJXJXJXKXKXLXFXJXKXKXKXKXKXKXKXKXKXKXKXKXKXKXLXOXG b n n c - X       . @ @ + + + @ + g F X.+XjXVXlXjXwXqXNXnXjXjXNXNXyX,X0XNXkXrXdXkX>X0XaX9X_.b.b.G.G.I.H.H.j.t f.s.d s.d 2.` n n .. . . .+.T % + 5 9 i 9 9 9 9 9 9 9 3 o + l @.%.#.{ &.&.&.&.&.{ #.%. .g L w.9 8 8 -.-.*.-.-.8 9 0 + l R U  .| , , x _ _ g.f.f.k.u.:.Z.H.F.m.H /.r.(.=XaXjXkXBXAXAXAXGXHXHXGXHXHXKXKXKXKXKXKXKXGXGXVX).c l % X X       o o O e e + 5 k j F F W o.o.].|.rXlXVXjXkXaX0XwXdXdXVXdXfXeXqXeXqXqXpXdXBXiXPX7Xb.0.F.F.F.F.F.v.j.d.l.k.k.l.g._ ' n | | | ! T z @ 0 2 6 6 6 6 6 2 1 o o 0 0 q c  .%.{ { } } } } } { #.| l k 5 9 9 o 7 6 6 6 2 6 7 2 0 @ - : < = = - ; x _ _ s.s.u.( d Z d.j.H.H.H.F.F.v..X$X@X+X<XlXSXVXHXCXFXKXCXeX9XeXyXCXHXCXSXjXjXNXkXlX<X*X=Xz .         X + + + + + + g F b l - z Q ..Q T ..+.-X2X2X-X-X<X2X<XpXdXdXfXpXfXdXjXVXdXlXVXdXqX0X9XOXN C z.d.d.d.g.",
"E F G D h z.oXT.L.C.j.H.H.j.J.m..X7XPXDXmXbXNXNXHXAXjXaXaXsXIXBXZXNXlXkXaXqXpXkXlXpXo.l b E b T c c - : : - - X . E fXfX-XdXfXfX2X2X2XpXfXzXlXlXlXlXlXlXVXVXlXlXlXlXSX&X..Q b o.o.(./.b.b.G.G.G.J.J.R.B.g.f.N.Y.Z.j.1.N D X.........].W q @ 0 0 9 9 9 0 9 9 9 9 ;.i 5 B }.1X3X%.%.%.%.%.%.3X3X3X*XJ 5 5 5 0 3 9 8 8 8 8 8 8 9 9 5 L /.X.X.o.` x e S g.B.R.Y.l.n.H.H.H.L.L.L.L.P.8XDXJXJXKXKXKXKXKXKXKXKXKXKXKXKXKXKXKXKXKXKXKXGXtX(.b G c c , % X . . X @ @ + + + + + * g v G /.=XpXjXNXeXeXCXNXjXjXlXjX>X+X,XjXNXqXrXjXjXlXSXnX$X.X9.v.G.G.F.F.j.f Z s.d s.u.f._ x n O.+.@.@.+...% 5 i ;.,.;.;.;.;.9 3 9 M M h g | @.#.&.&.&.&.&.{ &.%.@.@.@X#X7X6Xw.8 7 *.*.-.=.=.8 3 + g T R | , : x ' _ g.f.s.s.h.u.h.H.H.J..XH J G ].pXaXlXjXCXHXHXGXHXHXKXGXHXHXKXKXKXKXKXKXGXHXAXfXT l l X + +     @ O o 5 h h e k k k v G G W o.o.).*XzXVXlXNXkX0X>XeXaXZXVXdXpXeXqXqX0XpXeXVX=XuXcX.X0.v.v.v.F.H.v.j.d.f.l.Z.l.l._ ' ' ' | | | X.L @ 1 7 7 *.*.*.6 2 2 0 w.0.`.r.R U [ #.{ { } } } } { #. .).OX6X5X6X9.8 6 2 6 6 6 6 2 1 o q z - : : : S _ _ _ _ s.s.s.d 2.d.v.G.H.H.F.b.b..X$X@X*XrXVXZXSXCXbXFXKXHX0XgXhXgXCXHXnXnXhXyXjXjXVX<X|.(.%       .   @ + + + * + + ; v G v : l T Q Q R Q ..{.-X2X-X-X-X<X<XpXdXdXfXeXpXdXdXjXdXkXVXlXdXpX0X#XH B 3.d.d.d.s.",
"Q T E D h v.oXH.h.Z.Z.R.j.v.J.b.$XgXPXMXCXCXbXjXBXZXlXaXdXsXsXNXZXjXkXdXaXeXaXlXpX|.T c b b b T : c R - % : % . . X |.fXfXfXqXfX2X2XpXpXdXzXlXlXlXlXSXSXSXSXSXSXlXlXSX2X{.Q E E o.X./.x.b.b.G.J.J.G.J.Y.g.f.N.U.U.Z.j.3.` ` O.O.....].r.M 0 0 9 9 9 8 7 9 9 3 9 9 4 4 h o.&X3X%.%.%.%.%.%.3X3X3X X(.J 8.0.M 9 9 =.=.=.=.8 8 8 8 5 L /./.X.` G x t ` B.B.Y.R.Y.j.H.H.H.L.L.K.P.4XxXJXJXKXKXFXKXKXKXKXKXKXKXKXKXKXKXKXKXKXKXHXFXBXOXW n b n , ; ; % X X X @ + 5 e h k k k k D J J [.0XNXHXNXlXHXHXNXNXZXZXjXwXaXSXjX0X,XeXNXVXNXCX5XXX8.9.v.v.v.j.j.d d ( f.f.s.g._ ' K ' O.+.+.+.(.5 5 i ;.<.-.-.9 9 3 0 w.5XiX9X].Q ! #.%.&.{ &.&.#.#.#.@.3X2XwX7XcX8X;.8 =.=.*.*.=.=.8 5 M X.E , l x ' ` _ _ ( f.s.h.h.V.L.v.J._.8.G W *XkXlXlXNXAXHXAXCXAXHXHXHXHXHXKXKXHXHXGXHXZXVXlX*Xb l - + + + @   + O O e m m h k k h j F G W X.o.o.|.<XlXjXVXNXeX>X0XqXdXjXlXdXfXeXqXpXeXqXdXUXUXMX$X8.9.9.v.v.H.v.j.j.j.j.l.l.l.g._ ' x , ' O.(.K 0 3 6 6 6 *.6 6 2 3 w.6X5XiX-X+. .U { { { } } } } { [  .@X7X5X5X5X6Xw.8 2 7 2 6 6 2 1 o q j j v v x _ _ _ _ _ ( s.s.s.d.n.n.G.J.J.G.J..XOX$X#X>XaXSXZXCXbXbXFXbXHXyXAXHXSXCXCXhXnXjXyXjXNXNXwX|.F .     . @ . @ + + + e e e k j D G z l b Q Q R R +.+.&X1X<X-X-X<X<XqXfXdXfXpXeXfXdXdXpXdXlXjXlXdX0X9X'.N A z.d.d.d.",
"E b E K m z.R.2.a H.Y.R.2.v.J.z.iXMXvXgXHXHXjXNXdXNXbXdXdXdXIXBXZXjXaXdXaXaXkXSX>XE b E b c b c R - c % X % . X X   g pXlX<XdXqXpXpXpXfXzXzXlXlXlXSXSXSXSXSXSXSXkXSXlXzX&X..o.b X.X./.x.x.b.J.J.J.G.J.T.n.k.k.U.U.U.Z.Y.n.` D ` O...(.r.h 0 9 -.-.-.-.9 -.9 8 9 w.9.b.'.X.+.3X3X%.%.%.%.3X3X3X3X+.0XmXMXcX8Xq.=.-.-.-.=.=.=.=.-.4 C '.'.J D x x ` B.c.l.B.Y.l.n.H.H.L.P.L.K.P.4XxXJXJXKXKXmXLXKXKXJXKXKXKXKXKXKXKXKXKXKXHXCXnXhXW W v n T : # : % + X @ @ + e h h h h h k D /.J (.=XNXHXjXaXSXjXwXeXkXVXNXjXkXjXlXkXeXaXjXkXaXbXiXOXx.7.7.7.j.j.j.s.f u.l.f.u.s.g.g.` ' x ' o.].` 5 9 ;.,.<.-.=.-.8 3 1.6XcXxX9XpX&X|  .$.%.%.&.{ %.#.$.3X1X,XeXiXDX8Xw.8 7 *.=.=.=.=.8 9 M 8.K x n ` ` _ ( i.k.k.h.h.h.Z.L.j.J.x./.G ].fXlXSXlXSXAXAXBXjXNXAXHXKXKXKXKXKXHXGXCXVXlXqX<XX.z - + g +   + O 5 O 5 e m m h h h h j D F W (.o.o.].@XNXlXZXAXaX>X<X0X0XdXSXSXlXdXdXdXfXfXqXdXqXmXiXb.7.7.v.v.F.v.j.j.j.j.l.l.g.g._ ' ' ' n n H M 0 2 6 6 *.*.6 6 7 9 6XxX5X#X-X X@.U [ { { { } } { #. .@.*X7X7X7X7X8XI.9 1 2 2 2 7 2 3 o 5 m N ` ` _ _ ( ( s.s.s.s.s.d.n.n.v.v.G.G.m.b..XOXOX@X>XaXVXBXFXPXHXFX9XHXSXBXCXhXnXhXwXNXAXCXCXHXNXeX}.k         @ @ + e e e e e e k k B J b l c T T c R +.+.&X-X<X-X-X<XqX<XpXdXfXpXpXpXdXpXpXdXjXdXjXdX0XtXoXm C z.d.j.g.",
"T E W D h u a 2.Y.R.Z.Y.d.n.m.oXJXuX9XnXGXjXhXHXaXwXeXaXdXnXBXbXNXCXNXjXNXNXjXkX(.E b b b b b l l l : # . . . . . . . (.jXdXqX<X2X2XfXpXpXdXlXlXSXSXSXSXSXSXSXSXpXAXSXzXzX+...Q E X././.x.b.J..X.XG.I.T.H.h.i.U.U.U.U.N.Y.B.c.S ` X.[./.5 0 9 -.w.-.-.-.-.8 9 I.8XxXxXxX,X+.@.3X%.%.%.3X3X3X3X X2XkXCXJXDXDX8X=.=.=.=.=.=.-.-.8 9 6.b.H x S ` ` c.c.N.Y.Y.l.l.H.P.P.F.L.P.K.P.8XDXDXKXKXKXHXJXJXKXKXKXKXKXKXKXKXKXKXHXKXCXHXKX}.G F G n , ; # ; X X X + + 5 e h m C C h m B K J W ).BXNXjXkXkXkX+X,X0X<XyXSXNXrXjXNXNXjXeXrXyXhXbX5X/.8._.b.v.P.F.H.:.f u.f.s.f.k.l.c.` ` ' ` ` ` u y ;.;.<.-.-.-.9 9 XXxX7XiX9X0X<X&X . .%.%.#.{ %.$.$.2X1X0XuXuXiXcX6.y 8 8 =.*.=.=.8 9 V 7.A ` _ _ g.f.i.i.i.k.h.h.Z.L.H.G..X`.W X.*XlXlXlXSXSXSXNXkXjXSXHXHXHXHXHXHXZXZXZXNXpXpX-X|.b - . X + X @ O + O 5 5 e m m m m B j h D F W X.X.o.).}.0XeXkXNXlXaXrXqXqXqXdXVXVXdXdXlXdXfXqXdXqXtXIXXX8.7.v.v.v.v.H.v.j.d.j.l.g.g._ _ ' ` ` ` m 5 3 2 6 6 6 6 6 6 2 1.5XiX5X#X0X-X@.| U [ #.{ { { { #.$. X@X:X7X5X5X5XXX3 1 2 2 2 2 2 1 1 4 V d.f._ _ u.u.( ( s.f.g.j.n.J.n.v.G.J.m.b.'.OX#X@X@X0XlXAXGXKXKXFXMXnXjXkXHXwXwXkXwXkXHXHXNXCXHXNXaX)..     . @ @ + + e e e e e e h h B J W l l T Q T Q +...+.&X-X-X-XqXfX<XqXfXdXdXdXfXpXfXfXdXdXdXeXqXqXyXUX'.B Z d.d.f.",
"E F D D m u 2.R.Y.Z.H.R.d.d.J.7XJXPXvXbXnXNXBXNXjXaXdXbXbXBXGXZXHXAXHXSXkXSXlX*XE b b b c b b l l : % X . . . . +   @ j +XaXeXeX<X2XfXfXfXfXzXlXlXlXSXSXSXSXSXSXlXSXlXlXzX{.....E W X./.x.x.m..XXXI.I.P.L.Z.k.D.U.U.U.U.U.Y.N.g.` G x.7.e 4 9 9 -.-.-.=.-.9 w.8XxXDXiX9XkX|.| $.%.%.%.%.3X3X&X&XpXAXKXJXDXDX8X;.*.=.=.=.=.=.=.8 4 V z.z.A ` ` ` c.N.N.N.l.l.l.H.L.P.K.L.P.L.4XxXDXJXKXKXKXKXKXKXKXKXKXKXKXKXKXKXHXHXHXKXHXHXhX(.G G b n , ; % % X X X + 5 e h m V 3.3.C C C K J J J 9XNXSXkXpXrX#X,X<XrXaXjXNXVXNXNXSXlXkXkXNXHXbX9X/.J x.b.z.J.H.H.h.d s.s.s.k.i.k.l.g.` ` ` ` Z i y ;.,.,.-.=.-.8 9 6XcXiX9X,X>X<X-X+.@.#.#.#.#.%.$.3XpXwXuXyXuXiXxXM 8 8 8 =.=.8 8 3 y 2.z.d._ _ f.f.i.i.i.p.h.h.j.L.L.H.b.b.`./.].<XlXlXlXAXSXSXjXhXkXNXAXAXZXCXNXnXBXGXGXBXzXkX1Xo.l X     . @ O O 5 e e 4 e m N V B B B j B D J X.X.X.(.].=XeXNXZXVXkXdXaXdXfXdXSXSXlXdXlXfXqXqXfXqXwXIX$X8.7.z.v.v.F.H.F.v.v.j.l.l.g.g._ _ _ ` c.d.V 4 1 2 6 *.*.6 6 2 M oX5X5X#X=X@X&X X . .#.{ { { [  .$.3X1X=X,X9X9X5Xw.3 2 7 6 6 6 2 1 4 i h.k.f.( u./ u.u.s._ _ d.n.n.J.n.v.J.m.b.b._.OX@X@X=XrXjXCXHXKXKXJXFXGXZXNXBXhXeXeXyXjXCXZXHXjXNXaX=XF       @ @ + + e e e e e u u h h m D X.b v T ..Q T ....+.&X-X2X2XfXfX0XqXpXpXpXpXpXpXdXfXpXdXdXdXpXpXaX9XOXC V d.s.s.",
"F J D h u d.Y.R.Y.Z.Y.H.n.3.oXcXFXHXCXnXbXNXCXBXZXbXbXbXhXnXZXBXnXhXSXNXyXSXkXo.b b b T c c c z l - X .   . @   + @ + 5 8.uXsXtX<XfXfXfXfXfXdXlXlXlXSXSXSXSXSXSXZXlXzXSXzX1X....T E X.(.'.x.b..XXXXXI.P.T.L.D.i.U.U.U.U.U.U.U.Y.c.` z.A e 4 8 8 8 -.-.-.-.9 w.xXxXDXuXiXhX1X+. .%.3X%.%.3X3X@.2XSXHXHXFXDXDX8X;.*.=.=.=.=.*.8 8 4 a v.z.c.c.c.g.N.N.N.N.k.h.l.H.L.L.L.L.P.P.5XDXJXKXKXKXKXKXKXKXJXKXKXKXKXKXKXKXHXLXKXHXKXAX@XG b T b c : ; % X X X + e h h m N V 3.3.3.7.H K 8.x.J `.CXHXkXrXrX<X=X,XyXjXdXkXSXVXSXAXSXlXjXjXNXBXtX[.J x.b.b.G.H.L.Z.h.h.s.s.l.k.D.k.l.g.g._ _ Z i y y ;.;.-.=.-.=.9 6XxXuX9X=X=X<X1X&X@.#.#.#.#.%.3X2XwXuXuXuXbXiX5Xi 8 8 =.=.8 8 8 8 a s.g.f.s.s.u.i.i.p.p.p.h.h.Z.L.P.H.b.b.`.`.+XfXSXSXlXAXSXSXkXkXkXVXZXAXAXNXdXsXNXGXAXNXSXzX<XF ;         @ O O 5 e e 4 e u V C C C B B j D J W X.X.o.].|.0XVXAXZXVXlXkXlXdXdXVXVXlXdXdXpX<X<XfXqXqXIX9X'.7.7.v.v.v.H.F.v.v.j.d.g.g.g.g.g.g.g.n.H.j.a 8 2 6 7 *.*.6 1 9 '.5XiX9X5X$X#X1X@.$. .#.#.#. .@.&X1X1X*X,X0X#X`.9 2 6 7 6 7 6 2 8 ;.V.D.i.y.) ( y.i.u.s._ _ z.n.n.H.G.G.J.b.b.%X#X@X@X*X>XeXjXCXKXJXJXKXKXGXSXZXkXBXkXyXnXnXhXZXBX0XwXyX}.k     @ @ + + + e e t u u u m m m m B W o.E b ....Q ..+.+.{.-XfXfXqXpX0XqXeXeXeXpXpXpXdXpXeXfXlXlXdXfXaXuX9Xx.N d.2.2.",
"D D m u Z R.R.Y.Y.N.R.l.n.z.5XcXmXnXnXCXNXbXNXHXNXhXjXjXaXdXNXNXrXrXkXjXkXjX,XG b b T T c c b z : % X .   . O O e O e e K 5XgXwX<XfXfXfXfXfXfXzXlXlXlXSXSXSXSXVXSXaXpXSXzXzX+...Q E W (.'.'.b..XXXXXXXP.Q.!.S.h.i.U.U.U.U.U.U.U.n.c.n.d.i 4 8 8 -.-.-.-.;.9 1.cXcXiXuXsXqXpX1X .$.3X%.3X3X&X&XzXAXHXnXLXKXDX6X8 =.=.=.=.=.8 8 8 i 2.n.n.c.c.g.f.N.N.U.Z.Z.Z.H.P.L.L.L.L.L.oX8XJXKXKXKXHXKXKXJXKXJXKXKXKXKXKXKXKXKXHXKXCXHXnX).F b T n : ; % X X X + + e m B B C V 2.3.3.9.3.A 8.'./.W jXHXSXaXrXaX,X,XdXSXjXeXrXaXjXNXNXjXrX0X>XbXbX=X/.J x.m.m.J.L.L.S.V.s.s.f.U.U.k.k.g.g.g.f.s.s y y ;.-.-.-.-.-.9 w.oX9XwX,X,X1X<X1X;X@.#.%.%.$.1XpXwXuXhXaXjX=X`.5 8 8 =.8 8 8 8 ;.u.k.f.u.u.u.i.i.i.i.p.p.Z.Z.L.L.L.F.G..X`.OX<XlXSXSXSXAXAXSXlXjXjXSXAXHXHXSXjXdXNXZXZXjXSXlX*Xl X     @   O O 4 e e w 4 e u N C C C C K B D K W X.X.o.).].=XkXZXAXZXVXdXdXpXeXfXdXdXdXfXpX<X<XfXqX0XdXsX`.x.7.v.v.v.F.v.v.v.d.d.f.f.l.N.f.g.l.n.H.Z.V.q.9 6 6 6 *.6 1 o L `.#X9X9X#X#X@X&X$. .[ #.#.@.;X1X1X1X1X1X1X].D 0 1 6 7 6 6 7 8 >.V.S.D.i.y.) ( i.i.u.d _ d.z.n.n.H.G.J.m.x._.#XsX>X@X*X>XaXNXGXMXvXPXJXHXCXVXSXNXjXhXjXAXBXhXyX9X@X0XhX).X   . @ O + + + e e u u u u m N m m m K ).X.b ....Q ..+...+.&XfXfXqX0X<X0X0X0XqXqXpXpXpX0XqXfXlXlXdXdXeXyXIX_.N 3.2.2.",
"B h h c.R.R.Y.R.Y.U.Y.s.v..X7XcXvXbXBXCXBXbXNXGXaXeXaXdXpXdXVXVXyXnXjXNXAXwX(.b F b T b b b R l % X .       O O 5 e e m C _.iXtXqXfXfXfXfXfXfXzXzXlXlXSXSXSXVXlXzXaXdXzXzXAX&XQ ..E F X.).'.'._.I.XXXXP.P.!.L.Z.h.k.k.U.U.U.U.U.U.Y.Y.Z.:.y 8 8 ;.-.-.-.w.i M 5XMX9X0X0X=XfXzX;X$.$.3X3X$. X1XAXZXKXGXKXIX$Xw.4 8 =.=.=.=.8 y y :.j.n.n.g.g.l.l.N.U.U.Z.S.L.L.P.L.L.L.L.L.4XxXJXKXKXHXHXHXKXJXJXKXKXKXJXKXHXHXHXKXHXHXCXAXrXG b b R c - % X X . + + 5 h M C C C V 2.5.3.5.3.3.8.x.'.J ,XjXAXlXpXkXdXdXlXVXkXwX0X>XwXkXjXdXwX0X>XdXjXrX`.J x.b.b.J.K.L.W.S.h.s.s.k.U.k.k.f.f.f.f.k.h.>.<.y 8 9 ;.-.9 0 5 D }.1X1X1X,X<X<X3X$.$.$.$.$.pXhXwXyXkX2X3X{.W 5 0 7 8 8 8 y <.u.i.i.i.i.y.i.i.i.u.h.V.C.L.L.L.L.H.F.G..X%X=XdXZXAXSXCXAXAXSXVXlXlXSXAXHXHXAXSXVXSXZXZXNXVXpX(.;       @ O O O e e w w w e u N A A A C H K D K W /.X.o.(.).+XeXVXHXHXVXaXdXqX<X0XpXdXdXfXfX<XpXpXqX0XwXhX$Xx.H z.v.v.F.F.G.m.v.d.s.s.l.N.l.l.l.l.l.Z.U.L.4.9 6 6 6 2 1 @ g E o.+X>X=X,X=X1X&X . .@.@.@.&X1X=X1X*X&X@...b @ o 2 2 2 6 -.q.V.V.D.p.i.i.( ( u.u.s.s.d.c.n.v.v.H.J.J.b.b.%XwXbX0X*X*X<XkXNXGXiXiXcXDXFXnXVXZXZX0XrXNXsX0X9X@X#X@XyXhXG     . O O + * * e e t u u a N m m m M D ).(.E Q ..T ..+...+.&X2XfX2X-X>X>X<X<X>X<X0XqX<X<XqXdXlXdXdXdXeXyXvXoXV Z 2.2.",
"m B z.oXT.Y.U.R.U.U.l.s.n.$XxXcXvXZXGXnXbXGXGXbXbXdXjXjXdXkXlXjXkXGXBXSXHX@XF F b b b b c b b : X . .     O O e e e e C C 7.7XIXpXfXfXfXfXfXzXzXlXlXlXlXVXVXVXlXdXpXdXfXzXAX2X..o.E b W (.'.'.b.G.P.P.P.P.Q.T.P.j.l.k.Z.U.U.U.U.U.U.U.U.U.V.;.8 8 -.-.-.;.9 5 h ,XrX,X[.[.[.*X2X;X$.3X3X$.&XzXAXBXKXGXyX`.h 5 3 8 8 =.=.8 8 >.C.j.l.n.n.l.g.N.U.k.D.D.S.L.L.P.L.L.L.L.L.P.5XcXJXKXKXHXHXKXKXKXKXKXKXKXJXKXLXLXLXHXHXHXHXBX@XF b b c , ; % X X . + 5 h m M C C C 2.j.j.5.5.3.3.8.8.'.8.}.eXAXAXkXjXSXHXZXjXyXaXkXkXjXlXjXjXkXjXjXdXjXdX+X` J b.b.I.K.Q.Q.K.C.l.f.s.h.k.k.f.f.f.i.i.k.p.,.;.9 9 -.-.0 0 + v O.@.1X<X<X0X0X1X3X$.@.@.1XdXvXuXrX2X3X$.$.+.F 5 o 3 8 y >.i.i.i.y.y.i./ y.i.f.h.j.H.L.L.L.L.L.L.G.b.b.$XqXVXAXAXAXAXZXAXSXSXSXSXSXSXAXAXHXHXAXAXAXHXZXSXqXF +   @   @ O O 4 e e w y f t u N A H H H H H D K J X.X.X.X.).}.>XlXHXHXVXdXdXeX<X<XeXdXdXjXdXpXpXpXqXqX0XsX#X'.H 9.b.v.G.G.m.b.v.3.2.2.s.l.Z.l.l.l.N.U.N.k.H.q.;.8 2 1 5 j Q +...+.|.*X>X<X1X&X@. .@.@. X*X=X,X1X&X@. . .+.G 5 o o 3 ;.>.Z.h.h.i.i.i.i.( ) s h.Z.H.m.M.c.n.v.F.F.b.b.'.OX0XqX=X*X*XpXlXZXCXuXxXcXPXMXhXkXjXrX,XjXjX`.X.OX=XwXyXCX9Xk     @ O O + * * e e t f V V N m m M m B /.).X.X.Q T Q +.+.+. X1XfXfX-X>X>X<X<X>X>X>X>X<X<XpXfXdXfXfXfXaXaXuX5X3.a 2.2.",
"A m.oXR.Y.Y.U.U.U.N.s.d.J.7XcXPXPXCXNXbXnXGXCXbXCXbXjXlXkXzXjXaXkXCXCXSXaX).b G b b b b c b z ; X . . @ O O e e e u m C C 7.oXgXdXfX2X2XfXzXlXlXlXlXlXlXVXVXlXlXkXkXdXpXzXSXzX+...E E W /.'.'.x.J.P.P.I.P.P.P.P.P.H.n.l.Z.U.U.U.U.U.U.U.~.!.C.>.8 8 -.-.9 9 5 k ). X[.o.W E o.-X&X$.3X3X&X2XAXAXGXGX9X[.J B h 5 8 8 =.=.-.>.C.R.H.l.l.N.N.l.N.U.p.D.D.S.W.Q.P.L.Q.L.L.L.Q.8XDXJXKXKXHXHXKXKXJXJXKXKXKXKXKXKXKXHXHXKXHXHXeX/.b F R c : ; # X X + 5 h m M C H C V 1.j.C.5.5.9.9.0.8.'.'./.qXAXSXpXeXjXSXZXjXaXdXlXHXHXZXVXjXjXNXVXlXdXdX,X/.J b.G.I.K.Q.Q.A.K.H.n.h.s.s.s.f.f.f.i.i.p.p.D.,.;.y 9 9 0 j G O.@.|  X*X0XtXiX9X<X@X+.+.pXdXuXgX1X3X%.#.%.$.@.D O 4 i :.i.i.i.y.t.t.t./ / u.f.j.F.I.XXL.L.L.L.P.J.b.b.#XyXAXHXAXHXHXCXAXSXSXAXZXSXSXAXZXAXHXAXHXHXHXAXVX+Xk .   @ @ O O 4 w w w y f a u u N A ` H H H H K D J X.X.X.X.).[.*XkXHXHXSXlXlXdXeX0XeXdXlXlXdXpXdXrXpXpX>XeXwX'.H 8.b.v.F.G.b.8.7.3.3.4.h.h.Z.l.k.Z.N.N.k.i.U.Z.q.;.3 o K ].;X$.@.@.@.@.&X1X1X*X@. . .@.|.=XUX9X,X X@.@.@.$.@.' +   5 5.d.s.f.f.i.k.k.u.d f u.C.H.R.m.m.m.J.v.H.F.v..XoX$X=X=X*X*X*XpXSXHXCXPXPXcXcXuXsXaXrXrXdXjX,XW W #XhXnXBXHX`.@   @ + + * * * e e e t t V Z V N N N M B J (.).(...E ....+.+.{.&XfXfX<X>X>XqXqX0X<X>X>XqX<X0XpXfXpXpXpXdXtX9XiXm.u j.2.",
"B.B.Y.R.R.Y.R.R.Z.l.2.n..XiXcXJXKXhXtXbXCXNXbXZXbXsXdXjXjXNXVXkXnXNXAXSX#XW v b b b T b c c : % + X X O + 5 e e e u 6.V C 7.v.7XjXfX2X2XfXzXlXlXlXlXlXlXlXlXlXVXlXzXpXpXlXzXSX XQ Q W W X././.x.J.G.G.I.XXXXP.P.oXT.H.j.j.Z.S.S.U.^.U.p.U.~.W.E.q.7 7 9 5 5 L }.+.c c ..o.o.Q R &X&X3X3X1XzXAXZXGXdX(.G }.,XOXC 9 8 8 y >.S.R.H.Y.N.l.N.N.N.k.k.D.U.W.S.L.P.P.P.Q.L.L.P.4XxXJXJXKXHXHXHXKXKXKXJXKXKXKXKXKXKXKXKXKXHXCXAX,XF b E R , - ; % X + + 5 h M C A 7.C V a j.C.5.j.v.9.9.0.8.'.J 9XSXpX,X>X>XeXVXZXjXaXaXNXNXNXjXdXdXjXjXlXpXpX,Xo.J x.b.G.I.Q.L.q.K.T.H.H.n.s.Z _ f.k.k.i.i.p.D.Z.4.i 4 0 k (. X$.$. .| {.>XsXiX9XwX,X].O.NXaXqXpX3X%.{ &.{ #.3X+.k e :.i.i.i.i.i.i.y.^ i.i.f.g.n.J..XXXP.L.L.L.I.J..X_.5XsXHXAXSXHXHXCXHXAXAXHXHXAXAXHXAXHXAXZXZXAXHXZXaX(.+   @ @ O O O e e w w i f f f u N S _ A H H 8.H K J /.(.o.o.(.).+XaXAXZXVXSXZXlXdXqXeXdXlXVXfXpXdX<XpXdX>XwXhX`.J x.b.9.9.9.9.7.7.v.F.H.C.h.4.h.Z.l.k.N.N.N.f.Y.Z.C.e 5 ).&X$.%.$.#.@. .@.&X1X1X@.| | +.&X>X=X1X X@.@.$.$. .@.@.' * e f.g.f.f.s.s.k.h.u.( s.R.L.H.J.J.J.J.J.P.P.J.J.$X5X=X=X=X-X*X*XqXSXHXHXPXPXxXiXuXbXkXeXHXHX>X(.`.,XsXBXbXnXbXD   @ @ X * * * * e t t t t f Z Z V V C B B D r.[.].o.o...Q +.+.+.&X2XfX<X,X<XrXpXpXpXpXqXpX<X-X-XqXqXqXqXpX0X#XxXoXu v.5.",
"N.N.N.U.Y.R.Y.Z.4.j.G.J.oXDXPXKXbXjXhXsXbXNXbXdXBXdXeX0XaXNXBXbXNXNXjX=XX.v b b b T c c b : % % + X   + 5 5 e V e V 1.6.9.3.3.oXIXeXfXfX2XfXzXzXzXlXlXlXlXjXlXSXSXkXpXdXlXlXzX2XO.o.E X.W o.W /.b.m.J.J.P.P.P.P.XXoXXXJ.n.j.j.k.~.U.a.U.U.U.~.~.E.<.4 5 5 F &X;X3X@.| | ! Q Q R +.1X&X X<XNXHXHXzX{.o.&X2XfXfX<XH O w :.S.Z.R.Y.N.N.Y.Y.Y.s.:.2.T.T.T.T.T.P.L.L.L.Q.P.J.5XcXJXKXKXKXKXKXKXHXHXKXKXKXKXKXKXKXKXKXHXHXHXVX).E b T c : - % + + + e e m V A A A A V a 2.j.j.j.C.F.5.F.9.8._.'.BXpX<X*X|.*XaX<XlXaXaXZXNXaXeXjXNXbXNXlXpX*X*X).G '.8.b.G.I.F.K.L.P.J.G.v.v.3.d.d.f.f.g.f.f.s.k.l.d e @ l  X$.@.#.#. . .{.-XqXqX,X@X*X`.hXaX1X3X%.&.&.&.} { %.$.' S f.i.i.i.i.u.u.s.s.l.g.n.n.n.n.J.P.P.Q.P.P.XXXXb.x.$XPXHXCXCXCXKXLXGXHXHXHXHXHXHXAXHXAXCXAXNXCXHXjX0Xj .   @ O O 4 4 w w w y s s f f u t S A d.7.7.7.7.H K J X.X.X.o.].}.=XSXHXZXZXZXVXZXeXpX0XlXAXlXpXpXpXfXpXrXpXbX=Xx.7.7.3.v.3.7.z.v.v.G.H.H.H.j.h.:.Z l.B.N.f.f.Y.l.R.N ; &X$.#.&.{ { #.@. .+.&X-X&X+.T +.-X*X&X$.@.#.#.{ { { @.@.' S ) u.f.u.f.f.d.d.d.j.l.Y.J.J.J.J.P.P.L.P.H.J.J..X#XuXwX@X@X,X@X*XrXVXHXZXyXbXmX9XwXbXtXBXZXNX0X@X9XCXHXFXBXBXtXj   @ O + O * w w w r r r t t d d.Z V C C C B H '.`.).o.o.Q Q +.{.|.1X2X<X>X<XeXaXaXqX0XqX<XpX>X*X-X-X=XfXeX=X9XiX$XC 9.5.",
"N.U.U.U.U.Y.Z.C.j.G.J..X5XDXDXKXnXnXjXjXNXNXjXaXaXdXdXsXbXBXBXBXhXNXjX+XG n b l b b z c c ; X + + + O + e e m V e V 6.6.5.6.5.G.iXtXaXpX2XfXzXfXzXlXlXlXlXlXlXSXlXzXkXzXlXlXkXfX).o.E W G E E X._..XJ.G.I.P.XX4X4XXXJ.b.3.3.2.:.i.U.U.U.U.U.~.^.E.W.a o j &X3X3X%.%.$. .! ! ! R +.2X@X).,XHXHXdX1X X&X2XzXzXzX2X%Xe f s.Y.R.U.N.N.N.Y.N.s.d d.H.P.L.H.H.H.P.T.T.P.Q.P..X7XPXKXKXKXKXLXJXKXKXHXKXKXKXKXKXKXKXKXKXHXHXHXpXo.b b R , ; % X + + 5 e u N S Z A A A V 1.2.2.j.j.j.j.C.F.F.9._.'.aXlXlXqX@X+X=X@XeXeXkXNXjXeXeXNXZXBXNXjXkXpXpX{.W /.J 8.b.G.I.P.L.L.F.v.b.b.b.v.z.d.s.f.g.f.f.f.g.f.S * v +.$.#.{ { #. . .+.&X1XrX1X|.}.eX<X3X%.%.&.&.&.{ &.%.$.O._ _ u.i.i.f.f.s.d.d.v.v.v.v.v.n.n.H.K.L.F.F.I.G.b.'.7XFXLXFXCXCXKXHXGXHXHXKXHXHXHXHXHXHXSXHXNXSXHXaX+Xk     @ O O 4 w e w w f s d f f f f S Z d.3.3.7.7.7.H J X.O.O.o.].].@XkXHXGXGXAXBXZXeXeX0XjXVXSXzXfXfXfXrXpXdXBXwX'.7.7.3.v.5.v.v.v.G.H.H.H.H.F.j.Z a Z g.B.B.n.B._ c.x x $.%.%.&.{ { #.$. . .+.+.{.+... X&X&X@.@.#.#.{ { { { @.| ' ) ) / y.u.k.d.3.3.v.H.Y.P.J.J.P.P.P.L.L.L.P.J.J..X$XwX>X@X+X@X|.,XkXVXAXlXsXhXnXhXvXbXsXBXGXBXsXbXPXMXmXKXMXBX#Xk   @ O O O * w w w r r t t t d s.3.A C V C B K '.`.`.(.X.o.o.+.+.].&X<X<X<X<X0XrXqX>X>X>X>XqX<X-X<X-X-X=XqX<XqXtX5XC 3.6.",
"N.U.U.Y.U.Z.Z.j.J.J.J.XXxXDXDXKXCXSXNXjXjXjXaXqXeXaXbXBXNXbXNXZXNXAXkX}.G G G g c c c c z % X + X + + + e N V V i V 6.6.6.5.5.3.5XuXdXqX2XfXfXzXzXlXlXlXlXkXzXlXzXlXlXlXzXlXlXlX|.X.O.W b v W X.x.m.J.J.P.Q.P.P.I.F.9.v.v.j.j.h.>.D.~.U.U.U.U.S.~.!.2.O X.2X$.3X%.%.%.$. .! ! ..&XpX@X).0XAXSX1X&X3X2XzX2X2XzXpX$Xu f.s.Z.R.k.N.R.N.k.k.l.Z.P.4XT.P.L.F.F.F.F.F.I.P.J.XXiXFXKXHXKXJXPXPXFXKXKXKXKXKXKXKXKXKXKXHXGXSXHX*XO.b c c : # X . + + 5 e N V C C Z A A 2.h.:.d h.Z.j.j.F.F.F.9.'.'.#XlXZXqX*X*X<X,XeXqXaXNXdXeXtXbXNXbXaX0XdXlXkX}.F J 8.8.b.G.G.L.H.C.j.9.b.G.G.J.n.d.d.d.f.g.g.f.g.l.B.K v o.@.@.#.[ #. . .+.+.&X2X1X X1X1X&X3X3X%.&.%.{ { #.$.@.` _ f.( u.f.f.f.d.j.v.v.G.J.G.G.G.H.H.K.K.F.F.G.b._.oXuXLXFXLXHXCXHXHXHXHXHXKXHXHXHXHXHXHXAXHXSXNXSX0XW +     @ O O e e e t y f s d s f f f d Z _ 3.3.9.9.8.8.J X.X.O.o.].].}.rXZXHXHXGXZXBXpXeX0XdXjXZXlXfXpXfXpXpXdXBXMXOX7.7.v.v.v.v.b.G.G.H.H.H.H.H.F.2.a a _ g.n.B.g._ _ ` ' +.$.%.%.#.{ #.%.#.@.|  .+.+.+.;X;X@.@.#.#.{ { { #.@.@.' ] ) ) / / u.h.s.Z d.H.T.T.L.J.J.P.P.L.L.P.L.P.J.J._.%X#X=X+X|.|.+XeXlXkXNXNXyXeXyXBXBXbXBXbXdXbXBXKXKXvXgXFXhXBX'.+   O + * O * w w w r r t t f f Z d.3.C C C B C x.`.`.(.W o.+.+.+.o.{.1XpXqX>X=X<XrXrX0X<X=X<X-X=X-X-X*X-X-X-X9X9X9X8.6.3.",
"N.U.Y.U.U.Z.Z.C.P.J.J.XXDXDXDXKXAXCXnXjXdXaXqX0XaXdXbXbXsXdXbXGXKXZXqX).F G G l c T T b l - % ; X + * e u V V a i a 6.5.5.5.5.3.XXiXsXqXfXfXfXfXzXlXlXlXkXdXzXzXlXlXSXSXlXlXlXSX<Xo.o.X.E v o.X.x.b.J.P.P.L.K.F.9.5.F.G.P.T.T.L.D.p.V.Z.U.U.U.R.L.h.j.N O.3X3X%.%.%.%.%.%. .! $.2XpX+X@XkXzX2X1X3X2XzX3X3X2XpXrX_._ N.f.u.N.l.R.Y.k.s.l.T.4X4X4X4X4X!.P.P.F.j.5.F.G.b.XXiXLXKXKXKXFXMXvXmXHXHXHXKXKXKXKXKXKXKXHXGXNXAX].E b c c : # X X + 5 h h V C A S V Z 3.3.j.:.a h.l.j.j.F.5.F.9.b.`.`.pXlXrX-XqXdXjXlXpXdXjXwX9XwXaXjXyX>X>XfXSXzX}.b D 8.8.0.9.9.j.C.j.j.F.G.G.J.m.n.n.n.d._ f.g.g.g.B.oXm.K X.+.@.$.#.[ #.#.@. .@.&X-X&X&X3X$.3X3X%.#.#.%.#.#.@.O.' _ f.( ( s.s.g.j.F.G.J.J.J.J.G.H.J.P.L.L.I.G.G.b..X5XcXLXCXLXKXCXHXHXHXHXKXKXHXHXHXHXHXHXAXHXSXSXCX,Xj .     O + 4 e w y y y f f s f f d f f Z d.d.z.9.9.9.8.J J X.o.O.).].[.,XNXHXHXHXZXbXeXqX0XpXdXVXzXfXzXlXdXaXdXbXFX$X7.7.v.v.F.F.F.G.G.G.H.I.L.L.H.H.j.3.s.d._ g._ _ _ M.` ' O.@.$.%.#.#.#.#.#.[  . .@.+.@.$.@.#.#.{ { #.#.@.@.' ] t ) / / / u.u.2.2.j.H.T.P.L.L.H.P.L.P.L.L.L.L.J.J.m.`.$X#X@X}.+X=XkXVXpXjXlX0X9X,XhXnXnXGXwX#XjXHXFXCXPXvXgXvXbXD     O * O * * w t r r t t r f f d d.d.C 3.C C B J `.}.).E o.+.].+.o.{.<XzXrX>X=X>XeXpXqX>X=X=X-X-X-X-X-X-X*X<X=X9XiX'.C 9.",
"Y.U.U.Z.Z.Z.H.P.T.J.J.$XDXDXJXLXCXSXNXaXeXeXeXqXdXdXsXsXsXsXNXGXHXwX}.X.v v n l b E Q c - g - ; + + * e N V a a a i 1.5.5.5.5.9.b.5XuXpXfXfX2XfXzXzXdXkXzXfXfXfXlXSXSXSXSXSXSXSXdXo.o.O.X.b E G x.m.v.v.5.C.C.A.K.K.P.Q.!.!.!.!.!.A.q.C.H.Y.Y.R.l.n.R.M.` &X3X%.%.%.%.%.%.$. .;XfXpX@X,XkX1X1X3X2X2X3X3XzXzX0X$Xc.l.N.N.f.f.N.Y.:.h.H.!.!.!.4X4X4X4X4X4X4XT.J.F.v.9.8.oXuXGXHXKXKXFXMXvXPXHXKXHXKXKXKXKXKXKXKXHXHXCXjXo.E G b l ; % X + + k h m C C C N V Z 3.d.j.s.2.2.h.Z.C.F.5.9.9.b.`./.>XdXVXaXdXdXNXZXNXAXtX,X=X0XwXsXsX9X0XdXSXlX*XW v J 8.0.7.5.5.j.C.C.G.G.G.G.J.n.n.n.n.d._ g.n.n.B.R.oXx.J G | @.@. .#.#.#. . .@.;X3X .$.$.%.%.%.%.$.%.$.@.+.' _ ( i.( _ _ s.g.n.J.J.G.G.G.G.G.H.H.L.L.L.P.P.G.b.oXiXMXFXnXCXKXGXKXKXHXHXHXHXHXHXHXHXHXHXSXAXSXAXSX=X;       O 5 5 e w w i f f f s s s s d f d s.g.v.v.v.b.x.8.J X.o.X.).].[.@XkXHXZXHXAXjXeX0X0XeXkXVXkXdXlXlXdXaXaXtXmX7X8.7.v.9.F.F.F.F.F.I.I.I.I.I.I.P.J.H.v.3.S Z g.c.g.B.M.` ` ' O.@.$.#.#.{ { { #. . .|  .@.#.[ { { #.@.@.O.n x S _ ) / / y.u.d s.n.H.J.L.L.L.L.L.L.L.P.P.P.L.P.P..X.X_.OX#X=X+X=X>XzXSXkXeX,X9X9X=XwXhXCXKX,X#XNXKXnXCXKXFXgXmXyXk   O O * O * * w w r t t f r f f d d.d.A 3.3.C C H '.OX).X.o.o.].].+. X<XdXpX0X>X>XeXeX>X*X*X=X0XqX0X<X>X-X<XfX0X9XiXoXC 9.",
"Y.U.Z.Z.Z.H.L.P.P.J.XX7XDXJXKXCXjXNXNXaXqXqXaXdXeXdXbXbXbXBXGXGXAX@XX.G v v n b b T T l ; g g + * + e u N u u a a i a 4.C.5.5.v.8.$XiXaXfXfXfXfXzXfXdXzXzXfXfXfXlXSXSXSXSXSXSXSXlX}.X.X.X.b z g B 3.v.j.C.A.K.W.W.Q.Q.W.W.W.!.!.!.!.W.q.4.j.H.Y.l.R.B.%Xo.+.$.%.%.%.%.%.%.%.%.$.2XzX*X X1X1X3X2X3X2X3X2XzX0X%X_ g.Y.f.U.N.k.l.s.s.S.!.4X!.P.!.4X4X4X4X4X4X4X4XoXJ.b.'.$XvXGXHXKXKXLXPXPXLXKXKXKXKXKXKXKXKXKXKXHXHXHX<XX.G b b : % X X + 5 k m B C C S S Z 3.d.d.j.j.s.2.s.Z.F.j.F.F.9.0._./.#XjXHXVXNXrXlXVXNXZXtX>X0XeXwXyXhX0X=X0XlXlXpX].v K 8.0.0.9.F.F.C.C.F.G.J.J.J.J.H.n.J.c.g.n.B.B.B.B..Xb.` g ; n | @.$.#. . .@.@.$.$.[ #.%.%.%.$.3X&X| | O.` _ ( i.y.f.f.s.g.v.G.J.J.G.I.I.P.I.L.P.L.K.L.L.P.G.b.oXxXMXHXnXCXHXHXKXKXHXHXHXHXHXHXHXHXHXCXjXSXSXAXjX}.+   @ @ O 5 e e y i f f f s s s s / s s d s.l.v.v.b.b.b.x.J X.o.o.o.).].|.wXZXBXZXZXjXaX>XqXeXzXZXlXfXdXfXpXpXaXqXMXiXb.7.v.5.v.F.F.F.F.F.I.I.I.F.I.I.H.J.G.v.A _ c.B.g.c.B._ z.e k n +.$.%.#.{ #.#.#.[ U [ #.#.{ #.#.@.@.' k O t ( ( / / y.y./ s.l.H.T.P.L.L.L.L.L.L.L.P.P.P.P.P.P..XG.'.`.OX@X=X=X,XkXAXkX=Xo.9XwX9XqXsXKXKX9XaXBXCXCXHXHXCXnXCX=X+   + O * O * w w w r t t f f s s d 2.d.3.3.3.3.C H /.%X[.o.o.o.+.].+.{.-XqXqX0X>X0XpXdXeX>X<X0XqX-X+X*X0X<X-XqX-X=X9X$XC 7.",
"Y.Z.Z.Z.H.F.F.F.G.G.oXcXDXJXKXyXsXNXNXdX0X0XpXdXqXjXBXbXbXGXKXGXZX+XW G n n G E E c c z - g ; + e e e u a f a :.>.>.a >.j.j.5.v.7..XUXsXfXfXfXfXfXfXfXzXzXfXfXfXlXlXSXSXlXlXlXlXSX*XX.X.W b - + k C v.H.L.W.W.W.W.W.W.W.W.W.!.!.!.!.!.K.2.2.l.Y.R.B.B.%X%X' n @.$.3X3X%.%.%.%.$.;X2X&XO. X2X2X3X3X2X2X1X@X` S _ k.U.k.U.N.N.f.s.T.!.!.!.!.4X4X4X4X4X4X4X4X4X4XoXXX.XXX9XFXHXAXHXKXKXJXJXKXKXKXKXKXKXKXKXKXKXKXKXHXHX}.E G b b - % X + + e h M C A A Z Z Z d.d.d.s.l.j.s.s.j.Z.j.F.F.G.0.'.'.OXjXZXZXVX>XdXjXdXdXsXqXsXnXtXaXbXwX=X=XdXjXlX@XF G J 8.0.F.F.F.C.F.F.G.J.J.J.J.J.J.J.J.n.n.J.J.J.B.B.m.M.h + ; l R  .@.@.#.#.#.@. .#.%.%.3X3X;X XO.; * x _ _ ( i.y.f.d.g.n.n.J.J.G.I.I.I.P.P.L.L.L.K.K.L.P.J.b.$XPXmXKXNXBXHXHXKXHXKXHXHXHXHXHXHXHXHXNXaXNXSXAXeXX.@   @ O O e w w t y f f s p s / s / / s ( f.g.j.v.v.b.b.x.J X.X.).o.).].[.,XbXNXbXBXjXjX0XwXeXjXVXdXpXfXfXpXpXaXeXvXxX.X7.9.9.F.F.C.F.K.K.K.K.K.K.K.K.K.H.J.G.v.z.n.n.g.g.g.l.n.e O O x O.@.$.#.#.#.#.[ Y [ #.#.#.#.@.| x * O O d ( / / / / / ( l.H.J.P.P.L.L.L.L.L.L.L.P.P.P.L.I.I.I._._.`.OX+X,X=X=XjXNX>X}.X.=X0XtXqXbXKXFXnXZXBXnXCXKXLXmXCXBX`.X   + O O * w w w r t t t f s p f d 2.d.j.3.3.3.A C 8.`.[.(.o.o.+.).o.].*X<X<X0X0XqXpXdXdXpXpXpXqX+X(.+XqX<X-X-X&X=X9X5XK 7.",
"Z.Z.Z.L.L.F.C.5.v.G.oXDXMXLXKX0XsXVXZXdX0X=XqXdXeXBXGXsXsXBXKXHXNX+XX.G b b G T Q l l b z g k + e e u f f f s :.:.u.a i 5.F.5.v.9.b.5XuXeXqXfXfXfXfXfXzXlXzXfXzXzXlXSXlXzXzXlXlXAX<Xo.o.X.E ; % B 7.v.H.L.L.W.W.W.W.W.W.!.!.!.!.!.!.!.4XH.3.j.R.R.n.oXB.B.M.x n +.+.3X3X%.%.%.$.$.3X@...&X2XzX2X2X2X1X%XS * w N.k.U.U.U.k.Y.l.R.4X4X!.!.!.4X4X4X4X4X4X4X4X4X4XoXXX.XoXiXKXHXAXHXHXKXKXKXKXKXKXKXKXKXKXKXKXKXKXKXGXHX).W b b c ; ; X X + e h C A 3.A Z Z s.j.f.s.s.k.l.s.s.d.j.C.5.F.I.9.b._.`.yXAXAXlX+X0XaXdXdXwX9XbXGXsXhXCXsXaXqXdXkXzX*Xb F r.8.7.9.F.F.F.H.F.G.J.J.G.G.J.J.J.J.J.m.m.m.J.B.B.B.R.3.e 5 + % z | @.@. .@. .[ %.%.#.3X3X&XG X O O t f.i.y.i.t.s.d.g.n.J.J.J.G.G.I.I.L.L.K.K.K.P.L.L.P.J.b.5XKXMXKXZXBXGXHXKXGXHXHXHXGXHXHXHXHXAXjXyXjXSXSX,Xv     O O O e e w t y p s s p p / s / / s ( s.j.d.v.v.v.b.x.x.` X.[.o.).).).@XjXNXsXNXhXlX0XeXeXjXaXrXpXdXkXpXpXaXsXvXMXoXA 9.9.F.F.C.C.C.C.K.K.K.L.L.P.L.L.P.J.G.v.n.g.B.N.f.l.H.1.4 o O * n @.$.@.$.#.[ [ [ #.#.#. .| ; O   4 i u./ / y.y./ / u.Y.H.H.F.P.P.L.L.L.L.L.L.P.P.L.L.G.I..X.XXXOX$X=X=X*X,XlXdX}.[.+X+X#XtXwXnXKXnXKXGXZXBXCXKXKXCXFXNXX.@ @ * O * * w w w r t t p p s r f d 2.n.n.3.6.3.3.C H `.[.).(.o.o.o.Q o.|.<XqXpXqX0X0XeXeX0X<XfXjX-X[.=XpX=X-X-X*X-X0X9XH K ",
"V.S.W.Q.L.L.P.P.P.b.iXJXPXJXmXwXjXNXNXpX>XqXaXqXqXbXdXbXGXGXKXHXjX[.F G E G b T b l l z v g k * e u Z d f d :.>.:.u.:.>.2.j.F.v.v.3.$XvXtX0XfXfXzXlXzXdXdXzXfXfXlXlXlXlXlXzXzXlXdXlXo.o.E o.z g K b.v.F.L.S.W.W.W.W.W.!.!.!.!.!.!.!.!.!.!.P.H.H.R.R.Y.R.Y.oXZ + k j o.3X3X$.%.%.$.$. .;X2XfX2X2XpX[.G x e w u.U.U.a.i.~.D.Z.Z.!.4X4X4X4X!.!.!.4X4X4X4X4X4X4X4XoXoX.XOXgXGXHXHXZXHXKXKXKXKXKXHXGXKXFXLXKXKXKXKXKXKXZX(.G G b : ; ; + + * h m C 3.3.Z Z _ g.s.s.f.l.l.l.l.s.s.j.H.F.F.9.b.b._.%X#XhXNXNX,X0XBXtXqX@X9XhXBXBXbXnXGXbXBXjX>XlX<Xz F /./.7.9.F.F.j.F.F.F.H.J.J.J.J.J.J.J.J.J.J.J.J.R.B.B.J.G.1.i M 9 5 g T @.@.@.$.[ %.%.$.;X Xz @ O e w u.i.i.i.t.i.s.d.n.n.n.J.J.J.I.I.L.L.L.K.L.L.K.L.H.F.J.b.iXDXKXHXGXGXHXKXKXHXGXKXGXGXKXHXZXHXHXeXeXSXSXNX@X+   @ O O + e e t w t f s s s s p ^ ^ / / ( ( s.d.v.v.b.b.b.x.` X.).].(.(.[.}.,XHXBXBXZXbXqX=X0XlXaXpXpXpXpXpXpXpXtXuXPX$X7.9.9.v.C.C.C.S.S.S.K.K.K.K.L.L.K.K.K.G.F.v.g.l.N.f.k.Z.C.y o 3 o   j o.+.;X$.[ [ { #.$.@.b + o 4 3 4 >.i.t.y.^ / u.s k.H.H.H.H.P.Q.W.K.K.L.P.L.L.L.L.P.P.G.XX.X_.$XiX+X,X=X>XlXVX@X}.,X=X>XyXCXHXCXGXKXKXCXnXmXFXKXKXKXFXD @ @ + * * O w w w r r p p p p p f f Z l.n.j.3.3.3.3.H x.`.).o.o.o.].+.o. X>XdX0X<XpXpX<X<XpXqXaXkXjXNXVXkX0X1X<X*X=X=X9X'.M ",
"S.W.W.W.L.L.P.I.P.G.xXJXDXKXHXjXNXNXaX=X=XqXdXdXaXbXaXhXCXFXKXKXwX).b G G G b T T l l z v k * e u a d f f >.:.>.y.u.:.:.4.5.j.v.v.7.oXiXsXpXdXfXdXdXfXpXpXpXfXfXlXlXlXlXlXlXlXlXzXlX].o.E o.b l D b.v.F.L.S.W.E.W.W.W.!.!.!.!.!.!.!.!.!.!.!.L.Z.R.R.Y.R.Y.T.j.i 1.M M v +.3X3X#.%.$. .$.2X2X2X2XJ j h u w p i.U.U.U.U.U.D.S.!.4X4X4X4X4X4X!.!.!.!.!.!.4X4X4X4X4X4X.X$XgXGXHXHXHXKXKXKXKXKXKXKXHXBXBXFXKXKXKXKXKXHXjXX.F G b : ; % + + e h N C 3.3.S Z s.g.f.s.f.l.k.l.l.g.s.j.C.F.F.F.v.b.b._.$X#XaXAXdXsXNXtXtX#X0XbXCXnXsXMXFXPXsX0X*XdX<Xv b W 8.8.9.F.F.C.C.F.F.F.H.H.H.J.J.P.J.J.J.m.J.J.J.B.B.Y.H.4.;.;.w.w.q q Q @.@.@.[ %.#.3X;XX + M 5 4 y i.p.t.t.t.i.u.d.n.H.J.P.J.H.L.L.L.L.L.L.L.L.K.L.H.F.J.b.iXMXKXGXZXZXGXHXKXKXKXKXGXZXKXKXHXHXHXhXjXHXAXjX}.+ @ O + O 5 e e t r r p f s s s s / / / / ( u.s.d.v.v.b.b.b.x.x./.).].).).[.}.=XAXGXBXNXjXeX>X0XdXkXzXkXpXpXpXaXkXaXuXPX5X7.9.v.F.C.C.C.C.C.C.C.C.K.K.K.K.K.K.K.F.P.G.n.n.N.f.f.k.S.>.3 3 3 1 0 5 W  X3X@.[ #.$.| : + o 3 4 4 8 >.t.t.t./ y.u.s.Y.H.J.P.L.L.L.L.L.L.H.L.L.P.P.P.P.XXJ..X_.'.$XuXUX*X-X<XpXdX<X>XdX=X>XyXZXKXKXKXKXKXCXnXCXKXHXFXCXbXj   @ + * * * w w w r r p p p p s s f d s.j.d.5.3.3.3.K 8.'.(.(.o.o.].].+.|.>XpXqX0X0X>X-X>X0XpXaXdXdXlXZXNXpXpX<X=X*X#X9X`.B ",
"W.W.W.S.L.W.P.I.I.XXxXJXLXKXKXSXZXVXqX@X>XdXdXdXBXNXaXbXBXmXKXHX=Xo.b G G b b T T l g z j e e e u Z d f s >.>.y.y.y.i.i.h.4.5.v.v.v..X7XsXdXdXdXdXdXfXpXqX<X2XpXzXzXzXlXlXlXlXfXlXSX*Xo.Q o.E l D 8.9.F.L.S.W.W.W.W.W.!.!.!.!.!.!.!.!.!.!.!.P.Z.Z.!.U.~.U.!.L.;.;.w.i e x +.&X$.%.$. .$.2XpX@Xr.k 5 u a y >.U.U.a.U.U.U.D.!.!.4X4X4X4X!.!.!.!.!.!.!.!.!.4X4X4XoX4XXX$XcXGXKXHXHXHXKXKXKXKXKXKXGXtXIXmXFXKXKXKXKXHX0XG F G c - ; + + * e M C A 3.A S Z s.g.f.k.k.k.f.f.l.l.f.d.j.F.F.F.F.b.9.m.$X[.0XGXGXHXGXbXnXtXtXyXnXFXFXFXFXGX9X#X}.1X*Xb z G 8.8.9.F.F.C.C.C.F.F.F.F.G.G.J.J.J.J.J.n.n.m.m.B.B.Y.H.q.;.;.w.;.9 0 q T +.$.| $.$.@.-   h 9 3 8 <.p.p.t.t.t.i.s.l.H.J.P.J.H.H.L.L.L.L.L.L.L.L.L.H.H.G.m..XiXuXKXGXBXBXGXHXKXKXHXHXNXbXCXGXHXHXHXnXCXHXAXkX(.. + 5 e 5 e e e t t p p p s s s ^ t.t./ / ( s.f.l.F.F.G.G.b.x.x.x.).].).).[.[.=XNXHXBXjXkXdXeXeXaXaXzXlXkXpXrXpXkXdXsXPX5X7.3.9.v.C.C.C.Z.S.S.K.K.L.L.K.H.L.L.L.L.I.G.v.l.l.f.f.k.U.q.8 2 7 6 6 1 q D  X@.|  .@.- @ o 3 7 8 8 y i.t.t.t.y.y.( l.Y.P.P.P.I.I.I.P.P.P.H.F.G.J.P.J.J.J.G..Xb.'.$XiX=X+X=X0XrX0XrXyXrX9X0XaXCXHXGXGXHXCXsXyXnXHXFXCXGXwXk   + * * * * w w w t r p p p p s s s s s.s.2.j.5.9.7.C 8.).).(.o.o.].].].|.-XpXfXfX<X-X-X<X>XeXeXqX0XaXlXkXpX<X*X@X|.@X9X9X'.",
"~.W.E.E.W.L.L.I.J.5XcXJXJXHXCXnXNXAXpX=XqXdXpXjXGXNXaXnXBXmXLXmX|.W b F G n b b b l l l g e e u V 2.d p >.>.>.i.y.y.i.p.h.2.4.j.v.v.b.$XuXNXfXfXdXdXdXdXpX<X2XfXfXfXfXzXlXlXzXfXlXSX2Xo.o.o.E g j 8.9.F.L.L.W.W.W.W.W.W.!.!.!.!.!.!.!.!.6X!.Q.L.h.R.U.!.~.~.~.>.;.q.4.i e k | 3X3X$. .3XzX@XK 5 M u >.>.y p.^.a.a.U.U.D.S.!.4X!.4X4X4X!.!.!.!.!.!.!.!.!.!.!.!.XX4XXX5XcXKXKXKXHXLXKXKXKXKXKXGXBXtXvXPXFXLXKXKXGXKX@XG F G l - ; + + e h B C 3.3.V Z Z s.g.k.k.k.k.f.f.g.l.g.d.2.j.F.G.F.G.v..X$X,XtXBXAXKXHXbXbXbXsXsXbXCXFXHXKXKXIX0X@X-X*XE l G r.8.0.v.F.C.C.C.F.F.F.F.F.I.G.J.P.P.J.n.n.m.B.B.B.B.H.K.;.-.-.=.9 3 o q E +.+.;X&X%   5 M 3 3 8 <.p.p.t.t.i.i.n.H.J.H.H.H.H.H.L.L.L.L.L.L.L.L.L.G.J.G.b.oX7XiXKXHXGXGXHXKXKXKXHXCXsXtXjXBXZXHXSXNXAXAXAXyXG   + 5 e e e e t t t r p p s s / / ^ t./ / ( s.f.l.v.F.G.G.b.x.x.x.).[.).).[.[.#XbXGXNXjXjXjXdXaXaXeXkXlXlXkXaXaXdXhXvXDXiXb.6.7.9.5.j.j.C.C.C.F.H.F.F.F.F.K.F.F.F.I.F.v.l.l.g.f.k.k.L.;.2 6 7 7 7 0 0 K ].O.| n X 0 0 7 7 8 8 y i.t.t.^ y.( d n.H.J.J.P.P.P.I.P.P.P.J.J.J.J.J.J.J.J..X.X.XXX#X9X@X+X*XeXdXrXrXrX@X0XeXhXCXGXBXBXCXNXyXwXbXCXCXCXKX=X+   + * * * w w w t r t p p p p s s s s d 2.2.5.5.v.7.H x.`.[.).o.o.].].{.|.*XpXdXdXqX-X-X=X>XqXqX0X>X0XeXqX<X-X|.=X=X,XqXLXuX",
"E.E.E.W.W.W.L.P.J.7XDXJXKXCXnXjXkXGXjX<XqXqXqXjXZXjXdXCXFXCXLXgX).E b G b n b b c l l l k e e u V 2.:.s y.y.>.t.t.y.i.k.h.2.2.j.j.v.z.%XyXVXdXfXlXlXlXlXfXqX<XfXfXfXfXzXzXzXfXfXlXSXzXo.o.o.E z j r.8.b.L.L.W.W.W.W.W.W.!.!.!.!.!.!.!.!.!.6X!.!.V.L.R.!.!.~.!.V.<.,.,.>.a 5 k o.2X@.| -X,XB 5 i 1.i ;.<.<.p.^.a.a.U.k.:.L.4X6X!.4X4X4X!.!.!.!.!.!.!.!.!.!.!.Q.P.P.XX5XDXJXKXHXFXLXKXKXKXKXKXGXBXnXGXLXFXLXKXHXCXKX}.G G b l - ; + * e m C 3.3.3.N Z _ f.f.f.k.k.l.f.f.f.g.g.d.2.j.F.G.F.F.b.J.oXyXNXNXNXCXbXyXtXbXbXBXCXMXhXvXmXKXKXZXrX<X1X+.l E /.8.7.9.v.C.C.C.C.F.F.F.K.I.I.J.J.P.J.n.n.n.B.B.B.n.H.L.w.8 7 =.7 7 9 5 5 g o.|.v   e i 3 7 ;.8 ,.p.t.t.t.i.f.H.J.J.H.H.J.P.P.I.L.I.L.L.L.L.L.P.G.G.G.b.$X5XiXHXHXHXHXKXKXKXKXKXBXtXqXdXNXZXHXZXCXHXZXZXwXz . + 5 e e e e t t t t p p s / / ^ t.t./ / ( s.f.j.F.G.G.G.b.b.x.x.).}.].).[.[.@XjXZXBXNXNXjXdXaXaXlXlXlXlXlXlXjXjXbXMXJXcXXX6.7.5.j.j.j.C.F.F.H.H.H.H.G.H.H.H.J.J.J.J.F.l.l.k.f.s.k.R.4.3 2 6 *.*.3 3 5 K X.x + O 3 7 7 7 7 8 >.p.t.t.^ / / d H.G.J.I.I.P.I.G.G.G.b.b.b.b.b.b.b.b.m.b.'.'.%X#X#XOX+X@XrXlXjXkXaX,XeXsXBXHXGXBXBXFXbXyXyXmXHXFXCXGXOX+ @ * e e * w w w t t p p p p p s s s s d :.s.5.5.9.7.3.x.`.`.].(.o.].].]. X|.qXeXfXpX<X*X*X=XqXpXpXrX0X>X,X=X=X}.>X>X=X#XmXKX",
"E.E.E.W.W.W.L.P.G.xXDXJXKXBXjXjXjXZXjX0X<X=XqXNXbXdXsXGXHXHXHX9XX.F b G b b T b l l l g k e u u V 2.:.:.i.y.t.t.t.i.p.i.h.h.s.j.j.v.z._.wXZXVXlXdXdXlXlXdXpX<XrXfXfXfXzXzXzXzXzXfXlXlX].o.o.o.b L r.'.G.P.L.W.S.W.W.!.!.!.!.!.!.~.!.!.!.Q.Q.!.4XL.Z.R.R.R.R.!.R.y <.;.,.>.;.e k {.{.+.).` e i >.;.;.y <.<.^.^.a.U.U.u.a R.4X6X!.4X4X!.!.!.!.!.!.!.!.!.!.!.!.!.Q.P.4X8XDXJXJXLXPXJXKXKXKXKXKXHXZXGXLXLXLXLXKXKXHXHX(.G E b : : ; + e h N C 3.3.A N Z _ s.f.f.k.k.k.f.f.f.g.l.j.s.j.K.F.F.F.v.b..X9XNXNXNXBXhXhXhXHXBXMXFXHXmXwX5XMXKXGXeX<X1X+.: G X.8.7.9.j.C.C.C.C.F.F.F.F.I.I.I.J.J.H.H.H.H.H.B.B.n.Y.R.C.y 7 8 =.-.8 0 o @ L L @ o i 9 1 -.=.=.p.p.t.t.t.u.s.n.J.J.P.P.P.P.J.I.I.I.I.I.I.L.P.H.J.G.G..XOX$XuXFXGXHXHXKXKXHXHXHXNXqX9XyXnXCXHXHXAXHXZXAX,X; . + 5 e e e u t t t t f p s / / / t.t./ / ( s.s.j.G.J.J.G.b.b.b.x.).}.[.).[.[.+XaXZXGXAXVXjXaXeXrXAXSXzXkXjXlXlXkXbXMXPXDXoX6.3.3.v.v.v.v.v.F.G.G.v.v.F.F.F.G.G.G.b.v.v.j.h.k.f.f.l.H.4.4 2 7 6 6 2 3 o 5 M e o 3 7 7 *.7 7 y >.i.t.^ ^ / ) _ J.J.XXI.I.P.I.F.v.J.J..XXXXXXXXXXXXX.X.X_._.OX#X#X@X#X+X=XeXjXSXSXNXnXCXHXHXBXvXsXsX9XwXhXFXKXKXGXGX).+ @ e e e * w w t t t p p p p p s s s s d u.s.j.5.5.3.3.8.'.'.).(.o.].].{. X|.qXqXpXfX0X-X=X>XqXeXeXqX>X=X=X*X*X+X0XtX=X@XyXKX",
"~.E.E.E.W.W.L.P.J.cXDXLXKXjXjXlXlXVXdXqX0XqXdXbXjXsXbXHXHXKXLX#XW F F G n n T b l c l k k h N V 2.d :.i.i.i.p.t.p.p.p.i.i.h.h.2.j.v.z.'.UXVXSXVXdXfXdXlXjXpXeXfXfXfXfXfXzXzXlXlXzXzXlX|.Q o.o.E z r.r.b.I.K.W.E.W.W.!.!.!.!.!.!.~.~.!.Q.Q.Q.!.!.!.j.T.Y.R.R.Y.!.y y <.,.,.;.;.9 j W E j e i >.<.;.;.<.<.p.^.a.a.U.N.u.d !.4X6X6X4X!.!.!.!.!.!.!.!.!.!.!.!.!.!.Q.Q.4X8XDXJXJXLXPXKXKXKXKXKXKXHXAXGXFXFXKXKXKXKXKXnXW W E b : : ; * e m N C 3.3.A S _ s.f.f.f.k.k.f.f.f.f.g.l.j.s.F.H.F.F.F.v.b.m.#XsXyXbXZXCXGXbXKXmXvXnXLXmXuXUXMXPXyX0X2X*X..- b W 8.7.9.v.5.C.5.C.C.F.F.F.K.I.G.G.H.H.H.H.H.H.H.n.B.B.B.H.>.8 7 =.-.7 2 3 0 C q 0 4 3 8 8 8 6 <.p.p.t.i./ u.g.n.J.J.J.J.J.I.G.G.G.I.J.J.G.G.G.G.J.G.b..XoX_.vXFXGXHXKXKXKXKXHXKXBXqX9XyXNXSXAXHXCXHXSXAX@X+ X + 5 e e e u f t t t f s s / / / y.y.y.u.u.s.s.d.F.J.J.G.b.b.m.x.(.}.}.].[.[.OX0XZXHXHXZXjXpXrX0XVXzXaXkXjXlXlXjXNXvXMXDX5X7.9.9.9.9.9.9.v.v.G.G.G.G.G.G.G.G.G.G.J.J.J.j.h.h.l.k.f.j.j.y 3 7 7 7 2 3 1 9 6.a 3 3 7 7 =.8 8 y :.y.t.^ ^ / ) g.J.G.XXI.Q.I.I.G.oX7XxXxXxXcXcXxXiX7XiXxXiXiXuXvXvXbXrX>X@X*XaXSXAXHXHXHXKXGXBXsXwX9X9XyXnXFXKXKXKXGX/.+ + e e e e w t t t t p p p p ^ s s s s :.u.h.j.5.j.9.7.x.'.(.(.o.o.].].{.|.|.0XpXpXqX<X-X>X0X0X>X,X=X=X=X=X=X=XwXbXGXbXbXCXKX",
"~.E.E.E.W.W.L.L.P.DXDXPXFXsXdXlXNXdXfXdXpXdXNXdXNXnXBXKXFXHXCX}.W F G G b c b c z b l k e m C V 2.d u.i.y.i.p.t.p.p.p.i.i.h.h.2.H.v.z.x.$XbXZXVXdXfXfXlXlXdXdXdXpXrX<XrXfXlXlXlXlXlXSX&XQ o.Q E - J 8.0.F.K.W.E.W.W.W.W.W.!.!.!.!.!.!.!.!.6X!.!.!.4.T.Y.R.R.l.R.s y <.,.,.,.w.w.q k + O 5 4 ;.<.<.<.<.<.p.^.a.a.U.k.s.h.8X4X!.!.!.!.!.!.!.!.!.!.!.!.!.!.!.!.!.Q.Q.4XxXDXJXJXJXFXJXKXKXKXHXHXGXZXKXGXKXKXKXFXCXGXhXF E E z : l ; * e N C A 3.3.Z Z s.g.f.f.k.k.k.f.f.f.f.g.l.g.s.F.H.I.F.G.G.G.m.9XyX9XwXFXGXFX9XyXMXCXbXwX9XuXPXKXFXwXrXzX1X..l z G J H 9.9.5.5.5.5.C.F.F.F.F.F.G.G.G.G.J.J.J.n.J.H.B.n.l.Y.h.8 8 7 *.*.7 3 9 5XG.3 9 3 9 8 7 8 <.E.p.a.i./ s.n.J..XJ.J.G.G.G.G.G.G.G.G.G.G.G.G.b..Xb.b..X`./.vXHXHXKXKXKXKXKXKXKXZXtXqXhXZXZXHXCXnXZXCXAX+XX X + 5 e e u u a f f f f s s / / / y.y.y.u.u.s.f.j.v.G.G.b.v.m.b.x./.}.}.[.[.[.[.=XBXGXHXZXjXaXwX0XaXaXkXlXZXZXNXjXGXnXmXKX7X9.b.b..X.X.XXXoXoX5X5X5X5X5X5X7X7X8X7X$X5XoXJ.j.h.h.k.f.f.H.i 3 6 6 7 3 1 3 9.6XI.9 7 7 7 8 8 3 y u.i.t.^ / ( f c.m.b.G..XXX.XG.XX7XDXJXJXJXJXJXDXcXiXPXJXJXDXLXLXPXFXAXVX,X+X0XlXNXCXHXHXGXZXGXBXsXqXnXKXKXHXFXKXKXGXJ + + e e e t w t t t t p p p p ^ ^ s s s :.s.s.j.5.j.v.v.m.`.`.X.X.o.].].{.|.*X-XpXpX-X*X<X0X>X0X=X+X@X=X,X>X,X#XhXnXKXFXKXFXGX",
"~.E.E.~.W.W.L.P.4XDXcXcXmXNXZXVXHXpXSXjX0XlXBXkXdXsXHXZXBXKXwX(.F E E G T T b z v z g k h m N V 2.:.u.i.y.t.t.p.p.t.p.p.i.k.k.:.F.G.m.x.%XuXKXnXVXNXdXqXpXjXdXqXqXdXqX0XlXlXdXZXlXlXSX<Xo.E ..E E W 8.0.v.L.L.E.W.~.~.E.W.W.!.!.!.!.!.!.!.Q.!.6X!.5.R.T.Y.R.B.T.:.y <.,.,.<.w.;.m h h + e >.;.;.;.<.<.<.U.U.a.a.U.U.h.!.!.!.4X!.!.4X4X!.!.!.!.!.!.!.!.!.!.!.!.!.oXoX7XDXJXJXDXKXLXHXKXKXKXHXCXbXFXFXKXKXKXmXBXHX>XE T T l l g % e m C A 3.3.Z Z d s.f.u.k.k.k.k.k.k.i.N.N.f.l.s.H.j.P.I.F.J.v.b.$X9X9XuXMXbXLXvXvXuXtXyXyXyXhXnXKXsXhXdX<XpX*Xz z F J J H 7.7.v.5.3.v.H.v.v.G.F.G.G.G.J.m.n.m.m.J.n.B.B.n.R.S.;.7 *.7 7 2 9 XXxXiX.X5 1 ;.7 8 8 <.p.p.i.i.u._ n.J.J.z.J.oXoXoXoX5X$XoXoXoXoX$X$X$X$X#X7X#XOX#XsXHXKXHXKXKXKXKXFXKXGXbXtXdXNXHXKXHXHXHXHXHX}.+ X e h h e u N V d f f s s / / / y.y.y.i.i.u.s.s.j.v.v.v.v.v.v.j.z.x.[.}.[.].].[.@XnXKXBXBXNXyXrX<XeXeXdXkXVXVXbXbXhXGXbXMXJXIX7XxXPXcXPXJXJXJXJXDXJXJXJXDXMXDXKXJXDXDXiXJ.v.3.j.l.f.u.k.:.8 6 7 6 3 1 w.5XiX8XXX9 7 6 7 8 8 y u.y.t.^ ^ ( _ d.M.%X_.OX$X'._.7XcXMXLXLXLXLXFXFXmXFXFXmXMXbXbXCXKXKXGXHXhX#X+XeXBXBXGXsXBXKXKXKXKXGXKXHXFXCXFXKXKXFXD + + h h u e e e r r t p p p p ^ ^ / s d d s.d.j.j.v.v.v.b.b.x.X.(.o.o.[.|.+X*XeXfXqX<X<X<X-X=X>X=X+X+X@X>X9X,XnXnXCXKXKXFXFXHX",
"E.E.E.E.E.S.L.P.4XDXPXvXFXCXAXVXVX>XaXkXaXVXBXZXaXaXZXZXCXKXqX(.b F G G T T b l F v j h h N C 1.2.:.i.i.y.t.t.p.p.p.p.p.i.i.k.:.F.G.G.b.XXxXKXBXBXSXNXdXdXNXVXjX0XeX0XaXGXVXfXlXlXlXlX2Xo.Q o.Q E W J 8.b.G.L.W.E.E.~.!.!.!.!.!.!.!.!.!.!.!.!.4X!.j.J.oXR.R.B.R.h.y <.<.,.,.q.;.i m .Xm.e 9 ;.,.<.<.y <.a.a.a.U.U.D.V.!.!.!.!.!.!.!.!.!.!.!.4X!.Q.Q.!.!.!.!.4X4X.X$XxXDXJXJXJXKXKXKXKXKXKXKXGXFXKXKXKXKXJXFXGXHX*XT T T : l g ; h N N C C 3.d.s.u.k.k.k.k.U.Z.k.N.k.k.N.N.f.l.s.j.F.P.K.F.J.b.b.$XyXvXwX#X#XMXKXLXMXMXbXbXhXsXsXhXsXNXdX>XpX<XX.g z D K K B C C v.3.7.9.9.v.b.v.9.b.J.J.m.m.m.m.m.m.R.B.B.R.L.,.7 =.=.7 9 9.xXiXiXxX.X0 1 1 8 8 ,.p.a.i.k.s._ d.m..Xm.5XcXcXPXcXMXDXDXPXcXcXcXMXLXmXFXKXKXbXjXBXNXCXCXHXKXLXKXHXGXGXZXNXBXHXHXHXHXHXAXZXkX(.X + + e h m N N V f f f s s / / / y.y.y.u.i.u.s.h.h.l.v.v.j.j.j.j.v.x.`.OX[.].].}.@XbXKXFXFXBXaXaXpXqXdXdXdXdXNXbXsXaXBXNXnXFXuX9XgXMXuXvXFXFXmXmXMXMXuXwXwXuXCXFXvXMXMXiXb.b.d.d.s.k.i.k.V.y 7 7 6 1 ;.6X8X5X5X8XXX9 8 7 3 3 y i.y./ ^ / ( _ c.M.'.,X@XtXGXbXiXuXLXbXnXBXGXKXHXBXbXbXbXbXnXnXnXnXNXCXHXbX,X#X9XwX9XtXsXHXKXHXBXGXKXPXLXKXHXKXKXCXuXj O + e e u e t e r r r p p p p ^ ^ / s d _ s.d.j.j.j.v.v.v.b.x.(.).(.).[.}.+X@XfXfX<X-X<X<X*X@X=X>X,X*X@X=XqXyXKXKXHXGXGXHXKXHX",
"E.W.W.W.W.L.L.F.5XDXDXMXHXGXZXNXNXqXpXjXVXVXjXBXaXeXNXNXCXHX=XW b b G E E T b z F v j k h N A 5.2.:.p.p.i.p.t.p.p.p.p.p.i.k.k.:.j.G.G.b..XiXKXGXGXGXSXjXdXjXbXkX=X=X@XqXZXVXfXlXdXfXzXfXQ E Q T o.(.r.8.b.G.P.W.E.~.~.~.!.!.Q.W.!.!.!.W.!.!.!.!.!.H.F.T.T.Y.R.R.l.y <.<.,.,.;.i M $XPXxX3.i ;.;.,.<.<.p.U.U.a.U.U.p.S.!.!.!.!.4X4X!.4X4XQ.Q.Q.Q.4X4X4X4X!.!.4XoX.X5XPXJXJXJXJXJXKXKXKXKXGXGXKXKXKXKXKXLXLXKXKXHX}.T T b - - g k h m C 7.7.z.3.Z u.k.k.k.U.U.k.k.k.k.i.N.N.N.N.d 2.L.H.F.J.G.G.b.OXwXyX9X#X9XLXKXnXhXtXsXhXyXqX9XsX9XsXNX>X*X-X|.>X0XtXuXuXiXiXxX7X7X5X5X5X5X5X5XoX$XoX_.x.M._.M.c.n.R.B.B.Y.L.V.8 8 -.8 -.6XxXiX5X5XXX9 3 -.8 8 p.p.i.i.i.u.f.n.m..X.X7XJXKXJXPXgXMXLXmXgXiXuXvXFXMXFXHXhXwXqX9XjXBXnXHXKXLXKXKXGXGXGXGXHXKXKXHXHXHXAXBXeXX.X + O e m N V V a u f f f s / / / y.y.y.i.u.u.s.h.j.l.v.j.j.C.C.j.v.b.OX+X}.[.[.}.*XdXKXKXFXnXyXdXaX0XdXdXpXpXNXBXhXdXCXBXnXbXwX9XgXuXuXIXmXMXuXuXwXwXqXwXwX9XuXhXyXiXxX7Xb.b.z.c.s.f.i.D.D.;.7 6 6 3 w.6X8X8XxX6Xw.8 8 7 7 8 <.i.y./ y./ ( g.c.M.` 0X0X0XqX#X@XwXKXFXCXCXGXKXKXBXhXtXsXbXnXnXnXnXnXGXGXbXwX,X9XtXsXwXBXKXKXKXGXGXKXBXKXKXGXHXKXbX9Xk X + e e e e u t r t r p p p p ^ ^ / / ( s.d.j.v.v.v.v.v.v.b.x.(.].].).[.|.OX+XpXfX<X-XpXdX0X=X=X>X>X=X=X>XdXCXKXKXKXGXGXKXHXGX",
"L.L.L.L.L.I.F.b.5XcXPXmXHXGXbXaXVXlXkXlXAXVXdXBXjXdXNXNXGXCX+XG F G E E E G b z z g k k h N 3.v.:.:.p.i.i.p.t.a.a.p.p.p.p.k.k.u.j.F.G.b..XiXLXGXHXGXVXdXdXkXlXjX>X=X=X9XjXlXdXlXpXfXdXSXo.o.o.o.o.W W J 7.v.F.K.W.W.W.W.W.Q.!.Q.!.!.!.W.Q.!.!.!.Q.L.C.R.T.Y.R.Y.R.y y ;.;.-.8 w.6XDXDXcXxX5.y 8 <.y <.p.U.a.i.U.D.h.!.4X4X4XP.!.4X4XXX4X4XXXXXoXXXXXXXXXXXXXXXXXoX7XcXDXJXJXKXLXKXKXKXKXLXFXLXKXKXKXLXPXPXKXKXZX].T T c - - g k e N A 7.7.z.Z f s.k.k.k.k.U.k.k.k.N.k.k.N.N.N.f a T.F.F.I.F.J.b.'.9XuXuXuXMXLXMXnXhXsXbXCXBXhXwXbXwXBXKXkX>XqXdXZXAXHXHXLXLXDXDXDXJXPXxXcXcXiXcXxXcXiX%Xx.x./.x.c.n.B.B.B.B.H.L.;.7 =.-.8 w.6X8XcXXX9 1 2 ;.8 <.p.p.i.t.y.u.f.n..X.X.X7XDXJXJXPXMXFXKXFXgXuXvXFXIXuXmXbX@X}.#X#XsXnXhXCXKXHXKXKXHXHXHXZXZXHXKXHXZXCXHXAXgX` X + + e N B N V f t f f s s s ^ / y.y.y.i.u.u.u.h.l.Z.C.C.C.C.C.C.j._.OX@X+X|.}.|.=XaXKXKXFXbXrXaXaX0XaXdXeXpXNXAXBXNXCXnXhXuX9X9XuXmXvXPXKXFXbXsXtXtXyXhXuX9X9XwXwX9XiXiXb.z.v.n.f.u.u.k.D.>.8 6 6 6 8 ;.6XxX8Xw.7 6 7 7 8 <.>.i.^ t.y.u.u.g.m._.` `.=X*X+X}.=XuXnXKXGXBXFXHXHXCXbXsXbXbXbXbXbXNXBXhXsXwX=X@X#XtXBXhXGXCXnXKXKXHXKXGXKXKXmXCXKXCXwXj + + e e e e u t r t p p p p s ^ s s / ( s.d.j.v.v.v.v.v.v.z.x.(.].].(.].|.OX+X-X<X-X-XfXlXdXqX>X=X*X@X>XjXZXHXGXGXHXKXHXBXnXCX",
"P.v.v.G.G.b._.oX7XgXPXCXHXAXdXqXaXAXVXkXSXSXNXGXZXbXNXNXKXCXOXG G E E E E b v v z g k k m V 3.j.:.:.V.i.p.p.p.a.a.p.a.a.p.k.k.s.5.F.J.b._.5XPXGXGXNXdXdXjXBXZXZXVXGXNXpXdXNXlXdXkXlXlXSXo.E T T E E G K H z.G.H.C.K.K.K.P.P.P.P.Q.!.!.!.Q.!.!.!.!.!.V.L.!.Y.R.Y.T.f y y ;.8 9 9.cXJXcXDXcX9.9 y <.y <.p.U.a.a.k.Z.Z.!.4X4X4XP.4XXXXXXXoXoXoX$X5X5X7X7X7X7X7XxXxXiXiXuXPXKXKXHXKXHXKXKXKXKXLXKXKXKXKXJXMXPXKXKXSX).T T c - l g k h B C C C A V t s.k.k.k.k.k.k.k.U.U.k.k.f.N.l.f a T.K.F.P.G.J.G.x.9XKXMXiXwXwXwXBXnXnXCXKXKXGXnX9XuXKXGXjXZXHXVXZXZXZXGXFXPXMXIXuXKXmXuXMXuX9XIXuXbXtXOX`.`.(.J m.m.m.c.B.c.n.L.4.7 8 -.7 7 ;.6X8Xw.3 3 3 8 3 >.p.a.a.i.i.u.l.c.b._.'.$XIXmXKXKXBXBXnXdXwXwXsXCXFXmXKXFX=X@X9X>X0XeX9XhXKXHXKXKXKXKXHXZXCXGXHXHXCXBXAXAXgX` @ + + h B C S V a u f f p p s ^ / / / y.y.y.u.u.h.Z.Z.C.C.C.C.C.C.j.b.OX#X+X|.[.|.*XeXKXKXFXbXyXdXdXpXpXpXpXaXjXZXHXGXNXyXwX9X9X9XyXBXbXBXGXnXsXtXwXsXwXqX0X0XwX0X#X9XxXiXb.z.d.n.f.f.u.k.Z.q.8 2 7 6 6 2 ;.q.w.8 2 8 8 8 8 <.y.y.y.y.y.u.s.n.m._.X.X.}.].0X<X,XwXCXGXCXBXCXGXHXGXBXBXGXCXbXsXhXbXbXsXsXyXqX#X+X9XhXsXNXhXsXHXKXHXGXKXKXGXnXCXKXKXvXD + e e e N N u t t t f p p ^ ^ ^ ^ s d u.s.j.j.v.v.v.v.v.v.z.x./.`.).o.].|.OX+X-XpXqX-XpXdXpXqX>X=X+X@XeXZXKXHXCXmXHXKXFXuXuXCX",
"cXxXxXcXcXxXiXuXiXtXCXAXAXZXaXrXpXHXVXdXlXlXVXBXjXjXNXNXHXbX[.G G E E E G b v v F j j B B V A 3.:.:.k.p.p.p.p.a.a.p.a.a.p.k.k.h.2.F.J.b.b.$XMXGXZXbXaXdXlXVXBXNXBXKXHXdXpXlXVXpXZXAXVXzX].X.E E E W X.` x._.XXoX4X4X4X4X5X5X4XXXQ.!.!.!.!.!.!.!.!.!.Z.S.!.R.R.Y.R.d.w y ;.;.;.i 6XcXJXcX5.y ;.;.<.<.>.U.U.U.U.U.Z.Z.4XT.oX4X8XxXxXcXDXDXDXDXDXJXDXDXDXJXJXJXJXKXLXMXyXbXLXHXHXKXKXKXKXKXKXKXKXKXKXKXKXDXFXKXKXZXo.E T l : l g k m C H C A 3.V i s.l.U.k.k.k.k.k.k.k.f.k.N.N.l.a j.T.P.I.P.P.J.G.x.7XLXIX#X#X9XwXnXnXNXBXGXHXGXBX9XuXMXbXnXGXHXlXkXjXNXCXFXbXuX9X0XCXjXwXbXsXeXNXtXtX>X}.[.+X+X%X%X.XM.M.M.B.n.Y.q.8 8 8 8 7 8 w.;.3 2 8 7 8 8 >.p.a.t.t./ N.T.oX.XoXXX5XIXIXCXGXGXGXVXaXqXeXbXGXFXmXCXCXyXeXqX@X=X9X#XwXHXFXLXKXGXKXKXKXHXHXHXGXHXCXCXCXuXJ @ * 5 h C C A Z a f f s s p s ^ ^ / / y.i.u.u.u.k.Z.Z.C.C.A.A.A.V.C.b.OX#X+X|.{.[.@XwXHXHXLXCXnXNXjXlXdXdXaXkXNXZXHXBXaXwXqX9X9XwXuXsXtXaXhXtX0X0X9X0X0XqXrX0XwXeX0XqXIXiXb.z.3.d.s.k.k.i.k.V.;.3 6 7 7 7 7 9 8 2 2 7 7 8 8 <.i.y.y.y.y.u.s.n.m._./.`.+Xo.=X=X*X,XCXGXGXGXKXKXKXBXbXbXCXGXnXhXbXbXvXhXNXGXGXhX0XqXsXqXsXbXNXGXKXHXKXGXKXHXGXHXKXLXvXB + e e h N N u t t t f p p ^ ^ / / s d s.s.j.j.v.v.v.v.v.v.v.x./.`.).o.].|.+X+X-XfXpX<XqXpXpXqX=X=X=X>XaXZXHXHXFXCXKXKXmXwXuXHX",
"uXbXCXPXMXhXqX=XtXwXVXVXNXZXdXdXdXHXNXlXjXaXbXjXeXdXNXNXGXyX(.F E T G G b b b G K B j N B V A j.2.u.D.p.p.a.p.a.a.a.a.a.p.p.k.u.1.v.J.b.b.$XIXLXGXBXNXNXNXNXjXsXdXNXNXpXqXdXlXdXVXSXjXpX<XpXpXpXpXlXNXbXmXDXDXDXDXDXDXDXDXDXcX7X6X6XQ.Q.Q.!.Q.Q.Q.!.L.Z.R.!.R.R.R.R.i i ;.;.;.8 V 4XcXP.4 8 ;.<.<.y y.D.a.a.U.k.h.H.4XXXoX7XDXPXiXmXJXDXPXFXJXFXLXJXJXLXFXCXFXCXKXGXnXsXhXnXCXGXKXKXKXKXKXKXKXKXKXKXKXKXKXKXKXAXo.Q T l : l g k h C 7.8.b.v.3.f s.k.U.k.k.k.k.k.k.k.i.N.N.N.Z.2.L.L.Q.P.P.P.J.G.'.$XMXuXiXuXwXhXGXHXHXZXCXGXHXHXLXIXIXLXKXGXNXNXNXNXNXZXHXCXvXwX9XjXtX>XtXaXaXZXBXaX@X).).OX@XOX_.oX_.M.M.B.c.B.F.1.8 3 8 7 8 9 -.7 2 2 2 3 y y.p.t.t.p / R.8X4XoX5X5XxXLXBXBXZXZXSXNXpX9X9XeXbXMXvXhXbXBXBXeX@X,XwX#X9XbXyXbXKXCXHXKXKXKXKXKXHXHXLXHXCXiXD @ e k m C C C Z Z a f s s p ^ ^ ^ ^ / y.i.i.u.h.Z.S.C.A.A.A.A.A.A.C.b.OX#X@X}.{.[.+XqXZXGXLXHXCXZXkXNXjXaXaXdXZXGXZXsXqXqXwXqX9X9XwXaXwXtXaXqX0XwXqX=X0XdXkXqXrXdXdXwXuX9X'.b.3.d.s.k.k.u.i.D.>.8 7 7 7 6 6 8 8 8 7 3 3 8 y p.i./ y.u.:.s.l.J.m.'.'.}.pX}.1X*X<X<XaXCXBXNXGXKXKXCXsXtXbXBXbXbXBXCXBXsXbXBXCXnXsXtXyXtXtXnXGXFXFXKXKXKXKXKXKXHXmXvXuXj + e e e N N a t t f p s p ^ ^ / / s d s.j.j.v.j.v.v.v.v.v.v.x.'.[.].o.].|.+X+X-XpXpX-X<XpXpXeX=X>XqXaXNXGXBXhXbXFXKXKXmXhXbXFX",
"kXZXZXaXeXlXlXrXaX0XlXlXkXVXdXjXkXVXdXVXNXaXNXkXeXhXZXGXKXtXX.F E E G G b b F J v h h h N V 3.j.2.u.D.p.p.a.p.a.a.a.a.a.p.p.i.u.a 5.J.b.7.oXuXLXCXZXGXHXGXZXNXbXBXbXdXeX0XdXlXlXVXZXpX>XjXAXAXAXSXAXAXCXnXMXcXcXDXJXJXDXJXKXLXMX7X4X.XXXXX4XP.P.L.L.R.Z.R.!.Y.R.R.oXy i ;.;.;.;.i i i i i ;.<.<.y <.p.U.U.U.U.k.s.T.4XXXoX5XDXuX#XyXCXbXhXCXHXCXGXCXGXAXZXCXZXAXZXHXZXrX0XhXBXBXKXKXKXKXKXKXKXKXKXKXKXKXKXKXHXAXW E Q l : z g g j C H C 7.v.d.a :.k.N.a.a.k.k.k.U.U.k.U.N.k.k.d T.H.!.P.P.Q.I.J.b.$XPXDXPXFXbXGXCXHXHXNXbXNXGXHXLXDXMXvXCXKXCXaXNXlXjXjXNXNXhXyXeXjXqX=X0XaXdXZXKXjX#X).'.`.(.` m.oX%XM.M.M.c.m.J.F.4 3 8 3 7 9 8 2 2 8 8 4 <.p.t.t.y.y.k.4X8XJ.b.XX$XuXGXBXBXbXAXHXAXjXqX0XpXbXtXuXwXyXCXZXdX>X0XaX=X=XwX#X9XnXCXGXHXHXGXHXKXKXHXHXKXHXiXD @ e M C C V N V Z Z s s s s ^ ^ ^ ^ / y.i.i.u.h.D.S.A.A.A.A.A.A.A.C.b.$X#X#X+X[. X@XqXZXCXFXHXGXNXyXaXdXeX>XeXZXGXjXwX9XwXsXwX9X9X,X9X=X=X9X=X=X>X<XwXrXaXdXaXkXkXeXqX9X#Xb.m.v.d.s.h.k.u.i.Z.4.y 8 8 8 7 7 8 8 3 3 4 4 4 p i.i.p / h.:.s.H.XX_.'.`.=XSX|.-X@X1X<XlXsXwX9XyXGXKXHXBXyXnXBXbXhXNXGXGXGXBXbXsXsXbXbXbXnXwXyXNXbXnXGXCXKXKXKXKXCXyXwXiXj + e h u N N V f f f p s s / ^ / / d u.s.j.v.v.v.j.j.C.F.v.v.x._.}.[.o.].|.+X+X-XpXqX*X-X0X0X>XqX0XwXbXKXKXbX9X9XBXKXKXCXGXGXBX",
"pXfXdXkXzXzXkXdXkXdXkXlXjXlXVXjXVXpXqXaXNXVXNXjXeXjXNXHXHX=XW F E b E E b b G X.D e h N m C 3.3.:.u.p.p.p.p.a.p.a.a.a.p.p.p.p.k.j.F.G.v.9._.iXKXCXBXZXAXGXGXCXBXBXHXNXeXaXeXqXNXHX=X+XjXHXSXVXHXAXSXSXNXnXmXPXDXLXJXJXJXLXHXLXLX9XH 8.XXoX4XG.XXF.4X!.j.R.R.Y.T.T.Y.:.y <.>.;.;.>.i 9 i ;.;.<.<.y >.D.U.U.U.k.k.j.oX4XXXb.$XMXbXhXNXNXjXNXAXHXZXZXAXAXSXlXSXAXZXAXHXSXeX,X>XhXSXHXHXKXKXKXLXJXKXKXKXKXKXKXLXHXHXo.Q R : g l - k B K 7.7.8.b.7.Z :.k.U.k.a.U.U.k.U.i.k.N.Y.l.d 2.T.P.P.P.I.L.L.J.x.5XDXLXKXLXtXsXNXAXNXaXnXHXHXFXMXDXJXFXPXnXhXaXjXAXNXNXjXjXZXnXkXgX0X,X,XeXsXtX=X9XqX(.'.`.'.8.z.m.oX%XM.M.M.m.J.F.6.y 3 3 8 9 8 2 7 8 8 <.i.y.t.i.s s R.4XXXG..X.XXXxXKXLXCXnXSXHXlXZXVX0XqXtX9X9X9X9XhXAXSXdX0XaXrXyXnXwX#XwXHXGXHXHXKXHXHXHXKXKXKXKX9Xj @ k M M C C C 1.2.2.d s s / ^ ^ ^ / y.i.i.u.u.k.Z.S.A.A.A.A.A.A.A.A.b.OX#X#X|.|.|.*X0XSXHXCXmXBXZXaXNXrX>XeXZXHXNXdXwX>X#XwXqX9XtX#X=X*X@X=X>X0X0XwXeXkXlXdXaXkXkXaXwX9X$X.X3.v.2.h.h.s.u.h.k.V.>.;.8 7 7 8 8 8 3 3 4 y :.u.u./ / / d h.H.R.J._._.`.9XNX[.-X*X1X1XzXnXhXtXtXbXGXGXBXBXnXBXGXGXNXbXnXnXBXBXbXbXnXnXbXGXhX9X,XtXBXKXKXKXKXFXKXGXMXFXPXD + e h m V V V f p p s p p s ( / s d s.d.j.v.v.v.C.C.C.F.F.v.b.x.}.).).].}.@X+XqXeXqX<X<X<X>X=X=X0XeXtXaXhXnXnXtXbXHXKXHXGXKXHX",
"2X2XpXfXzXzXzXfXlXfXpXkXjXlXVXdXdXpXqXdXNXNXbXjXeXjXBXHXGX=XW F G b G G b v G J D e h N m 3.5.j.:.u.k.p.p.a.a.a.a.a.a.p.p.p.p.h.j.F.J.G.b.XXiXKXCXCXCXGXHXHXZXCXKXaXdXZXdXeXaXeX=X,XdXAXAXAXAXSXzXkXkXnXCXCXFXHXLXFXCXCXAXHXAXAX0XJ J /.`.$XG.G.J.3.j.1.a T.8XR.R.4XR.y y <.,.>.;.y y ;.>.>.<.<.<.p.U.U.k.U.Y.H.oX4X4XXX_.#XPXbXZXAXAXVXVXAXAXSXlXSXSXSXSXSXSXSXlXSXSXlXaXrX0X0XnXGXKXLXLXKXKXJXKXKXKXKXKXKXHXHXX.E b : l v g j B K 7.0.8.b.z.Z s.k.k.k.a.U.U.U.U.k.U.k.k.l.d Z.T.P.Q.L.L.I.L.J.b.$XcXDXFXFXtXtXNXjXwX>XtXbXbXvXgXPXLXFXmXmXbXhX0XaXaXNXjXeXjXjXnXhXuXwXwXuXwX9X#XwXuX/.8.x.x.x.7.v.m.m.m.m..X.X.XJ.J.5.1.9 3 3 ;.8 8 y <.<.p.p.i.p / T.8XXXG.I.XX.XXXiXDXmXnXsXrXAXAXZXlXyXbXnXqX9X9X9XaXNXlXpXdXNXeXwXjXsX9XyXCXAXHXKXKXKXKXKXHXKXKXKX9Xj @ e m M C C 6.1.2.2.d s s / / ^ ^ y./ i.i.u.u.V.D.S.A.A.A.A.A.A.A.A.G.oX7X,X@X|.*X*X0XSXHXHXFXFXKXBXNXdXdXZXHXNXtXeX9X9X9XnXtXOX#X9X#X#X=XqXpXeXqX0XaXjXlXkXdXaXpXrXwX9X$X.X3.v.2.j.d :.h.h.h.h.:.>.<.8 4 3 3 3 4 4 y a :.u.( ( ( ( s.j.P.J..X.X_.'.=XjX[.=X1X<X<XNXAXBXsXyXbXGXKXHXBXNXBXGXGXBXnXnXbXnXNXbXbXbXhXyXnXbXbXbXBXHXKXGXGXKXLXKXKXLXKXLXK e e m m V V V f f f f s s s / ( ( ( s.j.v.v.v.F.C.C.C.F.F.v.b.x.OX`.).].}.@X+X>X0XeXqX0XqXqX0XaXaXsXhXsXwXwXyXvXBXKXKXKXKXKXKX",
"fX2X2XfXzXzXzXfXpXpXzXlXfXdXSXSXaXrXrXdXlXlXjXaXeXbXZXHXGX#XW G b b G G v v G K B e h V N 3.j.j.s.u.h.D.p.p.a.a.a.a.a.p.a.a.p.i.C.H.P.J.m.XXiXJXFXCXCXGXHXHXGXGXHXbXVXBXdXjXdX@X@XeXHXHXZXNXNXkXkXdXkXjXCXCXCXCXFXnXhXnXZXAXAXSX<XE G J r.XXb.b.3.e V i O a T.R.Y.!.!.h.<.y y ;.;.y 8 y y y y y i.D.U.U.N.Z.k.2.T.oXXXXXoXiXKXnXGXHXHXZXVXSXSXlXlXlXlXSXAXAXSXSXZXZXVXzXaXpXeXrXrXnXKXKXLXLXKXKXHXHXKXKXKXKXHXAXX.E b : l v g j B H 7.7.8.b.z.3.2.k.k.k.a.a.U.U.U.k.R.i.k.N.f Y.T.P.Q.L.P.I.L.J.b.$XcXDXPXFXhXyXkXeX=X=XeXsXyXyXMXFXKXKXBXbXvXsXwXtXaXNXdX,XrXjXnXgXyXhXbXyX9X,X9XuXuX/.7.8.8.7.z.v.v.M.m.m._.m.b.m.J.XXP.F.1.i 4 4 4 y >.i.i.i.s u.4X8X4XI.XXXXXX.X.XiXPXvXhXyX>XkXkXzXkXrXeXyXhXsXwXwXaXlXjXrXpXVXaX>XsXnXyXtXyXkXnXnXCXHXKXHXHXHXKXKX9Xj @ e h m V C A 1.2.2.:.d s / / / / y.u.u.u.:.u.D.S.A.A.A.E.E.A.A.A.A.v.oX7X9X=X*X|.*X<XlXCXFXCXBXKXHXjXjXCXHXZXyX9X0X=XwXtXNXsX+X#XeX#X=X0XaXdXdXqX0XpXaXkXlXkXpXrXeXwXuX7Xm.V j.5.j.2.:.d :.h.k.k.h.4.>.i y 4 4 i a 2.2.s.( d ( ( s.l.H.P.J..X.X_.'.$XyX[.+X1X<X,XlXGXBXsXtXyXNXHXKXCXBXCXGXGXBXnXNXnXNXnXbXbXbXbXsXbXCXGXGXBXnXhXsXvXFXFXKXKXLXKXPXB 5 e m m V V 1.:.f f f s s s f d ( _ s.j.v.F.F.v.F.C.C.F.F.v.b.x.OX[.).[. X@X@X-XqXfXdXpXpXeXqXdXeXaXbXbXtXyXBXFXLXKXKXKXKXKXLX",
"zXzXzXzXlXSXlXzXpXzXSXSXpXqXlXZXjXaXeXpXjXkXaXqXaXNXAXHXBX@XJ G b b T G v F J K j e m V V 3.j.j.h.u.h.D.p.p.a.a.a.a.p.p.a.a.p.i.C.H.P.J.b..X7XLXFXCXGXHXKXKXHXGXbXHXGXdXNXlX0X,XnXyXjXHXZXjXjXjXNXkXjXNXCXCXCXCXZXnXhXjXZXAXAXSX<XQ E G J /.7.v.v.v.J.F.1.a s.4XR.T.!.R.D.<.y y i y 9 9 y y >.V.Z.Z.Z.Y.k.d a 2.J.I..XXX$XuXKXhXZXAXZXNXlXlXjXdXlXjXlXAXAXAXSXZXHXAXlXdXdXlXSXSXaXaXjXGXKXKXKXKXHXHXKXKXKXKXHXAXX.T b : l v g B C 7.7.7.b.b.v.d.2.s.k.U.k.a.U.U.U.k.U.k.U.l.a H.L.Q.Q.W.P.P.L.J.b.oXcXJXmXBXbXdXpX>X*X>XdXjXaXhXLXKXKXGXBXMXyXwXnXbXdXbXaX>XeXjXnXyXyXbXCXhXwX9XuXMXcX'.8.x.8.7.v.v.v.v.v.m.m.m..Xm.m.J.XXXXP.F.i a >.h.V.i.>.>.k.T.8X8XJ.I.6XXXXX.X.X7XcXgXbXjXyX,X|.<XdX0X,XwXGXBXhXsXjXjXaX<X=XkXjX0XsXBXhXwXwXyXsXsXnXKXKXHXKXKXKXKXiXB + h h m V C 6.1.2.2.2.:.d ( / / / u.u.u.u.u.h.A.S.S.A.E.E.A.A.A.A.A.v..X#X9X,X*X|.|.<XjXNXCXbXhXGXGXNXSXZXNXdXaXtXeX=XtXtXwXtXqX9XeXqX0XqXaXaXeXqXwXeXeXaXNXNXkXkXVXtXIXiXb.V j.j.j.C.4.a f :.k.k.h.h.j.j.4.1.1.2.3.2.2.Z d d _ f.l.H.P.P.J..XXX.X'.$XyX}.}.=X,X*XzXNXnXsXtXyXnXGXKXGXGXGXGXGXBXBXnXnXnXbXsXyXsXbXNXNXCXGXnXsXtXwX0XyXFXFXKXKXKXKXMXB 5 h M m V V 2.2.d f f s d s s d d s.d.j.v.F.F.F.F.C.C.F.F.F.v.x.OX}.).[.|.*X@X=XeXdXdXdXeXqXeXqX9X9XyXbXBXHXKXKXKXLXFXFXLXLXmX",
"SXSXSXSXSXlXlXlXzXlXZXSXpXqXdXlXVXdXpXrXaXkXaXqXaXNXGXHXNX+XJ G T T T b v G J K h e m V V 5.5.j.h.s.h.k.p.p.a.p.a.a.a.p.a.D.p.u.S.H.P.J.b..X7XDXLXLXGXHXKXKXKXHXZXAXNXBXBX0X,XAXZXwXeXCXHXCXCXHXCXnXjXnXCXCXZXGXHXnXhXnXAXAXAXSX<XT E X.J J C v.v.j.5.j.H.:.y s.Y.4X4XR.Y.S.h.>.4 4 i i 1.2.Z.T.Y.H.Z.f.f w 2.4XP.XXXXoXOXiXFXhXCXZXVXNXkXdXaXeXkXaXdXSXAXZXZXAXSXZXSXlXlXSXAXAXHXkX0X9XbXKXKXFXKXKXKXLXFXCXGXHXX.T c : l z g B C 7.7.7.b.b.v.v.d s.k.U.U.a.a.U.U.U.k.U.Y.d :.R.L.W.Q.Q.P.L.L.J.b.oXcXJXMXbXhXaX>X=X*X>XaXdXhXGXFXmXmXBXBXbXyXwXnXnXyXsXsXaXjXhXFXvXhXCXGXBXhXgXgXPXMX'.K H 7.7.5.j.j.j.v.G.J..X.Xm.m.m.J.J.J.J.d.d.s.s.:.:.h.R.8X8XoXT.4XP.K.I.XX.X.X5XxXuXnXnXaX@X[.*XdXdXtXnXGXCXNXnXlXjXqX=X@XaXjXeXaXNXBXsX0XwXrXwXbXHXKXHXKXKXLXKX9XD + h h m V C 6.1.2.2.s.:.d ( ( / / u.u.u.u.u.D.S.S.A.A.E.A.E.A.A.S.A.v.XX$X9X,X*X&X*XrXVXCXGXmXbXGXGXAXHXNX0X0XnXGXNX=XtXtX9XeXtX9X0XsXtXtXaXaXtXtXaXaXwXaXNXNXkXjXAXsXvXiXv.a 4.V.V.C.C.j.:.d d u.h.s.j.j.j.j.3.3.Z Z Z Z _ g.n.Y.R.P.P.P.J..X.X.X_.#XuX+XOX=X,X=XlXBXBXNXbXbXBXGXGXHXKXKXHXGXFXBXnXhXbXbXyXqX0XyXbXBXBXNXbXvXsXsXtXyXFXLXKXKXKXKXMXK e m C V V V 1.2.2.Z d d d d d d _ s.d.j.v.F.F.F.F.C.C.Z.C.F.v.b.OX}.).[. X@X@X>XeXdXdXaXqXeXaXtXeX9X9XsXGXKXKXGXFXMXbXmXLXFXmX",
"AXAXAXAXNXlXlXlXlXdXdXdXfXdXlXlXSXjXpXqXpXdXdXeXjXZXGXHXnX+XG F b b b v v G J B h e N N 1.5.3.j.j.s.h.D.p.p.a.p.a.a.a.p.p.D.D.h.L.L.P.J.b._.7XJXKXHXHXHXKXKXKXHXKXBXHXZX>X,XjXSXhXhXNXHXHXHXHXCXCXnXjXhXhXsXsXjXKXCXNXAXHXAXAXAX2XT E X.J H B 9.v.5.C.C.C.H.4.a 2.n.R.T.4X!.!.T.5.1.V 3.v.m.n.n.n.j.2.f f 2.H.4X4X6XoXXXXX5XLXFXGXGXZXBXbXdXtXwXqXwXeXjXNXSXZXHXNXVXVXkXdXjXSXAXAXAXeXOX@XbXKXKXHXKXKXLXmXmXZXHXX.T c : l z g B H 3.7.9.b.b.m.n.2.s.k.U.U.a.a.U.U.U.k.U.h.r h.!.L.W.Q.Q.Q.P.L.J.G.oXcXJXPXbXeXeX>X>X-X<XaXjXBXKXHXFXCXGXCXnXyXtXhXhXwXsXbXsXdX9XGXCXBXAXHXHXZXCXbXLXPXx.h e M 9.5.C.C.5.5.v.b.b.z.m._.%X_.m.b.z.z.A Z Z 2.h.!.8X8X4XH.H.4XP.A.Q.XXXX.X5XiXwXsXdX>X=X*X+X>XjXbXGXZXCXBXCXZXjXrX=X*XrXdXrX0XaXnXjX0X>X>X0XtXbXCXHXKXLXFXLX9XL + h h m V C 6.3.3.5.s.2.:.( ( ( ( u./ u.u.k.Z.A.A.A.A.A.E.A.A.S.S.Z.v..X$X#X@X|.&X-X<XVXZXHXCXMXGXCXCXSXaX@X=XnXHXZXwXtXnXbXaX0X=XtXsXaXsXbXbXdXaXdXyXwXwXeXeX0XeXjXhXIXiXv.>.4.V.q.C.C.j.2.:.:.s s d Z Z Z 1.3.3.3.z.z.z.n.J.J.P.P.J.P.J.J..X.X.X_.$X9X#XOX#X,X<XNXBXGXCXBXBXCXBXnXGXHXKXHXGXGXBXbXsXbXnXbXtXqXwXsXBXCXCXBXBXNXbXyX9XIXIXFXLXmXPXIXB 5 e M M V 1.6.2.2.2.Z d d d d _ s.d.j.v.F.F.F.F.F.C.C.Z.Z.F.v.b.$X%X).].}.@X@X=XqXaXdXaXeXpXdXNXnXsXwXhXKXKXCXmXMXvXvXnXGXKXFX",
"AXAXAXAXSXSXSXSXlXfXpXpXqXdXSXSXSXVXkXpXeXaXdXaXjXZXAXAXbX+XG F b b b v v G J B e u V V 3.j.5.j.Z.s.h.D.p.p.a.a.a.a.a.a.p.p.D.V.L.P.P.J.m._.7XLXKXHXHXHXKXKXKXHXHXHXHXqX@XdXHXyXnXZXKXKXCXHXKXnXGXCXCXnXsXtXtXaXKXZXZXHXHXCXCXAX2XE E X.J H C 3.5.4.L.C.4.L.L.4.Z d s.R.4XT.R.4X4X.Xb.b.m.M.z.d.d.Z a Z l.oXoXP.XX6XoXXX.X5XJXKXKXGXGXCXNXhXaXtXwXyXjXbXNXZXHXHXAXSXjXeX0XaXlXAXjXlXrX+X}.9XZXKXKXKXHXLXFXFXGXHXo.T c : l z g D H 3.7.z.b.b.b.J.j.f.k.k.U.k.U.U.U.U.U.U.:.s H.!.L.P.W.Q.Q.L.L.H.G.$XcXDXDXMX9X0X<XqXrXpXjXNXBXKXGXGXHXHXFXbXuXhXnXsXqXbXBXsXtX9XhXjXNXSXAXHXHXZXBXPXvX/.j 5 h 7.5.C.C.5.5.9.9.9.b._.%X%X%XM.z.z.:X%X.XR.n.Y.4X4XH.R.R.H.L.L.W.Q.XXXX.X5XuXiXeXqX=X<XpX*X-XdXdXVXbXnXNXZXAXVXpX<X<X<XrX0X>X9XyXsXdXeXeXeXeXeXbXKXLXFXFXLX9XL + h m m V C 6.6.5.h.j.s.s.u.( ( ( u.d u.h.Z.Z.A.A.A.A.A.A.A.A.A.S.Z.v..X$X:X@X|.&X-X<XVXZXFXBXmXCXhXrXeX0X=X,XyXNXBXtXeXZXNXtXeX0XsXtXyXbXnXbXsXtXeXwX9X>X,X,X,XqXsXuXiX7X5.>.>.q.q.C.5.5.s.j.k.u.s _ Z Z Z 2.v.v.m.J.m.m.J.J.P.J.P.J.XXXX.XJ..X.X_.oX$X#X@X#X>XwXjXNXBXnXbXnXBXBXbXNXGXHXGXGXGXBXbXbXbXnXBXbXsXsXbXCXGXGXGXCXBXbXsXwXtXuXPXFXIXIXxXB 5 e m V 6.6.6.6.3.5.2.Z Z Z d s.s.j.l.v.F.F.F.F.F.C.C.Z.Z.H.v.b.$X}.).).[.@X+X-X0XpXdXdXaXaXsXGXGXBXnXCXKXKXGXPXmXMXvXmXLXKXLX",
"AXAXSXAXAXAXAXAXZXNXjXpX-X>XdXSXZXAXSXdXeXeXaXaXNXAXZXZXbX+XG F b T T b v J J B e u V V 3.v.5.F.H.h.h.Z.D.p.a.a.a.a.a.a.p.D.D.D.L.P.P.P.G.m.7XDXKXKXHXHXHXHXHXGXNXHXtX@XwXCXCXCXKXGXHXGXCXHXKXLXGXHXHXHXCXbXbXBXHXCXGXHXCXjXnXAX<XQ E G J x.C V 5.5.K.A.V.S.C.Z.H.l.2.:.j.H.H.v.3.7.z.z.A C S Z 3.3.j.R.T.T.4X4X4X6X6X6XXX5XJXKXGXGXGXGXBXbXhXhXaXNXZXZXZXHXHXAXAXSXjXaXeXkXlXSXlX=X}.@X0X0XaXGXHXHXHXHXKXHXHXHXo.T c l z v j D H A 7.z.b.b.m.J.n.j.k.k.U.U.U.U.U.i.U.k.:.Z.R.L.L.W.Q.Q.Q.L.L.L.G.oXiXcXFXhX@X*X>XpXdXjXZXBXhXhXsXjXBXGXnXsXhXmXCXuX9XnXGXhXbXNX=XrXhXnXZXHXHXZXZXvXwX/.H m m C 4.4.4.q.q.C.F.5.3.z.M.m.%XoX7X7XMX:XoXoXm.R.T.H.P.F.P.T.K.L.Q.A.I..XXX7XIXiXeXqXqX<XfX<XfXVXdXGXaXyXhXNXSXNXaXqXaX0XwXyX0X9XwXtXhXaXtXeX=X+X9XNXGXGXLXKXiXD + k m m C C 6.6.3.5.j.h.s.s.u.( ( s.:.s.h.Z.Z.C.A.K.A.A.A.A.A.S.S.Z.v..X$X9X@X|.&X<X<XZXHXGXBXBXCXeX@X=X0XrXwXwXsXBX0X0XbXwX=XhXbXtXtXsXhXbXsXeX0X0X0X9X,X=X,X9XaXnXyXiX7X3.1.>.q.q.q.C.C.C.h.h.k.k.h.l.n.j.v.v.J.J.m.m.m.J.J.J.P.XXP.XXXXJ.J..X.X_.%XOX5X#X#X9XsXjXNXbXhXsXbXCXGXCXhXBXGXGXGXGXCXbXNXIXsXhXbXbXnXCXnXFXGXFXFXFXFXCXnXMXbXKXKXvXMXMXx.h m B V 6.1.1.6.5.5.3.Z Z Z Z Z d.j.n.v.v.F.F.F.F.C.C.S.Z.H.v.b.$X}.).).].+X|.=X0XaXbXjXaXaXdXAXZXCXGXGXCXCXLXKXGXBXnXBXLXGXFX",
"kXNXAXSXSXAXAXAXHXkXkXlXkXrXrXzXHXAXVXkXaXpXaXdXdXNXZXGXNX+XG F v b b b b J J B e N V V 6.5.F.F.H.C.h.V.D.D.a.a.a.a.a.D.D.D.D.S.T.P.P.P.J.J.5XDXLXFXCXZXAXAXFXCXGXwX=XyXCXGXGXKXHXLXHXHXCXCXHXLXHXCXCXCXGXHXHXHXCXGXHXKXKXHXCXSXpXE E E G /.H 3.6.5.A.A.C.A.C.C.P.K.A.A.A.C.j.5.V V 3.v.v.F.L.L.T.XX4X4X4X4X4X4X4X4XXXoXoX7XJXJXKXNXNXHXZXaXwXaXjXjXNXNXZXZXZXNXSXSXjXpXrXaXzXlXkX<X|.+XaXSXjXeXNXHXKXCXbXHXHXAX).b b l v j j B H 7.z.b.b.b.G.G.P.H.l.k.k.U.U.U.N.Y.k.u.Z.L.L.Q.Q.Q.Q.Q.Q.W.L.L.J.5X7X7XwXeX<X>X0XaXbXbXbXhXaXeXtXsXjXnXnXhXyXtXbXhXwXbXGXCXCXhX=X9XhXFXFXGXGXZXBXbXtX%X7.m e V 1.4.4.q.V.C.V.V.C.C.j.j.v.J.7XxX7X%X_..XJ.P.P.P.P.L.L.L.P.Q.L.P.P.G.G.7XDXgXtXdXlXzXfXkXlXlXNXZXyXyXwXyXGXCXqX=X0X9XwXsXCX9XNXBXvXvXtX=X#X9XyXbXbXGXHXFXvXJ @ h m m V C 6.3.5.5.j.4.h.j.s.d u.u.:.h.Z.C.S.S.S.E.E.E.E.A.A.A.A.C.v._.$X9X,X@X-XpXpXVXZXbXKXBX9XqX,X>XrX,XrX,X0XeX=XaXtX>XeXbXbXaXwXyXsXaXwX0X9X0X,X=X=X,XwXdXjXsXuXIX7Xv.i >.4.,.q.q.q.q.A.A.A.A.A.Z.F.F.G.v.v.J.m.m.m.J.J.J.P.P.P.P.J.J..X.X.X_._.OX#X=X,X=XqXBXjXaXeXaXjXjXjXaXsXhXNXZXGXGXBXbXIXbXBXBXdXbXnXhXmXCXLXHXbXyXMXKXCXCXGXKXKXPXPXDX_.e e C N N V 3.6.5.v.7.A A A A A z.z.v.F.F.K.q.C.C.Z.S.C.C.F.G.b.OX#X[.].[.|.|.+X0XsXbXaX9X0XNXAXNXHXZXhXnXFXhXKXNXaXbXHXBXbXGX",
"zXzXzXSXSXAXAXZXSXjXlXAXSXeXrXkXSXZXZXZXNXjXdXyXlXZXHXHXVX+XF b b b T b F W ` B e u V 2.4.5.F.F.K.F.C.h.D.U.U.p.a.a.D.U.D.D.Z.L.!.P.P.P.J.J.5XDXLXHXHXZXAXHXHXLXyXtXtXbXGXKXKXHXKXHXHXHXCXFXHXLXHXCXCXCXGXHXHXHXGXGXHXHXHXHXGXAXfXQ Q E G X.K C 3.5.C.A.A.A.A.A.W.K.A.A.S.K.K.F.3.3.v.J.P.!.!.!.4X4X4X4X4X4X4X!.4X!.XXoXoX7XDXKXHXNXNXAXSXjXdXjXeXeXaXjXNXNXNXlXVXVXlXpXpXkXzXzXkX<X+X@XkXZXVXjXjXSXHXHXFXCXAXAX].b b l F v j B H 7.z.b.b.b.G.J.P.J.H.h.k.U.U.U.N.N.k.h.Z.L.W.W.Q.Q.Q.Q.W.W.L.L.G.oX%XOXeXVX0X+X0XBXKXvXtXhXbXtXsXhXhXhXyXwXqXqXhXhXwXyXhXhXCXbXwXwXvXFXKXKXKXGXVXbXdXOX7.m i >.>.>.,.q.q.V.V.V.V.V.C.C.j.F.XX5X7X_..X.XXXP.P.P.L.L.L.L.Q.Q.P.P.P.J.J.7XDXuXyXNXZXlXlXlXVXlXjXNXGXCXbXbXFXCXwX#XqX9XtXbXKXbXFXFXmXmXuX9X#X9XyXaXyXnXCXPXMX/.+ k m m V C 6.6.5.5.j.j.C.j.2.s.s.f h.Z.Z.C.A.A.S.W.E.E.E.E.A.A.A.C.n._.$XwX<X*X1XpXjXHXKXBXGXbX*X=X=X=X>X@X,X+X#X,X>XeXqX>XtXjXdXeXyXaXdXeXqX0XwXeX,X=X=X>XwXdXjXsXsXxX5X7.i 1.4.V.q.q.q.q.A.A.A.A.A.S.A.K.G.9.9.m._.m.J.J.J.J.P.P.P.P.P.J..X.X.X_.%XOX#X#X=X9XwXBXNXjXdXdXjXjXdXeXjXjXbXNXGXHXGXBXmXIXaXwXqXtXsXwXnXnXLXHXmXsXbXKXNXsXhXFXFXvXIXDX.Xh e V V V V 3.3.5.5.3.3.H B h N H v.v.v.C.C.K.C.C.Z.C.C.F.F.G.b.OX$X[.).].|.{.+XqXdXdXaXaXdXVXHXZXHXAXjXnXCXjXNXSXNXbXnXvXbXLX",
"kXpXpXlXAXAXZXZXVXNXSXSXlXeXrXpXNXVXAXHXHXSXjXhXNXHXHXHXNX|.F v G G E b F W ` D e u Z 2.5.C.F.F.F.H.Z.h.h.U.U.p.a.D.U.U.D.V.Z.T.!.P.P.P.J.J.7XDXDXCXZXSXAXHXCXuX9XhXBXnXBXKXKXFXKXHXKXKXCXFXKXLXKXGXCXCXHXHXHXHXHXHXGXCXCXGXHXHXfXQ E E G ` B m 6.5.C.A.A.A.A.A.A.A.S.S.S.L.L.L.j.1.5.XX4X4X4X4X4X4X4X4X4X4X4X!.!.!.4X4XoX7XDXKXHXAXZXSXSXVXNXNXdXaXdXlXSXVXNXZXlXjXaXrXrXpXdXzXlXrX*X1XjXSXVXZXkXyXhXHXKXCXSXAX Xb v l F j j B H 7.z.b.b.b.G.J.J.T.H.j.h.Y.U.N.Y.k.s.k.L.!.!.W.Q.W.W.Q.W.W.L.L.G.oXOXOXyXSXeX*XdXGXFXuXtXNXZXhXjXjXhXtX0X>X9X0XyXbXyXhXyXyXCXFXbXuXuXmXLXKXKXZXbXbXbX$X7.m e ;.>.>.,.,.q.q.q.q.q.q.V.C.5.5.F.J.5Xb..XXXXXT.L.P.L.L.L.L.Q.Q.P.P.J.J..X7XPXuXvXZXlXlXVXSXSXVXZXZXKXFXBXmXCXCXnXwXbXyXNXbXKXKXGXGXKXKXCXtXwXjXlXkXrXaXhXnXvX/.+ h m N V 6.3.3.5.5.F.j.F.v.d.s.s.d l.Z.Z.C.S.A.A.W.E.E.E.E.A.A.A.K.v._.$X9X<X*X-XpXdXBXGXhXbXaX@X=X,X,X,X@X>X@X#X=XeXyXwXqXaXaXqX0XyXdXkXaXeXwXeXaX,X,X,X0XwXaXsXsXaXIX7X9.i >.4.4.q.q.q.q.A.A.A.A.A.S.A.K.G.v.9.b._.m.J.J.J.P.P.P.P.P.P.J..X.X.X_.%XOXOX$X=X9XeXNXAXVXjXaXaXaXaXyXbXjXhXbXBXHXGXZXmXsXwXtXaXdXsXyXkXjXAXHXZXnXCXKXHXjXjXGXFXuXiXcX_.h u N V 6.3.3.3.5.3.3.A C N u N A b.n.v.C.K.H.j.j.F.F.F.F.F.G.m.OX$X[.).].{.{.*XaXlXeXaXVXVXjXSXlXlXzXaXdXkXrX>XpXpXqXaXbXNXCX",
"lXpXrXlXAXAXZXAXAXAXSXjXhXeXpXkXkXbXVXAXHXAXCXBXNXHXHXHXbX}.F F G b b b b J J B e N Z 5.j.F.F.F.F.H.L.C.h.D.D.D.p.D.U.D.h.h.Z.T.T.P.P.P.P.P.7XDXFXmXNXAXHXBXwX#XyXBXGXbXvXFXKXGXKXHXKXKXFXFXKXHXKXHXGXGXHXKXKXHXHXGXCXCXCXCXHXHXdXo.E E G J B m 6.5.C.A.A.A.A.A.A.K.S.A.A.S.K.L.5.V 3.oX4X4X4X4X4X4X4X4X4X!.!.!.!.!.4X4XoX5XDXKXKXHXHXAXZXZXSXNXSXjXjXZXHXZXSXAXSXjXrX<X<XpXzXzXSXdX<X2XzXkXkXSXlXrX9XhXKXHXAXAX|.b z l F j h B 7.z.v.b.b.G.G.J.J.T.T.F.j.Z.Z.Y.R.h.h.H.L.!.!.W.Q.Q.Q.Q.Q.W.L.L.G.7XxX9XwXaXdXdXNXtX9X9XsXBXBXNXnXjXsXtXqX0X0XqXwXnXbXmXbXbXHXKXHXbXvXmXFXKXKXBXjXbXbX$XC e e a >.>.,.q.q.q.V.q.q.q.V.C.C.5.F.G.4XG..XXXP.Q.L.W.W.W.L.W.Q.Q.P.I.G.J..X7XPXvXbXNXpXaXkXlXNXZXHXKXHXmXBXmXhXCXKXnXCXnXHXNXBXHXNXBXCXHXCXeXeXlXlXpXaXkXnXmXIX'.+ h N V V 1.3.5.5.5.F.5.v.J.v.Z Z s.j.l.l.Z.L.S.A.W.E.E.E.E.E.A.A.K.v._.OX,X,X*X-X<XlXVXBXsXhXhX>XwX>X=X=X#XeX>X9X0XsXtXwXwXtXqX=X>XrXaXjXNXjXaXwXqX9X>X,X0XwXwXwXeX9XMXxXb.u >.>.>.q.q.q.A.A.A.A.A.S.S.A.K.G.v.9.b.J.J.J.J.J.P.P.P.P.P.P.P.J..X.X_.OX$X$XOX#X,XwXhXAXNXaXrXqXwXyXaXhXhXsXhXBXGXCXbXsXaXaXsXsXqX>X>X=X>XrXaXyXrXyXjXVXdXaXsXyX9X#X7Xx.h m N V 6.6.3.3.d.z.d.S N N S _ d.d.g.n.Z.C.j.j.v.F.F.F.F.G.b.b.%XOX}.).].[.{.}.=X=X|.|.-X*X|.&X|.|.|.}.}.[.].{.{.[.@XaXHXGXBX",
"NXkXkXSXHXSXZXHXKXHXAXSXzXjXNXSXaXdXjXCXHXHXHXCXCXHXAXZXjX}.G G b b b b F W J j h N Z j.C.F.F.F.F.F.L.L.Z.h.h.U.k.k.D.D.h.V.L.T.T.P.P.P.P.P.8XDXJXCXAXHXSXrX,X9XCXZXCXBXnXBXGXHXKXHXKXKXCXLXKXHXKXHXGXGXHXKXHXHXCXCXCXCXCXCXGXAXdXo.E E G ` H u 1.4.q.A.A.A.A.A.A.A.E.E.A.A.A.L.5.V 5.4X4X4X!.4X4X4X!.!.!.!.!.!.!.!.4X4XXX5XDXJXFXHXHXAXAXAXSXlXNXjXjXZXAXZXZXZXZXlXpXrXpXkXzXlXSXkXrXrXaXrXrXkXjXaXwXeXhXAXHXAX*Xb z l b j j K 7.z.v.b.b.G.G.J.J.J.T.P.n.d.l.R.Y.j.Z.R.L.L.!.W.W.W.W.W.W.W.P.L.G.7XPXuXwXpXkXAXsX9X@X#XtXbXNXbXNXjXaXaXaXyXwX0XeXbXbXnXmXBXKXKXKXCXBXLXLXKXKXGXNXnXBX$Xj 5 e a 4.>.q.q.q.q.q.q.q.q.V.V.V.C.F.J.4XP.XXP.P.Q.W.Q.Q.W.W.W.Q.Q.P.P.b._._.7XDXMXjXhXeXaXaXyXsXnXFXKXHXFXFXbXwXbXKXGXbXnXHXZXNXAXjXNXAXHXSXjXkXAXSXkXZXSXZXCXuX'.5 h N V V 2.3.5.5.5.v.3.v.J.z.N N d.s.j.h.j.S.S.A.S.E.E.E.E.E.E.E.K.m._.OX#X=X*X-X2XfXdXNXsXsXsX0XwX>X@X@X#XjXyXyXeXhXyXwXwXeX,X=XrXwXaXjXNXjXaXqX>XeX0X>X0XwX0X>X>X=XIXcX9.e a 4.4.q.q.q.A.A.V.A.A.S.S.D.A.F.v.9.b.J.J.J.J.P.P.P.P.P.L.P.P.J..X.X_.5X7X#XOX+X#X0XhXjXdXeXqXqXwXeXeXeXtXaXhXBXGXBXIXtXsXsXaX>X).E ).X.o.o.].].].}.}.|.|.|.}.OXOX%X_.B e m V V 6.1.3.d.d._ Z f f Z _ d.d.s.s.j.l.l.h.n.v.F.F.F.G.G.b.x.`.OX}.).o.].].o.].o.o.o.o.o...o.....E ....E ..o.E E [.dXHXGXCX",
"SXlXSXAXHXZXZXHXBXSXZXSXSXSXSXAXwXeXdXNXAXHXHXCXAXHXAXCXjX}.G G G G E G G W J j h N Z j.C.F.F.K.I.F.L.P.Z.h.h.U.D.Z.Z.Z.Z.L.T.!.XXP.P.P.P.P.8XJXFXGXHXSX0X@X0XGXHXCXCXHXHXGXGXKXKXHXKXKXCXFXHXGXKXHXCXCXHXHXHXHXCXCXCXCXCXCXCXSXdX].E E G ` H m V 4.q.A.A.A.A.A.A.A.E.E.E.A.L.L.5.1.v.4X6X4X!.4X4X!.!.!.!.!.!.!.!.!.!.4XXX5XDXJXnXSXZXAXHXHXAXSXjXjXjXNXZXAXZXVXlXdXpXpXzXzXpXpXzXpX2XrXpXrX<XpXaXlXlXyX0XyXAXAX*XE b l F j j H 7.z.v.b.G.G.J.J.J.J.J.T.H.d.j.Y.H.H.L.T.L.L.W.W.W.W.W.W.W.W.P.P.J.7XxXiXhXVXVXZX0XeXwX,X9XbXBXjXNXkXaXaXjXjXyX0XyXnXsXsXbXBXKXKXGXbXmXFXLXKXKXKXGXZXGX$Xh 5 e a >.>.,.,.q.q.q.q.q.q.q.V.V.V.C.K.4XP.4XQ.P.Q.Q.W.W.W.W.W.P.P.P.I.m.'.'.7XFXCXnXaXeXeXwX9XwXhXCXHXFXHXLXbXuXbXHXHXjXNXAXAXVXAXlXSXAXHXAXSXSXAXSXzXAXVXNXhX9Xr.5 h N V Z 2.3.5.5.j.5.v.G.v.V N N N d.f.s.2.j.C.A.S.S.E.E.E.E.E.E.K.b._.OX@X+X|.-X<X<XqXNXnXjXjXyXeX0X#X#X9XCXjXjXjXSXNXkXhXaX>X,XeXsXdXjXhXaXrXrXqXdXwX0XwXrX,X=X#XUXIXiX7.e i >.1.4.q.q.q.q.q.A.A.D.S.D.C.K.9.9.G.J.J.J.J.P.P.P.P.P.L.P.P.J..X.X_.iXiX#X}.}.@X9XhXyXrXwXwXeXeXwX0X9XwXaXbXBXGXZXbXsXbXsXeX@Xb g G G G T E E E O.O.E o.X.X.X.(.` B h e N V V 6.1.2.d.Z t f f d d ( s.s.k.k.h.h.Z.R.H.F.F.F.F.G.G.b.'.%X+X}.].+.o.+.....Q ..o.o...+.............Q ..Q E E }.pXNXBXGX",
"SXSXAXAXHXHXGXZXjXjXjXSXZXSXlXSXaXyXyXhXnXCXHXCXHXHXCXAXNX+XJ G E E E G F W J j m N V 5.C.F.F.K.I.F.I.P.L.Z.h.Z.Z.Z.Z.Z.H.T.!.!.oXP.P.P.P.XX8XJXFXCXjX<X@X=XhXKXGXZXZXHXHXGXGXKXKXGXHXHXCXCXHXLXHXGXCXCXGXHXGXAXCXCXCXGXGXGXCXZXkX].G W G ` 8.m V 6.q.A.A.A.A.A.A.A.E.E.E.E.L.L.5.6.F.4X4X4X!.4X!.!.!.!.!.!.!.!.!.!.!.oXXX5XDXJXmXNXNXAXHXHXAXAXkXjXNXNXZXHXSXkXdXrXrXpXzXzXpX2X2XpX2X<XpXpX2XpXfXSXAXjX0X0XaXNX|.E T l F v B H z.v.b.G.G.G.J.J.J.J.J.XXJ.n.j.v.H.P.P.L.L.W.W.W.!.!.W.W.W.Q.P.P.XX7XxXIXCXVXjXVXwXsXvXyXsXNXBXlXkXaXpXdXjXjXhXyXhXNXhXhXbXCXKXGXGXbXMXmXPXKXKXKXKXGXKX#Xk 5 e u 1.>.,.,.,.,.,.,.q.q.q.q.C.V.C.K.6XP.4XQ.W.Q.W.W.W.W.W.P.P.P.P.J._.'.'.#XmXGXCXhXeXeX0X9XiXvXPXLXMXHXCXhXbXFXGXZXSXkX*X>X,X<X<X1X*X@X@X*X*X*X*X*X1X@X*X@X[.D 5 h N V Z 3.3.5.j.j.j.v.n.d.N N S u d.l.f.2.j.S.S.S.S.S.E.E.E.E.E.K.v._.OX+X|. X&X-X<XqXNXjXkXjXkXdX0X=X=X9XbXwXwXyXjXjXkXkXkXeXrXsXjXhXsXeXwXwXeXeXdXaXaXaXqX=X@X=XwXtXiX$Xb.3.V >.1.4.q.q.q.q.A.A.D.D.D.A.F.5.5.v.J.J.J.J.P.P.P.P.P.L.P.P.J.J..X.X9XiX#X@X=XqXsXNXbXyXqX0XwXtXtXwXwXtXsXbXNXZXGXBXbXNXsXpX=XG - G b b T T T E E E E X.X.W X.J D k e h V N 1.3.1.2.2.f r f d u.:.:.i.k.k.k.i.i.U.!.Z.Z.Z.F.F.G.G.b.'.%X@X|.].o.O.O.T T T T ..Q E o.T ..T T T R R Q Q o.o.{.0XlXVXZX",
"AXAXAXAXHXKXHXCXBXjXjXSXSXNXlXNXjXaXwXwXaXnXAXHXAXHXCXHXSX#XW G E T G b F W J j N N V 5.C.F.F.I.I.I.I.L.P.P.Z.h.Z.Z.j.j.H.4X4XT.4XP.P.P.P.XX8XJXKXCXrX+X@XdXGXFXGXGXZXBXBXCXGXHXKXGXHXHXCXCXHXLXHXAXCXCXGXGXGXCXCXCXCXGXGXGXGXHXjX[.F G G J 8.m V 6.q.C.A.A.A.A.A.E.E.E.E.E.A.K.5.6.F.4X4X4X4X!.!.!.!.!.!.!.!.!.!.!.T.oX.X5XDXJXFXVXVXAXAXAXZXAXkXVXSXlXSXHXSXyXjXrXrXpXkXzXpXpX<XpX2X<X2XpX2XpXzXSXSXlXyX<X<X2X XE T l F v B C 7.v.m.J.J.J.J.J.J.J.J.J.J.J.n.3.H.!.P.K.L.W.S.W.W.W.W.W.W.W.L.P.J.iXDXFXNXqXqXVXkXtXtXbXZXNXjXkXpXpXpXdXjXVXVXNXhXZXCXCXHXHXKXCXKXmXMXMXPXKXKXGXKXGXKX#Xk 5 e u 1.4.4.q.q.q.,.,.,.,.,.q.A.C.A.A.4XI.4XQ.Q.Q.Q.W.Q.W.L.P.P.P.P.J.'.).(.#XnXHXHXNXhXsXwX9XwXIXmXmXmXKXBXhXFXHXnXhXSX>XF G G O.O.E G G G O...E E O.O.E X.X.J j + h M V C 3.3.5.j.v.H.d.d.d.Z Z Z Z s.Y.n.h.Z.R.S.D.S.S.S.S.E.E.E.K.b.`.$X@X|. X&X-X-X*X0X,X+X@X@X@X#X+X#X#X0X+X+X=X@X,X,XwXkXjXjXNXhXdXaXeXwXeXeXaXsXdXjXjX0X@X@X=XeX9XIXDXcX8Xv.3.1.4.q.q.q.q.V.A.D.D.D.A.F.5.5.G.J.J.J.J.J.P.P.P.P.P.P.P.J..X.X_.7XiX9XwXnXHXKXKXHXbXqX,X9XtXsXhXhXbXnXbXbXBXGXGXBXNXdXaX0XE - c l c c c R T T T E E E X.X.F k + h m V u 1.j.1.2.f f p s :.:.:.u.D.i.i.i.i.i.p.U.U.U.Z.Z.F.F.G.b.x.`.+X}.o.O.E E T Q Q T Q T T ..T ..T R R , > R Q o.o.].<XAXHXNX",
"HXAXAXAXGXGXHXKXAXSXZXZXlXlXSXSXVXjXkXeXrXyXnXHXHXAXSXAXNX,XX.G E b b v G X.J h m V V 5.j.F.F.I.I.I.I.P.P.R.H.F.j.j.j.H.oX4XoXT.4X4X4XP.I.XXiXJXKX0X@X<XVXZXZXHXBXBXNXBXZXAXZXCXGXZXHXHXCXnXCXGXCXnXnXGXKXGXCXBXCXHXHXCXCXGXGXZXNX[.E J D J x.M m 6.5.C.C.A.A.A.A.A.E.E.E.E.E.K.C.1.F.4X4X4X4X!.!.!.4X4X!.!.!.!.!.4XT.XXXX5XDXDXKXAXSXVXZXHXHXHXZXAXSXlXVXAXAXNXlXlXpXrXzXlXzXzXzXpX2X2X2XfXfXfXzXAXSXNXkXaXaX<X..E E z v F D H 7.v.b.G.G.J.J.J.XXJ.J.T.J.v.Z Z H.P.P.P.Q.L.L.!.W.W.W.L.L.W.Q.L.J.7XcXMXsX<X<XpX+X}.@XeXjXeXpXkXqXpX<XdXSXZXHXjXBXBXZXHXHXLXHXKXKXGXFXDXLXJXKXKXZXKXBX`.k + e u a 1.4.4.4.q.q.q.,.q.q.q.q.A.A.C.K.Q.!.Q.Q.Q.Q.W.Q.L.P.P.P.J.G.b.OX@X>XtXhXNXAXHXHXbXtXwXyXvXcXuXMXLXKXHXFXCXnXjXjXkX; X - g n b n n F G E E E E E G W W D k k j M C 3.7.7.v.v.d.d.j.s.d d d d _ g.l.l.l.Y.!.!.!.S.S.S.S.E.E.E.K.z._.OX,X*X|.&X-X|.].(.o.o.O.X.o.X.(.(.(.o.o.o.(.).o.E }.yXjXjXnXhXeXeXeXeXaXhXaXeXyXaXeX,X@X#X9X=XaXuXuXDXxX5XoXv.9.5.w.C.q.A.A.D.D.D.A.F.F.F.G.G.J.J.J.J.J..XP.J.P.P.J..Xm._.OXuXPXPXKXKXnXKXGXHXCXbXhXsXhXvXvXsXnXnXbXhXnXCXGXCXnXNXaXrXo.% l c c c c c c b T E T b E G g k k h m N Z 2.2.:.a s s s :.>.>.i.p.p.p.p.p.i.i.i.i.a.i.N.U.Z.H.oXz.'.`.[.).O.T T E T T T T T E E E E T T T R , > R ....+.{.<XlXkXjX",
"AXAXAXAXAXCXZXHXSXSXSXSXkXdXzXkXSXSXlXkXkXkXNXAXNXSXSXAXlX*Xo.E E T b b G W K h N V 2.j.F.F.F.I.P.I.I.P.P.T.P.H.v.v.H.T.oX4XoX4XXXP.P.P.I.oX8XDXwX,X>XkXZXZXCXZXBXBXBXZXGXGXGXZXsXnXGXGXZXCXCXCXCXnXnXGXHXCXCXCXCXHXKXHXGXCXCXNXjX`.W X.J ` J m m 6.5.q.C.A.A.A.A.A.E.E.E.E.E.K.q.;.G.4X4X4X!.!.4X4X4X!.!.!.!.!.!.4XXXXX.XoXxXKXBXNXSXZXAXHXZXNXNXAXHXSXVXNXSXSXSXSXzXkXSXlXzXzXzXzXfX2X2X2X2X2XfXlXdXpX<X,X1X|.E T T l v G D H z.v.v.G.G.J.J.J.J.J.T.T.n.3.3.j.H.F.C.K.Q.L.L.W.Q.Q.Q.W.W.Q.Q.L.J.$X5X$X+X|.|.*X).o.).+X@X|.|.|.|.*X|.*X<XdXHXAXCXZXHXHXFXPXFXHXKXFXmXPXJXKXKXKXBXKXbX`.k @ + u 6.1.>.>.>.4.4.,.q.q.q.q.V.A.A.C.q.I.4X4XQ.Q.Q.Q.L.P.P.P.J.XX5X7X9XrXyXsXjXNXNXCXGXCXbXbXmXmXMXIXMXLXKXHXnXhXhXjXCXSXg X - - l l b b b b b n b b G b G G v k k B C H 7.7.7.v.v.d.2.s.d f f f f ( s.g.l.l.Y.R.!.!.!.L.S.S.S.S.S.K.b.`.#X,X-X|.&X&X].o.X.X.X.E E E W W W X.X.O.X.O.O.X.E |.kXkXaXkXwX0XwXyXeXeXeXqXaXwX=X+X+X=X0X0XeXtX=X9XxXcX7X7X5XG.9.9.5.C.A.q.V.D.S.L.K.F.v.9.J.G.H.J.J.J..XXXoXT.v.b..XoX7XcXPXLXmXGXGXBXKXHXKXGXnXbXnXnXvXyXbXnXnXnXBXGXGXCXhXaXbXlXdXo.. % - - : : l c c n b z l b G j k h h N V Z d a a f s p s :.>.>.:.i.D.D.p.p.i.i.i.i.i.i.i.U.k.Z.T.3.z.'.`.).o.E T T b b b b b b b b b b b T T R c R ....+.{.rXVXkXhX",
"HXAXAXHXHXAXZXAXSXAXAXSXzXzXzXzXSXSXAXAXAXSXSXAXSXAXAXSXpX|.X.E E E T b G W D h N V 2.j.F.F.F.I.P.I.P.P.P.T.J.J.H.H.T.oX4XoX4X4XXXP.P.XXP.oX7XcX5X0XkXZXHXAXZXHXNXNXNXNXZXAXAXSX0XjXSXnXCXHXHXHXCXCXCXGXCXBXCXGXGXHXKXHXGXCXCXCXZX).v G X./.J h m 1.6.5.q.A.A.A.A.A.E.E.E.E.E.K.q.>.F.4X4X4X!.!.4X4X!.!.4X4X4X4XP.XXXXoX$X$XiXmXnXSXAXAXZXSXZXAXSXVXVXZXZXNXlXlXSXAXSXSXzX1X X|.&X&X X X X X{.{.+.{.].].).o.+...T T T z b J K 7.z.v.v.b.G.J.J.P.J.J.J.H.j.s.j.H.H.F.C.H.!.!.L.Q.Q.P.L.Q.!.Q.Q.P.J.XX_./.X.o.o.o.W E X.o.(.o.O.....o.o.o.].=XSXHXZXHXKXKXFXMXmXFXHXCXCXFXKXKXJXFXbXZXBX9X/.k 5 e u u 1.1.6.4.>.,.q.q.q.q.V.A.A.C.F.P.4XQ.P.Q.!.Q.F.G.J.XX5X7XxXIXbXkXdXdXdXhXhXsXBXCXGXHXKXLXFXmXFXLXKXHXhXwXyXnXNXNXg X - g v v b b n b b b b G E F G F j k k D K 0.7.7.z.z.d.Z Z _ d f f f f ( s.g.l.N.l.N.Y.R.!.!.L.S.A.S.S.K.m.%X#X>X-X&X{.{.Q E E E E E E E E E E W ..O.O.O.E O.E @XkXaXrXeX0X>XqXeXwXeXyXqXwXqX=X+X=XaXeX=XeXtX#X#X$X7X7XxX5XoXXX4X9.F.C.q.A.A.K.F.F.9.9.9.J.G.G.G.J..X.X.XJ.J..XoX7XxXcXLXJXKXCXCXFXBXKXGXKXLXmXCXGXFXMXuXbXbXbXbXFXKXKXCXyXeXjXVXlXo.. # % ; - : l c n b v l l v G x k h h N Z a f f f f s s s :.:.:.:.h.Z.l.k.k.h.u.i.i.i.t.y.a.p.D.Z.a Z z.'.'.(.E F v l l l g g j g g z g g z T R c c ....+. XrXZXdXyX",
"AXZXAXHXHXAXZXAXAXAXAXpX2X2X1X1X<X<XpXfXpXpXpXpXkXzXpX<X&Xo.E E T E E b E J D h V V 2.j.F.F.F.I.L.L.P.P.P.P.J.J.J.J.J.oX4XoXoX4XXXXX4X4XP.XX5XiXuXjXZXZXZXAXHXHXbXjXjXjXbXNXNXNX>XsXeX>XeXNXZXZXHXHXHXHXCXBXBXGXHXGXCXCXCXGXHXHXGXOXG G G J G h M 6.5.5.q.C.A.A.A.A.A.E.E.E.E.K.q.;.F.4X4X4X!.!.!.!.4X4X4X4X4X4XXXXXoX7XuXuXuX9XyXjXAXAXVXjXNXAXSXaXrXjXHXZXjXdXlXSXAXlX<X+.c c b R R R T T T T R E T E O.E O.O.T T T z b J D H z.z.v.v.m.J.J.P.P.F.j.j.l.l.l.l.R.H.Z.L.!.T.L.!.Q.L.L.Q.Q.Q.Q.!.J..X_./.X.O.E E E O.X.X.X.O...E Q Q E E E |.lXZXHXHXKXKXLXmXPXFXGXHXKXKXKXJXPXMXNXBXGXZXgX#X'.H e u m 1.6.4.4.>.q.q.q.q.q.V.A.C.F.P.P.P.P.!.P.I.F.J.oX7XcXPXPXvXjXdXaXaXsXdXaXtXbXnXCXHXKXKXKXHXKXHXHXHXbXwXyXCXnXNXz X ; g g v z z v v v n n b G F G K j k h D L H 7.7.7.A Z d d d f f f f s f.g.g.l.l.l.k.k.U.R.U.Z.A.A.S.L.L.m.%X$X,X-X|.{.+.Q Q W O.O.Q Q Q Q Q Q ..........O.O.O.@XjXeX0XwX0X>XqXeXeXaXjXsXwXwXqX0XyXjXeX=XdXaX#X9XOX:X#X:X$X5X5X7X4XP.5.C.C.C.F.F.F.9.9.3.G.J.J.J.J..X.X.XJ.oX7XcXDXJXPXPXKXKXGXHXGXFXFXFXKXLXFXLXKXKXLXmXvXsXyXhXmXHXKXHXnXaXbXNXlXo.X - % % ; - l l v v b b b G G x k h N N a f f f f f s s s d d _ d.d.c.z.g._ s.s.s.( i.i.t.a.p.p.k.s 2.d.c.M./.J D j j g j g g k k k k k ; g v z l c ..o.]. XrXNXaXyX",
"NXnXNXSXSXSXSXSXAXAXpX].o.o.O...+.+.+.{.].].].]. X X{.+.+...E Q T T E G E W D h C V 2.j.F.F.F.I.K.L.L.P.P.P.J.n.v.z.n.J.oXoXT.T.XXP.P.P.P.XX5XxXFXGXZXVXSXHXHXHXNXlXkXdXjXNXNXZXaXjXyXwXaXNXAXHXHXHXHXHXGXCXCXCXHXCXnXnXCXGXGXGXdX,X@X}.o.J F j m C 5.F.C.C.C.A.A.A.A.E.E.E.E.K.q.i F.4X4X!.!.!.4X4X4X4X4XoXoXoX5X5XiXiXmXKXCXtX0XwXkXSXZXNXjXjXjXqX0XjXHXAXjXkXlXlXSXlX1XT ; - : : c c R R R T T ..T ..O.E O.| T T T c b G D H 7.7.v.v.v.J.J.P.H.j.s.h.Z.Z.l.k.R.Y.Z.H.H.F.F.P.4XP.P.Q.Q.W.W.!.m.%X%X(.o.o.......O.O.O.O.O.O.T ....Q E E |.SXAXHXAXGXHXKXHXLXFXHXHXKXKXDXDXPXPXHXHXGXGXKXKXPXiXoXm.V u a 1.4.>.4.q.q.4.q.V.A.C.5.G.XXXXP.P.J.v.XX5XcXDXDXmXbXbXjXdXdXjXNXNXnXhXnXbXnXmXGXKXKXKXKXHXHXKXCXbXnXHXCXZXv . X + X + + + + ; ; ; ; ; - g v v j g h B B K 7.A S Z Z d d d f f f f d l.g.g.g.l.N.l.k.l.N.Z.Z.Z.Z.L.L.H.m.%X$X#X*X{.+.Q ..o.o.X.W E Q T Q Q E T T T T R T E ..*XlXeX0XqX0X0XeXdXaXdXjXaXeXeXaXdXaXrX0XqXNXeXOX0X,XhX#X}.#XUX#X$XxX5XG.F.F.F.F.G.G.G.0.6.b.J.J.J.J.J..XXX5XiXcXDXKXJXFXLXHXHXKXGXCXPXmXFXLXLXKXKXKXKXKXKXmXMXhXyXhXbXCXHXCXhXNXVXlX).% l - : l l v v n n v b G G G j k N u t t t t f f f f f f f S S ` ` ' n D ' _ _ _ _ y.t.t.i.p.p.a.i.k.l.n.M.x.H K D B j j j j M h h h h k k g l l b E o.].}.>XkXeXyX",
"NXnXNXSXSXSXSXSXAXAX*Xc : c c c T T T Q E T T E T ..Q ....Q T Q T T T G W X.J m C V 3.j.F.F.F.K.L.L.L.P.T.J.J.n.z.z.v.J.T.oXoX4X4X4XP.P.P.oX7XDXKXAXVXVXZXHXGXBXNXlXdXaXdXkXbXNXjXwXhXZXZXHXHXHXHXHXCXCXCXCXCXGXCXnXnXCXCXnXnXjXaXeXrXrX,X+XX.k e m 6.5.F.C.C.C.A.A.A.A.E.E.E.K.A.i 5.4X4X!.!.!.4X4X4X4X4X4X5X7XxXcXDXIXhXHXHXAXjXrX>XeXlXSXVXNXaXeXkXZXAXNXVXSXAXSXlXzX1Xb ; - : c c c c R R R R T T T E b E T E T E b F J K H 8.z.z.v.v.n.H.H.j.j.h.k.k.k.k.k.U.Y.Y.H.H.j.j.G.P.4X4XQ.W.W.W.T.J.oX%X/.X.O.......O.E E G T T T Q E E E E |.AXAXHXCXNXFXKXKXKXHXHXHXLXPXMXMXLXKXKXKXKXCXFXKXJXJXDXxX5Xb.V a >.4.4.4.4.4.q.C.C.j.3.J.XXJ.b.J.oX5XxXDXDXDXPXnXbXjXjXkXjXNXSXAXCXNXGXCXbXbXBXGXHXKXKXHXHXKXKXGXHXKXZXGXF                 . . . . . X X ; g j j j B B A C N t f Z _ f f f f s f d l.n.g.g.g.l.N.l.k.l.k.k.Z.Z.H.H.H.m.%X$X@X|.{...R T T b b b T T R R R R c : : : : : T ..*XlXdXqXwX0X0XsXjXdXaXyXqXwXeXdXnXhXqX>X9X>X=XOX9X9XaX=X@X9X9X$X`.xX5X4X4X4X4XG.9.G.G.9.9..Xm.b.b.J.XX5X5XxXPXFXFXFXCXCXGXKXGXKXCXMXmXMXLXKXKXKXKXKXKXKXKXKXLXCXnXhXsXnXGXNXbXBXSXVX].X % l l l l z v v v l b F F x k * e t e w t r r f f f t t x x n n n , , , n ' ' ' _ u.i.i.p.p.p.a.p.U.N.l.g.d.A H K B B B B B M m m h m h k g z v E E o.].}.,XhXeXeX",
"SXSXNXSXSXSXSXSXlXSX@Xl : c c c T R R T Q T T ..T Q Q Q ..Q Q Q E E T G W (.J M C 3.3.j.F.F.F.I.L.L.L.L.H.H.n.n.n.n.n.J.R.T.T.T.4X4XP.P.XXoX5XiX9X>X>X<X0X0X9X>X,X=X*X@X@X*X*X@X+X(.@XZXSXNXAXNXHXHXCXnXhXhXBXGXhXhXnXnXhXwXwXyXjXdX<X,X<XrX@Xx.H C 6.5.5.C.C.C.A.A.A.A.A.A.A.K.K.i 5.4X4X4X!.!.!.4X4X6X8XxXcXDXJXJXKXbXhXZXVXSXZXkXwXrXqXwXkXSXkXjXSXHXAXNXNXAXHXNXzXlX1XT ; - : : : , , , c c R T b E E G E T T T T b G X.H x.x.x.b.b.v.v.j.j.h.h.Z.Z.k.k.k.k.U.U.Y.Z.H.H.v.9.9.P.4XQ.W.!.!.L.oX$X$X(.O.E T ..T G n n n b T T T b T b z {.SXZXZXNXNXCXKXKXKXHXSXNXnXMXPXDXJXKXFXGXGXGXFXFXDXDXJXKXJXxX4XG.5.4.4.4.q.q.C.C.C.5.v.m..Xm.m.oXxXDXJXDXcXvXmXGXVXpXjXkXjXNXZXZXCXCXGXGXCXnXbXnXBXZXHXHXHXKXKXKXKXKXBXFXG                     . . . X + + ; g j B B S S N t f d _ _ t f f f d a 2.H.n.n.g._ f.N.l.f.N.k.l.k.Z.H.H.H.n.%XOX+X X{...T c z l l c T T R R R R : > > > : > T ..*XSXVXdXaXwXrXaXdXeXeXyXwXwXqXqXwXeXqX=X+X}.9XwXyX0X,X@XeX0X=X#X$X5X5X8XxXxX8X6X.X0.0.b.b..Xb.b.J.oX7XxXxXIXFXLXFXHXZXNXNXKXGXKXFXmXFXMXPXFXLXLXKXKXKXKXKXKXKXHXGXmXhXhXNXbXbXBXVXSX{.. . X X X X X + + + ; g g g k + + e e t t t r t p f t t x x x n R U U U , , , ] ' ' f.k.i.p.a.t.p.p.i.a.k.f.s.3.3.3.C C C B B V M M m B m h j j v W E o.}.}.,XkXwXwX",
"SXSXNXNXNXlXlXNXaXSX*Xc c b c : R R R R R R R T R Q T R R Q ! +.....T T X.(.8.B C 3.3.v.F.F.F.L.L.L.L.Z.Z.l.n.n.n.n.H.H.n.l.H.P.T.P.P.4XXXJ..X.X/./.X.o.o.W W o.X.X.W W W E E G o.l ].AXAXNXHXHXHXHXZXhX0XwXhXCXyXhXnXhXwX,X0XhXkXjX<X[.).,XhXhXiX$Xb.9.5.5.5.C.C.A.A.A.A.A.A.K.K.i 6.XX4X4X!.!.4X4X5X8XcXDXJXJXKXDXKXCXSXVXqX0XrXkXZXVX>X+X=XkXNXNXSXAXHXAXSXNXSXzXkXAXpX..- : > > : : , c c b c T b E G n G b n b b v G ` K x.x.v.b.v.v.d.s.s.h.k.k.k.Z.Z.D.D.k.U.U.Z.R.R.j.1.V F.T.P.L.!.!.P.7XiX7X`.X.E b n n n c n n n n T E T T b l ).SXVXNXNXNXCXHXHXKXKXhXkXvXFXJXKXJXPXCXsXyXnXHXJXJXJXKXLXDXJXJXxX4Xj.2.4.4.q.C.C.C.5.3.x._.oX5XxXDXJXcXPXmXvXbXBXNXdXkXjXjXnXCXCXCXCXCXGXGXBXbXhXnXCXCXHXKXKXKXKXKXKXFXKXW               @ X + + + + ; ; ; k h j B B N N f f ( ( ( ( t f f f N N S M.` ` _ S S g.B.g.f.f.f.k.l.Z.Z.H.c.m.oXOX}.[.).o.E E v z b E Q T T T R R > > : c , ..+.*XVXZXBXbXaXwXrXwX0XwXjXjXjXqX+X[.+X,X#X[.#XbXHXGXCX0X,XkXwX+X+XwX#XxXDXxXcXxXiX5XXX'.8.8._.b._.oX7XcXDXDXFXKXHXFXKXKXGXZXKXCXKXKXKXKXuXuXmXmXPXLXKXKXKXKXKXKXKXKXHXnXhXjXbXbXBXNXZX[..               O @   @ + + * * e t t t f t t r p t t x x x , U | U U U U U , , , n _ f.u.i.a.p.a.a.i.p.k.k.f.s.3.3.C C C C C V V V V C B M B D D G E o.}.}.<XkXwX>X",
"zXAXAXAXSXSXSXlXSXAX<Xb z z c : > , > U R R R R R R R R R R R ! T ......X.(.W D 7.A 3.F.H.j.C.L.L.L.Z.Z.Z.Z.D.k.k.k.U.Z.l.h.k.H.4X4XQ.P.XXXX.Xm.x./.(.o.W E Q ......Q Q ..Q T T +.c |.SXSXSXZXSXAXSXjXjXjXjXkXhXwXyXyX0X9XwXhXCXkXZXjXeX@X,X0XgXMXDXcX5XG.9.9.F.C.C.A.A.C.A.A.K.K.i 5.4XP.P.4XoX$X7XxXDXJXJXKXLXKXKXbXgXwX}.X.).].*X>XkXkX0XwXrX0XnXHXCXjXSXAXZXZXSXjXlXdX+.; % # # < ; ; : n v v v v v v v v v g g g j D J H H v.H.H.n.d.s.f.k.k.k.Z.D.Z.Z.Z.Z.Z.U.R.R.R.Y.Z.Y.d 2.l.H.H.P.T.XX4X4XoX_.J D v l l g g - - - g g l z b b b [.kXAXSXZXCXbXFXKXLXuX9XgXmXFXKXKXKXFXmXyXyXnXCXnXCXKXHXKXKXJXDXDXDXcXXXv.1.1.F.L.F.5.7..X$X7XDXJXDXJXvXbXeXwXNXSXkXkXkXnXCXCXCXnXCXCXCXGXGXBXnXbXbXhXbXmXFXKXKXGXKXFXCXKXr.@         O O + + + + k k q k j k h B A N m u t ) ) ) ^ p r t S x x , , , n n ' n D ` M.c._ g.N.f.k.U.U.Z.g.g.z.M._.'.x.` G F F v v v b b G b b c c c c : c Q ].-XVXGXNXbXeXaXsXeX9X>XeXNX9X>X@X}.@X@X@X#X=XwXKXKXwXqXnXbXNXaXsXwXtXuXuXmXMXiX9XiX9X$X).x.J `.#XuXuXuXMXKXKXKXKXHXHXHXKXKXKXGXKXGXCXbXtXPXPXMXMXFXKXKXLXKXLXHXKXKXKXHXCXNXhXyXkXCXBX@X      o o o o O 4 O O O O O * e e t t r r p s s f t x x ' ' | U U U Y I I I I I U R n ' _ f.i.p.a.a.a.i.i.k.k.s.2.d.V C C C C C C C C C C L B L D J o.).{.|.*X,XrXdX",
"SXSXSXkXjXNXAXAXZXAX<Xb c z c : > > # > > , , , , , , , , , , R c n n b E (./.K H 7.3.v.H.H.H.L.Z.Z.Z.Z.Z.Z.D.U.k.k.U.U.N.l.N.R.4X4X4XP.P.J..XoX_././.(.].+.......| ! | ! | ....| c  XlXzXkXSXSXAXAXSXNXjXnXBXSXAXgX0XgXCXGXCXjXeXkXgXhX>XwX0XwXyXmXJXJXcX7XXX5.4.C.L.L.K.C.F.K.I.6.9.4XoXoX5XoXiXgXPXJXKXKXKXLXvXnXyX#X}.`.J F ].*X=XdXlXlXCXnX>XeXNXHXAXjXNXHXZXSXlXSXlX].: ; # # > ; X X ; k ; k k k k k k k k j j B K H z.M.n.H.n.j.s.s.k.k.k.k.k.Z.Z.Z.H.H.j.Y.T.L.Y.U.Y.U.N.B.Y.R.R.T.T.XXP.XXXXb.H D B j g g g ; ; k k k ; % ; g b +XSXAXHXZXBXmXmXbXuXuXmXFXLXLXHXKXHXCXKXbXgXBXGXCXvXnXsXbXFXLXKXJXJXDXxX5XJ.v.5.6.5.F.$X7XiXcXJXKXKXFXnXbXtXwXjXVXNXlXCXnXyXwXuXhXnXCXHXGXGXCXbXyXsXnXKXmXvXLXFXCXKXKXKXKXJ   @ O + O O O e e e e k k h h h h N S N u u f f ) ^ ^ ^ r t S x n , , < < U | | R b O.` ` ` _ _ f.k.k.D.Z.l.g.g.n.m.m.x.x.H K D v j j j j g g g l l c c c : E {.>XlXZXBXBXaXjXdXaXqXwXeXeXrX0X@X+X=X>X0XeX9XqXNXnX#X#XsXbXBXbXbXsXsXbXhXBXhXhXgXyXhXhX#XX.).@XaXZXnXaXdXBXHXFXFXHXKXKXKXFXGXFXKXKXKXbX9XwXtXuXPXKXKXKXFXCXKXHXHXHXKXKXKXHXkXkXkXjXbX$X@   o o o 4 4 4 4 4 4 4 w w e t t t f p p p f t t t x x n | U Y U U Y I I I I I Y U : x S _ h.i.p.a.a.p.i.i.f.s.s.d.A A A C C C 3.7.C C K K L L F W o.].{.|.|.|.-X<X",
"AXSXNXkXkXBXAXHXZXAX2XT b c c : > ; . # > > > > > : > > - ; - > : l l b X.`./.H 7.7.7.j.F.Y.Y.Z.k.k.k.k.U.Z.U.U.U.U.U.U.N.N.U.Y.4X4X!.T.L.J.J.XX_.%XOX+X].E E ..Q T T R R R R R R :  XzXpXkXNXSXAXAXSXSXCXCXCXZXyX0XwXnXLXmXvXnXGXHXAXHXjXBXjXNXmXFXJXKXKXDXxX8XJ.C.5.5.F.K.F.5.9.6.5.G.oX7XxXxXxXPXKXKXFXPXFXFXLXLXBXwX+X}.).W =XrXpXlXAXHXHXGXhXwXwXkXCXSXNXSXSXSXlXSXzX{.: > # # > ; . . X + + + + + e e k k k h h B A z.x.m.n.j.j.j.f.f.k.k.k.k.l.l.g.n.n.n.z.n.H.Y.Y.Y.Y.Y.Y.Y.Y.R.R.T.T.T.P.P.J.b.7.H K B j j j g k k k k k % ; k F =XAXAXZXNXnXnXuXuXgXPXFXLXKXLXHXHXFXPXuX,X#XuXFXHXCXmXyXbXHXKXKXJXJXJXJXcXxX8XXX3.6.9.iXcXJXJXLXJXKXFXbXhXhXjXjXZXHXSXBXgX9X9XeXnXCXHXKXFXCXCXsX0XyXGXLXMXgXCXnXsXGXKXBXGXOX    O o O O * e e e h h h h e h N N u t t S d ( / ^ ^ r r t x n , , U U U U U U R R O.` ` c._ f.N.N.k.k.k.l.f.g.n.n.n.c.x.8.H K B B B B j j g g g g l l l c Q }.<XVXHXBXnXnXNXjXeXyXhXdXrX9X>X#X@X>XwXeXhXbXqXtXbXsXsXvXtXbXvXBXvXbXKXGXKXnXCXnXhXnXHXjX=X,XwXsXaX0X=X0XaXGXCXCXGXKXKXHXGXKXGXKXGXPXtXOXOXiXvXKXKXKXKXFXmXbXbXnXnXCXGXHXHXAXNXeX9XiX`.@ o o O 4 4 5 5 4 4 4 w e t t t f t f p p p f f S S x l , U U U ! ! ! U I I I I Y U , n ` c.f.i.p.p.p.a.i.i.s.s.f.d.z.z.z.H A C C C C K K D D D J W ].{.{.{.].o.].{.",
"ZXSXjXkXjXnXCXCXSXAX<XG b c c c : > . % > : : : l l l : - - ; ; : l v F X.`./.H H 3.3.j.j.Z.l.h.k.k.k.k.U.Z.Z.k.U.N.l.l.l.l.k.k.Y.R.T.T.T.T.J.m.b.%X7X9X[.b b o.......T R c c c R c |.lXkXlXnXkXSXSXSXSXHXZXnXsXwXhXLXKXHXnXnXLXnXSXSXHXNXAXCXHXHXKXJXDXDXDXDXJXcX8XJ.5.5.F.G.F.G.XXoX5XiXDXDXcXcXFXKXFXmXMXPXFXHXnXCXHXjXyXhXaXVXZXZXHXHXnXCXCXGXnXwX>XeXBXAXNXSXSXlXSXlX Xl > # # > ; X X + + 5 5 5 e e h h m m m m C 3.z.z.d.2.s.j.l.l.g.f.s.g.g.g.z.z.` z.x.z.H z.R.R.Y.N.Y.Y.N.N.Y.Y.R.T.T.P.P.P.G.v.7.H B B B B B M m m h h k j j D #XGXHXyXNXBXyXwXuXmXPXmXFXKXKXKXHXmXbXmXuXwXvXKXKXHXCXnXFXKXKXKXJXJXJXJXJXJXDXxX5XXX.X7X7XcXFXbXMXHXGXyXyXnXGXCXHXHXhXyXyXuXhXCXHXHXHXCXCXGXBXyXwXsXHXPXPXMXnXsXtXGXGXIXuXiX  @ + o e * e e e u h h h h m N N t t t d Z d / p p p p t x x , , Y I U U I U U U R | O.G ` _ g.N.N.N.k.k.k.k.f.l.n.n.n.M.z.7.H H A C C B B B B j j g l l b W ].=XVXHXnXsXZXVXkXrXaXCXSXaX,X>X>X9XwXwXwXuXhX#X#XwXsXhXuX9XbXbXFXvXnXKXKXKXGXGXAXCXnXkXhXkXeXwX>X+X].].|.=XnXnXNXZXHXHXGXFXBXBXKXKXKXLXuXMXMXLXKXKXFXLXKXHXCXCXCXAXHXHXHXAXHXkXgXyXiX/.@ o O 4 4 5 4 4 4 w 4 y f f t t t f f p f f d Z _ H z : # = P Y U Y U U U I I I I U U n ' ` d.h.i.i.i.p.i.u.s.f._ _ ` ` M.M.z.H A C H K D D D F W o.].].].).o.W X.o.",
"CXnXhXhXhXnXBXCXAXAX<XG b c R c R > . ; : : ; - l l z z l g g g g g v D K 8.8.H C A 3.j.l.h.f.k.k.k.U.U.U.Z.l.l.l.l.l.l.l.N.N.N.k.D.U.R.T.T.T.J.m.m.OX#X#X`.X.o.E E ..E T b c c T z |.SXSXSXjXwXCXZXHXZXBXbXhXhXFXKXKXKXKXHXmXuX9X0X>XjXNXHXHXGXBXHXKXKXJXPXcXcXJXDXxX4Xb.6.3.9.7.$XiXcXDXKXDXvXFXLXKXLXCXFXHXKXHXbXCXHXCXnXCXnXZXAXZXHXNX9XyXCXbXLXLXgX>X0XjXAXSXAXSXAXSX|.c : ; ; > ; + + 5 e e e e h h m m M C C A 3.3.d.A Z Z s.j.l.g.g.d.g.d.` ` ` ` ` ` O.` G ` M.m.B.B.B.Y.U.U.U.Y.R.Y.H.T.P.P.G.F.9.7.6.6.C C C C C M M h j D j K UXKXGXsXBXCXbXyXhXvXvXKXKXKXKXKXFXMXvXKXFXmXLXKXKXKXKXCXFXFXFXLXKXKXKXJXJXJXJXJXDXcXiX`./.OXuXnXFXKXGXsXsXCXHXCXBXnXwXeXgXBXGXHXGXCXnXhXCXHXnXhXjXCXHXHXHXbXyXsXBXGXtXKXBX#X  O e 5 e e e e e u N N N N N N t t t d _ d s p p r r f S x , U Y Y I I I U U U U U ! R n D ` d.f.k.k.k.f.k.k.f.l.l.l.n.n.d.3.3.A A A C C C B B B B v v G F o.}.,XkXSXnXnXSXAXNXpXhXAXZXhXyXyXyXyXhXuXwXuXMXuXyXvXsXuXFXKXKXKXKXMXbXKXKXHXHXHXHXHXnXeX<X<X0X>X=X|.].].].].>XeXNXZXZXNXNXbXnXBXKXLXKXKXFXKXKXKXLXMXMXLXKXKXKXHXHXAXHXHXZXNXZXkXCXKXgXJ @ o O 4 5 4 4 4 w w w w t t t t f s s s f f A H K D - & # # $ = = = U U U U I I I I , , c n ` d.h.V.i.p.D.k.s.f._ S S S ` z.z.z.H H H K K K G G X.).].o.o.X.o.o.o.o.",
"LXCXnXbXnXCXGXHXHXAX<XG b c b c R > . ; ; % % ; ; - k j j j x j j v D B D H 7.7.v.v.n.H.l.f.f.k.k.k.N.N.N.l.n.n.Y.Y.B.n.N.N.N.N.U.U.k.Z.Y.T.oXoXoX.XXX7XiX#X%X`.X.O.X.O.E b b v E l |.SXSXNXsX0XAXHXHXnXyXyXnXKXHXKXHXmXFXKXbX9XbXwX+X=XeXHXHXHXHXGXGXKXKXDXMXcXDXDXDXcX5X.Xb.9.x.$XxXgXmXLXHXHXKXKXKXLXLXHXKXHXKXKXHXnXhXCXnXwXZXAXAXHXnX,XuXCXyXuXmXLXhX,X,XkXlXSXNXSXlX|.n : ; - : - + + 5 e h m M M M B C C 3.z.v.d.Z Z Z s.s.f.g.g.g.g.c.c.` ` ` ` O...| ..| O.O.n ` B.R.N.Y.Y.U.U.R.R.Y.Y.R.T.P.H.G.F.9.9.9.3.6.3.3.3.3.C C K B B 8.wXKXvXNXbXNXHXGXhXhXCXKXFXCXFXFXFXFXFXmXMXMXFXKXKXKXKXHXLXCXmXPXKXKXKXJXKXJXLXKXKXPXiX(.D F OXhXHXHXCXGXCXGXGXBXnXhXwXwXgXnXCXCXnXnXnXsXCXGXnXNXHXKXZXHXHXbXjXZXHXeXG #XbXJ   + @ k 5 e t u u u N N N Z N t t t _ s.( s s p p p d _ ` n , I I P I Y U U U U U U U U c G ` z.d.s.k.N.k.k.k.k.k.l.l.j.j.d.d.3.3.3.3.3.C C V C C B B D J G ].@X,X,X*X,XrXkXSXSXVXSXHXAXnXBXBXnXbXbXyXuXbXyXuXuXuXhXuXbXKXKXKXKXmXMXKXHXKXHXZXjXdXjXkXeX=X>X-X*X|.|. X].o.|.,XlXZXZXNXjXsXNXCXKXPXmXMXuXMXLXPXMXIXMXLXKXHXHXCXSXSXAXAXAXSXAXkXvXuX$Xe o O 5 4 5 4 w w y w w w w w t d s f s d d Z 7.8.F l & & # # # # $ > c c R U U I I I I , , n G ` j.C.h.V.D.k.l.f._ t x x S S A H H H H H K J J J X.o.].o.o...o.o.o.o.",
"LXFXFXHXLXFXHXKXAXAX<XG b c R R R : X ; ; % X ; + k k B B K H K H J J H H 7.z.b.n.n.n.l.l.l.k.k.k.k.l.l.l.n.n.n.J..XJ.n.n.n.l.l.U.U.k.k.Z.Y.T.T.oXoX$X$X$XoX_.`.(.o.X.W W F b v v g }.AXSXaXyXsXHXBXsXwXwXhXFXKXFXKXKXKXLXKXFXmXHXNX=X@X=XZXHXAXKXGXmXmXCXLXLXKXJXJXJXJXDXcXiX#X9XuXMXyXwXeXnXHXHXKXKXLXLXHXHXGXmXHXBXyXnXKXHXCXZXHXHXKXmXyXmXPXmXuXyXCXCXwX,X,XkXkXkXkXkX|.n l > > : - + + e u V C 6.7.7.9.7.z.v.z.3.Z a d s.f.l.l.f.g.g.d.` ` D G O...| |  . .|  .| n n ` B.B.Y.U.U.U.U.U.U.Y.R.R.T.P.L.I.I.F.9.9.9.9.9.9.3.6.0.0.0.K /.iXLXtXBXbXNXKXKXCXCXKXLXmXbXmXGXHXKXKXKXKXKXKXKXKXKXKXKXKXKXFXmXFXHXHXGXKXKXHXCXbXwX#X+X(.F G }.wXjXBXHXHXFXCXFXCXbXhXuXgXhXhXkXhXnXCXjXnXnXnXAXHXHXnXnXCXNXZXHXZX@X- ; ).k   + + h e u u m m N N S S Z t w t d _ d f s p p s :.j.z.` R U P P P P Y U U U U I I I P , n X.x.m.j.h.k.k.k.k.k.k.k.s.s.s.g.j.z.v.v.7.3.6.3.6.6.A C B D J G ).}.].o.E ..).*X,X<XpXjXSXAXCXCXCXmXCXCXbXMXKXFXFXmXLXKXKXHXCXHXmXLXmXCXKXLXKXHXhXwXeXjXkXpX<X>X1X-X*X&X|. X].].|.<XdXjXkXjXjXbXBXKXFXLXJXMXFXFXMXvXmXFXFXGXGXHXHXAXAXHXSXlXrX,X@XOX` j   o O 5 5 5 e y y y w w w w w r f s s s d 2.3.8.W z % # & $ $ $ # - l k k g l U U I I I I U , n D 7.v.C.V.D.Z.l.s._ t S S S S S A H H H K K K K F J X.o.o...O...O.O.O.",
"mXFXKXKXKXCXnXCXSXSX,XG T n T R T c # : - + + k k h B H z.b.b.x.x.x.x.b.b.b.v.z.2.d.s.d u.N.U.k.k.k.l.l.c.z.x.x.x.'.'.M.M.c.n.n.f.k.N.U.U.Z.Z.Z.R.T.J.J.m.x.x.x.D v j j j v j j j k OXHXnXrXyXCXGXtX#X#XyXGXHXBXKXHXKXKXKXFXPXmXbXKXZXsX0XZXKXHXZXGXHXHXHXCXCXHXLXJXJXPXMXvXbXmX#X#XqXwX,X,XeXlXHXKXKXHXHXKXKXKXKXHXhXyXCXGXCXGXnXKXHXCXFXKXKXPXKXLXPXnXhXhXeX0XpXkXaXkXkX|.b c c : - g j B C V C 3.7.v.b.m.m.m.J.s.t t f _ s.s.f.s.d.d.c.z.` D G O...|  . . . . .| | ..O.x _ B.R.R.U.U.U.U.U.U.Y.R.R.P.H.H.F.F.9.9.5.9.9.9.3.3.6.0.b.0.8.9XLXIXBXHXHXGXCXGXKXKXKXFXFXKXKXKXKXKXFXLXKXKXKXKXKXKXJXKXKXKXFXHXKXKXHXHXHXHXjXwXqXeX0X>Xo.- g (.>XNXnXZXnXhXGXFXbXbXCXnXhXgXyXyXhXjXNXkXyXjXAXAXVXkXhXNXNXZXSXkX=XE g F k   + m + e h m N N N S S S t w w f d f t f p p p >.j.v.` G , I I I I = $ # R R U U I I I Y > c X._.m.s.:.u.k.k.k.l.f.s.d d g.d.d.d.v.7.3.3.5.3.6.7.H K J X.o.].].+.o.....o.O.O.).|.<XkXNXCXnXCXGXKXKXFXFXKXKXKXKXFXKXKXKXKXLXMXFXCXmXFXMXFXHXyXaXGXAX0X*X=X*X1X<X1X1X*X X{.+.].|.-X<XrXdXkXZXCXHXmXFXLXIXMXKXPXPXGXKXGXGXHXCXAXSXSXjX<X}.X.v F G k +   O 5 5 5 e e i i y w w w w w w r f d d s.d.z.J F - . # & $ $ # # % + @ O O + l , U I I I I U , c G x.v.q.V.D.l.s.f f t t t S A ` ` ` H K K D D v D F F F E E O.X.X.X.",
"KXKXKXKXHXHXKXHXAXSX,XE n n T T | c X X g ; ; k h B H 7.v.v.v.v.b.b.b.b.v.v.v.d.Z Z s.s.l.l.N.N.g.g.n.m.M.` J J /.X.J J ` M.M.B.N.N.N.N.N.Y.Y.Z.Y.R.J.J.J.m.m.x.J J K D D D D D F D `.GXBXHXCXBX#X,XqXhXZXKXHXGXBXFXKXKXFXmXmXFXnXyXwXsXFXKXGXBXKXKXHXGXCXCXCXCXKXKXCXbXnXGXGXBXtX,X*X>XrXrXpXkXHXBXHXKXGXZXHXHXZXHXHXHXCXCXCXHXnXKXGXsXMXKXKXvXuXHXHXhXjX0X}.}.aXzXlXlXkX@XT : : c z z j H 9.v.b.9.b.b.z.m.J.d.d.Z f f d _ _ f.s.l.l.c._ K K G T ..+. . . . . . . . .| | ` K S B.R.R.R.U.U.U.U.Y.N.H.H.H.H.F.G.I.I.9.5.9.v.v.3.9.G.b.0.'.#XIXZXKXZXNXNXNXBXLXKXGXKXKXKXKXKXKXFXIXFXKXKXJXKXKXKXKXKXKXKXKXKXHXHXHXAXZXlXrX<X1X|.-XlX<X(.g F ).,XjXhXhXbXbXbXCXKXnXnXhXyXbXHXHXBXyXkXNXZXHXHXAXSXSXSXkX>X|.].E v X.G   @ h e e h m h h N S S S N t f f t t f f t r d :.j.F.b.G n , = I I I U T l z z : > P I P P I , l F b.J.S.h.h.l.l.f.( d _ g.g.g.d.d.d.v.v.3.9.9.7.7.C B K J X.(.].o.Q ..+.+.o.o.o.X.O.[.1XjXHXHXGXGXHXHXHXGXHXBXHXKXHXCXFXKXyXwXyXmXCXmXnXhXHXZXjX>X*X=X>X<X<X-X&X&X*X-X-X2X{.T Q |.<XrXdXNXNXKXKXHXLXPXDXKXKXGXKXKXGXnXnXHXHXNX>X}.X.G F F J F k @ @ + 5 5 e e i e w t w w w O w w w w s d s.d.3.H W z & & $ $ & # & % + o 0 9 3 o O + : R I I I I < < l D 9.F.A.A.V.h.2.f f f f f S A 7.z.H H H J J K D v g l z v b G E X.",
"BXGXHXKXKXKXHXZXAXzX|.O.E ..T c T c ; - l k k h m C 7.v.v.v.v.v.9.b.b.b.z.d.3.Z Z s.l.l.l.k.k.l.B.c.c.` ` J W o.X.W W W X.` ` ` B.Y.Y.N.N.U.Z.Z.Z.H.H.H.J.m.m.b.x.8.H H H K K K D D `.HXCXjXaXdX>XyXCXHXCXnXBXGXbXCXHXKXKXFXFXFXGXBXNXFXGXKXKXHXKXKXKXHXHXAXAXAXSXSXNXjX0X@X=XaXNXeX,X=X>X<XpXlXAXCXAXHXCXCXHXKXHXKXHXHXGXCXCXnXsXGXHXbXvXFXFXgXuXgXbXCXkX@X}.@X@X<XkXSXlX*XO.l : c b v v H v.v.7.7.z.v.v.m.n.d.Z f t f d _ _ s.l.f.s._ z.` G n n R | |  . . . . . .! | | n G ` m.H.S.R.R.U.U.U.N.Y.Y.Y.H.H.F.G.v.F.v.9.9.v.v.9.9.b.9.8._.UXsXbXBXSXSXZXNXNXZXKXZXBXZXHXKXCXnXnXyXmXKXLXLXKXKXKXKXKXKXKXKXHXGXSXAXSXlXkXrXpXpX<XpXzXlXSX=Xo.F ].@XjXHXBXhXCXHXFXCXnXbXCXHXHXCXjXjXjXlXlXSXAXAXAX>X@X).G b E O.o.G G X . k e h N M B B B C N N u N Z d f f f f f a 2.h.j.b.8.b , < < I , , | n + k q % l U I = P I < > : K J.P.C.l.g.f.s.s.s.f.g.f.d._ A 3.z.7.3.9.9.9.7.7.H J /.(.o.o.......+...o.o.O.O.E O.).}.,XrXNXHXHXHXHXKXGXmXGXKXKXGXCXnXBXyXbXHXKXFXnXyXNXjXeX,X*X-XrXkXfX1X*X&X*X*X-X1X2X&Xo.Q o.*XdXVXHXNXHXKXFXKXKXuXnXCXHXHXGXCXjXhX`.(.X.G F F n F v j +   @ O + 5 5 5 e i u t w w w w w w w w d u.d.d.7.J F - & & $ $ & & % @ @ o 1 8 8 3 3 O + l U I I I I < : v 8.F.A.A.V.V.h.d f f f f N Z A z.7.H H H H H K D D v g k k g v F ",
"HXHXKXHXHXSXjXkX*X|.O.b T T c c T c c G v k j j M C 9.v.v.v.v.v.b.b.m.v.d.A Z Z s.f.l.l.l.l.l.Y.c.` H J G W Q o.Q Q ..X.X.X.W J c.B.Y.Y.Y.U.U.U.Z.Z.Z.H.n.n.v.z.x.x.x.8.7.H H H x.J OXCXnXwX0XeXnXCXHXHXCXjXhXhXhXmXFXKXKXHXLXHXHXKXKXKXKXLXLXKXKXHXHXHXGXAXSXSXjXjXlXdX,X+X=XaXkXaX>X*X*X<XpXpXaXSXHXHXHXHXAXHXGXCXCXGXHXHXCXbXsXCXKXHXFXLXKXFXCXCXHXCX,X+X>XNXlXAXSXaX1X].b c c c c v D H v.z.b.b.b.m.m.M.d._ f f f d _ _ _ s.s.2.Z _ M.(.O.n | ! ! ! ! ....! +.! R R c c n ` .XH.C.S.~.U.U.U.Y.Y.Y.B.l.n.n.n.9.v.b.v.v.v.v.v.v.b.8.8.'.OX#X@X*X=X<X<X>X<XjXHXHXNXjXNXNXaXtXsXhXCXKXLXFXKXKXKXKXKXKXHXFXFXCXNXSXlXzXdXpXfXzXpXlXSXlXAXSX<Xo.b o.>XNXjXyXnXCXBXHXBXCXKXKXCXNXSXkXSXHXHXZXpX*X[.W E E E E E b n G G X X k h N C M B C C C N t t S Z Z Z d f f a 2.j.j.7.x.G l > < < U , n n e o 0 0 @ k z , = P P I < > v b.P.F.H.j.s.s.g.l.g.f._ _ _ Z 3.d.7.3.3.6.3.7.7.7.8./.).X.E E ........o.o.o.o...E E X.X.}.>XpXkXjXSXHXCXnXNXGXHXHXZXjXhXwXsXNXnXhXyXrXjXaXeXrX0XqXdXSXlXpX-X*X*X*X-X<XfX2X*Xo.T o.-XqXAXHXCXhXFXKXHXFXBXHXHXHXZXaX}.F G F b F G G G F F v k + e h e e m u u a d t w w w w w w w f s.s.d.3.8.J l & & $ $ $ & % + o o 3 3 8 8 7 7 3 4 k , I I I I I < c 8.9.A.q.V.V.V.s.d d f f a Z A 7.7.7.H H H H H K v v j g g g g g ",
"HXAXkX<X+X[.(.X.o.o.X.E T R R ..n c n O.v k B B C 3.9.v.G.F.F.v.J.m.v.3.Z Z s.g.f.f.f.l.l.Z.Z.g.S D F W X.o.Q Q Q Q ....o.o.O.X.H z.c.n.l.N.U.U.U.U.Z.l.n.z.z.z.b.x.x.z.7.7.7.8.m B `.bXCXNXjXkXlXnXNXSXZXGXGXGXbXCXLXHXHXHXKXKXFXHXKXKXLXPXFXKXLXLXHXHXHXAXSXSXjXZXNXaXqXaXdXdXqXpXqX,X-X<X<X>X>XlXSXSXHXHXAXHXZXCXCXGXHXHXGXCXhXBXHXKXHXLXKXKXCXHXSX}.z E <XkX<X<X@X).X.G n T c c c v D H z.z.z.b.z.z.b.A u Z Z Z d Z _ _ _ _ d 3.z.M./.O.O.| +.| | ! Q ....Q T R c R c c n J _.J.K.S.S.U.R.R.Y.Y.N.l.l.c.n.v.v.b.v.v.z.v.v.v.v.b.8.8.r.).).o.].{. X|.|.*XaXHXHXlXaXdXdXaXdXbXCXKXKXKXKXKXKXKXKXKXLXLXGXGXCXNXlXkXkXkXpXdXfX1XpXSXlXpXlXAX<X].F W [.qXNXbXjXnXCXFXGXHXCXjXnXSXkXjXkX<X+X).X.F G G G E T T n c G l . + j h h m h B C C N N t f S Z _ s.2.a a 2.2.j.z.H J b , < U , , T v e O o 7 9 0 @ + l , = = P = < c /..XG.J.v.d.d.l.l.l.f.s._ _ _ d.j.v.v.5.3.3.3.7.7.x.'./.G b E ........o.+.+.].+.o.O.E G X.].}.|.@XrXSXHXAXAXAXAXHXHXZXeXwXdXjXaXrXjXNXkXeXyXjXkXaXpXkXZXlX2X-X&X*X-X-X-X<XfX-Xo.E ).+X=XHXHXZXKXHXbXKXAXHXSX,Xo.F v F F v v v v v l g D D j h B C C C 7.V Z 2.Z w w w w w w w w f d.d.d.7.8.L & & $ $ $ $ % q 0 o 1 3 8 8 7 7 8 8 3 5 c U P P I I = R J v.A.V.V.V.V.4.d d f f a V A 7.z.7.7.H H H H H B D D D x j g k ",
"|.[.].o.o.(.(.(.X.o.o.O.E c R ..c c b O.v g D B C 7.9.v.G.G.F.v.J.d.Z a Z _ s.g.s.g.l.Y.Z.l.h.Z K F G X.o...Q ! ! ............O.D H z.n.n.l.U.U.U.U.U.l.l.d.d.7.b.b.b.v.z.7.7.7.x.H K G (.=XlXAXdXNXHXHXHXZXHXHXHXHXHXHXHXHXKXKXFXHXKXKXFXPXPXLXKXKXKXKXKXHXAXZXNXZXNXpXeXkXdX0X0XaXdXpXqXpXqX-X>XaXrXrXlXAXSXAXHXHXHXHXFXCXCXFXhXhXnXmXmXmXCXGXnXhX#Xv X z  X].O.X.E G E E T T c c b b F J x.z.b.m.m.b.z.S u Z Z Z Z Z Z Z Z Z d.G..X_.` n T | | ....o.o.W J F F E E T T T b F 8..XP.K.A.S.R.U.R.Y.l.l.n.n.m.M.m.m.z.v.v.v.v.v.7.b.b.x./.).].o.+.+.+.+.]. X-XrX<X<XrXaXlXSXSXNXZXKXKXHXKXKXKXKXKXKXGXFXHXGXZXSXkXpXpXdXdXzXpX1X*XpXlXSXSXkXjXZXW g l [.kXSXNXNXbXBXGXCXBXNXdX0X|.}.].X.F G G E G b v v c n c n l ; . + j e + e h M C C N u f d Z Z _ s.2.d 2.j.s.d.` D n c , , U U c v h O o 2 7 =.7 2 3 q l > = = = I U E /..XJ.H.F.j.j.f.k.f.f.s.s.s.s.l.v.v.F.9.9.9.9.9.b.b.x.J D G W E E E o.o.+.+.+.+.o...Q ..O.o.o.].|.<XkXjXZXHXZXZXSXkXaXrXaXjXdXdXlXSXaXrXrXjXlXkXpXpXSXlXkXrX-X*X*X-X-X<XfX2X|.].].].*X>XVXHXSXAXHXNXlX+XG v F G v g z z l g ; ; ; ; k j k k j B B C A V 3.d.d w O w w w w w r Z d.v.7.8.K - . & $ $ $ & % 0 0 2 3 3 3 8 8 7 8 8 3 0 k c U = I I = U G 7.C.A.V.V.V.:.u.d f f f f C H z.7.7.7.7.7.H H H K D B B B B B ",
"{.].o.o.o.o.X.W O.O.E T E T R T c n n E G j D B 7.7.9.G.G.G.G.v.d.Z a d _ s.g.f.s.l.l.l.h.h.j.n./.W E E T T ! |  . .| ! ! Q Q Q W J x.b.n.l.U.U.U.U.U.l.l.d.z.z.m.b.b.b.v.z.v.z.8.x.H j v X.].).,XrXkXCXHXHXHXHXHXHXHXHXHXHXKXKXKXKXKXKXJXDXDXDXKXJXJXJXHXGXCXNXsXdXaXaXeX0X0XqX>XpXdXqX<X0X<X=X*X,X>XrXlXSXVXjXCXZXCXCXnXbXCXCXhXhXbXCXGXFXFXCXBX=X).F l E o.E E W E E X.O.b c c T T G G J x.x.b.m.m.b.z.A Z g.Z Z Z Z Z Z 2.d.J.J.m.x.` O.| | ! ..+.o.J L M M K W W E T T R b L b.XXI.K.L.U.Z.R.Y.Y.Y.B.B.m.m.m.x.z.b.b.G.G.G.z.b._.`.`.[.].+.+.+.+.+.+.o.o.).].|.<XdXSXAXSXaXnXCXFXFXLXKXKXLXLXPXbXbXmXNXnXjXkXrXrXpXpXzXlXfX<XpXkXdXpX1XqXVXqX(.l z ].rXSXHXbXBXZXGXKXCX,X).F E X.E G G b b v b b T b c : : - ; ; g j + + h M B C N N t f d _ _ _ _ 2.2.2.j.j.v.H n n , , , Y ! b q 0 3 2 6 *.*.*.7 7 0 q l Y I I I U R W `.G.L.L.Z.l.h.k.f.u.u.u.u.s.l.l.C.K.F.F.F.v.9.9.v.x.8.H K F F v b b T T ..o.+.o.o.......O.o.O.o.].}.*XdXAXAXSXjXpXkX<X<XkXVXlXjXaXkXpXeXkXSXSXlXlXjXVXSXlXdXrX-X-X<X<X<X-X-X<X-X(.=X|.*XdXSXAXjX@XG b b b l - - z g g g ; + + % ; + k k k j M M C C V 3.3.t w O w w w w w f s.d.z.7.8.L % . $ $ $ # % + 0 2 2 2 1 1 i ;.8 7 7 7 0 0 g c Y I I P U c K j.V.V.D.V.u.u.d f f f f S A z.z.8.8.7.7.7.7.H K C C B B B B ",
"Q E E Q o.o.O.W O.o.E E ......T R T n E X.D D B 0.0.0.b.G.G.v.v.d.Z S _ d.g.g.f.g.g.s.s.s.j.P.oX(.o...E T R R ! | | | ! ! ! Q ..o.X./.M.m.Y.U.U.U.U.U.l.l.c.M.b.b.b.b.v.b.v.v.z.H H K k g v X.o.X.o.[.#XyXSXAXAXAXCXCXCXCXCXLXLXKXKXKXKXJXDXDXJXJXDXDXPXCXmXbXhX0XqXtXaXaXeXeXaX=X0XqX>X=X>X>X>X*X@X<XkXlXVXNXjXnXnXnXnXmXBXCXCXbXNXGXHXGXnXyXqX=Xo.W X.W E E b E E F b E E b R R T ..E G J x.z.z.z.z.3.V V Z 2.d.2.2.2.3.j.v.H.J.J.x.` X.O... .| ..o.G k 5 5 u 6.K F F T T R b L 0.G.P.L.L.Z.Z.Z.Y.R.R.R.R.B.m.M.x.x.m..XJ.I.I.G._.%X%X}.[.+...+.+.+.+.].+.o.o.o.].@X<XrXeXeXyXkXnXCXmXFXHXLXnXuXuXwXuXhXbXjXkXkXpXaXpXrXdXSXSXlXkXqX|.>X>X<X*XlX<Xo.l z ).<XNXBXCXZXCXjX>X`.G E W G b v v b b b b b c : - : l - : v v j h h C C C A S N t f ( ( ( _ ( :.2.h.h.j.c.K n , , < I U R z @ o 2 6 6 *.*.*.=.*.6 0 k U Y I I I U T /.I.L.L.S.Z.k.k.i.i.i.i.u.h.l.Z.C.A.C.C.C.C.5.5.9.9.z.7.K D D D v l z c T Q ..o.+...E T ........O.).].,XzXlXkXkXkXpX<XrXlXSXAXSXkXSXlXkXkXSXSXZXZXdXkXjXdXdXdXeX<X<X-X<X<X<XfX<X{.|.].|.0XzX,XX.l v g - ; ; ; ; - % % + + + + + % k g j j B B C A C 3.3.Z t w w w w r w w Z d.3.z.8.J g # # $ $ $ # % 0 0 6 6 2 1 3 6.4.8 7 7 7 8 1 q c U I I I < , D j.V.V.D.V.h.u.d f d d t N A ` ` z.` 7.8.H z.C A H H H B B m ",
"Q T T E Q ..Q E E o...E ....E T T O.G X.(.J D K 0.8.0.b.G.G.v.n.d._ Z _ d.g.g.l.l.h.s.h.H.T.J.x.o...+.+.+.Q T T ..............+.+.o.X.'.m.H.U.U.U.U.U.Z.l.c.M.m.z.v.v.v.v.v.v.v.z.x.x.j D j G X.X./.).(.(.[.@XrXjXjXjXjXNXBXBXBXHXHXKXKXLXDXJXKXKXJXDXmXmXnXjXsX>XtXaXqXaXZXNXqX>X0XeXeXqXqXeXpX<X@X=X<X<XpXSXHXHXAXAXHXHXHXFXCXnXAXKXZXaX=X).W X.F G W E T Q Q E E E b E T b T b ..O.W G K 7.7.m.z.v.3.V 2.d.Z d.3.3.3.d.v.G.J.G.b./.X.O...| | ....W j @ o 9 w.w.M M J W T b T W K 0.I.Q.L.S.R.h.Z.R.T.T.R.B.B.c.z.m..XXXI.I.P.J..XXXOXOX}.].o...Q Q ..+.].].).+.o.o.[.|.*X2XSXkXjXNXnXCXCXCXhXwX9X0XwXhXNXNXNXdXkXlXkX<XpXlXSXlXpX>X|.rXqXqX1X*X,X*X(.b b ].<XZXCXNXaX+XX.F G b b v l l l z z l l l l - ; ; - ; g x j h N N C C A A Z S d d ( ( ( ( d 2.h.j.j.d.z.n , , I I Y U b q o 1 2 6 7 7 =.=.*.*.7 0 5 : Y I I I Y R E .XI.K.S.S.U.k.i.i.i.i.i.h.Z.Z.Z.A.C.A.K.K.C.C.F.5.v.7.C C K K D z z c b T E E ..o...T T | T ..+.+.o.+. X X|.*X1X*X*X1XpXpXkXSXAXkXkXkXkXaXdXdXaXpXrX>X=X<XpXeX0XqX-X-X<X-X*X-X<XpX(.}.*XF l b - % ; ; ; - g ; + + + + + + % k k k k h j B B M C C A A Z t w w w w w w t d.v.3.z.8.F % # $ $ $ $ % + 0 0 6 6 2 3 i v.4.4 2 8 8 7 1 5 v U P I I I , n z.j.V.V.V.u.u.d d d d t N S ` ` z.z.z.z.z.z.7.H A C C C K H ",
"T T T T Q E E E E E E E E Q E E O.X.(./.J K B C C C 6.6.3.2.2.d ( f.g.d.d.j.C.C.4.C.Z.H.J..X'.W  . .@.+.+.o.W K D K J W ......| ....Q X.'.J.P.L.S.S.U.U.Z.Y.n.c.c.z.z.z.z.v.z.7.m.x.8.8.8.8.8./.` J G W (.).).o.}.*X<XkXSXSXAXAXHXHXHXHXKXKXKXLXKXKXCXGXCXAXrXlXwXwXwXqXaXjXbXkXeXwXwXaXaXdXdXkXlXrX*X|.|.1XfXAXSXSXAXHXAXCXKXKXFXnXqX+X(.W E E E Q E T T T T T b T b b T T b b E E J J J x._..Xm..X3.N Z _ Z d.d.z.A A v.J.J.J._.'.X.O.........(.J M 0 3 8 i ;.w.>.V M D E E T R F J 7.F.Q.W.S.S.S.L.T.T.R.Y.R.n.n.n.J.XXP.P.XXJ.J..X_.`.`.`.(.X.o.o.o.o.o.o.).o.+.+.+.+.].|.*X].|.pXAXSXVXVXdXeXdXeXwXkXVXSXAXlXdXpXfXfXkXlXSXSXlXlXdXpX<X<X<X<XfX2X1X|.b g o.rXeX,X).F b b c l : : : : : : : : : : : ; ; % ; * e e m N V V V C 7.7.Z a d ( ( ( ( ( s.h.5.q.9.v.S n , < = I , E q 0 o 6 2 7 7 ,.<.8 8 8 8 8 0 k R Y I I I Y R /.G.P.E.E.D.p.u.k.i.i.i.i.V.Z.Z.C.A.C.C.A.A.A.C.C.j.5.3.7.7.A K D v F G E E O...T Q ....Q T ! ..+.R ..+.+.+...{.1X1XpXpXpXdXpXaXdXjXlXkXaXrX<X,XpXkXrX,X<X>X=XqXdX>X*X-X-X*X*X<XqX-XW v g % % % % % % # X X X + @ + + + + e k k k h h m M B C C 3.A 3.d.w w w w r w w d d.d.j.z.J z & # # # $ & q 0 0 2 2 6 2 4 1.h.:.4 1 7 8 7 8 3 k b U I I I U c J z.C.q.V.V.s.d d Z d f f S A ` z.z.7.8.7.7.7.7.H H H H C C ",
"T T T T T T T E T E E E E E O.X.W J J K K K K H 0.0.7.9.5.d.s.u.u.f.f.j.j.j.C.q.A.A.K.P..X'.(... . . .+.+.X.K C M M 0.8.X.o...! | ....X./._.P.W.E.E.S.U.Y.Y.n.c.c.c.z.z.v.v.v.v.b.b.0.b.b.9.9.b.J K D D G W X.o.+.o.].|.<XzXAXHXHXKXKXHXHXKXHXGXCXCXnXnXdXlX<XeXqXwXeXaXjXNXNXNXaXaXaXkXjXjXdXdXkXzX<X|. X-X2XzXAXAXAXAXHXHXHXuXOXOX).W F F E E E Q Q Q E T b c b T T b b b b v z v D D K 7.b.b.b.m.3.Z _ _ _ s.d.A C 7.m.m.m.m.'.r.X.....| ..o./.M 9 3 3 8 ;.,.;.;.;.M M F T c c b F K v.L.W.S.S.S.S.!.!.R.R.R.Y.n.n.J.P.P.XXXX.X.X.X_._._.'./.W W W W X.X.o.).o.o.+.+.o.o.+.].+.].*X<X<XpXlXjXaXaXeXdXlXlXdXlXlXjXdXdXdXdXlXSXlXlXlXlXpX<X1X*X<XdXpXrXpX|.b g X.).O.v l v c : : : - ; ; ; > : c l l g g k k e e e u u V V V V 3.7.7.V Z Z _ ( ( ( ( s.j.5.q.9.z.v , , I I I , b 5 1 1 7 2 7 8 >.<.y 8 8 8 8 3 q c U I I I I U W '.P.E.E.E.D.u.f.i.i.i.p.k.Z.Z.K.A.A.C.A.A.A.C.C.C.5.5.5.3.3.C B D D D F G E O.E Q T T T ! Q ! ! ! ..Q +.+.T ..2X2XzXpX<X<X<XrXkXlXNXjXaXrX<X=X<XrX,X=X>X<XqXjXVXaX<X-X-X<X<X-X-X+X-Xz   % % X . . . . X X X + + + + 5 5 e k k h h m m N C C A 3.3.s.s.w w w w w w w d d.j.j.z.` l $ $ $ $ & % q 0 0 2 2 2 3 9 4.s.d y 4 3 7 7 8 3 5 v U P I I Y U G x.5.q.p.V.h.Z d d d f f S A z.z.z.z.7.9.7.7.7.7.H H H H A ",
"T T T b T b T b E E X.W G F G W G D B B B C 7.7.0.9.9.9.j.h.h.u.i.i.i.h.l.j.q.4.L.S.L.T._./.X.+.@. . .+.(.J M V i i V 7.8.W O...| | ..O./.b.G.L.W.E.S.S.U.Y.Y.n.n.n.n.n.v.v.v.b.b.b.b.b.b.b.9.b.8.H D D D F G E X.W E O.].*XrXkXSXHXHXHXCXGXGXZXHXCXjXyX,XaXrXyXpXdXjXjXjXlXbXbXdXdXjXNXNXjXdXaXdXAXlX*X|.&X-X2XfXlXAXHXNXyX,X}.W W E b b b T T T R b c l l c c b b b z l l g g k j B B C 7.7.z.b.v.3.Z _ s._ s.d.u V b.J.m.J._./.W ..+.+.| ..o.D 5 3 3 7 8 ;.,.;.;.;.i M D F z R b F D 7.H.W.E.E.S.S.S.R.R.R.Y.R.B.n.H.J.P.P.XXXXXX.XG._.'./.J J G F G G G W X.o.o.+.+.o.o.o.o.o.o.].|.|.-XpXlXaXpXpXlXlXpXqXzXlXlXlXlXlXdXlXlXlXlXzXdXdXfXpXpX*X<X2X<XpX<Xo.% X ; g g l l l ; - - % % # % - l v g - g k e e e e e u u V V 1.1.3.7.3.V Z _ s.( ( ( ( s.j.5.q.9.z.n , U I I U , l @ o 2 7 2 8 <.>.>.<.y 8 8 8 4 5 l U I I I I U E '.P.S.E.E.D.u.f.i.i.i.p.i.h.C.K.A.A.A.A.A.A.A.C.C.5.5.5.5.3.3.A K B B D F G E O...E E Q Q T R Q ....R ....T +.1X<XlXfX<X2XrXpXdXlXVXlXkXaXrX<X<XrX2X<XpXaXjXZXVXlXrX=X>XpXpX-X*X-X-X].%   . . .     . X X X + + + 5 e e h h h h m m N C C C 3.3.3.s.Z w w w w w w r Z j.d.j.z.J l $ $ $ $ & % q 1 1 1 2 2 3 i j.s.2.:.i 8 7 7 7 3 O z U = I I Y U G 8.5.q.V.V.h.2.d d d f d S _ z.z.z.z.z.x.9.7.7.7.7.H H A A ",
"c c n b b G E G X.X.W G v v v v j B B B C H 7.7.0.9.9.j.j.h.i.i.i.i.i.k.D.V.V.V.L.L.H.J.'./.o.{.+.+.+.(.J C V 1.;.;.1.1.C K J o.Q | ....W x.G.P.L.S.S.S.S.H.Y.Y.B.B.n.n.n.v.v.b.b.b.b.b.b.b.v.v.8.7.H K D D v v F W X.E G E ).|.<XaXNXSXSXSXZXZXHXaXjXkXrXkXjXjXNXBXNXjXeXeXaXdXjXjXNXBXNXjXaXdXjXSXzXpX<X|.[.*X<XpXlXSX,X).X.W E E E b b b b b c l : - : l z v z v l g - - k k k j B B A 7.v.v.v.z.3.Z s.s.s.f.2.u 3..XJ.m..X'.W ......+.+.O.G 5 o 3 8 7 =.,.;.;.,.;.a M D F b b b b D 3.F.L.W.W.E.S.S.R.R.R.Y.R.Y.n.H.J.P.P.I.P.P.P.J..X.X'.x.8.J K D D D D G E W o.o.o.o.o.o.].o.o.].]. X-X<XpXdXdXzXzXfX<XdXzXdXdXlXlXdXdXdXlXdXpXpXzXlXlXzX<XrXpXpXpXlX<Xo.X X ; l z - % X X X X . X + ; g g ; * * e e e e e u u a V 2.2.2.3.3.3.V d _ ( ( ( ( ( s.j.5.q.9.` n , Y I I U , % o 1 2 7 2 8 >.>.>.>.<.8 8 8 8 @ g U I I I I Y T r.J.L.E.E.D.k.f.i.i.i.p.i.h.Z.K.K.A.A.A.A.A.A.C.C.C.5.5.5.3.3.7.A B B B D D F X.E E W ....Q T Q R Q ..T b o.1X*X1XfXfXpXzXzXdXpXdXjXjXzXzXkXdXkXzXzXlXVXZXZXAXSXVXaX<XpXlXdX<X+XdX-X-X+X%       . . . X X + + + 5 e e e h h m m m N C C C 3.3.3.3.d.d w w r w w w f s.d.j.j.z.J l $ $ $ $ & % 5 o o 1 1 1 4 >.s.d u.s.>.8 7 7 7 7 o j R = I I Y U n H 5.q.V.V.h.s.d d d d S S _ z.c.z.z.z.b.9.z.z.7.7.7.7.3.A ",
"l z b G E E X.X.G G D v j j j j j B H H 7.7.7.9.9.9.j.j.h.h.i.i.p.i.i.p.D.D.D.L.L.T.R.m.x.(.+.+.+.}.[.8.M V 1.;.;.;.w.w.1.V 7./.E ......W J b.J.L.S.S.S.S.Z.H.Y.Y.B.n.n.n.n.G.G.v.G.G.G.b.b.v.9.7.7.7.H K B j j j F G G v v F W ).}.=XeXkXjXSXHXaX,XkXZXNXjXjXNXBXZXNXaX0X0XaXjXNXNXNXNXbXjXdXjXaXkXdXkXkX<X X{.1X1X1X|.o.G F b b c c b c c l l : - - l v v l - ; k k k k k j j h m B C C 9.v.v.v.3.3.s.s.f.k.l.d V v.XXb.m..Xx.G | | | ..+.X.j O 3 8 8 7 -.,.;.<.,.>.;.V C K F b b b D K 9.H.Q.W.E.S.S.U.R.R.Y.R.Y.n.n.J.J.J.J.P.P.P.P..X.X_.'.x.8.H H K D D D v b F F G W X.o.o.o.o.o.].].]. X1XfXzXzXfXfXfXpXzXfXfXkXlXlXdXpXfXpXpXlXlXlXzXpXpXpXpXpX<XlXSX<XG ; + ; ; X . .         . X + k e e * e e e e e u u a a :.1.2.2.3.3.3.Z d d ( ( ( ( u.s.j.C.q.v.H n , Y I I , : + o 2 6 7 7 ;.:.>.>.>.<.=.8 7 7 3 q , Y I I I Y R W b.K.S.S.Z.k.f.i.i.i.p.i.h.h.K.K.A.A.A.A.A.A.A.A.C.C.j.j.5.3.7.7.A C C B B D D F G E W o.o.o.T - c o.Q ..*XpX*X*X2X2X2XzXfX<X<XeXaXaXkXlXSXSXAXSXzXlXSXAXHXZXHXSXjXjXVXSXdXpX*XeXfX*XqX*X%     . X X @ @ + + 5 e e e e e m m m N V C C 3.7.9.3.d.d.f w w r r r r a d.j.j.j.7.J l $ $ $ $ & % + o o 1 2 1 4 >.s.( ( :.i 8 7 7 7 8 o j R P I P I , n H j.V.V.p.h.u.u.d d d Z Z A d.z.z.z.z.z.9.z.z.z.7.7.7.7.3.",
"v n b F F G G F j j h j j B K K K H 7.7.7.7.9.G.v.v.C.Z.k.i.p.p.t.p.p.p.p.D.~.!.L.R.m.M.X.].{.+.].[.`.C m 1.w.;.;.;.,.q.1.;.1.7.E | ....E W x.b.H.L.S.S.S.S.L.Y.Y.Y.Y.H.n.n.H.G.F.G.G.G.G.G.v.v.9.7.7.7.C C B D j j v v v v v v l z W }.@X*X<XzXkX<XjXjXNXkXkXjXjXjXjXwX0XqXdXNXZXNXNXNXjXdXjXNXyXhXjXjXlXjX<X].b W o.G z b E z c l : l l : - - g g ; g g g k ; k k k k k h h m M B C C 3.5.v.v.v.3.s.d.s.f.l.k.a j.P.P.b.m._.` | | | | ..o.D 5 3 8 8 7 7 ;.q.>.<.<.;.;.1.C K F b T b b D 7.F.P.W.E.E.S.S.R.R.R.R.Y.n.n.H.J.J.J.P.P.P.P.J.J.J.m.m.x.x.x.8.H H K D v v v v b F F E X.o.o.].o.o.+.&X2XzXfXfXfXfX2XzXfXfXdXVXVXlXpXzXdXkXlXlXSXlXdXlX<X1X1X1XrXdXrX<XW + . .               @ + + + e e w e e e e i u a a a 1.2.4.5.3.5.3.2.Z ( ( u.u.( u.h.j.C.5.v.H n , Y I Y , - o 1 6 2 6 7 ;.:.s :.>.<.=.8 7 7 3 5 : U I I I Y U E b.H.S.S.Z.k.s.i.i.i.p.i.h.V.K.K.A.A.A.K.A.A.K.A.C.C.C.j.5.5.5.7.3.3.C C C B D D D v F G X.(.o.- % c ..*XSXzX*X@X-X*X-XfX2X-X<XqXrXrXrXdXlXSXzXrX<XrXpXlXHXAXHXZXVXSXSXdXeXqX-X-X-X*X*XpX].X   . X @   O + 5 e e e u u u m m N V V A 3.3.9.9.5.j.s.y w w r r r y d j.j.j.v.z.H g & $ $ $ & % @ o o 1 2 1 3 i h.u.( f y 8 8 8 *.8 3 k R Y I P I , n H j.V.D.p.h.u.u.:.d d Z Z Z d.z.z.z.z.v.7.v.z.z.z.7.7.7.3.",
"G F v v j j j j k h h B B C H 7.7.7.7.7.7.9.v.F.v.F.Z.Z.D.p.p.a.t.a.a.a.a.^.~.W.T.m.x.X.).{.+.+.[.'.0.M i w.,.;.<.;.,.q.,.;.;.6.G Q ....E E J x.J.H.L.S.S.S.L.Y.Y.Y.Y.Y.H.H.H.G.G.J.J.G.F.G.G.F.F.v.9.3.7.7.H H K B B B j j j j g % ; b E E ).*XaXaXSXrXjXkXhXhXaXdXjXaXeXaXjXNXNXNXjXjXdXaXjXBXhXyXnXNXjXSXlX*X% ; l l l l v l l > ; ; ; % % + k k + + + k k k h h h h h m m m C C 3.3.9.v.F.v.v.3.d.d.s.f.l.h.2.H.T.P.J._.M.G | | | ..O.G h 0 3 8 7 7 8 ,.V.,.,.<.;.,.w.V C F b R T b D K v.P.W.W.E.S.S.~.R.R.R.R.H.n.H.J.J.J.P.P.P.P.P.P.J.G.J.b.b.x.x.z.8.8.H K D D D v v v b E E W o.o.Q +.&X1X2X2XfXzXfXfXfXfX2XfXlXlXlXfXlXlXzXlXSXSXAXSXlXpXrXpXrXpXfXpXkX*Xb X               O + 5 5 5 w w w e e i i u a a a :.2.2.4.5.j.3.Z Z _ u.u.u.u.u.u.h.C.C.F.v.n , , Y I U , k o 1 6 2 6 7 ;.:.s y.>.<.8 =.*.*.7 0 - U I I I I , E x.G.S.S.Z.l.s.f.i.p.p.i.k.l.S.K.A.A.K.K.K.A.K.A.C.C.C.C.C.j.5.5.5.3.3.3.3.C H K D D v v F E ].l . - |.kXAXlX<X,X1X|.{.1X2X2X<XqXrX<X<XrXpXfX<X*X*X1X1XaXZXZXZXSXSXVXdX0X-X-X-X-X|.-X*X*XqXW + @   @ O O + e e e u u u m m N V V V 6.6.3.9.9.5.j.s.w r w r r r p 2.j.j.5.v.z.H - & $ $ $ & % 0 o 1 2 2 2 3 8 4.u.( s y 4 7 =.*.=.3 5 l U I I I , , K j.V.D.p.p.h.u.:.d d Z Z Z _ z.z.z.v.b.v.v.v.z.z.7.7.7.7.",
"v j j k k k k k h B C C C C C 3.7.7.9.z.v.v.v.v.v.F.Z.D.p.p.p.a.p.a.a.p.^.~.W.K.oXm.` o.].+.+.+.}.8.M i ;.w.;.;.,.<.,.,.,.;.;.1.J E Q ..T T G J m.J.L.W.L.S.S.S.Z.Y.Y.R.Y.H.H.H.H.J.J.F.F.G.F.F.F.F.v.9.9.9.3.C C H H B j h B D v % X - g - b ].|.<XSXrXSXSXhXwXaXjXNXbXjXdXjXjXjXjXdXaXeXeXdXNXnX9XyXCXyXdXVXrX(.% . ; z : - - ; # X X X X + + + + 5 e e e e h e u u m V C 3.A V 1.3.5.v.H.H.F.v.2.d.g.s.f.l.s.h.L.P.P..X_.x.G | | | +.o.D 5 3 3 7 7 8 ;.q.h.V.,.<.<.,.4.1.M K F b R b v D 7.J.W.W.E.E.E.W.R.R.R.R.R.H.H.J.J.J.P.P.P.P.P.P.P.J.J.G.b.v.b.v.z.z.x.J H K D D v v l v v b E E E +.-X-X&X&X2XfXfXfXfX2X2XfXzXkXdXfXzXlXlXSXAXAXSXzXdXkXlXzXpXpXpXlX>XpX*Xl             O O 5 4 5 e w w y i i i i a a a >.:.2.4.5.5.j.2.a d ( s.u.u.u.u.h.h.C.C.F.v.n , , Y Y U : k o 1 6 6 6 6 i :.:.y.>.y 8 *.*.=.7 0 % U Y P I I , T x.G.S.S.Z.k.s.f.i.a.p.p.k.k.S.K.A.A.K.K.K.A.K.A.C.C.C.C.C.C.5.5.5.5.5.5.3.3.C C K D D D v v W l . v jXSXpXkXkXpXpX X+.&X<XfX<XrXrX<X<X2X2X2X*X|.-X<X1XrXVXNXSXZXZXlXpX<X-X-X*X-XfX-X-X-X*XqXD +   @ 5 + 5 e e u u u u u N N V V 1.6.3.3.5.9.5.j.s.w r w r r r f 2.j.5.5.v.v.K - $ $ $ $ # % 0 1 3 2 2 2 2 8 >.>.:.h.;.8 7 =.*.=.3 O - U I I I < , K d.C.D.p.V.h.s.:.:.Z Z Z Z A z.z.z.v.b.v.v.v.v.v.z.7.7.7.",
"* * * e k h m B C C C C C 3.3.3.9.9.v.v.v.v.v.j.F.C.Z.D.p.a.a.a.a.p.p.^.^.~.W.P..X8.G  X+.$.+.{.OXC u M w.w.;.;.q.q.,.,.,.,.,.;.K E ..T T T T G 8.G.P.L.S.E.E.S.U.U.R.Y.Y.H.H.H.H.F.F.H.I.G.F.F.F.F.F.j.5.5.3.3.3.3.C C B B B B D - l l ; b *X*Xo.].-XlXAXkXrXyXeXaXjXbXjXaXaXkXaXNXNXdXjXjXdXsXyXuXhXnXbXyXdXNXjX}.% . : - X % X X . . X X @ + + 5 5 5 e e m m N V A 3.3.3.3.3.5.j.v.v.v.F.H.H.j.s.j.g.s.l.l.:.Z.A.L.P.J.x.J G R  ...O.W h 0 0 7 7 8 ;.>.V.h.h.V.<.<.,.,.w.6.M F T c c E D K G.W.E.E.E.E.S.R.R.Y.Y.Y.H.n.J.oXJ.P.P.P.P.P.P.P.P.J.J.G.G.b.b.b.b.x.x.x.x.J H D D v v l g z z R {.fX1X&X&X*X-X<XfX<X2XfXfXfXzXzX<XzXfXlXSXlXlXlXzXpX<XdXzXpXpXzXpX<XpXfX@Xz       @ O O 4 5 4 4 4 y y y i a >.>.>.1.1.1.6.4.5.5.j.C.s.d f ( s.f.f.u.u.h.C.C.C.F.b.n , , Y I U c + o 2 6 6 6 6 y h.s y.i.y 8 =.*.=.7 0 q , U I P I U n ` J.Z.Z.Z.Z.f.k.i.p.p.p.k.h.C.L.L.A.A.A.K.A.A.A.A.A.C.C.C.C.C.C.5.5.5.5.5.3.3.A C K D D j v k . % 0XHXpXkXpXrXpXpX-X|.&X-X<XpXqX<X<XrXpXpX<X|.|.<XzXpX=X0XlXlXlXSXVXfX-X-X-X-XeXdXpX-X-X-X>X@Xk @ + 5 5 e e u u u u u u V V V V V 1.3.5.5.5.5.j.:.w w w r r r >.j.j.j.v.v.9.K ; & $ $ $ & % 0 1 2 2 6 6 2 3 y 4.4.>.y 8 -.*.=.*.8 o v U Y I I < , n d.q.q.V.V.h.h.s.2.2.Z Z Z A 3.z.v.b.b.v.v.v.z.z.v.9.7.9.",
"e e e e h m B C C C 3.3.3.3.3.9.9.9.v.v.v.v.v.v.F.C.Z.D.p.a.a.a.a.p.p.E.~.~.Q.P._.W E {.+.$.+.{.`.M M ;.w.w.;.>.q.A.q.>.>.,.,.,.C G E E T | | O.J b.P.L.E.E.E.S.U.U.Y.Y.Y.Y.H.H.H.H.F.H.I.K.F.F.F.F.F.F.j.5.5.5.3.3.3.A C C C B v v v l G *XpX1X|.].].,XaXaXeXtXdXdXjXdXdXdXjXdXjXZXNXjXNXNXjXhXhXyXhXnXbXsXhXNXVXkX].% . X # X # # . . X @ @ 5 5 5 5 i u m V V V 1.6.3.3.3.5.5.5.v.F.F.F.H.H.H.j.s.g.g.f.l.l.:.S.A.L.P.G.x.J O.! ....o.r.q 3 7 7 7 8 ;.h.l.f.s.V.<.<.,.<.;.w.M F E R R E v D b.W.W.E.E.S.L.R.R.Y.Y.R.H.n.J.XXJ.P.P.P.P.P.P.P.P.P.J.J.G.G.b.b.b.z.x.x.x.x.J J J G F v v b z Q 1XzXfX1X-X*X&X-X<X2XfXfXfX2XfXfX2XzXpXlXSXlXlXlXlXkXdXzXzX<X1X<X<XfXpXkXaX].%   @ O O 5 4 5 4 y y i i i i i >.>.>.>.1.6.6.5.5.5.j.j.s.d d _ f.u.u.u.i.V.V.C.C.v.z.n , < I I U c + o 2 6 6 6 2 8 >.>.:.>.y 8 =.*.*.7 3 5 : U I P I U c ` J.H.Z.H.H.k.k.i.p.p.p.k.h.C.S.L.A.A.A.A.A.A.A.A.C.A.A.C.C.C.C.C.q.5.5.5.5.9.9.7.K J J F z k ; [.aXnXNXrXeXrXdXdX<X-X-X1X1XqX<X>X<X<X<X2X<X*X|.*XdXpX*X=XlXjXdXjXVXdXpXqXfXpXdXlXfX-X-X-X=X9XOXh @ 5 e 5 u u u u m a N V V 1.1.2.3.3.5.5.j.j.h.s w w r r r r :.j.j.v.v.v.9.K ; & $ $ $ & - 0 1 2 6 6 6 6 2 8 >.V.>.8 7 *.=.=.*.8 o v U I I I < , n z.5.q.q.V.h.h.2.2.Z Z Z Z A A z.z.v.v.v.v.v.v.z.z.9.9.7.",
"e e h m N C A 3.3.3.3.3.3.3.9.9.v.v.F.v.F.F.F.F.F.F.C.D.p.a.a.a.a.a.^.^.~.~.Q.P.'.W ..;X+.+.+.{.8.9 w.;.;.w.y q.C.A.V.>.>.,.,.,.1.K J E | | | O.J b.J.L.W.E.E.S.U.U.U.Y.Y.Y.H.H.P.H.H.J.I.I.I.I.K.K.F.F.F.C.5.5.5.5.3.3.3.A C C j D v F *XlXzXpXpX*X|.@X>XrXyXkXNXNXjXdXjXZXNXjXbXZXNXjXNXZXNXjXbXhXhXnXbXsXbXBXNXZXdXo.X . # % % % X . . @ + 5 5 e i i 1.1.6.3.6.6.5.5.5.5.j.j.j.F.F.F.F.G.G.v.j.s.g.l.g.g.l.:.S.S.L.P.b.` G T | | ..(.8.9 3 7 8 7 8 ;.V.l.s.s.q.<.<.<.<.;.w.V D E R R T b D b.L.W.E.S.S.L.T.T.R.R.R.H.v.m..XJ.P.P.P.P.P.P.P.P.P.P.J.G.G.G.G.b.v.v.x.x.x.x.x.J J G F b b E |.lXzXfX<X<X-X*X*X1X2XfXzXfX2XfXfXfXzXpXlXSXlXlXlXlXlXlXlXdX<X*X|.<XfXpXlXlXqX(.%   O O 5 5 4 y y y ;.i i i ;.>.1.6.1.1.4.5.5.5.5.j.j.h.s._ f.f.u.u.u.V.V.A.C.C.v.z.n , < Y P U c + 1 6 6 6 7 2 3 y :.>.<.8 8 =.*.*.*.3 + - , I P P Y c ` J.H.S.H.H.l.k.i.p.p.p.k.s.V.Z.S.S.S.S.A.A.A.A.A.A.A.C.C.C.C.C.C.C.q.q.5.5.9.9.7.8./.`.W z ; /.jXjXhXSXkXkXkXSXSXlXpX<X<X1X<X1X-X1X<X<X<X2X-X X|.pXzX1X-XlXdXpXdXlXjXpXfXlXlXVXVXdXfXqX-X-XqXIX`.5 5 e e u u u m N V V V V 1.2.3.3.3.5.j.j.j.:.r w r r w w p :.j.v.v.v.v.v.D ; $ $ $ $ - - 0 2 6 6 6 6 6 6 3 y 4.;.8 7 7 =.=.*.8 o j R Y I I < , n ` j.q.q.V.h.h.s.2.Z Z Z Z S A 3.z.b.b.v.v.v.v.v.z.z.7.7.",
"u u m N C A 3.3.3.7.9.9.9.9.v.v.v.F.F.F.F.F.F.F.F.F.C.D.p.a.a.a.a.a.^.~.~.~.Q.P./.W +.{.+.+.+.].M 9 ;.;.;.>.;.A.Z.Z.Z.:.>.>.,.,.w.6.J E | | | | G 8.G.L.W.E.E.S.U.U.U.U.Y.Y.Y.H.P.J.J.P.I.L.I.L.I.K.K.F.F.F.C.j.5.5.5.5.3.3.3.A K B K OXNXSXpXfXSXzXpX<X,X,X0XaXjXNXjXjXNXHXGXNXaXNXjXdXNXZXNXNXNXjXhXhXhXhXbXBXBXaXjXdXE . . : ; - % . @ + 5 e i i 1.1.6.6.6.6.5.5.5.5.5.j.C.C.j.F.F.F.H.G.v.v.h.h.g.c.g.g.f.2.S.S.L.P.m.J E | | ! +.).0.9 3 8 =.7 8 i 4.j.f.s.q.;.<.<.<.<.w.M L T R R R b v 7.L.W.E.S.S.S.R.T.R.R.R.H.d.n.J.J.P.P.P.P.P.P.P.P.P.P.J.G.G.G.G.b.b.b.b.b.x.x.x.x.J X.G v W |.pXlXpX2X<X<X<X1X*X*X-X<XfXzXfXfXzXfXpXpXlXSXlXlXSXSXkXlXdXkXpX*X|.<XfXzXzXpXjXaX/.@ @ O 5 5 y y y i i y i i ;.1.4.4.1.6.5.5.5.5.5.j.Z.j.s._ _ f.f.h.i.V.V.A.C.F.v.` l , < Y I U c + 1 6 6 6 7 6 3 4 V.>.y 8 8 =.*.*.*.3 O ; , I P P , c ` J.H.S.L.H.Z.k.i.p.p.i.k.s.h.Z.S.S.S.S.A.A.A.A.A.A.C.A.C.C.C.C.C.C.C.q.5.5.5.9.b._.OXOXX.v F 9XhXnXhXsXHXnXSXAXAXSXdXpX<X<X<X1X*X|.*X<X2X2X-X|.|.<XlXdXpXlXdXpXpXjXdX<XpXlXVXVXVXdXfXfXqX-X=X9XiX`.k 5 h u m m N V V V V 1.1.6.3.5.5.j.h.h.h.s w w r r w r d 4.j.v.v.v.v.b.D ; # $ $ $ > - 0 1 6 6 6 6 6 6 3 8 ;.y 8 8 7 =.=.=.8 o j R Y I I < , n ` d.q.q.j.j.j.j.d.A Z Z S S A A d.z.z.v.v.v.b.b.v.z.9.9.",
"m m V V 6.3.3.3.9.7.9.9.9.9.v.v.F.F.F.F.F.F.F.G.H.H.Z.D.p.a.a.a.p.D.E.~.~.!.P.XXr.W +.+.+.+.{.(.e i i ;.;.;.>.C.Z.Z.Z.h.>.<.,.,.w.w.7.J T R ! R G J G.I.W.E.E.S.U.U.U.U.Y.Y.Y.H.H.P.P.P.I.I.I.I.I.G.F.F.F.F.C.C.5.5.5.5.5.3.3.3.7.H %XmXHXjXaXkXlXSXSXlXrX=X*X=XqXaXdXjXbXZXZXNXaXbXjXdXjXbXjXNXNXjXdXsXhXhXbXnXGXaXpXSX<Xz X ; ; : - X + e u u 1.1.6.6.6.6.6.3.5.5.5.5.5.j.C.C.C.F.H.F.G.v.v.3.d.j.g.g.g.g.s.h.L.E.W.P.m.J T | | | +.(.K 9 7 -.=.8 8 y >.j.j.j.4.;.<.<.<.<.;.i j T R U R b v 7.L.W.S.S.S.S.R.R.R.Y.R.H.d.v.J.J.J.P.P.P.P.P.P.P.P.J.J.J.G.G.G.b.b.b.b.b.b.x.x.x.x.X.J G ].eXlXpXdXeXrXeXpX<X*X X|.*XfXzXfXfXfXfXfX<XdXSXlXlXSXSXfXdXpXzXlX<X1XpXzXlXfX<XdXZX9XH O O 5 e i i i i ;.;.<.>.>.>.4.4.4.4.4.5.j.C.C.C.h.s.s._ _ f.f.h.:.V.A.C.C.F.v.H l , , Y Y U z + o 6 6 6 7 6 2 3 <.<.8 8 7 *.*.*.=.7 O ; , I P P < , ` J.L.A.L.H.Z.k.k.i.p.i.k.s.h.Z.Z.S.S.S.A.K.K.K.K.A.C.A.A.C.C.C.C.C.C.C.j.j.5.3.x.`.}.(.W E @XtXwXhXnXeXjXhXNXSXSXlXaXrXqXpX0X<X*X]. X1X2X1X1X&X|.-XdXlXlXlXlXdXjXlXfX>X0XdXlXlXdXpXqXqX-X*X*X@X9X9X/.k e h m m N V V V V 1.6.6.6.3.j.j.h.u.s p w w w w r f s.h.n.v.z.v.v.v.D ; # $ $ $ & % 0 1 6 6 6 6 6 6 3 y >.8 4 8 7 *.=.=.8 3 j R Y I I < , n ` d.5.q.j.j.j.j.d.3.A A S S S S A A A z.z.b.b.b.v.v.z.v.",
"V V V V 1.6.3.3.9.9.9.v.9.v.b.v.F.F.F.F.F.F.G.G.J.H.Z.D.D.a.a.a.D.D.E.~.~.Q.P..XJ o.+.+.+.+.].X.e ;.y ;.,.<.,.A.Z.k.N.k.>.<.,.<.,.w.6.J T R R R E J 9.I.W.E.E.S.U.U.U.U.Y.Y.Y.Y.H.J.P.P.I.I.I.I.G.G.F.F.F.F.C.C.C.q.5.5.5.5.5.3.7..XxXKXCXjXjXpXkXlXSXlXkXrX=X+X,XqXaXjXNXNXNXBXdXBXNXdXdXjXdXjXlXkXaXaXsXbXbXnXaXjXaXlXSX*Xl . ; : l ; k h m V 1.1.6.4.6.5.3.5.5.5.5.j.C.C.F.F.F.F.H.H.G.v.z.A d.j.g.g.c.g.s.Z.W.W.W.P.m.J T | | | +.o.L 9 9 -.=.8 8 8 >.C.j.5.>.;.<.<.<.<.;.9 M E R U R T v H H.L.L.S.S.Z.L.R.R.Y.R.H.g.v.m.J.J.J.P.T.P.P.P.P.P.J.J.J.G.G.G.b.b.b.b.b.b.b.'.'.x.K ` }.0XVXSXdXaXeXwXyXdXeX=X|. X|.-XfXfXfXfX2X2X<XpXlXlXzXlXSXkXdXpXlXlXpXpXdXfXfXpX2XpXdXyXiXM 5 O 5 i i y i >.>.>.>.>.>.4.1.4.4.4.4.C.C.C.C.a d d s.f.f.s.u.h.V.A.q.C.F.v.` c , U Y Y U c @ o 2 6 6 7 6 2 3 8 8 8 8 =.*.*.*.=.7 O ; , Y P P < , ` J.L.A.L.L.H.Z.D.p.p.i.f.f.k.k.D.Z.Z.Z.C.L.K.K.K.A.A.C.C.C.C.C.C.C.C.C.j.v.v.7.8.'./.E X.}.dX@X9XsXCXNX9XsXkXjXjXkXaXpXdXjXpXfX-X{. X1X1X&X1X&X|.&X*XfXSXlXlXlXVXVXdX0XqXdXqXqXqX<X-X<X<X<X>X>X#X9X9XJ 5 m m M N V V V Z 3.3.3.6.3.j.h.u.s r r w w w w t _ h.j.v.v.v.z.v.9.K - # $ $ $ $ % 0 1 6 6 6 6 6 7 8 <.,.y 8 8 8 *.=.=.8 3 j R Y I I < , , ' ` 5.C.5.5.j.d.d.d.A A S S S S S S C A 7.b.b.b.b.z.z.v.",
"1.1.1.1.1.3.3.5.9.v.v.v.v.v.b.G.F.F.F.F.G.G.J.J.J.H.Z.D.D.a.a.a.D.S.E.~.~.W.P..XW o. X+.+.+.].J i >.;.;.,.<.>.D.Z.k.N.k.>.<.,.<.,.w.6.J T R U R E J 0.I.W.E.E.S.U.U.U.U.Z.Y.Y.Y.n.H.P.J.J.P.I.I.G.G.G.G.F.F.C.C.C.C.q.5.5.5.5.9.v.7XDXDXmXnXjXdXzXlXSXSXlXlXdXqX,X>XwXjXNXlXNXZXNXAXNXdXdXjXaXaXkXdXdXaXhXnXNXnXqXaXdXjXSXlX{.# # : l g j B N V 1.6.6.4.5.3.5.j.5.j.j.j.F.F.F.K.F.H.H.G.m.v.7.V j.l.g.g.c._ d.H.W.W.Q.Q._.W T |  .| ..W h 9 9 -.8 =.8 8 ;.q.C.4.;.;.<.<.<.<.;.i M E R R R R v K H.L.L.L.S.Z.Z.Y.R.Y.R.Y.n.z.m.J..XXXXXXXP.P.P.P.P.P.J.J.G.G.G.b.b.b.b.b.b.b.b.'.J J OXyXNXHXHXbXwXwXwXtXaXaXqX>X*X|.&X-X2XfXfXfXpX<XrXlXlXlXzXzXlXkXlXlXdXpXzXzXzXfXfXpXpXaXbXLXoXm O 4 i y y i >.>.>.>.>.>.:.>.4.4.4.h.C.Z.C.h.a d s.f.f._ u.:.V.A.A.q.C.F.v.` c , U Y Y U l @ o 6 6 6 6 6 2 7 8 =.8 7 =.*.=.*.=.7 O ; , I P P < : ` J.K.S.L.L.H.Z.D.D.p.i.f.f.k.k.k.Z.Z.C.C.L.L.K.K.K.K.C.C.C.C.F.C.C.C.C.F.v.v.7.8./.W W  XpXpX[.=XjXCXCXyXhXyXsXhXhXdXdXjXVXdXpXpX<X1X-X*X*X|.{.&X*X X*XzXdXkXlXlXjXdXpXqXqX-X-X-X-X-X-XqXpX<XpX=X=XwX$XK m m M V V V V A 3.9.3.3.5.2.:.s p w r w w r t d s.j.j.v.v.z.z.v.z.K - $ $ $ $ > % 0 1 3 7 6 7 7 8 ;.>.,.>.y 8 8 =.=.=.7 3 k R Y Y I I , , ' ` j.F.5.9.9.3.3.3.A A A S S S S S S A 7.z.b.b.b.9.9.z.",
"3.6.1.1.6.3.9.v.v.v.v.b.v.b.b.G.G.G.G.G.G.J.J.J.J.H.Z.D.D.a.a.a.D.S.E.~.W.Q.P._.X.o. X+.+.+.].H i >.>.;.<.<.<.D.U.k.N.k.<.<.,.<.,.,.6.H E R U R T G 8.G.L.E.E.E.D.U.U.Z.l.B.Y.H.j.H.P.J.J.P.I.I.G.G.G.K.F.K.C.C.C.C.q.5.5.5.v.v.XXDXJXMXKXCXaXlXlXSXAXSXlXSXAXAX,X=X>XdXlXdXdXNXNXZXbXaXhXjXdXaXdXaXpXaXjXNXBXnXGXwXeXdXqXkXfX..X ; l v D B B C 6.6.6.6.5.5.5.j.j.v.v.F.F.F.F.H.H.H.H.H.m.v.3.V d.l.g.d.c.d.d.R.W.W.!.T._.X.T |  .| ..E k 9 9 8 8 -.=.8 9 w.q.4.;.;.<.<.<.<.;.i M E R R R b v B F.L.W.L.S.S.Z.Y.R.R.R.R.n.n.J.J.XXXXXXXXP.P.P.P.P.P.J.J.J.J.J.G.J.J.m.m.b.b.x.x.J OXyXGXBXHXHXaXwXyXuXyXtXyXpXeX<X|.|.&X-XfXzXzXfX<X<XlXlXlXkXkXlXzXlXlXpXpXlXlXlXlXdXpXdXVXZXbXMXx.5 e u i i >.>.>.>.>.>.>.4.4.j.4.4.j.Z.Z.h.:.:.s.s.s.s._ :.:.A.S.A.q.C.F.v.` v c U Y I U l o 1 6 6 6 6 6 2 7 ,.<.8 7 =.*.=.*.*.7 4 ; , Y P P < , ` m.H.S.L.H.H.H.Z.Z.k.h.f.l.k.k.k.k.Z.j.Z.H.H.H.K.K.K.C.K.C.F.F.F.F.C.v.v.v.7.z.x./.W ].<XSX>X+X@XNXNXsXHXhXwXeXaXkXdXaXdXjXdXaXkXlXpX1X*X1X+.o.*X2X{. XpXfXfXdXdXpXpXpX<X*X-X<X-X*X+X*X-X-X-XrXpX=X#X9XOXh m M V V C C 6.3.3.3.3.2.a f w w w r w w t S _ c.d.d.z.z.x.x.8.` G > = = $ $ > % 5 1 3 7 6 7 7 8 >.>.>.p.<.8 =.=.=.=.7 3 q T U Y I I U , n ` z.z.8.J J K K D K S _ _ _ A A A A A 7.z.b.b.b.9.9.v.",
"V 6.3.6.6.3.9.v.v.v.v.v.v.v.v.G.G.G.G.G.G.G.G.J.P.H.Z.k.k.a.a.a.k.S.W.~.!.!.P._.X.+.+.@.+.].).N i ;.;.>.;.<.y V.D.D.U.p.<.p.,.<.,.,.1.C J G R R E F H G.P.W.E.E.S.Z.Z.H.n.B.B.n._ n.J.J.J.P.P.G.H.H.H.L.K.K.A.A.C.K.5.5.v.9.v..XuXbXLXCXBXCXNXNXZXAXAXZXZXHXHXZXzX,X+X<XpXqXpXjXZXBXjXtXhXCXnXeXeXjXdXpXNXZXNXNXNXaX<X<XeXdXdXpXc ; l n v D B C 3.3.6.5.5.5.j.j.j.v.F.F.F.F.F.F.P.H.n.J.m.d.A 2.Z.l.l.l.l.h.Z.!.W.L.T.XX'.` T ..| | ..F h 9 9 8 =.=.-.=.9 ;.w.>.;.;.<.<.<.<.;.i M F R R R v g B I.W.W.W.E.S.S.Z.R.R.R.R.J.J.J.G.XXoXoXT.P.P.P.P.P.P.P.J.J.J.J.J.G.J..Xb.b.'.'./.`.9XBXZXnXZXGXbXyXwXeXsXhXkXkXkXdXqX=X|.[.*XfXfXzXfX2XfXlXjXdXSXVXdXjXdXzXlXzXlXSXNXSXlXdXpXlXAXNXuX8.5 u i i >.:.>.>.>.>.>.4.5.2.j.j.v.j.s.:.s s.s.g.g.Z Z s.j.V.V.A.A.A.K.F.z.v c , < I U z 0 2 6 6 2 6 7 2 8 D.,.<.8 =.=.*.*.*.7 0 k : Y P P = , n M.J.J.G.J.b.b.m.m.n.j.d.l.f.f.k.s.g.l.s.j.H.H.F.F.F.K.K.K.K.K.F.F.F.v.v.v.c.H ` /.(.*XzXlXrX,XaXZXaX0XaXjXNXdXeXeXeX0XeXkXjX>XeXSXzXpX<X|.z % E -X-X<XzXfXfXfXdXdXfXeX0X=X0X=X=X+X[.|.-X*X-X-X-X-X=XaX0X` k C C V 3.6.1.5.C 3.3.a w w w w r r r f S ` G ' ' ' ` G F G G G , , > = P > > g 5 1 3 7 7 7 8 <.>.t.t.t.p.<.=.7 =.=.7 7 5 W R U U U U U U n n n T R U U U , n n S z.d.h.j.v.3.7.7.b.b.b.v.b.b.v.",
"C C C 7.9.3.9.F.v.v.F.F.F.v.G.G.G.J.J.G.J.J.J.H.L.H.Z.k.k.a.a.U.Z.S.W.W.!.!.P.'.X.+.+.@.+.].).N i ;.;.;.;.;.y >.S.p.D.p.<.<.<.,.,.,.w.6.J E R R T G J b.P.W.E.E.S.S.Z.Y.Y.B.B.B.g.n.H.H.H.P.P.I.H.H.L.L.K.A.A.A.C.C.C.v.9.9..X5XMXZXHXCXbXnXnXbXZXHXHXZXZXHXHXZXzXpX1X*X1XpXdXdXkXNXnXsXyXhXhXwXwXdXjXjXNXNXlXjX>X=X,XqXdXkXkXkX Xc - z F D B C 3.3.3.5.5.j.C.C.F.F.F.F.F.F.G.G.H.H.R.R.n.3.3.j.Z.Z.l.h.h.Z.L.L.L.L.T..X'.J T ......o.G M i i -.-.-.-.-.9 ;.1.;.;.;.<.<.<.<.;.i M F T R R c g B I.W.W.W.E.E.S.S.R.R.R.R.J.J.b.b.P.oXT.oXT.P.P.P.P.P.P.P.P.J.J.J.G.G.G._.'.'././.#XeXbXNXjXsXsXbXhXhXhXjXnXhXdXdXNXkXpX>X|.+X>X<XzX2X1X2XfXpXpXVXlXdXkXfXfXzXfXzXAXSXlXzXpX2XfXzXlXnX#XC e i >.i >.>.>.>.4.4.4.5.j.d.d.d.s.s.2.u.l.s.d.d.A 3.v.v.F.F.K.K.H.G.v.x.F R , I I , L 0 6 6 6 2 3 3 7 <.p.p.,.=.8 =.=.*.*.7 0 q l Y P P = , n X.'.m.b.m._.'././.` z.z.n.g.f.f.s.s.g.2.l.H.H.H.F.F.K.K.K.I.K.F.I.F.v.v.z.M.` ` (.}.1XfXfXdXaXkXjXrXaXNXkXVXeX,X>XqXeXeXeX9X#XyXVXrXpXpX{.- % c {.*XfXzX2XpXfXfXqX<X<X0X0X=X=X<X=X+X*X-X*X-X*X<X<X-X<XrX+XK j B A 3.1.6.5.A 3.A u e w w r f s 2.d.` G n n n n n n n c c , , , , Y Y Y Y z 5 3 3 7 7 8 y ,.t.t.t.t.p.,.<.=.=.=.7 7 5 W R U U U Y U U U U U Y Y I I I < , n K z.j.j.C.j.7.z.z.v.b.v.v.v.v.v.",
"8.C C 7.9.3.5.F.v.v.F.F.F.F.G.G.J.J.J.J.J.J.J.P.L.H.Z.D.U.a.a.U.D.S.W.W.!.!.P._.X.+.+.@.+.].).B i ;.;.<.;.>.<.y D.p.p.,.<.<.<.,.,.,.>.C K F R R R b J b.P.W.E.E.E.S.Z.Z.Y.R.B.B.n.n.n.H.J.P.P.H.H.H.L.L.K.K.K.K.A.5.F.F.9.b.5XcXbXCXZXNXbXNXBXNXZXHXHXHXHXHXGXZXlXlXpX1X@X=XpXjXNXBXNXaXtXhXhXyXqXeXjXNXlXlXjXaX=X,XwXNXVXdXpXaXdX+.- g G F D K 7.7.3.5.5.C.C.F.F.F.F.F.F.F.F.H.J.J.J.H.d.Z d.n.l.l.l.s.j.H.R.L.L.L.P..X'.J E ..! ! ..F m u ;.;.;.-.-.;.8 i 6.;.;.;.<.<.<.<.<.;.h L T R c l l B P.W.W.W.E.E.S.S.R.R.Y.B.B.m.b.b.XXoXoXoXoXP.P.P.P.P.P.P.J.J.J.J.J.G.b._.'.'.'.`.sXeX0XqXdXeX9XtXwXwXyXhXjXjXkXjXVXkXdXrX*X+X*X*X2X1X1X<XpXpXdXdXdXpXkXfXfXzXfXzXSXNXzXzXzXfXfXzXjXhXMXOXu i 1.i >.>.>.4.4.4.4.4.v.d.3.A Z 2.s.h.f.s.A A A z.x.x.7.z.7.z.7.H J G b R I I I , z 0 6 6 7 2 1 4 ;.q.,.p.p.<.8 8 =.*.7 7 0 q : = P P = > , T J J J J J G n n v x _ c.g.d.j.s.d.c.d.J.J.J.J.J.H.K.K.K.F.F.F.G.G.b.v.z.x././.[.*X<X2XfXVXkXjXpX0XqXpXqXlXeX,X,X0XeXwXqX>X#XrXaX>XpX1XE % % : R {.2XzXfXfXfXfX<X-X-X0X0X0X=X<X<X-X-X-X-X-X&X-X<X-X=XrXrX`.j h H C V 5.6.3.7.3.V f f a d :.h.n.m.` n n c , , , , , , , , , U I I Y Y U R 5 3 3 3 3 8 <.p.t.t.t.t.p.p.<.<.=.8 8 4 + T R Y I I I I I I I < < < I I I P , , G z.j.j.j.j.3.z.z.v.v.v.v.v.v.v.",
"8.K C C 7.7.9.v.v.v.F.F.F.F.G.J.J.P.J.J.J.P.P.P.H.Z.Z.D.D.a.a.U.S.E.W.W.W.!.P._.X.+.+.@.+.].).B i ,.;.<.;.>.<.y >.D.p.<.<.,.,.,.,.,.>.V D b R U R c F x.P.W.E.E.~.S.Z.Z.Y.Y.B.l.l.l.l.H.P.T.H.v.H.J.L.L.K.K.K.K.K.F.F.v.v.oXxXPXhXNXCXnXjXNXBXNXZXGXHXHXHXHXZXSXSXSXSXdX1X*X<XjXGXZXkXeXyXnXnXsXaXwXkXVXjXjXjXqX<XqXlXHXZXeX>X0XzX1Xb l G K J K H 7.7.5.5.C.F.F.F.F.F.F.F.G.H.H.P.v.3.3.d.d.j.c.l.l.g.d.n.R.T.R.P.P.J..X'.X.W ..! ! Q b k e i -.;.-.;.;.9 1.F.4.;.;.<.<.<.<.<.;.m L b c R : l D I.Q.W.W.W.E.S.S.H.H.Y.B.B.m.m.m.J.J.T.oXoXXXP.P.P.P.P.P.P.P.J.J..Xb.b._.'.'.`.@XNXrX+X=XlXqX@X0X9X9X0XeXsXkXjXNXNXpXrXpXqX>X*X|.*X-X<X<XfXlXlXqXqX<XfXpXfXlXfXzXlXkXzXzXzXzXzXzXdX0XvXiXx.u u a a >.>.4.4.4.4.2.5.3.3.A Z 2.2.s.s.2.d.A B D K D j v D v v l l : R U I I P , l o 2 6 7 1 1 y ,.D.y.p.p.>.y 8 8 8 7 7 0 q : = = P P = > : c z z v : : > > ; g K M.d.d.n.g.n.z.d.J.J.J.J.P.I.I.L.I.F.F.F.F.b.b.x.x.x.`.}.|.,X<X2XlXjXeXeXdXeX=X=X<XaXaXaXeXwXrXqX0XrX,X*X,XrXpX].; # - : l Q {.1XzXfXdXfXqX<X-X<X-XqX=X=X<X-XqXrXrXfX-X*X<X1X1X<X>X#XJ m C C 6.5.3.9.7.7.3.A 3.d.j.j.n.n.x.G n c R , , , , , , , , < I I I = P Y c 5 o 3 3 3 y >.i.t.t.t.t.t.p.p.,.<.8 4 4 @ n U I I I I I I I I I Y Y I P I I < , n ` j.j.j.h.2.3.d.z.n.v.v.v.v.v.",
"J 8.H K A 7.v.9.v.v.F.F.F.F.H.H.P.P.J.J.J.J.P.R.H.Z.Z.D.D.a.^.U.E.~.~.~.~.!.P..X(.+.+.@.+.].).j i ,.;.<.,.<.<.<.y ,.,.<.<.,.,.<.,.,.>.m v c U U R c F x.J.W.E.E.~.S.D.Z.Y.Y.N.l.n.l.j.l.H.R.H.H.J.J.L.L.I.K.K.K.I.F.F.v..XiXDXMXCXZXBXsXyXhXNXNXBXCXZXHXHXGXZXSXSXAXSXSXlXpX<X=XlXSXNXdXjXNXCXnXNXeXdXlXjXkXdX>X>XqXjXAXNXqX,X<X<XzX|.b v D /.J H 7.7.9.5.v.C.F.I.I.L.H.J.H.H.H.j.2.V 2.j.n.n.n.c.d.d.n.B.J.R.T.T.J..X.X'.W E ..! | | b k e i ;.;.;.;.;.y C.T.j.;.;.<.<.<.<.<.;.M L z c R R R G .XQ.Q.W.W.W.K.K.H.n.B.B.B.R.J..Xn.J.J.J.XXoX4X4XP.P.P.P.P.P.P.XX.Xm.m.'.'.`.#XwXjXrX@X0XNX0X@XeXhXgXyXyXyXyXkXNXNXaXdXkXfXpXqX-X*X&X-XfXlXSXlXpXqX<X<X<X<XfX2X<XzXlXlXzXfX2XfXfXpX>XwXIX$XC e V V >.1.1.4.4.4.2.5.3.3.3.3.2.2.2.d.d.z.K j g l : - > : > > > Y Y Y Y P = = Y z o 2 6 2 3 4 >.V.p.t.t.i.p.>.y 8 8 7 7 0 q - = = P P P P = > > > > = = = < ; g J M.n.n.J.n.v.3.V 7..XXXP.P.P.P.P.I.G.G.F.b.b.b.'.'.'.}.}.=XfXpXpXzXrX0XqXdXaX,X=XeXwXdXjXkXdXaXqX,X>X>X*X1XlX-Xc # # - : l T ..{.2X2XpXfX>X-X-X-X-XqX=X-XpX<XdXfXdXlXfX<X1X<X<X<X=X9XOXJ B 7.7.3.9.3.7.7.3.3.d.d.d.n.z.z.` G n R U U I I , Y Y Y I = I I I < = < , 5 o 3 4 8 >.p.t.t.t.t.t.t.t.p.p.<.8 4 4 @ n R U I I I I I I I I Y , P P P P P < n ` z.h.h.h.2.s.d.l.n.v.v.v.v.v.",
"J /./.H H z.b.v.v.v.F.F.F.F.G.H.P.P.P.J.J.J.H.Y.Z.Z.U.D.D.D.^.U.E.~.~.~.W.!.P..X(.+.+.@.+.+.).j y ,.<.,.,.<.,.<.y >.<.<.,.,.,.e.,.,.>.m v b U U U c b x.J.L.E.E.E.S.S.Z.Y.Y.Y.l.Y.l.j.l.n.H.Y.R.J.P.I.I.I.I.K.F.F.F.v.b.5XPXKXMXGXZXnXtXeXbXGXHXBXBXZXHXHXZXCXSXNXAXlXkXSXAX<XE |.pXHXHXNXNXZXHXAXkXaXdXdXdXrX=X>XrXkXlXdXqX0X0X<XSXpXo.z j J 8.H 7.7.9.5.v.C.F.K.I.L.I.F.F.j.j.2.2.3.j.n.n.n.d.z.` ` _.%X_._..X.X.X.X_.(.E T ! ! | | n k e ;.;.-.;.;.y ;.H.R.n.4.;.<.<.<.,.<.;.M L z c R R R T .XP.P.I.I.P.I.P.H.m.m.B.m.B.R.oXR.XXXXJ.J.J.P.XXXXXXXXP.XXP.XXXX.X_.'.'._.OX0XhXrXrX0XdXdX=X*XhXCXnXjXhXsXyXkXlXlXlXVXlXpXqXfXfX2X+.{.zXSXlXlXSXdXpXfX<X<XfX<X1XaXzXlXfX2X2X2XfXfXpXqXwXiX'.m u V V 1.1.1.4.4.5.v.v.z.3.d.d.j.j.n.m.x.D ; % - > # $ $ = = = P P P P = = = > z 0 1 7 2 4 y i.p.<.t.t.t.a.p.<.y 8 7 7 9 q - < = P P P P P = = = = = = = = > l J _.m.H.J.J.v.3.N v..XXXXXP.P.P.P.P.P.J.G.b.b.'.'.`.[.[.|.rXSXSXfXrXrXdXaX0X<X,X=X<XwXeXeXeXdXjXwX@X*XpXpXpX<XQ X . # % % : T T ..{.<XpX<X-X*X-XqX<XqX=X-XVXfXlXfXdXlXlXzXrX<XrXqX>X=X9X`.C A 3.6.9.3.7.v.7.3.3.3.3.z.z.x.` E R U Y I I P P P I I < Y I I , , < < : 5 o 3 4 y >.y.<.t.t.t.t.t.t.y.p.<.y 4 O O v R R U U U U U Y Y Y , , I P P I P < c ` z.j.h.h.u.s.s.g.n.n.z.v.v.b.",
"J /.'.x.H 7.x.b.v.v.G.G.G.G.J.J.P.P.P.J.H.H.H.H.l.Z.U.D.D.D.U.D.E.W.~.~.W.Q.P..X(.+.+.@.+.+.+.h 9 ,.<.,.,.<.,.<.>.V.<.<.,.,.,.e.e.,.,.a D T R U R R G x.J.P.W.E.E.E.S.S.H.Y.n.l.H.n.l.l.l.l.n.J.J.P.P.I.I.I.K.F.F.G.G.oXxXDXPXMXnXBXNXhXbXGXKXKXGXZXZXHXHXCXBXCXlXAXlXpXdXkX{.; l [.jXSXdXdXBXHXHXNXaXeXdXwX=X*X>XwXdXdXdXdXdXdXeXkXVX=XW v D J J 8.7.9.v.v.F.F.F.F.F.F.F.j.j.j.3.j.n.n.j.d.d.d.` ` /./.)././.'.'.'.'.).o.Q Q | |  .| n k e i ;.-.;.;.i h.Y.Y.n.5.>.<.<.,.,.<.;.M L F R R U Y R (._._.G.G.G.G.G.b.b.M.c.m.m.B.J.oXoXoXXXJ.J.J.J.XXXXXXP.P.P.P.I.J._._._.OX9XyXyX>X>XrXaXeX>X0XjXjXjXnXnXjXsXdXjXjXlXlXaX0XpXdXrX|.b E -XzXzXSXZXSXSXlX2X1X<X<X<X<XrXpX2X2X2XfXfXfXfXpX0XeX#XJ h N 1.6.2.4.5.j.5.v.v.z.z.z.v.v.n.m.m./.v % # = $ $ $ $ $ $ $ $ $ $ P $ $ = > z 0 1 7 3 y p.i.p.t.t.t.t.i.a.i.<.8 8 7 9 q k > = = P P P P = = = P P P = = > l J _.G.n.H.v.j.1.1.J.J.P.P.P.P.P.P.J.P.J.J.b.'.'.`.[.[.}.>XlXlXlXpXrXaXjXeX>X>X=X@X=X0X0X>X=XqXkXdX>X=XfXlXrXo.X   . X X X % c T R ..|.1X2X1X-X<XpXpXqX0X0XGXdXlXrXfXdXlXzXpXpXrX<X>X@X9X#X'.C C 3.3.3.v.v.d.3.3.3.A d.` ` X.O.R U Y I I P P I Y , > , , , , , , , l 5 3 3 4 i >.>.<.t.t.t.t.t.t.t.i.,.<.8 4 4 D D b T T T T b b z z - > Y I I I I Y c ` z.d.h.u.u.u.s.g.n.c.z.z.b.b.",
"G X.(.'.J K 7.b.v.v.G.G.G.G.J.J.P.P.P.H.H.H.H.Z.l.l.D.D.D.U.D.S.W.W.W.W.W.Q.P..X(.+.+.+.+.+.+.h 8 ,.<.<.,.<.<.y ,.!.,.<.,.,.e.,.e.,.,.a v T R ! ! R T /..XP.L.W.W.L.L.H.H.n.n.l.j.v.n.n.n.d.d.n.J.P.P.P.I.I.I.G.G.G..X5XPXPXIXbXbXCXHXHXHXKXHXZXHXHXHXHXHXCXNXSXAXAXAXlX<X|.E % X b *X<X>XqXjXBXZXSXaXeXdX<X+X@X*X>XrXwXaXNXZXNXkX>XVXNX+XG z J J 8.7.7.v.v.F.F.K.K.F.F.F.F.F.v.j.d.3.2.d.d.n.v.` /.).o.O.o.o.O.O.X.o.o..... . . . ...G h e i ;.;.;.y >.Y.Y.g.B.H.4.>.<.,.,.<.;.V K E R R Y Y R W J J J 8.8.8.8.J H H ` z.c.m.m.m.J..XoXXXXXXXoXXXXXXXP.I.G.G.G.b._._.`.#XhXhX0XrX,X,XrXaXkXjXjXjXnXZXHXCXjXaXaXNXkXpX<XqXSXVX<Xb % - ).-XlXSXzXSXSXSXrX-X<X<XrX1X<X<X1X2X2X2X2XfX2X<XpXaX9X`.B C 3.3.5.5.5.5.5.5.v.z.v.v.v.n.v.v.x./.b ; # $ $ = = $ $ $ $ $ $ $ = $ $ # % q 0 1 7 3 <.D.t.t.a.t.t.t.t.i.p.>.8 8 8 9 M j - = = = = = = = = = P P P P = $ l W .XJ.l.H.d.2.a V P.J.P.P.P.P.P.P.J.J.J.m._.'.).[.].].|.fXZXpX<XaXlXdXeX>XqXaX,X+X<X,X0X,X+X@XeXjXkX<X<XkX*X%     . . . . X ; c T ....&X2X<X<X<XpXpXqXqX0XGXpXdX<XrXdXpXqXpXfXrX-X*X#X,XwX$XH B 7.9.3.5.j.3.3.3.d.d.A _ ` ` O.c U Y I I P I Y U , c c c z v v v v j e 4 4 4 >.i.>.t.t.^ ^ t.t.t.p >.p.<.8 4 4 C M L L L M M q q 5 5 % ; , I P P I Y , ` z.s.i.u.y.u.u.g.n.n.z.z.b.b.",
"F G X.X.J J 8.z.v.v.v.F.G.H.J.J.J.P.P.T.R.R.Y.l.l.Z.Z.Z.Z.Z.Z.S.L.P.W.W.W.P.J._.).+.+.@.+.+.+.j i ,.<.,.<.,.<.<.D.!.~.<.<.,.,.e.e.,.,.a B E R U U R T X.'.G.P.P.P.I.I.J.J.J.m.n.m.m.G.J.m.n.c.z.v.v.G.P.F.v.G.G.G.b.5XcXPXvXbXnXCXHXHXHXHXHXKXHXCXHXHXZXCXHXHXCXAXSXSXSX<XE l c ; % z {.<XrXaXjXZXjXdXdXkXpX,X+X=X=X=X0XkXZXZXVXZXaXpXZXlX).l v J x.x.7.v.v.F.F.C.K.K.F.H.P.H.j.a 2.d.j.j.n.H.m.` (.].{.{.+.+.+.+.+.+.+.@.@. .@.$.@. XX.e 9 ;.;.;.;.>.j.Y.l.g.l.g.Z.:.<.<.,.<.;.V J W ..! ! ! ! T b G G W E G G G J J ` x.b.m.J.n.m.m.v.J.oXoXP.XXXXXXXXXX.XI..X.X'.%X%XwXnX9XrXkXeX<X<XrXaXjXbXjXyXCXHXBXNXNXdXkXaX<X0XqXlXlX|.- X % b ).<XSXAXSXlXSXfX|.&XfXzXfXpXfXfX2X1X2X2XfX2X<X-X<XaX=XJ m 3.3.1.5.5.5.5.5.v.v.v.v.v.j.n.z.x./.l # $ $ $ = $ $ $ $ # # # & > = # % - q 0 3 1 3 V.i.t.t.t.t.t.t.t.i.i.V.<.8 7 8 9 M g - = = < = < > > = = = P P $ $ : J '.n.H.h.d d a 2.H.T.T.P.P.P.P.P.P.J..X_.x.'.[.[.{.o.-XzXzXpXrXkXjXZXdXdXdX0XNXqXqX}.+X>XqXqXeXeXqX<XfXqXl   . .   . . . . % : c Q Q ].1XfXfXqXpXdXqX-XpXpXlXpXpXfXpX,X<XpX<X-X-X*X>X9XtXiX_.7.7.3.5.j.j.j.3.d.d.g.g._ ` ' ' n U U P P = Y U c l % + @ 5 0 @ 5 5 5 3 8 3 4 4.h.>.t.t.t.t.t.t.t.t.>.,.,.;.8 9 9 0 0 0 1 3 0 6 2 6 3 @ ; , U P I I < n ` _ s.u.:.y.y.u.f.l.n.z.z.x.b.",
"G G W /./.` 8.x.b.b.G.G.H.H.J.J.P.J.J.H.Y.Y.Z.l.l.l.l.h.h.H.R.T.J.P.P.L.P.P..X_.o.+. .@.+.+.o.j i ;.;.<.,.<.<.,.E.S.~.S.<.<.,.,.,.,.>.i j E R R R R T X.'._.J.J..X.X.X.X_.b.m.m..XJ.G.m.m.b.z.z.v.F.J.P.G.G.G.G.b.XXiXJXJXMXnXCXCXHXHXGXGXHXHXZXZXCXCXNXCXHXHXHXAXjXZXdXo.T E : : ; ; E ,XqX>XaXVXNXjXNXNXdX>X@X@X=X0XaXlXNXlXdXbXNXdXlXZX*XF v G J J H 7.5.5.5.F.K.I.F.K.P.H.j.a d.n.H.v.j.H.J.J o.{.{.+.+.+.+.+.+.+.+.+.@.@.$.@.+.].J e i ;.;.;.;.:.l.l.l.g.g.g.l.h.>.>.,.>.>.m K G T R U U U R R T T T T E E E E J ` '..XXXP.J.J.m.n.J.oXoXXXXXP.XXXX.XJ..XXX.X_.`.7XuX,X+X|.0XrXpXkXlXjXhXsXjXkXCXAXjXnXSXjXeXjXqXeXlXdX|.F X   . ; E |.fXlXlXfXlXSXfX<XrXfXrXfXfXfX2X2XfXzXfXfXfXfXpXdXqX[.D C C 6.5.5.5.j.5.v.v.v.z.j.j.v.z.x./.l # $ $ = = = = ; % % % % % % % % g j h 0 1 3 8 V.y.t.t.t.t.t.t.t.i.i.D.;.-.8 8 ;.w.L z z g z k k g : > P = = $ $ = , G M.l.k.u.d :.:.h.H.R.T.P.P.P.P.P.P.J..X_.'.}.}.[.{.{.-XzXzXaXpXaXsXjXaXdXkXrXlXqXwXkXwXrXaXaX0X>XrXdXdX).% . . .     . X X % % l T Q o. X<XdXfXqXpXpX-XpX<XdXfXfXdX>X*X,X<X*X*X-X<X0X0XwXuX$X8.C A j.j.j.s.2.s.s.g.d._ ` ` ' n , , = I < U , % @   o 1 1 1 1 1 3 1 1 1 o 4 >.h.>.t.t.t.t.t.t.t.s :.<.A.i o 8 3 1 3 9 7 7 7 *.*.*.6 o + l , , < < , ' ' _ u.y.:.y.y.s.f.l.n.v.z.b.'.",
"X.F G /.`./.8.7.b.b.F.G.H.H.H.H.J.J.H.H.H.Z.l.l.Z.l.l.d.v.m.J..X_..X.XJ.P.XX.X`.+.+. .@.+.+.].B i ;.,.<.,.8 <.~.~.U.~.!.p.<.,.,.<.<.>.i j E R ! ! R T o.(.x.8.8.H J J J K K J 8.oXXX.XJ.J.m.b.v.v.J.P.P.P.J.J.G.b.5XPXKXKXFXBXZXZXGXGXZXZXZXCXNXZXnXhXjXNXZXGXHXSXVXdX|.b b T - : l % - |.pX<XqXjXjXjXNXNXdX0X=X,X0XaXjXNXjXdXaXsXKXBXdXHXlX].v G X.x.H 7.9.v.C.K.K.K.K.H.L.H.v.2.d.H.H.F.H.H.J.W o.+.+.+.+.+. . . .+.+.@. . . .@.+.).J u i ;.y ;.>.Z.l.l.l.g.g.B.N.Z.u.<.<.;.a V K W Q R R R R R c R R R R R R T T E X._.XXoXXXoXJ.m.n.J.T.XXT.P.P.P.P.J.G.J.XX_._.OXIXbX,XrXrX<XeXlXZXZXNXsXtXyXhXZXCXhXjXVXjXpXeX0XlXjX|.T ;       . - o.-XfXlXfXzXSXlXpXfXpXfXfXfXfX2X2X2X2XfXfXzXzXfXpXqX=X/.K C 3.5.5.5.v.v.v.d.d.d.d.j.j.z.x.X.l # $ = = = $ # % % + + 5 q q q q k h e 9 9 9 w.V.>.a.t.t.t.t.t.t.i.k.D.>.8 3 3 9 M q q q 0 0 0 0 5 + % > = = = = = > G M.g.u.s s s :.h.L.R.T.T.R.R.R.P.P.J._.'.`.@X+X|.|.&X<XfXzXaXeXeXeXeXeXdXjXdXNXaXdXpXqX>XeXdXeXeXlXlX-X- X X . X .   . X % % X ; c ..E X.*XfXfXrX<XpX<XfX<XfXfX<X-X*X@X,X<X-X*X1XqXqX0XwXyXiX%XH A j.j.j.s.s.s.d.g.s.g._ ` ' n n , , , < , - .   o 2 6 6 6 6 2 2 1 o 1 3 4 a :.s y.t.t.t.t.>.t.y.:.d H.i o 0 9 0 7 8 7 7 *.*.=.*.7 o + g c , < , n ' _ ( u.y.y.y.u.h.l.n.n.v.b.'._.",
"O.E G X.`._.x.H 7.v.v.F.F.H.L.H.J.G.v.j.C.Z.Z.Z.Z.H.H.n.M.M.M.` X./.'.m.m._._.o... . .@.+.+.].D i ;.,.;.<.y ,.!.U.~.U.~.~.,.<.,.,.,.,.a B W Q ! R R Q ..X.G D D v z z l l v D K oXXXXXXX.XJ.m.v.v.J.P.J.P.J.G.b.oXxXJXFXKXHXBXCXGXZXCXBXCXZXCXBXZXhXyXhXBXBXCXZXNXSX+Xb b b l l : : % X E <XfX0XeXpXkXlXNXjXeX0XaXdXjXNXjXkXkXjXnXKXGXbXZXAX>XG F X.'.x.7.9.F.F.K.K.K.K.H.P.P.H.j.d.d.d.F.H.H.v.X.+.{.+.+.@.@.@.$.+.+.+.+.+.+.@.+.{.[.7.i i ;.y >.V.Y.N.N.N.N.N.N.N.Y.Z.>.>.q.w.m B G E E T T R T T R T R R R R R R b W '.XXXXP.J.n.n.n.J.J.J.P.P.P.P.J.J.J.J.XX.XOX5XMXwX@X>X<XkXkXjXkXjXdXdXtXeXnXAXCXNXNXjXeXdXeX0X<X].F l .   .     X l ].1XlXlXzXlXlXdXdXfXfX2X2X2X2X1X1X<XfXfXzXlXfX<XqX0X#X8.C 7.3.5.5.5.v.j.d.d.d.d.j.j.d.z.` g # # $ = # # % X @ o o o o o o o O 4 3 o 3 9 F.C.:.i.t.t.t.t.t.i.i.k.C.>.4 4 3 3 0 0 1 1 2 6 7 7 3 0 q z = = = = # ; x ` _ p s y.s s k.R.R.T.T.L.P.P.P.P..X'.'.OX@X+X|.*XfXfXpXdXpXqX0X0X=X>XrXaXdXdXeXkX<XpXeXqXrX0X<XeX<XW X X % X @   . . + ; % % % : Q T E +.*XfXpXpXqXqXfXpXfXlX<X*X*X*X,X<X<X1X<X<XqXqXqXsXbX5Xx.3.3.j.d.d.s.s.s.f.f.g.g._ ` ' n c , , > c g @ o 3 6 6 6 *.7 6 2 2 9 w.9.9.v.s.u.i.t.t.t.t.>.y./ d Z z.v.oX6X6X6X7 6 7 =.=.*.*.*.7 3 5 h v n , x ' _ ( / / y.y.u.u.l.l.H.n.v.b.'._.",
"..Q E W (.`.'.C 7.9.v.F.K.L.L.P.J.G.F.C.Z.Z.S.L.H.R.T.m.x.` ` G | O.X.X.` /.X.O.! | |  .| ..X.h 4 ;.>.<.8 ,.~.U.U.U.U.U.~.D.<.<.,.,.4.V B W Q Q R R R ....E G b Q R c c b E G J `..XXXXX.XJ.m.v.v.P.P.J.J.J.G..XiXDXPXuXmXHXSXSXHXCXnXnXBXZXHXHXCXhXyXnXZXZXCXZXZX0XW l E b : c : % X . % ].fXdXaXdXjXlXNXNXNXlXNXNXNXVXjXdXkXNXBXsXBXBXlXAXlX].b G (.'.7.3.v.F.K.K.K.K.H.P.P.H.j.d.2.2.j.H.H.v.X.+.+.+.@.@.@.+.+.+.+.].{.{.].].].}.OX9.a i ;.;.h.Z.B.l.g.B.Y.N.B.N.Y.Z.>.;.w.1.V K J J E W W W X.E E Q R R R ! R R n J _.XX!.P.H.v.j.n.J.J.P.P.T.P.J.J..XJ.J..X_.OXMXMX9X#X@X*XlXkXeX0XwXaXsXyXyXnXBXNXBXNXaXrXaXVX@Xb - - %     . X . . % b {.2XlXSXlXkXkXpX<X2X2X2X2X2X<X1X2XfX2XfXlXfXfXfXfXaX'.B 3.3.5.5.5.v.j.d.d.d.d.h.k.k.g.c.x # # # < # # X @ o 1 3 2 0 1 3 3 4 4 o o o 4 9.j.u.y.t.t.t.t.t.i.k.h.j.a o O o o 1 3 7 7 7 *.*.*.7 3 5 z > = = = < ; x _ ) p s / p s Z.R.R.L.P.P.P.P.P.P..X_.`.OX@X|.@X<XlXzXpXdXdXeX>X=X}.@X@X=X0X=X=X>X*X,X>X>X=X@X=XqX[.% X % X .     + X X % - - % % c E Q E o.-XzXlXpXfXfX<XfXlXzXpX>X=X@X=X<X2X<X<X<XfXpXaXmXuX%X7.3.5.j.j.d.d.s.s.l.f.g.g.` ` ' n , , l G j o o 2 6 6 6 7 6 2 7 ;.6X5X8X5X4XH._ s ^ t.t.t.:./ s t _ M.oXxXxXxXxXw.7 7 *.*.*.*.*.7 3 4 h B x x ' _ ) / ^ t.y.u.u.s.Z.F.H.v.b.x.'.'.",
"Q o.W F X.`.'.C 7.9.F.F.L.P.P.P.P.J.H.H.L.L.!.!.R.T.oXM.` G | | | | ..O.X.O.O.| | | | ! R T F 5 4 y ;.y y S.!.U.U.U.U.~.U.~.p.<.,.;.w.u M J E Q T R R Q Q T R R ..! R R R Q W G '..XXXXXXXJ.n.v.v.T.T.P.P.J..X5XcXDXgXwXbXHXHXSXAXNXhXbXCXHXHXKXBXjXhXBXHXHXHXZXbX(.v E b c c : z . . # X g -XAXlXkXjXjXNXZXZXAXlXlXNXNXjXaXdXnXnX9XsXVXaXSXAX1XE F X._.x.7.v.F.K.K.K.L.H.H.H.H.d.j.l.j.j.j.H.J.` +.+.+.@.@.@.+.+.o.(.`.}.OX}.[.[.OXoXG.1.;.<.>.h.l.l.f.g.B.Y.N.Y.Y.Y.Z.4.;.;.i 0.8.8.J K J r./.J G G E T R R R U R n X._.oX!.T.j.j.g.n.P.oXoXT.T.J.J.J..X.XJ..XXX5XPXuX9XsXeXaXeXwX<X,X0XdXIXsXsXkXyXyXhXaXqXqXeX0Xz X g X       . X % X # : T &XzXlXfXpXfXaXpXfX2X2X2X2X2X2X2X2X-X<XfXfXfXdXlXsXOXH C 3.5.j.5.j.j.d.d.s.s.k.k.k.l.c.x ; # # # # % % @ 1 2 2 2 2 6 7 1 o o 4 5 M M 3.Z s.u.t.t.t.t.t.a.k.h.j.2.u N u 5 3 2 7 *.*.*.*.*.7 3 0 g : < # < ; x t t p p / / s u.Z.R.L.P.P.P.P.P.P.J..X%XOXOX@X|.,XpXzXfXpXjXbXdXUX#X+X@X}.}.,X}.}.+X).X.).}.[.[.@X>Xv . X X         % + + % g l - ; : R Q b E  XfXlXrXpXdXfXfXSXpX<XaX0X+X+X<XfXfXfX<XfXdXaXbXvX$Xx.3.5.j.v.j.d.s.s.l.l.g.g.c.M.` ` n n n G j o 1 2 6 *.6 6 6 2 9 6XxXiXiX7X7XoX_ r / ^ t.y.s s f t %X:X$X$X5X5XxX8X;.=.7 7 *.*.*.7 1 3 u C S _ ) ) ^ ^ t.t.y.u.s.d.F.H.F.F.b.b.'.'.",
"....X.G W ).'.7.7.9.v.F.L.P.L.L.J.J.J.P.Q.!.!.!.T.oX.X/.` | |  . . .....O.O...| |  .| | R T G e 4 i i y >.~.~.U.U.U.U.U.U.~.U.<.<.;.;.i h F E Q Q T R R R R , > R U U U R T E F '.XXXXXXJ.G.n.H.H.T.P.P.XXG.XXxXDXcXIXbXnXCXAXAXCXjXsXnXGXHXHXKXCXBXNXNXZXHXZXNX+XF v W b c c ; ; . . % X X o.dXZXNXkXdXjXNXSXSXjXjXjXNXjXaXdXNXbXyXdXlXjXSXSXzX[.G J _.b.z.F.F.K.K.K.L.L.H.H.H.d.n.H.F.j.j.C.m.` +.+.+. .@.+.+.T z k 5 5 M 0.8.r.r.0.9.1.i y >.Z.l.N.g.g.N.Y.N.N.Y.Y.L.L.q.w.w.w.6.C M M M C 6.M M j L b R R U U U n O._.T.L.K.j.n.v.v.H.T.oXT.P.J.J..XJ.J..XoXiXMXMX9X9XtXeXqX=X>X0X0XeXIXbXsXyXyXwXeXhXwX>XyXeXo.X % -     .     X - % % : : +.1XfXfXfXpXpXdXfX2X2X2X2X2X<X2X1X-X<XfXfXfXdXdXdX9X'.C C 5.j.5.j.j.d.d.s.s.k.k.k.k.g.S g < # # # - % @ 1 2 6 6 2 6 7 2 3 1.oXiXxX5Xb.C d.u.i.^ ^ t.i.a.h.h.H.R.7X7X$XXXw.7 6 6 7 7 7 7 7 3 0 j l - ; ; x S s p p / / s u.k.Z.!.L.P.P.P.Q.P.P.P..XOX@X#X@X@X,XzXpXpXpXaXsXIXqX@X=X,X}.[.>X}.+X+X[.X.(.(.W ].}.G + X X         + q + + % g z z l ; l T T E o.*X<X<XpXlXSXlXlX*X|.jXhX>X=XfXfXfXfXfXfXdXdXbXbXiXoX3.5.5.j.j.d.d.s.j.j.l.g.z.` ` ` O.O.F F h o 1 6 6 6 6 6 2 1 M 5XUX5X5X$X:X:XB.( / s p s p r f _ $X7X7X5XiX8X8XxXw.8 6 7 *.7 7 6 6 9 1.1.Z d / ^ ^ t.t.t.y.u.d.n.F.F.F.G.b.'.'.'.",
"..o.X.W W /.'.b.7.9.v.F.K.L.L.K.J.J.P.T.!.!.!.W.!.oX.X/.O.O... . . . .....O...| ! ! ! | R E W h y >.i y !.~.U.U.U.~.U.a.U.~.D.p.y y i 5 k F E W E T b b R c , , , Y U R ! Q Q E /..XXXJ.H.j.v.H.F.T.J.J.XXG.oXcXJXIXmXKXCXnXAXCXBXhXsXnXHXKXHXHXGXGXBXbXnXSXnXdXG F F F b v : ; . . . X X X z |.HXZXjXkXjXNXNXNXNXjXdXjXkXaXjXZXBXGXbXdXAXAXSXAX*XG D '.'.x.b.v.F.K.K.L.L.H.H.H.j.n.H.n.l.j.j.d.` O.+.+. .@.+.+.g k e u M M i 9 h h u i ;.y i 2.n.B.B.B.l.l.Y.N.N.Y.Z.H.P.5.i 9 9 M M u i i i i i i h j F T R U U c n ` M.n.V.h.Z.H.v.j.H.T.oXP.P.J.XX.XJ.J.oX$XcXKXMXsXBXbXdX,X@X,XwXwXtXbXbXvXsXhXhXnXCXaX0XjXrXT : l     X       . % - - : % l {.2XzXlXfX0XpX2X2X<X2X2X2X2XfX2X<XfXfXfXfXfXfXdXsXOXK C 3.5.j.j.j.j.j.s.s.s.k.i.i.f._ ' x ; # X % + @ 1 2 6 6 6 6 2 2 ;.6XxXxXiXuX$X` d.f f./ t.i.i.k.s.s.oX:X:X$X7X7X6X;.7 *.*.*.7 7 7 2 0 5 k k g x t f s ^ p / / s k.U.R.!.W.Q.Q.Q.Q.P.P.J._.OX#X#X=X,X<XlXkXdXrX0XeXdXwX#XqX0X}.[.qX+X@X@X|.}.+XX.W =X*X% X g X   @   o + 5 k k + ; j F F - : b E Q E o.|.<XpXzXSXzXlX*X@XkXNXaXqXfXfX<X2XfX<XdXVXNXCXMX7X9.9.9.3.d.d.d.j.j.l.l.g.d._ ` M.` X.` ` m O o 1 2 6 6 6 6 3 M 5XUXUXUX9X:X7X:XR.d p p s p r d B.7X$X:X7X5X5X5X6X-.7 6 *.*.6 6 6 8 ;.q.2.f s / ^ t.t.t.t.y.s.g.H.F.F.F.G.G._.'.'.",
" XW X.).X.J /.'.7.3.v.F.C.W.!.A.L.I.P.Q.Q.L.W.!.R.T..XM.` O...| | | | ......Q Q | | | R b O.W B i i y C.T.R.Z.U.U.U.U.U.U.U.U.U.>.y 4 5 L W W F G F G F F v b z > U ! ! ! ! Q E /._.J.H.l.Z.Z.h.Z.T.T.J.b.oXiXDXKXLXPXCXLXLXFXCXFXFXFXGXKXKXKXGXGXCXZXnXNXSXAXW G v G E v l - + . . . . X X % L wXKXnXkXjXdXlXlXAXlXdXdXjXhXhXbXbXbXbXbXlXSXAXAXaXX.G J x.'.8.v.F.K.K.L.L.L.L.L.j.h.l.H.H.l.l.l.` X.+.+.+.+.+.+.j m i ;.;.;.-.;.;.;.;.w.w.1.u V d.n.B.g.l.Y.Y.k.i.f.Y.R.v.u 5 9 9 9 1.;.;.;.;.,.;.;.i M D b , , , c n K _ d.k.Z.Z.j.F.L.T.T.T.4XP.oXXXb.m.oX7XiXbXGXHXnXaXaXeXqX>XtXsXyXyXbXbXsXjXaXnXbXwXeXdXpX&XR # % X           . + % % ; - > T &XzXSXSXbXdXfXpXqXqX<X<XfXzXfXfX2XfXfX2X2XfXdX9X9X'.M 7.3.v.3.j.j.j.j.s.s.s.i.i.u.u.f._ _ S * e 5 @ 1 2 6 6 6 6 7 2 w.DX7XiX>XeX>X$X_ d ( N.a.i.k.f._ oX7X:X}.@X$X5X5X9.7 7 *.*.*.6 7 3 4 e h N S d s p p ^ / s s u.Z.R.!.W.W.!.W.L.P.P.J..XOXOX>X,X}.<XVXrXpXpXpXdXpX0X@X@X0X[.).[.[.[.}.}.@X+X-X[.].-XW + + @       O O 5 u e e e e k j K K g l E E W o.Q 1X2XfXSXpXqX+X[.dXpXpXdXkXfXpXpXpXpXrXaXSXSXyX9XoX7.C v.v.3.3.d.j.h.j.f.g.g.g.g.d.n.B.n.A u 4 o 2 2 6 7 2 1 9 XXxXiXUX#X=X9X7X:XB.w s s f t g.:X7X:X#X@X#XiX5XXX9 6 7 *.*.7 7 8 >.u.h.u.y./ ^ ^ ^ ^ y.i.V.Z.H.F.K.K.F.F.G.'.'.%X",
"*Xo.X.(.X.J /.'.7.3.v.K.A.S.W.A.L.P.P.P.W.W.L.L.Z.R..XM.X.O...| | | | ..Q W o.o.E | O.E G G D k O w w h.Y.R.U.R.U.U.a.U.U.U.U.Z.D.>.y i M 0.J K K C H A K K L L z R ! ! ! ! ! T /.m.Y.l.k.Z.Z.h.Z.T.T.J..X5XxXLXKXLXmXmXFXLXJXLXLXFXFXHXKXKXKXHXFXHXbXjXkXSX+XG b G E b z g ; X . . @ @ @ @ % k `.CXCXjXZXVXjXVXZXjXeXqXeXaXnXGXBXBXBXBXVXSXSXSXlX}.` J /.'.x.x.F.C.K.K.L.L.L.L.C.j.l.l.Y.l.l.l.d.` O.o.+.+.+.(.h i ;.;.;.-.-.;.;.;.;.i i u e u z.z.n.g.g.N.Y.U.f.N.N.c.J.$X5X6Xw.9 y ;.<.,.<.-.<.;.i m B v c , , n n ` d.f.k.D.Z.C.F.P.T.T.T.T.P.P.P.oX5XiXiXtXsXBXGXNXjXsXaXeXwXaXaXyXsXhXhXyXkXjXCXbXwXyXlXfX+.> # X .             + ; ; - : - c +.2XlXVXdXsXdXpXeXeXpXqXqXfXfXfXfXfX2X2X2X2XdXaXtXOXK 3.9.3.5.j.j.j.j.d.s.s.k.i.i.u.u.u.f.d.N u 5 o o 2 6 6 6 6 2 3 9.DXiX#X>X,XrX:XoX_ _ u.i.i.f.g.c.$X:X:X@X@X@X9XiX9.7 6 *.*.*.7 7 1 4 u Z _ ( s s p ^ ^ p s :.h.Z.R.W.W.W.!.W.W.!.T.J..X%X+X>X,X@XpXVXpXpXpXqX>X+X}.}.}.@XX.(.}.).[.@X}.+X*X+X*X*X+Xg X @       o O 4 5 u u u e e e h B J D v v G O.....1XfX1X<XfXkX>X<XdXdXfXqX*X*X<XjXkXjXdXaXlXlXaXwX7Xb.A 7.v.5.j.v.j.j.h.l.l.l.l.l.l.l.g.g.g.d.u 4 1 1 2 2 2 2 3 M 6X5XiXiX,X=X:X7XoX2.f f f a oX7X$X7X7X@X@X9X$X0.3 2 7 7 7 7 =.,.i.y.y.y.^ ^ t./ s y.u.k.Z.K.K.K.K.K.F.F.G.b.'.%X",
"rX].X.X.X.J /.'.7.7.v.K.A.A.W.S.L.P.P.L.L.W.L.S.H.R..X'.O...| ! | | ..E F F J W X.X.X././.`.`.b.V 3.j.T.R.R.U.U.U.U.a.U.U.U.N.Z.E.,.;.i w.w.M M i i i i a M M M v R Q ! ! ! E G ` n.l.k.k.Z.Z.l.Z.T.P.J.XXiXPXKXKXHXFXFXLXLXKXKXHXLXHXKXKXKXKXKXBXGXnXdXkXeXF G b Q E z l g % . . . + + . + q % D 9XFXhXAXAXdXAXSXNXjXjXsXaXsXbXsXjXnXNXNXlXkXkXSX>XX.K /././.8.F.C.K.K.L.L.L.L.Z.l.l.l.l.Z.Z.l.g.` K n ..+.].X.e i ;.;.;.;.-.-.;.-.9 w.6XiX5X.XM.c.c.c.l.l.N.Y.N.N.g.R.7XDXDXcXxXI.;.;.<.<.,.-.-.;.;.V M v l l n n ` c.g.k.a.k.h.j.H.P.!.!.P.P.P.P.J.4XxXxX9XtXaXbXNXsXaXsXsXdXdXdXsXsXsXhXhXsXdXVXZXhX9XsXdX1XR - # .         @     @ + z v l : > R &XzXlXlXbXdXpXeXpXqX<X-X-X<XfXfX2X2XfX2X2XeXbXaX#X8.C 7.C 5.j.j.j.j.j.d.s.k.i.i.i.y.u.f.g.g.S e 4 1 2 2 6 6 6 2 3 1.xXcX7X>X,XrXwXiXoXg._ k.k.k.l.oX:X:X:X@X@X#XiX5Xw.3 7 *.*.*.7 8 8 i 2.s.( / p p p p p p s k.Z.Y.L.L.W.W.!.W.W.P.P.J._.%X#X>X=X=XdXdXqX<XqX0X*X[.].}.@X[.W ).}.X.[.*X(.X.[.(.+XqXW X .       o o 4 5 e u u u u u e h h D ` v g G X.Q o. XfX1X*XpXlXrXlXpXpXpX<X-X+X@X-XpXkXkXdXkXaX<X9XiXoX7.3.3.j.j.v.j.j.j.l.l.l.l.l.l.l.s.s.n.J.v.1.9 3 2 2 2 1 1 9 9.oX9XiX,X=X:X7X7XoXa t Z d.7X7X$X$X7X7X$X'.8.3.9 3 7 7 6 8 ;.A.p.y.y.y.y.y.y.y.y.u.h.Z.L.L.K.K.K.K.F.F.G.x.'.OX",
"kX|.X.X.X.X./.'.x.7.9.F.K.S.W.W.L.P.P.Z.S.!.R.Z.Y.R.m./.X...! ! | ..E b j j M M B m h h h C C B 9.5.j.4XY.Z.U.U.U.U.U.U.U.U.N.Z.S.q.;.;.w.w.w.w.;.;.;.;.;.;.w.w.j b Q Q Q Q E K z.n.l.k.k.k.Z.Z.L.T.P.J.5XxXJXLXmXHXKXLXPXPXPXFXKXKXKXKXKXKXKXHXCXNXZXyXlX}.v G b E b l z g + . X X + +   + j k k /.uXbXNXZXjXAXNXVXZXZXNXsXaXsXqXaXbXNXNXkXkXkXAXkX).K X./.'.8.F.C.K.K.K.L.L.L.L.Z.l.l.l.Z.Z.Z.n.c.S x n O.(.x.e i ;.;.-.-.;.;.-.9 q.8XDXDXcXMX$Xm.c.c.B.g.g.N.N.g.B.7XDXPXcXDXJXxXq.;.;.<.,.<.-.;.;.1.C K D v D K _ g.k.k.a.p.h.C.H.P.!.Q.P.P.T.T.J.oX7XiXUXIXaXaXaXeXwXeXsXjXhXhXnXNXjXsXhXjXkXSXnXwX9XyX>X].- # . .           @ @   @ j G z c : c +.2XlXSXVXdXpXpXqX0X<X<X<X-X2X2X2X2X2X2X2X<XjXtX9X_.C 7.6.5.5.5.j.j.j.j.h.u.i.k.i.i.u.u.f.g.d.3.V 9 3 2 2 2 2 1 3 4 XXcXgX0X0X,XgXiX7XB.g.l.l.j.n.oX7X:X:X+X,XiX5XG.9 2 7 7 *.7 2 8 >.h.u.s s s p s p p p s h.Y.R.T.T.L.W.W.!.W.L.P.J.m._.OX<X>X@X<XdXpXqXdXlXdX=X[.(.(.(.(.}.@X).W ].[.b W X.o.[.-X% . .     o o O 4 e i u i u u u m m m j J G v F X.O.....2XzXpXfXkXpXjXdXkXlXlXdXqX-X@XqXdXkXkXkXrX,X,XcX5Xb.3.d.v.5.j.j.j.j.j.l.l.l.l.l.l.l.g.g.n.H.F.5.9 3 1 3 1 3 i 3.v._.OX,X9X9X:X7X7Xv.u A m.:X$X7X7X7X$Xx.N A b.5.;.9 3 3 y >.V.i.y.y.y.y./ / y.u.h.Z.Z.L.K.K.K.K.K.K.G.J.b.'.$X",
"jX*X(.X.X.X.J /.'.b.9.j.K.K.W.W.P.T.R.Z.U.~.R.U.Y.n.c.` G E ! ......W D M M V a 1.u u u m V V M M u m oXJ.Z.U.U.U.U.U.U.U.N.l.l.4.>.;.i i i ;.;.,.,.,.,.,.,.,.w.M D W X.E G K A c.l.k.k.k.D.Z.Z.L.L.J.XX7XMXJXPXMXFXKXmXuXwXgXbXKXKXHXHXGXFXFXCXCXBXCXjX0XG G b T R l l z - X . X + k + @ + L j k j #XmXbXCXNXNXjXlXNXNXbXhXbXBXwXaXbXNXNXlXjXkXAXAXOX` /./.`.b.v.A.A.K.E.W.W.L.L.Z.l.l.l.N.Z.Z.l.n.c.S D ` /.b.4 i ;.<.-.-.;.;.;.;.Q.xXDXcXcXJXxX$XM.c.c.l.l.N.B.c.oXcXDXxXxXJXcXDXK.;.<.-.<.<.<.;.;.;.V A H ` ` _ s.f.i.i.i.i.h.Z.L.T.T.!.P.P.P.P.J.XX5X5XiXLXtXaXaXqXwXwXtXaXaXhXBXCXnXyXhXnXNXNXaX0XyXsX+XF % .           o   O O   @ * j b b c c T &XzXZXlXlXdXfXpXqXfXfXfX2X<X2X2X2X2X2XfXpXdXqXtX$XK H 7.9.5.5.j.j.j.j.j.s.h.h.i.i.i.i.u.f.g.l.j.4.i 8 2 2 2 1 3 o N 7X7XiXgX>XwX7XgX:Xm.v.j.v..X5X7X#X#X@X9XiXXXM 3 3 7 7 7 8 8 >.i.i.y.p ^ / / ^ / / u.l.Y.R.R.T.P.L.W.!.!.Q.Q.P.J.J.oX,XpX<X=XaXlXdXpXjXdXpX=XOX`.(./.}.9X=X[.[.).E G ].[.[.+X(.+ .     o o O 4 5 e i i i u a N V N m h B J G v G o.E E |.pXpXpXpXdXpXpXfXzXfXqX<X<X<X<XpXpXaXkXpX,X>XMXiX.X3.7.v.5.5.j.j.j.j.j.j.j.l.l.l.n.l.g.d.n.H.K.4.y 1 1 4 y 2.j.3.A M.$X9X9X:X7X7X$XA A oX$X:X7X8X5Xc.u S d.3.v.5.1.4 4 >.:.>.y.t.y.y.y.s :.i.k.Z.Z.Z.S.C.C.K.L.K.H.J.J.b._.#X",
"jX0X}.X.X.X.J ` _..Xb.5.F.K.S.L.P.T.R.Z.U.U.U.U.Y.B.c.` G G T Q T E G B M 1.1.;.;.;.;.w.1.V M u m h m XXR.Y.N.U.U.U.U.U.N.g.g.n.4X4X4X4XI.q.,.;.<.<.,.<.<.<.,.w.m K x./.` H _ _ l.N.U.D.D.k.Z.Z.P.H.P.4XiXDXLXPXCXHXLXgX9XwXvXCXHXHXGXCXBXnXnXnXGXKXsXjX).b G b T : - l l % . X + k j k + k j h j e _.bXPXCXBXjXjXlXSXAXBXbXbXNXsXsXjXbXlXlXzXkXNXSX,X(.J /.)._.v.F.K.K.K.W.W.L.L.L.Z.k.l.Z.Z.Z.k.l.n.c.` ` x.b.y y <.<.-.-.-.;.;.;.6XDXKXKXKXPXJXiX%X` d.B.B.B.g.oXgXDXMXvXMXDXcXDXq.-.,.<.<.<.<.;.;.;.a 2.d.d.g.g.f.i.i.i.i.i.Z.H.P.P.P.P.P.L.L.P.P.J..X$XiXIXtXaXaXsXaXeXwXwXeXhXCXCXhXhXhXnXNXjXqXwXnXtX).l % .   .     o O + O O + O O k F b T R c ..<XlXdXlXlXdXpXqXpXzXlXfX2X2X2XfX2X2XfXfXfXqXtX9X/.K 7.7.5.5.j.C.F.C.j.j.h.h.u.i.i.i.i.f.f.s.l.Z.4.y 3 2 1 1 4 O u m.%XiXgXgX:XiXiXiX$Xv.z.b.$X7X7X#X#X7X7X$X7.u y 8 3 3 1 8 q.V.>.y.y./ / / / s / u.k.R.Y.R.R.P.P.P.W.W.Q.Q.P.P.J..X$XrXrX,X,XkXVXdXjXpXqX=X=X@X+X+X@X9XtX=X@X>X(.b }.@X=X@X=Xk + .     o O 4 5 e i i a a V V V V V M m h H J v F o.X.o.o.|.*X<XqXkXpX<X<X-X-X<XrXpXqX>X<X=X,X<X<X1X>XPXcXoX3.3.v.j.F.j.j.j.j.j.j.j.j.l.g.g.g.l.n.l.l.Z.L.4.4 4 i a 2.d d Z z.%X:X7XiX7X7X7Xb.H $X:X7X7X4XB._ f _ _ d Z j.H.:.f s.u.y.y.t.y.y.:.:.h.Z.Z.H.H.S.C.C.C.A.L.K.H.J.J.b._.7X",
"jXhX@XX.X.(.W W /.%XJ.9.v.K.K.L.T.T.L.S.U.U.U.U.U.Y.B.c.` ` G G b W K M i ;.;.;.,.;.;.;.;.i 1.6.0./.H .XJ.Y.Y.U.N.N.N.N.N.g.B.oX7XxXcXxX8X6Xq.-.<.<.,.,.,.,.,.q.u C z.x.z.z.g.g.k.k.U.U.D.D.Z.H.P.G.XX7XcXDXLXFXHXHXFXgXuXvXFXHXGXHXGXCXBXnXNXBXHXKXdX*XF F G b T : : z - X X + + k h e + k j j B h H 7XFXCXnXjXjXNXAXHXHXNXbXjXnXdXaXaXaXaXaXeXjXkXeX}.J J /.'.v.F.K.K.W.W.W.L.L.L.Z.l.l.l.Z.k.k.k.l.B.c.c.c.v.>.y =.-.<.-.-.;.9 ;.8XDXDXMXPXvXFXbX7X_.c.c.B.B.c.7XJXDXvXMXPXcXDXxXw.-.<.<.<.<.<.<.<.;.>.h.l.l.l.k.k.k.i.i.i.k.Z.L.T.P.P.P.P.P.P.J.T.J.m.5XxX9XsXaXdXdXsXeXwXwXsXnXCXnXhXnXBXNXhXaXqXdXNX*XF k % .   . @   O O 5 + O e e O e j v E E R E |.qXzXdXlXlXpX<XrXfXfXfXfX2X2XfX2X2X2XfX2XqXqXwXOXK C 7.9.9.v.F.C.F.F.F.j.j.h.u.i.i.i.f.f.s.f.Z.A.>.i 3 1 3 i i d _ d.oX$XiX7XgX7XuXiXoXx._.5X7X7X:X$X:XoXm.3.1.4.;.8 3 4 >.A.p.>.y.t.t.t./ / ( s.g.n.R.R.H.P.P.P.P.Q.L.W.L.L.P.J.oX:XaX<X*X<XlXlXdXdXNXdXdXeX>X@X#X0XjXsX=X*X>X).X.=X0X=X=X[.+ @   o o O 4 5 5 y i i a 1.1.1.V V V V C m B J J F W o.o.o.o.{.qX<XqXdXkXrX-X-XfXlXlXpX<X<X-X*X-X*X*X,XvXDX5X7.3.5.5.F.C.C.C.j.j.j.v.j.l.g.g.g.n.n.l.l.l.Y.l.y w :.d d p f d Z _ M.:XiX7XiX7X$Xx.#X7X:X$Xg.d _ _ ( d d f 2.H.l.s.u.y.i.t.t.y.y.y.i.Z.Z.H.H.H.K.K.K.S.S.S.K.H.J.G.z._.#X",
"BXCX>X(.X.(.X.X.J `..X7.v.F.K.L.Q.P.L.S.U.D.U.U.U.U.Y.R.B.M.` K K W J m 9 y ;.<.<.=.=.=.i w.6X8XxXPX5XoXm.B.N.N.N.N.N.N.N.B.R.:XuXkXvXuXxXxX4Xq.<.,.e.,.<.<.;.;.i V d.g.g.g.N.U.k.a.a.D.D.U.Z.Y.R.G.XXiXDXJXFXKXCXLXmXhXvXFXKXGXGXHXHXGXCXBXCXGXKXGXNXX.F G G b T : l c % X + + k h e + + e h B B H B %XPXmXbXBXnXjXjXjXlXNXZXHXVXdXeXqXeXpXaXeXkXyXNX@XJ J /.'.v.F.K.K.K.W.W.W.L.R.H.l.h.l.Z.k.U.N.k.N.B.c.l.H.h.;.8 =.<.<.;.;.w.i 9.cXDXcXIXIXsXFXMX$Xc.c.B.g.oXcXJXMXgXMXDXcXxXJ.i ;.<.-.<.=.=.<.<.>.p.Z.Z.k.k.k.k.k.k.k.k.k.Z.T.T.P.P.P.P.P.P.H.T.J.m.iXLX9XbXdXaXtXeXwXeXyXnXCXCXhXhXCXGXCXeXwXqXdXdX[.g % +         @ O O O e e 4 5 e e + v G X.E T o.-XlXdXVXSXdXrX<X<X<X2X2X2X<X2XfXfX2X2X2XfX<XaX9X8.B 7.7.9.v.j.F.F.F.F.F.v.j.k.k.k.k.u.f.l.f.h.Z.V.4.y 4 y 4.u.s.f ( d c.oXcX7X7X7XgX7X'._.$X$X:X7X:XoXM.d.d.l.Z.V.>.4 i h.h.:.i.i.p t.t.y.u.s.l.n.m.J.P.P.P.P.P.Q.Q.L.W.L.P.XXoX$XwXlX1X*XpXSXlXfXdXdXdXjXNXtX=X9XbXZXnX0X+X}.[.}.=XlX>XqXL +     o o 4 4 5 9 i i a i >.1.1.a V 1.V C B m H '.J v X.o.].]. XkX*X+XdXlXzX<X-X>XpXlXSXlXlXpXrX<X-X*X>XwXPX7Xx.7.3.3.j.C.C.C.C.F.F.F.v.d.g.l.l.g.g.g.n.l.f.s.s s d f s s s f f t _ B.:X7XgX7X7X_.$X7X%Xc.Z d ( ( ( ( ( Z d g.l.k.y.^ i.t.y.i.y.i.Z.Z.C.L.H.K.K.L.L.L.S.S.K.F.G.v.7.'.#X",
"GXBX>X).X.X.X.X.X./._..X5.j.L.K.K.L.L.W.S.U.U.U.^.U.U.U.Y.Y.B.n.H J H u 4 8 <.<.<.<.<.-.;.6XxXJXJXKXJXxX$Xm.n.Y.N.N.N.N.g.c.$XgXkX<X>XiXxXxX8Xq.=.,.e.,.<.,.<.;.y >.j.Z.l.N.N.k.a.a.a.D.U.U.R.T.P.v.5XcXDXLXKXFXHXHXCXFXLXHXHXGXCXCXCXCXBXBXGXHXHXHX*Xb G E b E c c R l + + + h m e e e e e h A N B N x.iXFXFXBXNXaXdXjXaXaXlXaXeXqXpX=X0XVXdXdXkXeXsX0X`.J ` x.b.F.F.K.W.K.W.W.L.L.R.T.R.H.h.2.k.U.Y.l.f.l.n.l.Z.4.;.y <.;.;.;.>.a 1.oXcXDXMXPXHXKXFXiX%X_ g.B.7XDXJXgXgXDXDXiXoXV y ;.,.,.<.<.<.<.p.p.D.k.k.k.k.k.k.h.f.g.B.B.H.L.P.P.P.P.P.P.P.T.G.J.oXcXPXtXnXsXsXjXjXyXyXjXGXCXhXhXCXKXCXwXwXwXhXjX*XF % + .       @ O O O e e 5 w e e e 5 h K W W X.Q {.fXSXzXzXlXfXrXfXfXfXrX2X2XfXfXfXfX2X<X<XpXdXwX$XK H 7.9.9.F.F.5.I.G.J.G.C.4.:.u.u.k.f.f.f.k.l.h.h.:.s f :.:.s s s s ( s.oXcXiX7XgXiXM.%X$X:X:X:X%X` c.g.f.f.k.V.u.2.d.h.s.y.y.y.i.i./ s s.n.J..XXXP.P.P.J.J.P.P.!.!.4X!.J.oXiXiX>XrX|.1XSXkXrXrX0XaX>X0XdXdX0XeXnXbX0X0X*X+XX.}.<X>XZX#X+ @     @ 4 4 5 e i a i w 4 y a 1.1.1.1.6.6.V 7.C x.`.D W o.(.(.|.pXkXdXlXlXfX*X{. X1XdXlXlXzXpXfXpX<X<X<XyXuXiX$X7.6.9.5.F.C.C.C.F.F.F.v.j.n.n.n.l.l.l.l.g.( d ( / p p s / p p p f d _ m.7XiX:X:X$X7X%Xc.Z _ _ t ( ( ( s ( f.l.u.s ^ ^ p i.i.y.i.D.S.L.K.K.K.K.K.K.L.S.S.L.K.K.G.b.b._.OX",
"GXBXwX[.W W W E X.X._..X7.5.F.K.K.L.W.W.S.S.U.^.^.U.U.U.U.U.U.Z.m.x.3.i 4 <.<.<.,.,.,.,.w.8XDXDXJXKXKXPXiXoXB.l.N.N.N.N.c.oX7XgXpXpXwX9XxXcX6X,.,.,.,.,.,.,.<.<.>.h.Z.Z.k.U.k.a.a.a.p.D.U.R.R.T.P.J.7XDXJXKXKXGXHXHXHXLXHXHXHXGXGXZXZXCXBXBXGXGXAXNX).F G b G b c c z % X + e m e e e u e e e u C C N C $XcXFXCXsXsXAXHXjXpX0X@X0X*XeXeX<XrXpXlXjXyXsX0X).F J '.b.v.F.K.L.K.L.W.L.L.L.Y.R.H.H.Z.k.f.k.Y.N.l.k.l.Z.Z.h.>.y y ;.;.y i a G.8XDXDXFXFXLXFXcX7XM.d..XcXDXDXcXDXDXiXoXB.3.i i ;.<.<.<.,.p.p.a.a.i.i.i.k.k.s.s.d.n.B.B.J.P.P.P.P.P.P.P.P.T.G.J.5XcXMXuXBXbXjXbXhXaXhXNXHXBXhXnXCXCXhXwXwXtXjXeX].l % +       o O + 5 5 e e e w w w e e e D J W X.E (.-XSXlXfXrXrXrXrXfXfXfX2X2XfXfXfXfX2X<X2XdXpXtX9XJ H 7.9.9.F.F.5.F.G.b.v.j.4.4.:.:.u.f.g.l.l.h.h.h.h.u.:.:.s p s y.y.s s g.oX7XxX7XwX).$X:X:XoXoXc._ _ _ _ u.f.k.k.l.g.f.s.u.u.i.i.p s d j.H..X.XXXJ.P.P.J.J.P.P.Q.!.4X4X4X7XuXwX>X<X@X<XSXpX<XrXrXpXeXaXaXaXqXpXdXaX0X>X}.[.(.|.*XaXNX(.@     o o 4 5 e i i i w 4 4 w a 2.2.2.1.1.6.6.3.C 7._./.G X.W ).{.>XSXkXlXlXzX<X*X*X<XpXpXpXdXlXlXzXzXlXSXkXhXuX$X7.C 5.5.5.5.5.5.C.F.F.F.v.n.n.n.l.l.l.f.( ( s / / p p p p s ^ / s f d _ oX7X7X:X%X$XB._ _ _ _ d ( s ( ( u.f.u./ s / ^ p y.y.i.k.Z.S.L.K.K.K.K.K.K.S.S.S.S.K.H.G.m._.%XOX",
"KXKXnX=XX.E X.E X.W '..Xb.3.v.H.K.K.L.L.E.E.^.U.^.^.U.U.U.U.U.U.Y.m.3.i y <.,.<.,.,.,.;.w.8XJXJXKXKXKXKXDXxXoXn.n.B.N.g.B.:XiXgXeXdXaXuXcXxXQ.;.e.e.e.e.e.<.<.<.V.S.U.U.D.k.a.a.U.D.D.D.S.T.T.P.J.oXxXJXKXKXKXHXHXHXHXHXHXKXGXGXGXZXBXnXNXBXBXZXBXqXF F G v E z l c l X X h N m 4 4 e V a e w e V C V B b.iXFXmXbXBXAXNXeX0X>X*XlX=XqXkXdXdX0X=X,X,XaXyXOXJ J /.b.b.b.G.I.K.K.L.L.L.L.P.T.P.P.L.h.u.f.N.Y.l.f.k.Z.Z.Z.h.a y y i y 4.Z.H.oX7XxXDXDXLXDXDXcXoXM.$XDXDXDXDXDXiXoXc.n.H.j.>.y y <.<.p.a.a.a.i.y.u.u.l.f.s.Z z.m._.m.J.J.P.P.P.P.P.P.P.P.m..XiXcXvXsXbXhXsXaXaXhXCXHXGXhXhXCXCXhXwXuXgXhXNX>XE % + +     o O + e e e e e e w w y i i e m K X.X.W o.[.zXlX<X*X<X2X<XfXzXpXpXfXfXzXfXpXfX2XfXzXpXjXsX'.H 7.9.5.5.F.C.F.9.9.5.5.C.C.h.:.a Z f.g.g.f.h.k.i.i.y.s s s >.t.y.p s s s.:XcX7X9X%X:X:X$XB.B._ g._ _ f.f.i.i.k.k.k.f.s.u.u.u.u.r d h.H.J.XXXX.XJ.P.P.J.J.J.P.P.P.4X4X5XxXgXrX<X*X*XfXSXrX<XpXrXrXkXzXeXqXpXaXeX=X>X=X[.].].{.].qX0Xj     o o O 5 4 i i i w 4 O O w f 2.2.4.2.2.5.6.6.7.C '.OXG (.G ].(.|.SXpX<X<X<X<X<XpXzXlXlXfXlXlXSXlXzXfXfX<X<XwX#Xb.3.3.5.5.5.5.5.5.v.F.G.v.n.H.F.Z.Z.k.f.d ) ) / / / p p s y.y.y.s s s ( g.:XiX:XM.B.g.d _ _ Z _ s.s.f r i.y.^ ^ ^ ^ t.>.y.i.p.D.S.L.L.K.K.K.K.K.K.S.S.S.C.K.H.v.b.XX$X#X",
"KXLXHXwX(.W o.E X.W /.%Xm.3.3.G.K.K.L.L.W.W.S.U.^.U.U.U.^.U.U.U.Y.Y.Z.>.y y <.<.,.,.,.;.i 4XDXJXKXHXHXKXKXDX7XoXn.B.n.c..X7XxXuXeXaXuXcXcX6Xq.;.e.e.e.e.<.<.,.p.D.U.U.D.a.a.U.U.U.D.D.S.L.T.T.J.m.5XDXJXKXKXKXHXHXHXHXHXHXHXGXGXZXNXhXaXsXNXBXCXNX}.v F G v G l z l - X + B h w 4 w a 2.d t w w u V 3.C H $XPXmXCXCXNXwX>XqXpXqXpXqXqXrXdXqX[.E @X=XyXkX,X(.G J x.x.b.G.I.P.L.L.L.L.L.T.T.P.P.H.l.Z.Z.k.k.N.N.f.l.l.l.Z.h.a y y h.T.4XoXT.oX7XcXDXJXDXDXPX:X%X7XDXDXDXDX8XoXB.B.H.R.R.h.f i >.>.p.a.a.a.i.u.u.f.s.g.z.m._.%X_.M.G.H.J.J.J.J.P.P.J.J.J.XXcXuXuXhXbXsXtXwXyXnXGXHXnXyXhXCXCXyXwXyXyXbXlX+Xg X X .   @ O O + e e * e e e e y i i i e m B J (.o.X.o.<XlXpX-X<XfXfXzXzXfXfXfXzXzXfXpXzXzX2XpXkXlXsX#XH K 9.5.5.C.5.5.5.5.5.C.C.A.V.h.a Z 2.d.g.l.l.k.y./ / s y.y.t.>.>.t.y./ s l.8XiXwX%X:XoXoXc.g.f.f.( ( f.N.f.i.i.k.k.k.i.u.u.s.s.s h.H.P.J.P.XXJ.J.J.J.J.J.J.P.P.L.P.J.oXiXwX<X<X|.1XzXzXrX2XaXpXrXkXkXrX0XeXpXqX@X>X9X*X+X|.].W [.(.+ @   o o 5 4 4 i i w 4 O O w w t d 2.h.4.4.5.6.5.3.C x.`./.(.G ).(.].lXkX@Xo.].{.|.*X<X<X<XpXdXzXlXlXzX<X*X{.[.@X,XOX7.C 5.5.5.5.5.C.F.F.G.G.G.F.F.H.Z.h.s.s / ) ) / / s p r p s >.:.:.:.d f B.:X$Xc._ _ _ _ s.Z d.2.a 4 4 i./ ^ ^ ^ p >.y.i.p.D.S.S.L.K.K.K.K.K.K.K.S.S.S.C.L.H.v.b.oX#X#X",
"MXMXGXyX).E o.E X.W X.`..X7.3.F.K.K.L.L.L.W.W.S.~.U.U.U.^.^.^.^.~.U.~.S.>.y <.<.<.<.q.w.i 9.xXJXJXLXLXLXJXDXxX7Xm.m.m.m.oX7XxXuXtXuXxXxX8XF.;.;.<.,.,.<.<.,.p.~.D.U.U.a.a.a.U.D.U.S.S.L.P.L.P.P.m.7XDXJXLXGXHXHXHXHXHXGXGXGXGXGXZXnXaXeXdXBXAXZXaXW b F b G z z b - % + k B e O w f :.d f f t w u V 7.A C .XxXFXhXnXbXjXkXjXaXqX|.dXlXaXqX[.X.).eXyXsXyX>X`.W J x.x.x.b.G.P.P.L.L.L.L.L.P.J.G.F.H.R.Y.l.h.k.k.s.f.f.l.Y.l.s.d a R.!.!.!.oXoXoX$XxXJXDXPXPX7X$XxXDXDXcX8XR.N.N.R.l.Y.R.Z.s.:.u.k.p.a.k.k.f.f.g.B.g.n..XoXoX$XoX_.J.J.J.J.J.I.J.J.J.J.J.oXcXuXwXhXGXnXyXwXhXCXCXnXhXhXvXnXvXhXyXuX9XuXwXX.% . .   @ O O 4 e e * * e e e t i i i i a u m K X.(.(.X.+XzXlXpXdXzXfXlXdXzXlXkXdXfXfXdXfXzX&X*XlXaX>X9X8.K 9.9.6.5.5.j.j.j.C.C.A.A.A.C.j.2.Z _ g.l.f.u.^ ^ / y.y.y.y.y.<.t.>.:.s f g.7XgX:X:X%XB.d.f.f.f.f.f.f.f.u.k.k.k.a.k.k.k.k.l.Z.l.H.T.P.J.P.P.P.L.H.J.J.J.P.J.H.P.J.G.oX7X9X1X<X|.<XzXkXrXpXkXeXrXpXpXrX<X>X<X0X>X0XqXpXqX<X|.).o.z   @ o o 3 5 4 w e w w O O w w w w t d s.4.4.5.4.5.6.7.8.K OXW W W ).].qXSX|.X.+. X|.|.|. X{.*X-X<XfXfXzXfX2X{.+.}.>X#X7.M 3.5.5.C.F.F.F.F.F.F.G.G.K.K.L.Z.h.s ( / ) / / :.>.4 4 y y >.i.:.s f g.%X%Xc.Z _ d.d j.4.4.9 4 o w y.^ ^ ^ ^ p >.i.V.Z.S.L.L.L.K.L.K.K.K.K.K.K.S.S.K.L.G.v.b.OX#X#X",
"vXvXPXhX|.Q W Q O.E X.`.%Xb.3.v.L.S.L.L.L.L.L.W.S.U.U.U.U.^.^.^.~.^.~.~.D.>.<.y <.<.,.;.i u oXxXDXLXKXLXFXLXDXcXoXm.M.%X7XiXxXgXcXPXxX$XJ.j.4.>.<.<.<.<.,.p.^.^.^.D.a.a.a.a.k.k.Z.L.L.P.P.P.P.P..XiXDXLXFXCXCXHXHXHXHXAXCXZXGXGXZXNXsXyXjXGXGXBX*Xb G F b E l c c % + ; h u 4 4 i >.:.p p s f t u V 3.A V x.7XJXvXNXNXNXGXVXqX<X*XlXlXlXeX(.(.0XaXjXjXjXsX#X(.J ` ` x.b.G.I.P.L.P.L.H.F.F.G.I.G.P.L.L.R.Z.h.u.s.f.l.l.l.l.f.k.Z.!.!.!.!.!.R.B.oX:XcXDXDXDXuX7XxXJXcX8XR.l.N.U.Y.N.N.Y.Y.l.s.u.k.k.D.k.k.f.f.g.c.n..XoXoXoXoXoXoXXXXX.X.X.X.X.XJ.J.J..X$XcXuXqXsXZXsX0XwXnXGXCXhXhXnXnXhXgXhXyX9X9XwX+Xv X . .   @ O O 4 e e * * * e t f f i i a >.u u B K X.(.X.].<XlXdXzXzXpXzXpXdXlXlXdXfXfXzX2X2X X&XlXrX=XuX%X7.8.9.6.5.C.C.j.C.V.C.V.A.A.K.L.j.3.s.s.g.s./ ^ ^ y.y.s p p >.y.t.p p u.r d oX:X%X%XB.n.s.k.k.N.N.k.( p f u.U.i.a.a.a.k.k.l.H.R.T.P.J.H.P.P.P.L.L.J.J.J.P.J.H.P.J.G.XX#X,X*X*X*XpXkXpXaXkXaXrXkXrXrXpX<X*X-X<XeXqX0XpXpXfX=X*X].%     o O 4 4 w e e w O O O w w w w w f d 2.4.5.6.F.6.9.7.M OX/.X.E ].].*XSX|.].&X2XfX2X-X*X|.].|.*X&X&X-X<X2X1X&X*XeXiX'.C 5.5.C.A.K.F.F.F.v.F.G.I.K.K.L.Z.k.u.( ) / / y.y.:.4 4 3 4 y <.>.:.d S c.c.c.Z 2.j.h.h.i 9 1 o 3 ;.y.^ ^ ^ ^ t.u.D.Z.S.L.L.L.L.K.W.K.K.K.K.K.K.K.K.K.K.F.b..XOX$X@X",
"PXMXFXBX>Xo.Q o.W W W '.oXm.7.v.Z.S.L.L.L.L.L.T.L.L.U.U.U.U.^.^.^.^.^.^.^.U.p.<.<.<.;.i 1.u m.$X7XgXLXLXLXKXKXDXiXoXm.oXiXxXxXcXcXiX:XB.g.H.U.i.<.<.<.<.p.^.^.a.^.a.a.a.a.a.k.k.L.L.P.P.P.P.P.J.oXcXJXDXFXNXnXHXHXHXHXAXCXZXGXGXHXAXNXjXZXKXGXhX(.v E G b b l c l X % k h e 4 y f p p p s s s d u a V 3.3.7.OXMXFXCXbXNXZXdXqXfXpX<X>XfX0X[.+X>X0XjXNXNXCXrX).G J ` x.9.v.G.I.K.K.F.F.F.F.G.I.I.P.P.L.!.!.Z.h.h.k.l.l.s.s.s.l.Y.R.4X4X!.R.R.R.oXoX7XxXDXDXuXiXcXDX8XR.N.N.U.U.U.U.Y.N.N.l.f.f.f.D.D.k.f.f.g.c.B._.oXoXoXXXXXoXXXoXXXXXXXXXXXXXXX.XJ.oX7XiXwXqXdXdX9X,XwXBXGXCXnXBXCXhXyXyXhXuX9XuXuX(.% . .   . O O 4 w e e * k * e t f a a >.>.a u m B B J /.X.X.&XpXdXfXfXfXfXrXfXzXzXfXpXpXfX<X2X*X<XdXrXtXuXiX8.7.9.3.5.j.C.V.V.V.D.V.V.A.A.L.F.j.d.s.s.( / ^ ^ / i.s w w y >.<.p t.y.f d c.` ` M.c.n.h.k.Z.k.i.s r w f s.U.a.a.a.i.k.l.H.H.P.J.J.P.P.L.L.L.L.L.L.J.J.P.P.H.J.J.J..X#X,X&X&X-XfXjXdXdXkXrXrXrXrXrXrX<X-X-X<XeXqX=XqX<XfXqXqX)..     o 4 4 4 i y w O O O w w w w w w w f :.h.q.4.C.5.9.7.K '.`.(.W ).).|.aX=X].*XfXzXfX1X*X-X{.|.&X{.{.{.&X&X1X2X2XdXuX$X7.9.5.5.C.C.F.F.F.F.F.I.I.K.K.K.L.Z.k.( ( ( y.y.y.h.1.4 o 1 4 y y :.d d _ _ c.A s.2.:.y 3 1 1 1 8 >.>.^ ^ ^ ^ y.i.Z.L.L.L.L.L.S.K.L.K.E.E.K.K.K.K.K.L.F.F.G..XOX$X@X",
"LXPXFXGXpX].E o.Q X.W (.OX.X7.j.Z.Z.L.L.L.L.L.T.L.R.L.U.U.U.U.^.^.^.^.^.^.~.~.,.y >.;.;.I.v.J.m.%X:XcXPXFXKXKXLXJX$X_.5XcXcXiXgXxXoXc.g.f.N.U.k.>.<.>.p.U.a.a.a.U.D.a.U.U.U.k.Z.!.L.L.P.Q.P.P.J.7XPXJXDXCXnXnXHXHXHXHXAXCXCXGXKXHXHXZXNXHXHXBXeXv F F G b z z v ; + k j u w 4 f :.p p >.:.p p :.i u a 3.b.7.'.uXFXCXhXjXVXdXqXVXkX>X-XkX0X>XlX>XwXZXNXkXjXrX[.G G J J 7.v.G.G.F.5.C.F.K.P.P.P.Q.Q.Q.Q.W.W.!.L.h.l.l.f.Z d s.l.k.Y.!.!.R.R.4X4XR.R.oX7XcXDXxXuXcXiXoXN.N.U.U.U.U.U.N.l.l.l.N.N.f.k.Z.l.g.g.c.B.oX.XoXoXXXXXXXXXXX.XJ..XXXXXXXXXoXXXXXoXiX9XwXwXaXsX9X,XsXZXGXBXmXCXnXyXwXyXgXeX,XsXeXG . . .   @ O O w e e e * e * e t f a a >.>.a i V C m K /.X.o.|.2XdXfX2XfX2X<XpXaXdXfXpXpXpX<X<X2XdXqXrXNXwXMXx.C 3.6.5.5.h.V.V.D.D.D.A.A.A.C.F.H.n.g.( ( ( / s s i.u.y 4 4 y y >.i.s s s.d ` ' M.g.l.h.Z.U.:.p 4 4 y u.Z.D.a.a.a.a.N.Z.H.H.J.F.J.T.!.L.L.L.P.P.L.L.P.P.L.H.P.P.J._.#X<X-X&X1XkXVXkXkXaXrXrXrXrXrXrX<X<X<XpXqXeX=X0X<XkXpXeXE   @   o 4 4 i e e w O O w w w w w w w w f :.C.C.4.q.F.3.3.b.H `.X.X.(.(.|.rXpX|.<XzXzX1X|.|.&X|.&X|.|.*X-X*X{.{.-XfXaXyX$Xb.6.5.5.5.5.j.j.F.F.F.G.I.K.K.K.L.H.k.( s ( y.s >.i.1.9 1 3 3 3 4 y :.d d._ m.z.d.1.y 3 3 1 2 1 8 >.>.^ ^ ^ ^ i.D.L.H.H.H.K.K.L.K.K.K.K.K.K.S.K.K.L.L.F.F.J.XXOX$X@X",
"LXCXLXNXeX[.E o.Q W E X.`._.x.7.j.C.C.S.K.L.L.L.L.L.L.L.S.S.U.U.^.^.^.^.^.~.~.~.i.w y R.T.v.v.n.g.c.oXgXLXLXPXPXKXiX.X7XxXcXuXiXR.l.s.g.N.N.k.k.h.h.D.D.D.U.a.a.D.D.U.U.Y.R.T.!.Q.Q.W.W.!.P.J..XxXLXKXPXmXFXGXKXHXGXFXCXFXGXHXKXHXCX9XNXAXSXZX[.v F W v b l v g + e h N e w w f s p p >.s p p s f f i Z v.z.x.$XFXuXbXbXNXNXfXSXdXpXaXNXNXaXdXZXGXZXNXjXaXqX+XG F X.K K 8.v.5.F.K.K.L.W.Q.Q.Q.W.W.W.W.W.W.W.W.L.:.Z.d d l.l.N.f.N.f.Y.4X!.!.!.!.!.4XoX8XDXcX7XxXoXN.f.U.R.U.U.U.U.k.f.N.N.B.N.g.f.s.Z d.m.oXoXXXoXXXXXXXXXXX.X.XT.T.J.J..X.X.X.X%X'.7X9XwXwXwXyXwXyXjXNXBXnXnXNXCXwXgXwX0XnXnXlXVX}.g .       O O * e e e e e w t t t f a a a a 1.a a Z V C 7.'.(.(.*XpX2X2X2X<XpXqXpXaXpXfXfXfXfX<X1X1X<XpXpXeXbXOXm 3.3.4.4.C.V.V.V.D.A.A.A.A.A.C.Z.Z.k.s.u.:.:.y.t.y.y.<.y 4 3 8 ;.,.,.>.s s ` M.c.g.Z.Z.h.:.y 4 4 4 s i.p.p.a.a.a.a.k.Z.R.P.P.L.L.L.L.L.L.L.P.P.P.P.L.L.L.L.H.J.m.$XiX,X|.|.rXjXVXdXwXaXeXqX@X<XaXaX0X>X<XeX0X,X0XqXdXqXlXqX+ @   o O 4 4 y i w O O w w w w w w w w w y :.h.V.V.q.5.5.9.9.7.b._./.X.).}.*XzX2X2XfXfX*X X|.1X1X1X*X&X<XlXfX*X].@X=X,XwX9XXXC 7.v.v.j.j.C.C.F.F.F.F.F.K.K.K.H.H.h.:.:.y./ ^ y.:.;.3 1 2 2 2 3 i >.4.j.v.v.C 9 1 1 2 2 2 3 <.>.t.t.^ ^ / i.C.K.H.H.H.L.K.K.K.L.K.K.K.A.S.S.K.K.L.G.G.G..X%XOX+X",
"HXAXCXjXeX[.E (.o.X.O.X.`.%X'.3.v.F.F.K.S.S.L.L.P.P.L.L.L.L.U.U.U.U.^.^.~.~.~.~.U.d s.Y.n.g.F.l.s.f.c.m.:XMXLXMXPXxX$X7XxXcXiXoXg.l.k.k.k.N.U.U.k.k.Z.Z.Z.U.U.U.D.U.Y.R.R.T.!.!.!.Q.W.W.!.P.J.oXcXLXLXPXFXLXHXKXCXCXCXCXCXGXHXKXCXnXrXjXZXVXaXX.b F W v v z l k + e h u e w y s >.>.s t.t.^ p s p f f Z v.8.8.%XuXgXvXnXNXbXeXdXkXpXaXjXhXtXaXNXZXNXlXjXjXaX@XX.G X.J K x.b.v.K.K.K.W.W.W.W.W.W.W.W.W.W.W.W.W.W.C.j.2.l.n.g.B.g.f.( s.U.!.!.!.!.!.!.T.5XcX7XoX:XN.N.U.U.U.U.U.Z.u.k.l.N.N.N.N.B._ Z Z z.J.oXoXoXXXXXXXXXXXXXXXT.T.T.P.J..X.X.X%X'.'.#XwXqXeX,XwXyXkXNXNXbXsXjXbXFXyXvXuXyXnXkXkXfXQ % .   @ o O O * e e e w w w r t t f a V V 1.4.2.:.1.V V 3.x.).(.|.<X2X2X2X1XqX0XeXpXqXrXfX<XfXpXfXrXfXzXdXaXbX#XM C 3.4.4.q.V.V.D.D.A.D.A.A.D.S.Z.Z.Z.h.s.u.y.t.t.t.t.>.y 4 8 7 8 ;.;.>.>.d _ M.n.g.Z.h.i y 8 4 4 4 >.p.a.p.a.a.i.y.i.Y.T.H.L.L.L.L.L.L.L.P.P.P.P.P.L.L.L.L.P.J.m.$XwX,X|.@XrXjXlXaXwXeXeX0X+X,XqXqX>X=X,X0X>X>XrXeXeXqXbX=X@     o O 4 4 y e w O O 4 w w w w w w r r r s :.V.C.C.C.5.9.9.7.z.M.x.` (.].&X2X*X|.&X*X X{. X X*X1X*X*X<XlXdX-X>X0XrXwXuXwX%XC 7.7.v.j.j.C.C.C.F.F.F.K.K.K.K.K.K.C.h.:./ / ^ t.y.<.8 1 2 2 2 2 3 y 4.F.F.3.q o 1 1 2 2 3 3 >.t.t.^ ^ ^ / h.K.I.G.H.H.I.K.K.K.K.K.K.K.K.S.S.S.K.F.H.G.b.'.%X+X@X",
"HXHXGXnXdX+XW o.o.W O.X.(.OX%XA v.F.F.H.H.L.L.L.L.L.L.L.R.R.U.U.U.U.^.~.~.~.~.R.R.N.Y.Y.g.g.n.l.u.f.g._ m.7XcXMXcXcX7XiXxXxX:Xc.s.N.N.f.i.N.U.k.k.k.U.U.U.U.U.U.Z.Y.R.T.T.T.T.Q.Q.Q.Q.Q.P.P..X$XMXLXPXMXFXKXGXLXmXmXBXCXCXGXHXHXCXnXjXNXAXSX=XG b E F b v v g + e h N u e w s u.>.>.>.t.t.p p s s s a Z z.z.7.x.7XMXbXhXCXjXdXdXdXaXdXjXdXpXdXVXNXjXjXjXNXbX,X(.G J J K z.b.G.P.L.K.S.S.E.W.W.W.W.W.W.W.W.W.W.W.!.h.h.R.l.g.B.g.f.( f >.D.!.!.!.!.!.R.oX7X7X%XB.N.N.U.U.U.U.D.:.s f.Y.N.g.N.N.B.g.d.d.T.oXoXXXoXXXXXXXXXXXXXXXT.P.P.J.J..X.X.X.X'.OX9XbX0XrX#X>XkXBXCXNXsXdXIXbXCXbXvXgXjXjXeXdX-Xz X .   @ O O + * e e e w w r r t t f V V 2.1.j.4.2.1.V V 6.8.).(.].*X<X2XfX2X<X>X0XpXpXfXfX2X2XpXfX2XfXfXdXeXhXuXC V 5.4.q.q.V.V.D.D.A.A.A.S.S.D.D.Z.Z.Z.h.u.y.t.t.t.t.y.<.8 8 7 7 8 8 <.>.u.Z M.J.j.:.;.8 4 8 4 4 y y.U.a.t.t.a.y.p u.R.T.H.L.L.L.L.L.P.P.P.P.P.P.L.L.L.L.L.P.J.m.$XwX,X|.*XdXjXdX0X>X<X<X=X*X,X>X>X=X=X=X,X=X,XyXqX>XqXNXOX      o O 4 y i w w O O w w w w r r w r r r p >.D.A.C.C.5.9.9.7.7.m./.` X.].|.-X*X X{.|.&X&X&X*X*X1X1X<XdXVXlXpXaXrXeXyXyXuX#X7.3.3.j.j.C.C.C.C.K.F.F.C.C.K.K.K.K.Z.h.:.s y.t.t.>.>.8 2 2 2 2 1 1 3 i F.F.u o o 1 2 2 2 3 8 ,.t.^ ^ ^ ^ u.l.H.P.K.K.L.K.K.K.K.L.K.K.K.K.S.S.K.K.F.J.G.b.x.%X+X@X",
"AXHXHXHXZX=XW o.o.E X.X.X.OXOX7.9.v.F.H.H.H.L.L.L.L.L.L.L.R.R.U.U.U.U.U.U.U.U.R.Y.Y.R.Y.f.s.g.f.k.k.l.B.n.m.:XcXcXiX7XcX7XoXn.g.i.i.i.i.k.N.k.i.k.N.U.U.U.U.Z.Z.Z.R.R.T.T.T.P.P.Q.Q.Q.Q.P.J.XX7XPXFXMXvXFXLXCXmXbXmXCXFXFXGXGXGXHXnXHXSXAXSX}.b v E b b g F g + k h N e e f d y.>.>.>.t.^ p p p s s d d 3.z.z.8.$XJXvXwXbXsXkXlXkXjXkXjXjXdXlXZXbXjXNXNXNXNX0X).G J K H 9.b.I.L.K.W.E.E.E.E.W.E.E.~.W.W.W.W.W.W.!.Z.h.Y.l.f.N.g.l.k.f y >.S.~.!.!.4XT.oX:X$Xm.c.B.U.U.U.D.>.p p >.k.Y.N.g.N.B.B.B.H.R.oX4XoXXXXXXXXXXXXXXXXXXXT.P.J.J.J..X.X.X_.%X5XuXbXwX9X#X0XhXSXZXNXdXaXbXBXbXmXgXgXBXjXrXfX&X- X X   @ O O * e e e e w w r r r t f d Z 1.1.j.4.2.2.1.1.6.7.'.X.).|.1XfXfX2X1X*X=X<XpXfXfX2X-X2X2X-X-X<XpX0XtXMX7.N 5.4.q.,.V.V.D.D.D.D.A.A.S.D.D.D.S.Z.V.h.i.>.t.t.t.i.>.8 8 7 7 7 8 8 y :.2.m.H.1.y 8 8 8 8 4 4 y i.a.a.t.t.a.t.r h.T.P.L.I.L.L.L.P.P.P.P.P.P.P.L.L.L.L.L.P.J.m.$XwX,X X*XkXkXwX=X@X*X=X*X=X=X=X=X@X@X@X@X=X=XeX<X>XdXbXJ     o O 4 4 y i w 4 O O w w w w r w r r r r r p V.C.C.C.j.9.9.7.7.M.'.` X.). X|.2X1X|.&X1X2X2XfX<X<XpXdXSXZXVXjXaX1X>X0X9XuX7Xx.C 3.5.j.C.C.C.C.C.K.C.C.C.A.A.S.S.Z.h.:.s y.t.t.y.,.;.3 2 2 2 2 3 o 4 C.C.4 o o 1 2 7 2 3 y p.t.^ ^ ^ ^ i.l.H.P.K.K.K.K.K.K.K.L.L.L.K.K.K.S.K.K.F.J.J.b.'.OX+XOX",
"AXAXHXGXGXeX(.W o.E O.E G `.OX7.7.v.v.F.H.H.H.L.L.L.L.L.L.L.L.Y.Y.Y.Y.Z.Z.Z.Y.Y.R.R.R.B.f._ s.f.Z.k.N.R.l._ m.7XcXgX:XcX:Xn.s.f.i.i.y.i.k.f.f.k.k.U.U.U.U.H.H.H.T.T.T.T.T.T.P.Q.Q.Q.Q.P.J.G.oXiXPXFXMXMXFXLXnXbXCXCXFXGXGXGXFXFXHXnXHXNXNXaXo.v b G v v g v ; + h h u e t a :.>.y.y.t.t.p p p p s s d a Z z.b.x.%XDXgX9XsXaXjXjXbXbXbXlXjXjXNXNXjXNXBXNXjXjX0X[.J G J 8.9.F.F.K.S.E.E.E.E.E.E.E.~.W.~.W.W.W.W.W.W.T.Z.:.s.f._ g.l.U.>.y y <.V.W.!.4X4XoXoX%Xm.n.H.U.S.D.>.y y >.i.U.U.N.N.N.N.l.l.R.T.oXoXoXoXXXXXXXXXXXoXXXXXXXJ.J.J.J..X.X.X_.OX9XuX9XeX=X,XrXBXCXCXbXdXsXbXBXhXmXyXyXnXkXeXpX].% X @   O O 5 e e e e w w r t r r t f f d a :.h.4.>.4.4.6.6.6.x./.(.|.1X2X2X2X-X|.|.*X<X<X<X-X&X1X<X-X-X<XrX>X9XMX_.m 1.1.q.,.q.V.V.V.V.V.D.D.A.D.D.D.S.S.D.V.i.t.y.t.t.i.i.y 7 7 7 7 7 8 8 y j.H.5.i 8 8 8 8 8 8 8 p p.a.t.t.i.a.y.s Z.T.L.P.I.I.L.L.P.P.P.P.P.P.L.L.L.L.L.L.P.G..X7XyX,X X*XaXaX0X=X@X*X*X@X+X+X}.}.}.}.}.}.#X@XrX,X0XbXtXq     o O 4 e i i w 4 O 4 w w w w w r r r r r r p h.C.C.C.j.v.9.9.7.x.'./.X.o.].{.<X1X-X-X2X2X2XfXfXfXkXVXGXGXGXBXaX*X*X=X@X9X#Xx.C 3.3.j.C.C.C.A.A.A.A.A.A.A.S.S.C.Z.V.:.s y.t.^ y.p.;.7 2 6 2 2 2 1 4 :.4.8 o 1 1 2 6 2 3 <.p.t.t.^ ^ / i.l.H.L.K.L.L.L.K.K.K.L.K.L.K.K.A.K.H.H.F.J.G.b._.OX+X[.",
"AXAXGXBXGXaX].o.o.o.o.W G /.`.x.9.v.v.H.H.H.H.L.L.L.L.L.L.L.L.Y.R.R.Y.H.Z.H.Y.R.R.Y.B.B.N.f.f.k.Z.Z.Z.N.k.f.N.B.iXgX:X7XB.g.i.i.a.a.i.i.s s u.N.k.U.U.U.U.H.L.P.!.!.!.!.!.T.4X4XQ.Q.Q.P.J.G.$XcXLXLXPXmXLXLXnXnXHXHXHXHXHXHXGXFXGXnXZXnXjX=XG b G G b v k k % + h N u t f :.u.:.y.y.t.t.^ ^ ^ s / s d d Z z.m.x._.xXMXuXhXNXlXkXNXNXNXlXlXNXbXhXjXbXNXNXdXdXqX+XX.J J x.v.F.K.A.A.E.E.E.E.E.E.E.E.W.W.W.E.E.W.W.S.!.Z.s d f._ g.k.Z.V.<.y y <.,.W.!.4X4XoXm.m.J.R.S.,.<.<.<.>.<.U.U.U.N.N.Y.N.f.n.T.T.T.T.4X4XXXXXXXXXXXoXXXT.P.P.J.J.J..X.X.X_.%X5X9X#XwX=XrXhXGXGXCXhXdXbXBXbXyXCXyXyXkXkXkX<XE % . @ @ O 5 e e e * w w w r p r r t f f f a >.h.4.4.4.4.4.6.C 8./.(.[.-X2X<X<X<X+X+X*X-X-X-X&X|.1X2X<X<XpXpXrX=XuXoXm a >.4.>.q.q.V.V.V.V.V.D.D.D.D.D.S.S.S.D.i.y.y.t.t.t.>.y 8 7 7 7 8 8 8 4 3.d.a 8 -.;.-.7 7 7 8 <.p.a.t.t.a.i.u.h.R.P.G.P.P.I.L.L.P.P.Q.P.L.L.L.L.L.L.L.L.P.J..X7XkX,X X1XkXjXaX0X=X*X@X+X+X}.[.[.[.}.}.}.}.+X=X+X>XhXUX@     O O 4 e i i w 4 4 w w w w w r w w r r r r r :.C.C.C.j.F.v.9.7.z.'.'.X.X.].{.*X<X<X<XfX2X-X<XkXkXjXNXGXGXGXBXqX*X@X+X@X,X#X.XC 3.3.j.C.C.A.A.C.A.A.A.A.A.S.Z.C.Z.Z.u.y.y.t.^ t.y.<.3 2 2 2 2 1 8 ;.>.>.>.8 1 2 2 2 2 3 <.>.<.t.^ ^ / k.l.H.H.K.K.L.L.K.K.K.L.K.L.K.K.K.H.H.H.J.J.b.b.%X$X+X[.",
"HXHXGXBXGXjX{.o.o.o.O.E G /.'._.9.v.v.H.H.H.L.L.L.L.L.L.L.L.R.R.T.T.T.R.R.Y.R.R.Y.B.B.B.B.N._ d C.S.S.k.k.N.N.g.oX:X%X%Xg.l.i.i.a.a.y.s w r u.U.a.a.a.U.U.L.P.!.!.!.!.!.!.Q.4X4X!.!.Q.P.P.J.5XDXLXKXLXLXKXFXnXBXHXHXHXHXHXHXGXGXGXCXNXNXkX|.b G E b F v k + + k h N u f f d :.y.y.y.t.p p t.t.^ y.s s d a 3.m.x.b.7XPXgXhXZXbXkXNXNXNXlXNXAXBXjXdXdXjXdXaXjXeX#X(.J J x.9.F.K.A.E.E.E.E.E.E.E.E.E.E.W.W.~.~.E.W.W.L.S.:.d l.f.g.f.k.D.>.y 8 8 8 >.C.4X4XoXJ.J.R.K.q.<.y <.,.,.<.U.U.U.N.N.N.l.l.T.T.oXT.oX4X4XXXoXoXoX4XoXXXP.P.P.J.P.J..X.X.X_.`.9X#X#XeX0XkXNXHXLXbXsXjXCXBXIXuXCXgXyXwXaXkX*Xl % X @ O + + e e * * w t r r p r p p f f s d >.h.h.h.4.4.4.4.6.7.x.X.(.*X2X1X<X<X-X-X<X-X-X-X-X<X<XfXfXfXfXfXaX9XuX7XC a >.4.>.,.,.q.V.V.V.V.D.D.D.D.A.A.S.S.D.p.y.t.t.t.t.>.<.8 7 7 7 7 8 8 4 a 2.>.y 8 -.=.7 7 7 8 >.a.a.t.t.a.i.k.Z.R.P.I.P.I.I.L.L.L.L.P.L.L.L.L.L.L.L.L.L.P.J..X7XkX,X X1XVXNXkX0X=X*X=X=X=X*X+X}.}.}.}.}.[.=X<X+X>XeXOX    o O O 5 e i i w 4 w w w w w w r r r r r r r r :.j.F.F.v.F.v.v.v.7.M.`./.X.].{.|.2X2X2XfX<X*X<XpXdXdXaXbXCXBXbX=X*X@X|.@X,X7X5XA 3.5.5.j.C.C.A.C.A.A.A.A.A.C.C.C.C.Z.k.u.y.^ t.t.i.<.8 2 2 2 2 7 ;.q.>.>.>.;.8 7 2 2 3 3 >.>.p t.^ ^ y.l.n.H.H.K.L.L.L.K.A.S.K.L.K.K.K.F.F.F.G.J.G.b.'.%XOX+X}.",
"HXHXKXGXKXVX[.W o.o.E E X.(.`.oX0.9.F.F.H.K.L.L.L.L.L.P.Q.Q.!.!.T.T.!.!.T.R.R.R.B.R.B.B.R.B.f w 4.A.S.U.U.N.N.g.` _.M.m.g.k.k.a.i.y.p w 4 f k.U.a.a.a.a.U.S.!.4X!.!.!.!.!.Q.Q.!.!.!.Q.Q.P.J.5XDXFXKXKXKXKXFXbXCXKXHXHXHXHXHXHXHXCXmXhXNXdX).b G E v b j g + * h u u u u y p p :.y.t.t.p p t.t.t.y.s s d a 3.b.x.b.$XMXuXuXZXkXkXNXNXNXNXAXHXHXNXaXeXeXeXaXbXdX,X(.K J 8.7.F.I.A.E.E.E.E.E.E.E.E.~.E.W.~.~.E.E.W.!.S.R.h.s l.N.g.N.l.h.q.<.y 8 8 8 i F.4XoXJ.J.H.4.;.<.,.,.<.<.>.U.U.U.Y.Y.l.k.l.T.T.T.!.4X4X4X4X4X4X4X4XoXT.P.P.P.P.J..X.X.X.X_.`.iX$X9XyXjXjXCXLXPXsXtXbXGXGXbXwXnXhXeX>XrXdX}.- % X @ + + O e e * * w t t r r r p p s s s d :.4.V.V.4.4.4.q.5.C J K X.*XrX2X2X<X=X<XpX<X-X2XfXzXfX2X<X<X<XpXpXtXuXcX9.a 1.4.4.q.4.q.V.V.V.V.D.A.A.A.A.A.A.A.S.p.i.t.^ t.t.<.,.8 8 7 *.7 7 8 4 a n.H.i 8 7 7 7 7 7 y p.a.a.t.a.a.i.U.Y.L.P.P.P.P.L.L.L.L.L.L.L.L.L.L.L.L.L.L.J.P.b._.#XyX@X X<XVXlXeX=X@X=XwXkXeX0X=X+X}.}.}.}.=XlXSX,X>X>X).    o O 4 e i i i w w w w w w w r r r r r r r r r :.j.H.F.F.F.v.v.v.3.x.`./.X.).]. X2X2X<XfX1X*X<X0XqXqXqXaXBXBXdX=X-X@X|.@X#X#X7XH 7.9.9.5.5.C.C.C.C.C.C.A.C.C.C.C.C.Z.Z.i.:.p t.t.i.>.8 7 2 2 2 ;.,.4.>.<.<.>.>.8 2 2 3 4 ,.>.p t.p p u.l.H.J.H.K.S.L.K.S.A.K.K.K.K.K.F.F.G.G.G.G.b.b.'.%XOX+X+X",
"AXCXHXKXBXdX*XE o.o.O.O.X.X.'.XX0.G.F.F.F.L.P.L.P.Q.Q.Q.!.!.!.!.!.!.!.!.T.R.L.H.Y.B.R.B.n.R.d.4 4 4.q.D.U.k.l.n.M.M.%XM.d.f.i.a.<.y y y y :.U.p.a.a.a.a.U.E.Q.6X!.!.!.!.!.!.!.4XQ.!.Q.!.J.J.xXDXLXLXLXFXLXKXKXGXKXKXKXHXHXKXGXnXCXmXhXSX>XW G b b G v v g + h k u u u w s p p s >.t.p p ^ t.t.^ s / s s Z 3.v.z.b.oXcXcXhXZXNXkXbXhXaXjXBXNXAXZXjXqX0XaXjXNXjXwX).J K 7.3.9.I.K.A.A.E.E.E.E.E.~.~.E.E.E.E.E.E.E.~.E.S.S.s.s.l.g.g.f.l.h.y 8 8 8 -.8 ;.q.P.4X!.q.8 ;.;.,.<.<.<.D.U.k.Z.Y.Y.N.Y.Y.!.!.T.T.!.4X4X4X4XXXXXP.T.P.P.P.T.T.P.XXXXXX.X_.$XIX9X9XsXjXHXGXLXuXuXBXIXsXZXGXhXhXwXeXrXeXpXo.% % X @ + 5 e e e * * w r t t r p p p s s s s :.:.4.V.C.q.q.q.5.3.H 8.(.[.<XfX1X<X<X<X<X-X-X-X<X<X-X-X2XfXfX2X<X,XwXDXb.V >.>.q.4.4.q.q.q.V.V.A.A.q.q.A.A.A.A.S.D.i.y.^ ^ t.>.,.<.8 7 =.7 7 =.>.l.c.n.5.1.8 6 7 8 8 <.p.a.t.t.t.i.k.U.Y.H.H.H.P.H.H.L.L.L.P.P.L.L.L.L.P.L.L.H.J.J.m.%X$X@X@X*X<XVXqX,X0XqX>X,X<X*X,X>X=X=X=X@X|.lXZXjX,X#XwXK     o O 4 4 i i y w w w w w w w r r r r r r r r p d C.H.C.F.F.v.9.v.7.7._.`.W (.{.|.-X2X-X|.|.|.-X0X0X9X9XaXbXsX=X-X-X-X-X+X#X#X$X8.H 7.3.5.F.5.C.5.C.C.C.C.C.C.j.C.F.C.Z.k.y.p >.t.y.>.y 7 2 2 7 -.q.q.>.<.>.>.,.9 1 1 3 4 i.y.>.t.p / k.l.n.m.J.H.L.L.L.K.K.L.P.F.F.G.G.F.b.b.b.v.b._._.OX`.`.+X",
"CXNXHXKXGXBX>XW o...O.O.W W (.OX0.G.F.F.K.K.K.L.Q.Q.Q.Q.Q.Q.!.!.!.!.!.!.!.T.T.R.R.R.R.n.n.J.v.y 3 y y >.D.Z.Z.d.M._.$Xm.d.l.p.>.y y y y y V.~.D.a.a.a.^.^.!.!.6X!.!.!.!.!.!.!.!.Q.Q.Q.Q.I.XXxXJXKXKXKXBXnXFXKXKXHXHXHXKXKXFXnXvXCXnXnXNX*XE G G b F v J j e k h m V V w s s s s t.p p p t.t.y.t.^ y.s d d 2.b.b.b._.iXgXhXjXwXqXqX0X>XeXdXjXBXZXdXqXaXNXZXZXNXtX`.J H 8.7.9.K.C.A.A.E.E.E.E.~.~.W.E.~.E.E.E.E.~.~.E.W.S.h.s.l.f._ _ l.j.;.8 -.-.;.;.;.;.K.6XQ.y ;.,.;.,.,.<.<.S.U.U.U.U.Y.R.!.R.!.!.T.T.4X4X4X4XP.P.P.P.P.P.P.P.T.T.T.XX.X.X.X%X$XIX9XiXnXCXHXCXuX9XMXvXtXsXtXtXyXvXyXyXrX<X*XG ; ; X   O 5 e u e w * w r r p r p p p s s s s :.>.:.4.q.q.4.q.5.3.7.x.'.}.<XfX2X<X<XqXpXqX-X-X-X2X<X<X2XfXfXpXqXdX9XMXoXm V 1.a 4.4.4.4.4.4.q.q.A.A.A.A.C.C.C.C.Z.i.y.^ ^ t.t.p.<.8 =.=.7 =.,.A.g._ d.G.F.;.8 8 8 8 <.p.a.a.a.t.i.k.U.Y.H.H.J.P.T.P.P.H.H.L.P.P.L.L.L.P.P.H.J.J.J..X%X$X+X X|.1XrX0XqXwX0X=X=XqXwXeXeX0X>X>X=X@XVXSXlXwX=XyXj   o O 4 e w i i y 4 w w w w w r r r r r r r r r r d l.H.C.F.F.F.v.v.z.z._.`./.).[.{.*XfX2X-X*X|.+X-X=X=XqXaXaXqX=X-X1X<X<X=X,X9X#X'.B C 7.3.3.5.v.5.v.F.j.j.j.v.j.5.j.j.j.Z.i.:.y.t.y.>.<.8 2 2 2 8 ;.;.>.,.>.<.<.7 2 1 3 y y.t.p t.p y.Z.Y.n.m.m.G.F.F.H.H.J.G.F.G.J.J.G.b.m.b.b.m._.b.x.`.`.[.@X",
"HXBXCXGXGXGXqXo.o.O...o.X.W ).$X'.G.G.I.L.K.K.W.Q.Q.Q.Q.Q.Q.Q.W.W.W.!.!.!.Q.T.R.T.R.J.m.m.J.F.1.4 9 8 8 <.>.C.H.v.M.oXm.d.j.>.y y y 8 8 >.S.~.U.a.a.a.^.~.!.!.!.!.!.!.!.!.!.!.!.Q.Q.Q.Q.P.oXcXKXKXKXKXPXMXmXFXKXFXFXHXKXKXGXBXmXbXnXnXkX|.F G E b v v /.k e h h u Z Z w a :.y.y.t.p p ^ t.t.t.^ / y./ d a V b.b.b.b.$XgXnXkX>X=X=X=X=X0XaXjXNXVXdXaXlXNXaXeXjXNX}.J K H 3.9.F.q.A.A.E.E.E.E.E.W.W.W.W.E.E.E.E.E.E.E.W.W.l.s.s.s._ _ g.l.>.y 8 -.;.;.8 y 4.A.4.<.;.,.-.<.,.<.<.S.Z.U.U.l.l.4X8XT.4X4X4X4X4X4X4XXXP.P.P.P.P.T.T.T.P.T.XX.X.X.XXXoX5XMX9X9XZXHXHXnXhXgXPXtX9XaXtXwXwXhXhXyXeX<X X: ; % X   O e e u e w w t r r p p p p s ^ s s s :.s :.4.C.q.q.q.C.5.7.8./.[.-XfX<X<X<XfXfXfX<X-X-XrX2X<X-X1X2XfXpXjX=XmXiXM 6.5.1.3.3.5.5.5.5.5.C.4.5.C.C.C.C.F.C.Z.h./ ^ ^ ^ t.y.<.=.=.7 8 8 q.W.f._ d.G.9.i 7 8 3 8 >.p.a.a.a.p.a.k.Z.Y.H.J.P.P.H.H.H.H.H.H.J.J.J.H.J.P.P.J.J.J.m._.%X$X}.].|.1XpXaXaXwX>X*X=X>X0X0X0X>X>X<X<X>XdXdXdXeX9XuX5   o O 5 e e i f y 4 w w w w r r r r r r r r r r r d l.H.C.F.F.F.F.v.v.z.b.'./.).].{.-XzXzXfXeX-X0X>X=X=X0XeX0X9X0X<X<XrXqX,X>XqX9X`.B 7.x.A 7.b.9.v.b.G.G.G.J.XXoXoXoXJ.j.l.h.y.y.t.t.y.>.y 3 1 2 1 3 8 ;.,.<.8 7 2 2 1 3 >.>.t.p ^ p u.Y.R.J.m.b.G.G.G.G.G.G.G.G.4XoXoXoXoXoXoXOXoXoX`.'.`.OX+X#X",
"HXAXBXhXsXNX0Xo.o.....o.W W (.$X'.0.9.G.P.L.L.Q.Q.Q.Q.Q.Q.Q.W.W.W.W.!.!.Q.Q.R.H.T.R.J.J.J.J.G.F.4 y y 8 8 8 >.H.H.z.m.m.d.1.y y ;.;.8 8 ,.E.D.^.a.a.a.U.~.!.!.!.!.!.!.!.Q.Q.Q.W.Q.!.Q.P.P.4XcXKXFXLXKXLXFXFXBXmXmXGXHXGXGXHXHXLXbXCXCXyX].b b E b v z X.+ k h m N Z a w d u.u.y.t.p p t.t.t.t.^ ^ / / d f a v.m.b.b.$XMXFXNXeX>X=X=XqXqXaXNXlXbXdXeXdXjXaXeXdXkX+XW D K C 3.F.5.q.A.A.E.E.E.E.W.W.W.W.W.W.E.E.E.E.E.!.!.Z.h.s.s._ _ g.l.>.8 8 8 =.-.8 8 ;.;.<.<.,.,.<.<.<.<.<.~.Z.U.Y.l.l.4X4XR.4X4X4X4X4X4XXXXXP.P.P.P.T.XXT.T.T.T.P..X.X.XXXXXiXPXiXwXHXHXSXnXvXDXMX9X=X9XtXwXwXyXyXwXaXrX].- ; + @ @ O e u a e e w t r r p p p p ^ ^ ^ p s :.:.2.4.C.C.C.C.C.5.3.7./.`.*X<X-XqX2X<XqXqX2X2X2XzXzX2X-X-X2XfXzXzX<XBXgXM m m V V V V V 6.3.5.5.9.v.F.F.v.G.v.j.H.h.y.^ ^ ^ t.>.<.=.=.7 7 8 ;.q.l.g.j.5.;.4 3 8 4 y p.a.a.a.a.p.a.U.Z.H.H.J.J.J.J.J.J.J.J.J.J.J.J.J.J.J.J.J.J..Xb._.OXOX}. X*XpXjXdXrX>X>X>X,X=X=X=X>X,X,X>X0X0XrX<XeXeXwXuX@   O O 5 e e i i y 4 w w w w r r r r r r r r r r r d l.H.j.F.F.F.G.v.b.7.z.x.X.).).].|.<XrXqXqX<XeX0X=X=X=X0X0X0XqX<X2XfXfXpXpXjXhX@XOX5X$X$X7X7XoXiXxXxXxXxXxXcXDXcXxX4Xv.j.h.:.:.y./ :.>.<.8 3 2 1 1 3 8 ;.8 3 1 2 2 1 y y.p t.^ ^ y.k.R.H.m.m.b.b.m.m.b.b..X$X7XcXxXxXxXcXgXIXIXMXDXMXvXmXHXHXHX",
"AXBXbXtXwXdX0Xo.o.......E W (.[.'.0.7.v.J.H.L.P.P.P.P.P.Q.P.P.L.L.L.Q.Q.Q.P.R.Y.R.B.B.J.J.J.H.H.y 8 8 8 8 -.y i v.v.J.n.V i y ;.;.;.8 8 ,.D.p.a.a.a.a.U.!.!.4X4X!.!.Q.Q.Q.Q.Q.Q.Q.!.P.P.XX5XPXLXFXFXLXKXKXKXCXMXbXHXGXhXhXGXKXFXbXFXGX0X(.b b b G b v J + m m e V V i w :.:.:.y.t.p t.t.t.>.>.t.^ / / d t u v.b.9._.$XMXHXZXjX0X=X0XjXaXdXZXjXjXeX0XeXBXHXGXjX<X*XX.D K C 3.v.F.C.A.K.W.W.W.W.W.W.W.W.W.E.E.E.E.W.~.W.!.L.h.s.g._ _ g.l.>.y 8 8 8 ;.8 8 ;.V.>.y <.;.<.<.<.<.,.U.Z.l.N.l.H.T.4XT.4X4X4X4X4X4XXXP.oXoXXXXXP.P.T.T.T.P.J..XXX.X.X_.iXDXMXnXHXCXkXgXcXKXvXmXIX9XbXtXwXyXwX>XeXrX].- - + X + e e u u t w t t t p p p p p ^ ^ p p s :.:.2.4.j.C.C.V.V.j.5.9.'.[.*X<X-XqX<X-X<X2X2X2X2XlXlXfX2X1X2X2XfX<XpXjXyX/.H H .XXXoXoXoXXXoXoX4X7X7X7X5X5X7XoXm.F.h.u.s ^ ^ t.>.,.<.8 =.8 8 8 ;.V.Z.4.i 9 3 3 8 8 <.p.a.a.a.a.p.D.Z.H.P.J.G.G.J.J.J.J.m.m.m.m._.J.J.m.m.b.b.b.b.x.'.%X}.}.[.@X<XeXwX0X0X0XrX0X>X,X<XqXqX<X>X0XrXrX<XeXeXsXiX@ O O 4 e e w i f y w w w w w r r r r r r r r r r r d l.H.v.F.G.F.F.F.b.3.7.J J (.(.]. X-X<X-X-X*X-X-X-X=X=X0XpXrX1X&X*X<XpXpXpXdXaXqXnXmXiXMXJXMXMXKXJXJXDXDXPXDXDXDXcX5Xv.3.h.u.:./ ^ :.:.>.8 3 3 3 1 1 8 y 8 2 1 2 1 3 >.t.p ^ ^ p y.Z.Y.H.v.m._.'._._._.%X#XxXJXJXPXMXmXPXCXCXFXMXmXmXmXFXKXKXGX",
"yXkXnXaXeXjXqXo.........W W W W '.8.7.v.G.H.H.P.L.I.P.P.P.P.P.L.L.L.P.P.Q.T.R.R.n.B.B.B.R.H.H.P.>.4 4 8 =.-.8 8 a j.T.2.4 9 i ;.;.y 8 y p.U.a.a.a.a.D.S.!.4X4X!.4X4X4XP.P.P.P.P.I.P.P.P.XX5XFXGXKXLXPXFXKXKXLXFXFXKXGXsXyXFXHXCXPXFXLX=XW G b b b b F v + m e 5 u i w w :.d s y.p ^ t.t.t.t.t.i.y./ / d i u J.b.9._.$XgXCXNXlX<X>XqXZXjXjXHXNXNXeXaXNXHXBXjXdXeX=Xo.G J K 3.v.F.F.K.K.L.W.W.W.W.W.W.W.E.E.E.E.E.~.~.E.W.L.j.s.g._ _ g.l.4.;.8 -.=.-.-.;.A.W.V.>.-.=.-.8 8 <.D.U.U.k.l.Y.Y.T.4X4X4XXX4X4X4X4XXXP.4XoXoXXXXXP.P.P.P.P.J..XXXXX.X_.9XIXPXGXZXjXwX0XPXKXgXPXBXqXbXnXhXyXwX,XrX<XW - g + + e e e u u t t t t t p p p p p ^ ^ ^ ^ / y.u.2.5.j.C.C.C.C.C.5.b.`.OX*X<X<X2X-X-X<XqX<X-X-X*X-X-X<X2X2X2X2X-X<X<XeX9X5X5XxXPXPXcXcXcXcXcXcXDXDXcXxXcXcX7X.Xv.h.u./ ^ ^ t.t.,.<.8 =.8 8 7 8 <.;.y 8 8 8 8 4 y y.a.a.a.a.p.a.Z.H.R.P.J.J..XXXoX.X.X_.%X$X$X5X5X$XoX$X$XoXoX$XOX$X#X,X@X@X1XpX<XqXpXdXpXqX0XqX>X>X<X0X0X<X0XrX<XrXpX0XhX$X  O 5 5 e e w i f y w w w w w r r r r r r r r r r r s j.H.v.F.G.F.F.J.F.3.7.J J (.).[.|.<XpXpXqX-X-X*X-X>X<XpXdX<X&X].].*X2XfXpXqX>XaXNXsXqXnXMXwXKXFXnXvXvXIXuXuXcXcXcX7Xm.j.j.h.:.s s :.u.>.y 4 3 3 1 1 8 9 8 2 2 2 1 8 p.p ^ ^ ^ ^ i.Z.H.v.v..X_.OX}.}.OX#XwXvXnXFXbXIXbXhXdXdXbXmXvXMXmXnXGXKXKX",
"eXhXBXsXaXNXpXo.E O...E W W F k J 7.7.7.v.v.H.H.F.F.G.J.P.P.P.P.L.L.P.P.P.P.R.Y.n.B.B.B.Y.Y.Z.Y.Z.y y -.=.-.-.;.y :.j.i 4 y ;.;.8 8 8 <.a.a.a.a.a.U.U.!.4X4X4X4X4XXXXX.XI.I.G.J.P.XXP..XXX9XGXGXKXFXmXmXPXPXFXLXKXHXCXmXmXCXCXCXFXFXCXOXF E b b b v F j 5 h e e u i y w d s :.:.p t.t.t.t.y.y.i.y.s / u.i a J.b.b.b._.uXFXjXjX<X>XqXHXjXjXHXNXNXdXjXAXZXaXqXdXVX<Xo.G G B C 9.F.F.F.K.K.L.L.L.K.K.E.E.E.E.E.E.E.E.E.E.S.T.j.2.g._ f.k.Z.q.;.8 ;.-.8 ;.W.!.S.S.~.;.8 8 8 8 y D.U.N.l.N.B.H.R.4X4X4X4XXXXX4X4XXXP.4XoXoXXXXXP.P.P.J.J.J.J..X.X.X%XiXiXmXHXbXsXaXwXMXMXuX9XtXqXwXnXnXhXhXrXrX*Xb : g X + e e e u f f t t t t p p p p s s ^ ^ ^ y.u.s.s.5.j.F.C.C.C.C.5.9._.}.*X<XfX2X<X<XfXfXqX-X-X{.{.|.-X1X1X1X2X2X2X<X>XwX#X7XiXcXxXuXiXiXiXiXiXiXgXuXiXiXiX$Xx.v.Z.k.y.^ ^ t.t.<.,.<.=.8 8 8 8 8 8 8 7 7 8 8 8 >.p.a.i.a.a.a.U.Z.Y.T.P.J.XX$X5X7X7X7X7XuXPXKXKXDXDXDXDXDXDXDXDXPXPXFXAXSXSXSXAXkXaXaXjXjXeXrXaXwX>X=X>XqXrX0X0X-XrXaX,XvX'.  o 4 5 e e w y i w w w w w w r r r r r r r r r r r f d.v.j.v.v.9.5.G.F.3.b.x.K /.).].].-XqXpXpX=X>X=X-X<X<XfX2X1X&X X{.*XpXfXdXfXqXlXNXbXtXsXtX0XGXHXBXbXBXCXCXPXPXIXDXiX.Xv.C.V.u./ / / :.>.>.y 8 3 3 1 3 9 7 2 2 7 8 >.y.^ ^ ^ ^ t.i.S.L.v.G..X'.`.}.+X#X,X0XaXsXKXGXZXZXVXkXjXNXCXhXbXCXnXBXKXKX",
"jXCXZXsXaXBXaX(.b E E T E E g . k j C C A 3.d.d.v.v.b.G.G.J.J.J.J.P.P.P.P.P.H.H.n.B.B.g.B.Y.l.Y.Z.y y ;.;.;.;.,.y y f w y >.;.;.8 4 8 <.U.a.a.a.a.U.R.4X8X8X5X5X5X5X5X5X5X$XoXoXoXoX.X.X`.UXGXSXGXPXmXnXMXvXMXmXHXbXvXFXHXnXbXmXKXPXvX`.b E T b b v F h e m m 3.2.j.2.i :.:.s p t.t.t.t.t.y.i.y.y.s s :.i a J.v..X8.x.uXKXbXjXeX=X0XZXeXeXGXdXjXdXwXaXNXZXAXZXlXrX).F v k h 7.G.F.F.9.F.F.I.G.F.K.K.K.L.W.W.W.W.E.E.A.S.T.l.2.f.f.f.k.h.q.;.8 ;.;.;.q.W.S.S.~.W.q.8 8 8 8 y S.U.N.N.B.l.l.P.4X4XXXXXXXXX4XXXXX.XoXoXXXXXXXXXXX.XJ..X.X.X.X.X%XOXMXuXFXHXsXbXZXCXvXuXJXuXvXFX9XvXCXnXBXkXaX|.z l ; .   * e e u f f t t f f p p p p s ^ ^ ^ ^ y.u.u.2.2.5.j.C.C.j.F.3.7._.OX=XpXfXfX2X<XfXfXfX<X-X-X|.&X-X<X-X-X2X2X<XpX<X0X+XiXuXwXuX9X9X5X#X9X9XuXMXvXuXwXuX#X_.m.H.Z.u.^ p ^ <.<.p.,.8 8 8 8 8 8 8 8 8 8 7 8 y p.D.a.i.a.a.p.U.L.P.T.J..XoX5XxXiXiXiXIXFXKXKXKXKXDXDXJXKXJXJXJXKXKXKXHXHXAXAXAXHXdXqXdXNXNXNXBXAXaX>X0XaXaXqX>X@XaXdX=XMX8.  o O 4 e e w w y w w w w w w r r r r r r r r r r r r 2.j.5.5.5.6.1.F.v.3.b.x.D W (.[.}.1XrXdXdX0XeX0X-X-X<X<X-X*X-X*X{.|.-X<XrXpXqXjXlXGXdX0XwXwXeXVXdXeXsXhXhXyXyXIXJXxX.Xj.F.Z.h.u.( s s :.:.>.;.8 3 1 3 8 4 3 3 8 >.D.p ^ ^ ^ t.a.D.S.L.F.G..Xx.G o.|.@X+X=XaXHXHXZXZXAXBXjXlXZXFXbXFXKXFXFXKXKX",
"dXNXZXAXGXNX0X+X[.[.}.|.|.[.(.X.`.%XOXoX$X$X7X7X$X7XoXm.m..Xb.b..Xb.b.J.J.H.P.T.R.R.B.B.n.B.Y.Z.Z.i y ;.,.,.q.<.y y 2.:.i <.<.-.8 8 8 >.~.^.p.a.k.Z.4XcXDXJXJXKXJXJXJXKXJXJXPXMXKXIXiXuXuXtXbXNXKXFXmXCXFXBXBXCXNXbXhXBXGXbXbXGXHXvXjX}.F b b T v v G h e u 3.V a 2.h.i y :.s y.y.t.^ t.t.t.t.t.s s s f a a 1.C XXXX'.5XKXGXGXbXdX0XqXNXZXjXaXjXNXaXqXeXdXdXaXaXkX#XX.v k k h K 8._.XX.Xb..XXXXX.XoX5XXXJ.F.P.C.V.L.L.C.R.Y.g.s.f.k.k.Z.C.i 4 8 8 8 ;.A.W.W.S.,.=.<.<.8 8 >.U.U.l.N.l.l.H.T.4XXX6XXXXXoXoXoX$XoXoXoX5XoXoXoXoXoX%X%X%XOX%X`.%X#XvXmXGXCXbXnXZXBXsXnXhXbXwXhXsXnXNXNXjXSXlX].l b k + O * e u f N t e t t f p p s s ^ ^ ^ ^ ^ ^ y.u.d a j.F.j.5.F.j.3.v.b.OX=X>XdXfXfXqX2XfXfXfX2X<X<X-X-X-X-X-X-X2X<XfXpX>X=X>X<X<X,X,X0XwXrX9X9X0XqXtXyXsXhX9X`.'.z.n.s.s s p p i.<.p.,.8 8 -.8 8 -.8 7 7 8 <.V.D.D.k.k.k.Z.Z.S.P.P.XXXXXX_.$XuXgX0X#XwXkXyXCXHXCXmXCXHXKXKXHXHXHXGXGXGXGXGXGXGXHXFXnXsXwX0XyXNXBXbXtX0XwXeXwX,XpX0XqX#XuXB   O 4 4 e y i i f f w w r r r r r r r r r r p r r r :.V.S.S.C.K.C.V.C.C.j.9.7.K J ).].].-XlXzXfXfXrXpXrXqX<X-X*X-X<XpX@X+X0XdXeXwXdXeXZXGXaX9X,X>XwXeXsXhXhXnXhXwX9XuXIXiX.X6.C.A.S.h.u.:.d :.:.:.:.>.i y 4 4 4 i >.>.>.>.>.p >.y.i.U.S.D.C.I.G.9.'.F O.].+X,X,XwXbXnXnXmXFXGXNXjXbXBXnXBXCXCXBXBXGX",
"jXaXjXHXHXjXdXNXHXAXAXHXHXHXHXZXLXKXKXJXKXKXJXJXJXJXiX%X'._._.%X%X$XoX.XG.H.P.T.T.R.Y.n.n.Y.Y.Y.P.>.8 y <.8 y 8 i s h.h.>.<.8 8 8 8 8 ,.~.^.p.U.k.N.8XcXJXLXKXKXKXJXLXFXFXLXKXKXFXBXGXKXKXZXbXyXFXGXHXHXFXCXFXGXBXCXNXNXGXGXGXKXCXnXkX[.b G b E v F J h u u 2.a a 2.h.i y :.s :.t.t.t.t.t.t.t.y.y.y.s s a 1.3.6..XG.b.5XKXGXGXbXGXjXaXjXNXdXdXjXjXdXwX0X0XqXqXqXjXrX9X9X9XwXIXmXJXMXMXDXDXcXcXJXDXiXiX7X7Xm.v.J.P.L.H.L.R.l.s.s.f.k.f.l.j.i 4 8 8 7 8 ;.V.A.>.y <.<.<.y y :.Z.N.N.N.l.n.J.oX4X4X6X6X5XxXcXPXDXDXDXLXJXLXDXDXDXPXuXwXyXbXvXuXwXyXHXCXBXBXCXBXbXbX0XwXwXtX9X0XqXtXHXNXdXlXlX{.: - + O + e u e u u u u t f f s p s p ^ ^ ^ ^ ^ ^ / i.:.2.Z.H.F.5.5.j.d.v.b.%X#X=XpXpXqX2X2XfXfXfXfX2X<X-X-X-X-X*X1X<X<XfXpX<X-X1X1X,X*X*X<XrX<X>X,XqXwXaXdXsXhXqX[.x.7.b.d.d y.s p <.p i.D.>.;.8 1 8 8 3 3 8 <.p.E.S.Z.Z.k.Z.Z.H.P.P.P.XXXX.X_.OX0XNX<X@X<XpXeXjXnXZXSXAXHXHXSXBXBXHXHXHXHXHXHXHXHXKXGXCXnXyXwXtXsXbXbXsXwX0XqXeXeXkX0X9X,XMXB   o 4 4 y y i i a a w w w r r r r r r r r r p p r p :.V.A.A.C.C.C.C.A.C.C.v.7.H r.).].].@X<X-X-X2X<XqXfXqX-X*X*X=X-X0X9XwXhXjXhXaXaXjXHXGXbXyXwXwXaX,X0XeXgXMXgX9X,X9XuXxXXX3.C.V.V.V.h.h.:.:.d d d h.2.2.2.:.:.1.4.p p >.>.>.i.p.D.S.S.S.S.L.G..XoX[.|.@X*X*X@X,XyXmXbXbXmXnXhXsXhXnXbXbXBXBXNXBXGX",
"BXnXBXHXCXhXNXKXCXBXnXNXCXGXHXGXbXmXFXFXJXJXDXPXJXJXiX'.x.'.%X#XuXMXcX7XXXF.H.H.R.R.Y.n.n.B.B.Y.T.4.8 8 8 8 8 <.V.h.V.V.D.,.y 8 8 8 <.p.^.D.a.D.k.Y.8XDXJXFXHXKXmXMXvXuXuXvXBXKXnXnXGXKXCXBXnXtXhXCXKXHXFXHXHXGXBXHXBXbXBXGXGXGXbXnXrXo.b G T b b G J h u u 2.a 2.2.h.a y s s s ^ ^ t.t.t.t.t.y.y.y.s d 2.j.j.9.F.9.7.oXJXFXBXaXNXdXwXwXeXeXeXeXaXdXdXwXqXeXjXjXjXjXnXBXFXKXGXPXLXDXMXvXcXvXgXuX%X'.'.OX7Xx.7.XXJ.v.v.H.j.Z Z d _ f.s.f.j.>.y 8 8 7 8 8 ;.q.y y ,.,.<.y <.h.U.l.Y.N.l.Y.T.oX4X4X6X5XcXJXJXJXJXLXLXKXKXKXKXKXLXPXuXyXbXCXHXCXnXjXGXbXtXbXHXjX0XsXaXaXsXsXhXtXtXyXBXjXaXzXkX].- % X O + u u e u a a f t f f s p ^ ^ ^ ^ ^ ^ ^ / / y.s f a 1.>.1.1.v.z.b.b.%X#X@X<XqX<X<X2XqXfXfX2X2X<X-X<X2X-X-X<X<X1X<X<X-X*X-X*X,X*X=X1X<X<X,X=X0XwXdXbXhXhXwXOX8.7.b.j.2.u.s p >.p >.p.V.4.;.8 4 8 8 i q.S.S.S.Z.Z.k.f.l.Z.H.P.P.P.P..X.X_.OX>XlX<X|.,XaXyXnXnXdXjXCXHXHXZXZXHXKXKXKXKXKXHXHXHXKXHXHXLXnXsXtXwXsXbXjXtX9X0XaXlXkX0X>X9XFXB   o 4 w y i i i <.<.y w w r r r r r r r r r p r r p V.D.A.V.V.C.A.A.A.C.C.F.9.8./.`.].].|.*X|.|.-X<X-X<X-X+X+X=X0X>X=XtXjXsXyXjXCXZXNXCXNXbXjXeX0XeX,X0X0XuXvXhXwX9X9XuXcXoXj.C.V.V.C.V.h.h.:.:.:.:.d :.:.4.4.1.>.>.s >.:.u.p.D.S.S.S.S.S.S.K.I.XX5X+X*X*X@X*X#X,XgXPXmXbXvXhXyXyXaXnXbXhXhXbXbXBXCX",
"GXKXKXCXnXBXCXCXHXHXHXKXKXKXKXHXCXHXKXKXKXKXKXJXLXKXiX/.G J J (.}.#XiX7X4XP.K.H.P.P.H.n.n.B.B.B.P.q.4 8 8 8 <.E.A.V.:.:.V.,.8 8 8 8 <.D.D.D.U.k.k.Y.8XDXJXLXHXKXFXFXFXMXvXgXbXmXnXBXCXnXsXBXHXBXqXbXFXCXCXKXKXCXGXKXZXbXnXbXsXbXhXnX>XX.v T T b b J J k m V 2.a 4.2.j.2.i f :.s ^ ^ t.t.t.t.t.y.y.y.y.:.h.j.C.F.v.3.3..XDXJXmXsXNXNXjXjXjXjXdXeXqXdXjXdXdXNXZXNXyXjXbXhXbXFXBXsXMXLXFXMXvXvXtX#X#X9X,X@X9X/.B A b.G.J.G.j.n.n._ ( _ _ s.d.2.i 9 9 8 =.8 -.,.y ;.,.;.<.y s D.U.k.Y.N.l.R.T.oXoX4XXXoXiXDXDXPXCXCXbXmXFXPXPXPXvXhXhXyXyXnXCXBXnXjXnXjXtXnXAX>X+XwXwXeXbXeXhXyXhXwXjXjXVXVXpXo.- % + O + e e e u Z a f f f f s s ^ p ^ ^ ^ t.^ / / i.:.a >.1.1.4.5.v.v.m.b.%X#X@X>XqX2X<X2X2X2X<X<X2X<X<X2XfX<X<XfXfX<X-X-X*X*X1X1X,X,X,X<X<X<X>X<X>XqXsXjXsXsXtX#X0.6.v.v.h.u.s s p >.>.>.:.4.q.F.i 4.C.K.W.S.D.D.Z.k.s.f.l.H.P.P.P.P.P.J..X_.%X,XyX,X|.>XdXaXhXjXeXaXjXCXZXZXHXKXKXKXKXKXKXHXHXHXKXKXKXKXGXnXsXtXsXnXNXdX0X9XaXbXaX0X9XtXLXM o O 4 y y i i i <.<.p r w r p r r r r p p p p p p >.V.A.A.C.C.A.A.A.A.A.C.F.v.x./.).}.[.|.*X&X|.*X2X*X-X*X|.+X,X0X>X>XsXnXhXaXnXHXKXnXbXhXhXhX0X,X0XrXrX0XwXhXMXvXbXuXPXcXoX5.C.V.A.V.V.C.V.h.h.h.h.:.:.:.2.4.2.1.:.i.i.V.D.D.D.S.S.S.S.S.S.F.F.I.oX[.|.+X@X,X,X0XhXHXFXmXbXhXyXaXsXnXhXsXyXsXhXbXnX",
"GXFXmXbXmXKXKXFXGXHXHXKXKXKXHXGXKXKXKXGXLXLXLXFXKXKXwX).W W F G F J _.$X4XP.L.P.P.P.P.H.n.B.B.B.P.q.3 8 =.=.=.q.W.S.C.>.>.y 4 4 4 8 >.D.D.D.U.k.k.R.xXJXKXHXKXKXHXKXKXCXvXuXuXyXbXnXCXbXsXCXHXBX9XuXbXnXCXKXKXCXHXHXGXZXNXtXwXsXnXZX,XW b E E b v J J e N V 2.:.4.4.j.j.a f :.:.^ t.t.t.t.t.t.t./ / u.u.h.j.j.j.F.5.v..XDXKXPXvXZXZXZXNXjXjXaX0X0XaXjXdXsXjXjXeXnXCXBXhXhXZXBXsXsXtXdXbXtX#X+X@X=XVXZXpXVX}.K 8.8.b..X.Xv.J..Xc.S d _ _ d.d.1.i 8 8 -.7 -.,.;.;.;.y 8 y :.Z.U.N.Y.N.n.R.T.T.P.XX.X.X7XcXPXCXAXAXBXCXFXFXCXZXBXkXBXjXkXhXnXjXjXjXCXSXNXSXjX+X[.aX>XeXsX=XtXhXBXqXNXNXZXAXrXO.- % + O 5 e e u a d a f f f f p p p ^ ^ ^ ^ ^ ^ t.y.u.h.Z.H.L.L.K.K.F.v.m.x.%X#X#X>XqX2X<X<X2X<X<X<X<X1X-X2XfXfX<XfXfX<X<X1X*X1X2X<X*X1X<X<X,X,X0XaXwXeXhXjXsXsXtXUX0.6.9.F.j.h.:.:.p s s f a :.2.j.v.P.P.H.Z.V.h.Z.Z.l.l.n.H.R.T.P.P.P.P.J..X_.%X,X<X,X@XrXkXwXeXwXjXjXjXjXNXNXBXZXKXHXHXHXHXHXHXHXHXKXKXKXKXKXBXbXsXhXhXsXwX0XeXdXeXeXtXvXPXe o 4 4 y y y i <.<.<.>.y r p p r r p r p p p s p s i.D.A.A.A.A.A.A.A.A.A.K.F.b.b.'.(.}.].|.<X<X|.|.<XqX<X*X*X*X=X>X0XaXhXNXZXZXBXnXnXbXjXhXbXjXqX9XyXkXyX0X9XgXvXvXmXhXMXxX.X1.4.q.V.V.V.V.C.D.Z.D.V.Z.C.h.j.C.C.C.Z.Z.Z.Z.S.S.S.S.S.S.S.S.C.K.F.G.XXOX@X@X@X,X,X0XvXKXHXCXbXhXhXsXsXBXbXsXtXyXsXhXsX",
"HXgXuXbXLXLXKXKXKXKXKXKXKXKXKXKXKXKXGXCXPXFXKXKXFXKXqX(.X.o.X.X.O.E /.oXoXP.K.P.P.P.T.J.B.B.B.B.T.C.8 8 -.=.8 =.,.A.W.4.i 4 4 8 4 y i.U.U.U.U.N.l.R.iXJXKXHXKXKXHXHXFXmXhXyXyXyXCXNXNXhXsXSXHXSXwXyXhXbXCXHXKXCXCXBXNXZXNXwX0XsXnXAX@XW E E T b v J K e V V 2.2.4.j.j.j.:.f :.:.y.t.t.t.t.t.t.y.^ / u.h.h.h.j.j.C.5.v.J.cXJXDXvXbXjXdXeXeXeXwXqX0XeXaXdXdXdXeX9XCXHXZXnXjXjXdXeXjXNXNXjX0X*X*X>X>XdXlXkXlXX.g D K K 8..Xm.v.m.m._ _ _ _ _ d.2.;.8 8 8 7 -.q.;.;.;.8 y :.U.U.N.R.N.l.Y.R.T.T.Q.XX4XoX7XcXnXnXNXNXjXjXnXjXnXNXkXaXeXeXgXkXjXjXjXjXSXSXNXjXeX+X=XAXaXbXjX9XtXNXBX9XbXeXdXVXqXo.- ; + O 5 e u u a a d a f f s s p p / ^ ^ ^ ^ ^ y.y.y.h.C.H.K.L.L.I.H.G.m.x.%X#X=X>XqX<X-X-X<X2X<X<X-X-X-X<XfXfX1X1X<X<XpXpX<X<XrX<X*X<X<X1X=X,XrXdXkXdXjXjXaXtXwXUX0.6.9.9.C.C.h.h.u.u.s f f f f f n.n.j.d.j.Z.Z.Y.Y.Y.Y.Y.R.T.P.P.P.T.P.J..X_.%X,X*X+X|.pXjXeXqX0XNXjXjXjXjXjXNXCXHXHXHXHXHXHXHXHXKXKXKXKXKXKXKXGXsXyXtXtXeXeXeXtXpXjXsXMXMX5 o 5 e y y i <.<.>.>.>.<.p p p r r p p p p p p r r >.D.A.A.A.A.A.A.A.A.A.C.F.b.b.'.(.).].}.<XpX*X|.<XfX<X=X>X>X>XqXdXjXtXyXnXCXnXhXbXsXhXhXjXjXeXwXjXaXhXwXwXyXuXwXuXyXIXiXm.1.4.q.V.V.V.V.V.D.S.D.V.Z.C.C.C.C.j.C.F.Z.Z.Z.Z.S.S.S.S.S.S.A.A.L.I.G..X=X,X@X@X#X,XwXCXHXKXFXmXbXbXhXhXBXnXsXsXsXbXsXtX",
"vXuXuXPXKXFXLXKXKXKXKXJXKXKXKXKXKXGXCXnXnXGXKXKXKXKXwX(.E W E E T G J '.G.F.K.Q.L.P.P.J.n.B.B.n.R.F.i 8 ;.=.=.7 8 ;.4.i 4 4 4 4 4 i V.U.U.U.k.N.l.oXxXJXLXFXHXGXKXKXKXGXCXBXnXjXHXAXBXjXjXAXHXHXbXnXbXbXnXBXCXGXBXNXbXbXNXdXeXsXjXNX}.E E b b v b G D e V a :.4.2.j.5.C.h.i s :.y.y.t.t.t.t.t.y./ / / u.k.V.C.C.C.4.j.v.xXJXPXbXbXdXaXaXdXjXjXbXeXaXdXjXjXjXdXdXhXBXCXNXkXkXdXdX<XlXZXpX-X-X<X<XrX2XfXzXAX].v X.D K 8..X.Xm.m.oXB._ _ _ Z A j.1.i 8 8 8 y 4.>.y y y >.Z.R.Z.Z.Y.l.Y.R.R.T.!.!.XXXX.X$XgXnXnXSXSXkXkXdXdXkXkXkXpX0XyXjXjXjXlXSXAXVXjXkXkXeX<XdXHXrXeX9X>X0XhXyX9XyX,XqXlX<XE - g + 5 e u i u a a 2.a f f s s p ^ ^ ^ ^ ^ ^ ^ y.y.u.h.Z.C.F.K.P.I.H.G.G.b.%X5X#X>XqX<X-X-X<X<X<X<X>X<X=X<XfXfX<X*X+X=XfXdXrX<XrX<X,X<XrX<X,X>XrXaXdXaXdXdXtXqX0X#X7.V 6.5.5.j.j.Z.Z.l.s.d d d d a d.z.z.n.H.R.H.Y.H.Y.Y.R.J.J.P.P.L.T.P.J..X_.OX0X=X+X|.pXlXdXaXwXjXjXjXjXjXjXBXHXGXGXGXGXHXHXKXKXKXKXKXLXLXKXKXKXBXhXtXyXsXyXtXtXaXnXtXuXxX5 o 5 y i i i <.<.>.>.,.>.<.p r r p p p p p r r r r :.S.A.A.A.A.A.A.A.A.A.A.F.F.G._.).).].}.*XfX<X*X<XqXqX<X>X<XeXdXjXhXwX0XtXsXhXjXBXsXhXsXsXsXeXwXkXaXkXhXyXgXuX9XwXuXvXuX.X1.5.q.V.V.V.V.V.V.V.V.V.D.D.C.Z.C.j.C.H.Z.Z.C.C.S.K.S.A.S.S.A.S.L.G.G..X#X*X+X+X#X,XyXCXHXHXHXCXmXmXnXhXCXBXbXbXnXBXbXtX",
"#XuXPXJXJXKXKXJXKXKXKXKXKXJXJXKXKXKXGXmXnXLXKXKXGXKXrXo.E ..Q Q T O.X./.v.9.F.K.K.L.H.n.n.n.c.c.n.H.1.8 8 8 -.8 8 8 ;.8 3 8 4 4 4 >.D.U.U.U.k.Y.n.oXiXDXFXCXCXNXCXLXGXHXCXBXhXyXnXkXkXjXjXNXSXjXCXCXCXnXbXsXbXGXCXGXbXsXNXZXbXhXbXNX[.E E b b v F J B e Z a a 4.1.C.4.C.j.i i :.i.y.t.t.t.t.y./ u.s s u.Z.Z.C.C.C.5.F.G.xXKXKXFXBXjXjXbXNXjXjXjXBXNXNXNXjXdXjXBXnXBXNXjXeX>X>X<X*X-X<XrX-X|.*XqXlXfX2XpXSX}.F J k H 8.7.b.G.G.J.oX_ _ _ S Z d.5.4.>.y 8 8 >.4.y i h.L.Z.h.Z.Z.k.Z.R.T.T.T.!.!.P.XXXX5XvXnXkXkXkXdXaXpXeXdXkXkXpXaXjXSXjXaXhXkXSXAXlXkXjXkXjXlXlX@X+X}.>X0XhXyXyXsX0XjXAX=Xv - v 5 5 e i i i a :.2.d f s s s s ^ / t.^ ^ ^ / y.y.:.h.H.L.L.L.I.F.F.J.J.b.oX7X#X=XfX2X-X-X-X<X<X<XqXpX<X<XzXlX<X+X|.1XkXjXrXrXpXrX<XrXeX<X<XrXrXrXeXrXaXaXeXqX9X#X0.V 6.3.3.5.5.j.j.j.l.l.s.j.l.g.z.m.B.n.H.H.H.R.H.H.R.P.P.P.P.P.P.T.T.J..X_.$XeXrX,X|.pXSXkXdXqXdXjXNXNXjXjXnXHXGXGXGXHXHXKXKXKXKXKXKXFXCXGXKXKXKXBXsXsXhXsXaXaXeXsX9XiXiX5 O 5 y y i i <.<.>.>.,.>.<.p r r p p p r r p p p >.S.S.A.A.A.A.A.A.A.A.A.A.C.F..X`.`.).|.|.+XpXfXqX<X0XpXrX,X,XeXdXaXtXyXsXhXhXsXsXsXhXbXsXyXaXeXqXeXjXNXnXbXMXgXuXyXyXMXgX.XV 2.4.V.q.V.V.V.V.V.V.D.A.A.S.C.C.j.C.H.H.Z.C.C.K.K.S.A.S.L.S.S.L.F.F..XOX|.|.+X#X,XwXnXGXKXKXGXFXFXCXbXCXCXNXnXCXGXnXyX",
"uXmXKXKXKXJXKXKXJXKXKXKXKXKXKXKXKXKXKXKXKXKXKXKXHXHXaXo.E ..T T T T X.`.b.9.K.A.K.L.L.H.d.g.c.B.c.n.H.a 4 8 8 7 8 7 ;.8 8 8 3 4 >.4.Z.U.U.N.l.l.n..XxXLXFXGXCXHXLXLXHXHXHXCXnXkXjXjXjXNXNXjXjXjXCXCXCXCXCXnXnXnXnXZXAXnXsXaXwX>XyXdX*XG E b b v W ` B m a a 2.4.4.4.5.j.j.j.2.:.i.i.y.y.y.y.y.y.s f d h.Z.C.C.A.C.F.F.G.xXJXKXFXsXNXZXBXZXNXkXjXbXNXNXjXaXeXdXNXKXBXjXrX,XpXrX].Q Q ].*X*X|.1XlXlXlXlXSXSX@Xv J j C 9.G.v.F.J.G.n.B.B.g.Z Z s.j.4.5.5.>.i a 3.3.H.Z.Z.Z.h.h.k.Z.R.R.!.T.T.P.!.4XXX.X5XMXPXhXnXSXdXbXNXbXbXVXlXkXSXlXkXkXkXNXlXlXAXSXaX,X-XpXkXqX}.}.+X>XyXsXhXnXtXwXaXHX*Xg l g O 4 e i i a >.1.1.2.:.f p s ^ ^ p y.t.^ ^ ^ / y.h.j.H.L.L.K.K.L.L.F.G.b._.$X,X*XpX<X-X-X-X-X<XpX<XqXqX<XpXkXpX=X=XaXdXdXrX<XrX>X>XrXeXeXeXaXdXaXeXaXaXaXaXwX>X,Xb.u C V 3.v.5.5.j.C.C.Z.j.j.Z.n.n.c.m.J.H.H.L.L.L.H.L.P.P.P.P.Q.Q.L.P.J.m._.$XyXzX<X|.qXVXNXNXaXdXkXsXeXdXNXCXBXHXKXKXKXHXGXFXFXKXKXKXKXLXLXLXHXHXGXCXnXNXCXnXaX0XwX9XuXiX5 O 4 y y i ;.<.<.<.>.>.,.>.<.r r r p r p p r p u.D.S.S.E.A.A.A.A.A.A.E.A.L.5.F.J._./.[.}.[.|.pXlXdXqXpXqX<X0XpXdXeX>X0XeXhXnXhXeXeXsXsXnXsX9X>X9XwXsXjXnXbXbXvXvXhXsXuXMXPX5X6.1.q.q.V.V.V.V.D.D.D.D.A.A.D.C.C.C.C.H.S.S.K.K.K.K.S.S.A.S.S.L.K.I.G.b./.).}.@X@X@X0XnXHXnXbXCXKXKXHXGXGXBXnXbXnXnXhXsX",
"PXJXKXKXJXJXJXJXJXKXKXKXJXJXKXKXKXKXKXKXJXJXJXKXHXHXpX).G ..E T | T O.'.b.5.F.q.A.K.L.H.j.g.c.B.g.g.n.5.y 3 8 8 8 8 w.8 3 3 4 y C.Z.Z.Z.k.l.n.n.m.oXuXFXCXFXCXKXKXKXHXHXHXCXnXjXHXAXAXAXSXkXkXkXCXCXCXCXBXnXnXnXhXbXnXhXdXyXwX9XyXdX#Xb G b b v W J j m V a 4.4.4.4.5.C.C.C.h.u.u.i.i.y.y.i.y.s f d s.Z.H.C.A.A.C.F.F.J.xXLXGXBXaXNXZXVXZXZXNXNXdXdXdXdXaXwXqXeXaXBXBXkXdXfX*X+.Q ..{.1XfX2XfXSXNXbXjXVXSX@XD J j B 9.v.9.F.H.H.v.n.n.d.d.s.s.2.j.j.j.5.2.v.m.n.H.Z.j.j.j.Z.R.T.R.T.!.T.Q.Q.!.4XXX.X5XcXLXmXnXCXbXBXZXZXBXBXVXlXkXkXkXjXNXNXlXzXlXpXrX<XrXkXlXaX*X,X#X=XaXNXhXyXwXwXaXAX@Xl l j O 5 e i i a >.:.1.4.2.d s s s ^ p t.t.^ t.t./ u.h.j.H.L.L.K.K.L.L.F.G.b._.$X9X*XpX1X-X<X<X<X<XeX<X0XqX0XqXpX<X=X,XaXpXrX>X,X0X,X,XrXaXaXaXdXdXaXdXaXdXdXdXeX0X,X'.h C N 3.3.5.j.j.C.C.C.F.C.F.H.n.n.m.J.H.L.L.L.L.L.P.P.P.P.Q.Q.Q.L.P.J..X_.$XyXkX1X|.rXZXVXNXaXeXyXyXeXdXNXCXBXGXHXHXHXHXFXFXFXKXKXKXKXKXHXHXKXKXHXCXNXGXHXNXyXwXeXqXuXiX5 4 4 y y y ;.<.<.<.>.,.,.,.>.p r r p p p p r p u.D.D.A.E.A.A.A.A.A.A.E.A.L.C.F.b.OX`.[.}.[.}.<XfXpXqX-X<XqXpXdXhXeX9X0XqXtXsXsXtXeXtXtXyX9X=X>X0XeXsXdXjXnXbXvXvXhXhXyXMXDX7X3.1.q.q.q.V.V.V.V.V.D.A.A.A.A.C.C.C.C.H.K.K.K.K.K.K.K.S.S.A.S.S.K.G.G..X'.`.OX#X=X=XqXjXAXBXBXGXHXHXLXKXKXFXnXnXBXBXNXbX",
"KXKXKXKXJXKXKXKXJXKXKXJXJXJXJXKXKXKXKXJXJXJXJXJXLXHXhX).E O.E T T T E '.b.5.C.q.A.A.K.H.v.g.l.g.c.g.c.j.V i 8 4 8 8 ;.9 4 8 ;.q.C.Z.Z.Z.l.l.n.n.J.oXuXmXMXCXCXKXHXHXHXHXHXCXnXkXSXSXSXSXSXjXkXjXCXAXGXAXCXCXBXBXhXkXdXjXjXaXwXwXhXkX#Xb G b G v W J h m 1.1.4.4.4.5.C.C.F.H.Z.Z.u.i.i.y.y.i.u.f f 2.j.H.K.K.A.K.A.F.F.J.xXMXmXbXeXNXAXBXZXAXNXNXaXaXaXeX0X=X,XqXbXHXjXpXdX<X].+.Q +.&X<XzXlXlXZXBXmXnXNXNX@XF J j M 3.9.5.F.K.K.H.J.H.n.n.n.l.d.2.2.2.2.3.z.c.d.l.j.Z.H.R.T.R.R.T.T.!.!.Q.Q.Q.4XXXXX5XDXJXFXmXBXZXBXCXGXGXZXVXSXkXkXkXkXkXkXdXpXlXrXqXdXjXlXVXlXeXjXrX>XkXSXhXyXwXtXdXNX[.g z j 5 5 i i a a >.:.4.4.4.2.:.s s y.p t.t.t.y.y./ u.h.Z.H.L.K.K.K.L.L.K.G.b._.#X9X=X<X-X-X<X<X-X-XqX<XqXpXpXpXrX<X<X<XdXrXrX>X,X<X,X=X<XeXeXeXeXeXeXdXaXeXpXaXeX<X,X'.h C N A 3.3.v.j.C.C.F.F.F.F.F.v.m.J.J.I.I.L.L.L.P.P.P.P.P.Q.Q.!.P.P.J._._.OX0XpX-X|.pXAXVXbXeXrXrXeXaXjXNXBXNXCXGXHXHXHXGXFXCXKXKXKXLXLXLXHXKXKXCXnXnXHXHXnXwXeXaXwXuXxXe O 4 y y i <.<.<.<.>.,.,.p.p.>.p r p r p p p >.V.S.A.A.E.A.A.A.A.A.A.A.A.S.K.v.b.5XOX).[.}.|.-XpX0X<X*X0XdXNXnXjXhXyXyXyXyXhXjXhXyXtXtXeX,X#X9XyXsXhXaXnXCXmXvXIXsXsXyXMXLX7Xv.1.4.4.q.V.V.V.V.V.D.A.A.A.A.A.C.C.C.K.K.K.K.K.K.K.S.S.S.S.S.S.K.G.G..XOX[.OX#X>X>XqXdXCXCXGXHXFXCXLXKXKXCXnXbXNXCXCXBX",
"KXKXKXKXKXKXKXKXKXKXJXJXLXFXJXKXKXKXKXJXJXJXJXKXFXHXkX).E X.E E R R G /.b.6.C.q.C.A.K.H.H.n.j.g.n.n.n.g.j.F.1.y 4 3 9 8 i ;.q.K.H.Z.l.l.l.l.n.m._.oXuXMXbXCXFXKXKXHXHXHXHXCXBXnXnXjXnXSXSXnXjXNXSXGXHXHXAXCXCXZXBXjXjXNXNXdXaXsXnXnX=XF G b G b J J h N 6.1.4.4.4.q.C.C.K.K.H.Z.u.u.i.u.u.u.d f a h.H.F.K.K.K.A.A.C.F..XxXvXjXNXqXBXHXZXZXZXjXaXqXaXaX0X@X+X>XjXHXZXaXqXfX<X{.....{.&X-X2XzXlXNXPXPXBXCXjX+XF ` j M 3.9.5.C.K.K.L.P.P.P.P.R.H.Z.Z.j.j.j.v.m.m.z.H.H.T.T.!.T.R.L.P.Q.!.Q.Q.Q.Q.4XXXXX5XDXKXLXFXCXCXNXBXGXGXBXVXZXSXNXjXkXpXpXdXkXSXkXkXlXjXlXSXSXkXAXSXaXjXjXsXjXyXbXjXdX).- z j 5 5 i u a >.>.:.4.4.4.h.u.s s y.t.t.^ ^ y.y.y.u.l.Z.H.L.I.K.K.L.L.I.G.G..X#XwX>X<X*X*X1X1X*X=X0XpXpXpXkXkXpXrXaXrXpXrXrXrX,X>X@X,X<XqXqX0X0XwXeXdXaXwXwXwXqX,X#X/.e C N A 3.3.v.j.C.F.F.F.F.F.F.v.m.G.J.I.I.W.W.L.L.P.P.P.Q.Q.Q.!.P.J.J..X%X#XrX<X*X|.pXAXNXjXeXeXeXaXhXjXNXnXbXnXCXGXHXKXHXFXFXLXFXPXmXmXmXFXHXHXCXnXnXGXHXnXyXeXaXtXuXcXm O 4 y i y <.<.<.<.>.,.,.,.p.y.p p p p r r s V.S.S.A.A.A.A.A.S.A.A.A.A.A.A.K.v.b.iXOX(.[.|.*X0XpX<X-X-XpXlXNXjXjXnXnXnXbXbXnXNXbXsXyXyXyXqX9XeXyXyXhXjXBXGXnXvXvXvXsXyXMXDX7Xv.a 4.4.q.q.V.V.V.V.V.D.A.A.A.A.A.C.C.F.S.A.K.K.K.K.K.S.S.S.S.L.K.F.G..XOXOXOX#X9X>XqXaXNXZXZXGXFXFXJXKXFXNXbXbXnXBXBXnX",
"KXKXKXKXKXKXKXKXKXKXKXHXJXHXKXKXKXKXKXKXKXKXKXKXFXHXjX[.E X.E E T R F /.v.6.C.q.C.A.K.H.H.H.Z.j.s.l.n.l.n.H.F.j.1.i 1.6.F.F.L.H.H.j.j.j.j.n.J..Xm.oXxXPXmXLXJXJXKXKXKXKXKXHXHXCXCXCXAXHXSXNXjXjXBXCXCXZXCXBXNXBXHXSXNXCXNXhXhXkXZXSX,XF G b G v J J B C 6.1.4.4.q.C.C.C.F.F.S.Z.Z.h.u.h.s.:.f a h.F.F.F.A.K.K.A.S.C.F.J.xXvXbXNXqXNXHXZXBXjXwX0X>X0X0X=X@X*XaXGXbXaXdXVXfX<X&X+.+.&X*X*X-XrXaXyXMXmXFXBXjX}.v X.B m C 9.5.C.K.K.L.P.P.L.L.L.L.H.!.L.L.P.J.J..XJ.oXT.T.P.L.L.T.!.!.!.Q.Q.Q.Q.Q.4XXXXX8XDXKXLXFXHXGXBXBXGXGXNXNXSXNXjXjXkXkXjXlXNXVXVXVXkXeXdXSXSXjXSXjXjXjXsXtXjXhXNXlXaX(.- z j + 5 e i a >.1.1.4.4.4.j.h.>.s y.y.y.^ ^ t.t.y.i.Z.H.H.I.I.I.K.L.L.L.G.b..X7XuX<X<X-X-X-X*X*X-XpXjXpXeXdXkXaXeXeXrXeX>X>X>X,X0X,XrXrXqXqX0XqXeXaXjXdXyXrXwXqX>X,Xx.e V V 3.3.4.j.j.C.C.F.F.F.F.F.v.m.J.P.I.L.L.W.L.L.P.P.P.P.P.P.L.L.J..XoX$X9XdXrX*X+XpXAXCXnXyXkXdXdXjXjXjXsXsXbXnXCXHXHXFXFXCXLXFXmXvXvXbXCXHXKXGXCXGXHXHXCXBXaXyXwX9XMXm O e y y y <.<.<.<.,.,.,.,.p.p.>.s s :.p p :.S.A.A.A.A.A.A.A.S.A.A.A.E.A.V.K.F.b.iXOX).[.}.*XqXpX0X-XpXdXjXsXyXyXhXnXbXnXnXnXbXhXsXtXqXyXyXeXyXeXeXjXBXGXGXnXvXMXbXsXyXhXMX7X3.a 4.q.q.q.V.V.V.V.V.D.A.A.A.A.A.C.C.K.A.A.K.K.K.K.S.A.S.S.L.L.L.F.G..X%X}.OX#X=X=X0XdXNXNXCXCXGXKXKXKXnXbXbXbXBXBXnXhX",
"HXKXKXKXKXKXKXFXKXKXKXKXKXKXKXKXKXKXGXKXKXKXKXKXGXKXjX[.W X.W Q ..E G /.z.6.q.q.C.A.C.L.L.H.Z.Z.h.2.a s.n.n.v.J.P.F.T.P.P.j.j.d.Z 2.d.n.H.H.J.m._.OXvXJXLXKXJXJXLXLXHXHXKXKXHXHXZXAXHXHXZXnXjXnXBXCXCXCXCXBXNXBXHXZXSXCXNXjXjXnXCXnX@Xn F b b v J J j C 3.1.4.q.C.C.C.C.C.C.C.Z.Z.h.u.h.s.d a 2.F.F.F.C.A.K.E.A.S.C.C.J.xXMXNXNXqXNXAXZXNXeX=X=X,X=X=X,X0XeXjXBXeXqXlXlX&X{.&X{. X-X<X1X1X<XwX0XIXMXFXCXzX}.v X.v M C 9.9.j.F.K.L.W.Q.L.L.L.L.L.W.L.Q.P.F.J.XXXXT.T.T.T.L.P.!.!.!.!.Q.Q.Q.Q.Q.4XP.XX8XDXJXLXHXHXHXGXGXGXZXNXNXlXlXjXjXlXNXNXlXlXNXVXVXaX-X0XjXlXlXpXrXpXjXkXyXeXsXNXjXaX).g b j + 5 e u V 1.1.1.2.4.5.j.h.:.:.y.y.t.^ ^ t.^ y.k.Z.H.H.I.I.I.L.L.K.L.I.b..X7XsXrX<X<X1X*X*X=XqXdXSXkXpXdXjXdXeX0X0X0X#X=X,X,XrX0XdXeX0X0X0XrXpXdXjXdXaXwXrX0X<X9Xb.e m V 6.2.4.5.5.j.C.F.v.v.v.b.v.m.G.I.I.L.W.L.L.L.L.L.P.P.P.P.L.L.J.J..XOX=XeXfX1X*XaXHXCXCXvXnXjXdXhXhXaXtXyXhXbXBXCXCXCXCXCXHXFXPXMXbXmXLXKXKXKXHXHXHXCXCXHXkXaXwX9XPXB O e i i y <.<.<.<.,.,.,.,.p.p.i.y.>.s r p h.S.A.A.A.A.A.A.A.S.S.A.S.E.A.A.C.F.m.7X%X[.[.].|.<XpXqXqXlXNXjXyXwXyXhXnXhXjXnXbXbXhXyXwX9XeXyXsXhXaXtXhXZXKXGXbXMXmXmXsXtXyXIX$XC a 4.4.4.4.V.V.V.V.V.D.A.A.A.A.A.C.C.K.A.A.S.K.K.K.A.A.S.S.L.L.L.F.G..X%X`.OX#X#X=X0XdXBXBXBXCXHXKXKXLXbXbXbXBXGXGXnXhX",
"HXKXKXKXKXKXLXFXLXHXHXKXKXKXKXKXGXGXGXGXKXKXKXKXGXKXbX[.W W E Q Q E G /.7.1.5.4.C.C.C.K.S.S.S.L.L.4.a 2.Y.n.d.v.n.v.J.G.d.u a a a 2.j.R.T.J.m.m._.$XMXKXJXJXJXJXFXCXCXFXGXHXHXHXCXCXCXCXBXnXnXCXSXCXAXZXSXBXNXNXSXAXAXVXjXjXSXCXBXnX#Xn F F G v W J h B 3.1.4.q.C.C.C.K.F.F.F.Z.R.Z.h.s.2.Z 2.j.H.C.C.K.K.S.S.S.S.S.C.J.xXDXCXjXeXjXNXNXjX0X*X=X0X0X0XqXeXaXaXjXdXdXpX*Xo...{.&X-X2X2X<X<XrXwX9XIXmXZXAXNX Xn X.D j B 7.v.v.H.L.W.Q.Q.Q.Q.L.W.W.W.W.!.Q.K.I.4X4XP.P.T.!.!.!.Q.Q.!.!.Q.Q.Q.Q.Q.Q.P.XX7XDXJXJXLXLXCXGXGXZXBXSXSXlXSXSXNXNXNXNXlXkXSXNXVXdX>X>XpXjXVXrXrXaXrXjXnX0XyXjXjXlX[.z b j + e e u V 1.1.2.2.5.j.j.h.h.i.>.y.t.t.t.y.^ y.k.H.H.H.K.K.I.L.L.K.L.G.v..X9XjXpX2X2X1X&X*XpXjXlXVXkXaXdXkXkXeX0X>X>X,X>X0X0XhXyXdXqX>X0XrXeXaXdXdXaXaXwX0X0X0XwX.Xu m a 2.4.4.4.4.j.j.v.v.v.b.b.b.m.G.I.I.L.L.L.L.L.L.L.H.H.L.L.P.P.P.J._.`.@X>XkX<X*XpXAXCXHXmXCXjXjXjXhXsXsXsXbXnXBXCXCXCXCXCXLXLXLXFXFXLXHXKXHXHXHXHXCXnXnXBXVXkXeX9XDXA O e i i <.<.<.<.<.,.,.,.,.p.p.p.i.s r p :.D.A.S.A.K.A.A.A.A.S.S.S.S.S.A.L.C.F.m.$X%X[.[.].|.-XqXqXpXNXZXAXnXhXgXhXnXjXbXbXbXbXjXeX,X9X9X9XtXnXbXaXsXNXGXKXBXMXBXBXvXyXvXIX$XV a 4.>.:.4.V.V.V.V.V.D.A.A.A.A.A.C.C.K.A.A.S.A.A.A.S.A.S.S.S.L.L.F.G.XXOXOXOX#X#X*X0XdXZXZXZXCXFXKXJXFXbXbXnXCXHXHXCXnX",
"HXKXKXKXHXHXKXHXCXLXHXKXKXKXKXKXGXGXGXGXKXKXKXKXGXKXbX[.W X.E X.Q T F x.7.V 5.4.V.C.A.A.A.S.K.L.L.L.Z.j.H.H.v.m.v.v.n.n.v.V d.v.H.H.H.H.H.n.J.XX.X$XPXJXLXKXJXJXFXFXFXLXHXHXKXHXGXZXCXCXnXjXnXSXnXSXCXSXNXjXjXjXjXAXAXVXjXBXHXHXnXjX@XF G G G b W G h M 3.4.5.q.V.C.A.K.K.F.F.H.P.H.j.2.Z 2.v.H.F.C.A.L.W.A.A.E.S.S.F.J.cXHXSXaXeXsXjXjXdX-X*X>XpXkXlXdXqX<XpXlXdXlX-X+.+.+.{.&X2X2X2X<X<XrXwXwXMXNXGXHXAX*Xb X.F j B 7.v.v.H.L.W.W.Q.Q.Q.W.W.W.W.W.W.Q.K.K.Q.4X4XoXP.P.P.!.!.!.!.!.Q.Q.Q.Q.Q.Q.P.XX5XcXJXLXLXCXjXNXZXNXNXAXAXSXSXNXjXkXlXVXZXZXHXVXVXSXpX>XrXjXlXpXkXdX>XkXHXeXyXjXjXSX+Xv b j 5 e u m V 1.1.4.4.5.j.h.V.D.h.:.s y.y.i.y.s :.k.L.L.H.K.K.L.L.L.K.L.I.v..XiXnXpX<X<X-X|.*XdXVXjXdXaXrXrXaXdXeX0X,X0X0XkXjXkXlXkXjXwX0XqXdXkXkXjXdXdXdXaXeXrXpXsX$Xu m a 1.4.4.q.4.5.j.v.v.v.b.b.b.m.G.J.I.K.L.L.L.L.L.L.H.H.H.L.L.P.P.J._.%X=XpXzX<X*XrXSXBXLXCXHXNXjXjXjXjXhXnXnXNXCXCXCXCXLXHXLXHXHXHXHXHXHXKXHXHXHXKXGXnXhXkXAXlXyX9XDXH O e i i <.<.>.<.>.,.,.,.,.,.p.D.u.p r :.D.D.C.A.E.A.E.A.A.A.A.S.S.S.A.A.!.C.F.b..X%X).[.[.+X-X>X<XqXdXVXHXZXjXhXhXhXNXNXjXhXjXkX9X+X9X=X@X>XbXbXtXwXsXGXKXCXMXBXBXbXyXMXcXoXV a 4.>.4.4.h.V.q.V.V.V.A.A.A.A.A.C.C.K.A.A.S.A.K.A.S.A.S.A.A.K.F.F.J.oX$XOXOX@X#X=X0XdXZXHXAXCXCXHXLXCXbXbXbXCXHXKXGXBX",
"KXKXKXKXKXHXFXCXbXBXKXKXKXKXKXKXKXKXKXKXKXKXKXKXKXKXbX[.G X.X.O...G v J 7.V 4.4.q.V.A.A.S.K.K.K.L.L.L.H.H.H.J.J.n.n.m.J.J.J.J.J.H.R.R.R.H.J.J.m._.7XMXJXLXLXKXKXKXKXKXKXKXKXKXKXKXGXCXnXnXnXjXkXjXjXAXAXlXZXAXkXlXSXAXHXHXCXCXHXCXAX@XG E G v G W D j C 3.5.5.C.V.V.V.A.C.H.I.J.J.v.V u V d.n.J.K.K.K.L.W.S.E.S.D.Z.F.J.cXGXSXzX>XbXsXdX<X2X<XfXlXzXzX2X{.&XfXzX2X2X{.Q +.&X&X&X1X*X|.*X<X,X,XaXnXHXZXHXSX1Xb X.F B B 7.v.j.C.L.K.K.L.L.W.W.W.W.W.W.W.L.K.L.P.T.oXT.T.T.!.!.!.!.!.!.!.Q.Q.Q.Q.Q.P..X5XDXJXLXCXZXjXkXdXjXNXBXnXsXBXNXNXBXjXjXjXZXNXSXSXlXkXkXkXjXdXjXkX<X<XlXSXaXeXjXkXkX}.z v v 5 e m M V 1.1.1.4.4.V.V.V.h.h.h.y.y.:.i.>.p V.S.S.L.L.L.L.L.L.L.L.C.F.G..XiXnXrX2X<X<X>X=XdXCXIXjXaX0X,X0XsXeX,XtXwXnXjXjXpXkXpXNXyX0X0XaXjXjXjXjXdXaXkXsXwXqXwXoXe u V V 5.1.4.4.q.C.C.v.v.v.b.z.v.G.J.J.L.L.L.L.L.L.L.L.L.L.L.P.P.J.J._.OX>X2X2X1X&XzXSXSXBXZXGXGXBXdXaXhXBXGXCXjXsXNXAXAXAXHXHXSXAXHXAXHXHXGXHXCXnXCXCXGXCXjXSXlXlXgXcX7.O i i i <.<.>.>.>.,.,.,.,.V.V.:.s s f :.V.D.A.E.E.A.E.A.S.S.K.K.S.S.A.S.S.K.H.G..X$X[.[.[.+X-XqXqX0XdXlXZXZXSXNXjXkXjXNXdXeXhXrX#X#X0X@X>X9XsXdXBXaXBXGXGXnXsXbXbXsXuXiXiX$XV u 1.>.4.:.4.4.V.V.V.V.D.D.A.A.C.q.C.K.K.K.K.K.K.E.K.A.K.A.K.L.F.v.J.oXOXOXOXOX+X#X0XjXHXAXCXZXHXHXGXGXBXnXbXhXaXnXHXHX",
"KXKXKXKXKXHXBXbXnXCXKXKXKXKXKXKXKXKXKXKXKXKXKXKXKXKXbX[.G X.X.X.O.G v ` x.C 3.4.q.V.A.A.A.K.K.K.L.Z.H.H.H.H.H.J.H.J.J.J.J.J.J.P.L.L.L.H.J.J.J..Xm.7XPXKXKXKXKXHXKXKXKXKXKXKXKXKXKXKXGXGXCXCXCXSXCXnXSXAXSXSXSXlXSXSXZXHXAXCXFXHXCXAX+XF E G v G W D j C 6.4.4.V.V.D.A.A.K.H.J.J.7.3.V N V A d.v.K.K.K.K.K.K.S.S.W.L.F.J.xXCXSXlXjXhX>X0X<XfX2X2XzXzXzX-XR ! ;X2X;X;X+.+.{.{.{. X*X*X|.,XrX<XrXNXBXHXNXAXZX<Xb W F v B 7.9.5.C.C.A.A.S.K.W.W.W.W.W.L.W.L.K.L.T.T.oXoXT.!.!.!.!.!.Q.!.!.Q.Q.Q.Q.!.XX.X7XDXKXHXGXAXlXjXdXdXjXhXhXhXCXCXCXZXSXjXNXSXNXVXSXSXSXZXSXlXSXlXdX<X<XjXZXlXeXdXeXhX}.g v v 5 e m V V 1.2.4.4.V.V.V.h.j.C.l.:.u.u.u.s >.S.L.L.L.L.L.L.L.L.L.L.A.H.G..X7XvXrX<X<X<X=X>XsXBXsXjXpXrX0XrXeXwX>XeXeXbXdXjXaXjXpXNXkXeXaXhXjXnXNXNXjXjXjXdXeXrXyXOXe e N a 6.4.5.4.5.5.C.j.v.v.v.v.b.G.J.H.L.L.L.L.L.L.L.L.L.L.L.P.P.J..X_.OX,X1X1X*X&XzXlXVXVXGXGXZXbXtXtXdXhXjXjXaXaXjXSXAXAXAXAXAXHXHXHXAXAXSXCXNXnXBXCXGXFXSXSXSXSXMXJXv.O i i ;.<.>.>.>.>.>.,.q.V.q.:.a d Z f a 2.C.A.A.E.W.E.S.S.S.K.K.C.S.C.S.S.K.G.G.XX5XOX[.[.*XeXlXkXaXaXdXkXdXkXjXlXjXVXVXpXqXaXrX,X,XwX=X>X,XtXtXbXsXbXFXGXbXaXaXsXsXtXiXxX7X3.i 1.2.4.4.4.h.V.V.D.A.V.D.D.A.C.q.C.F.K.K.K.K.K.L.S.A.A.C.F.J.J.m.b._.'.).}.@X@X@X,XwXNXSXAXAXZXAXHXHXBXNXbXhXbXbXBXGX",
"KXKXKXKXKXKXFXnXFXGXKXKXKXLXLXKXKXKXKXKXKXKXKXKXGXHXbX[.G X.X.O.E G b ` 8.V 1.4.q.V.A.A.A.A.S.K.S.Z.Z.Z.H.H.H.H.H.J.P.P.P.P.P.P.P.L.L.L.P.P.J.J.m.7XDXKXKXKXKXHXKXKXKXKXKXKXKXHXHXHXHXHXHXHXHXHXHXCXnXSXAXAXNXSXSXSXSXAXAXGXHXKXHXSX|.F G G b G J D m V 2.4.4.V.V.A.A.A.K.F.F.v.V V N S A Z S d.H.K.L.K.K.K.L.L.L.L.F.J.cXKXHXSXkXdX-X>X2XfX&X{.-X2X2X{.> > +.;X;X+.{.&X|.{.{.|.1X<X<XrXpXaXpXnXNXZXhXVXSX<Xb E v j B A 3.5.5.5.C.C.K.K.K.K.L.L.L.K.L.L.H.J.T.T.T.T.T.!.!.!.!.!.Q.Q.Q.Q.Q.Q.Q.!.XX.X5XPXJXJXHXAXAXSXlXjXkXhXbXnXCXCXSXZXZXNXjXNXlXlXjXjXVXSXlXdXSXkXeX0XqXjXZXNXNXjXkXNX+Xg z j e e m N V 1.6.4.4.j.C.j.h.j.F.n.f d s.d a j.L.L.L.L.L.L.L.S.S.S.L.L.L.F.m.7XhXrX1XpX<X-XqXlXbXdXdXaXdXkXkXaXpXpXeXaXNXdXVXlXVXdXjXjXdXjXjXjXnXNXjXjXdXdXyXwXwXwX$Xe e N V 6.1.5.4.5.q.5.5.5.v.v.v.F.G.H.L.L.K.K.K.L.L.L.L.L.P.P.P.J.J..X_.}.@X*X X&X&XzXzXdXdXbXBXnXaXwXeXaXaXeXeXyXyXaXjXCXAXAXAXAXHXHXAXCXCXnXnXnXnXnXCXCXCXZXAXAXHXLXJXm.4 i i ;.>.>.>.>.>.>.,.V.V.>.i f Z s.d.a u 2.C.K.K.K.S.A.K.K.K.K.A.A.A.S.S.K.G.G..X$XOX[.].@XdXAXZXjXaXrX>X,X>XrXpXpX<X<X*X|.=X=X,XrXrX0X9X#XwX0XtXtXbXGXGXNXaXtXaXyXwXiXcXiXv.u a 1.2.4.4.4.q.V.V.V.V.A.A.A.C.q.C.F.A.A.A.K.K.S.A.C.L.F.F.G..X_..X`.(.G (.+X@X,XwXwXyXNXHXAXZXAXHXHXNXCXbXbXBXhXsXCX",
"KXHXLXFXHXHXKXKXFXHXKXKXKXGXLXKXKXKXKXKXKXKXKXKXKXHXbX}.G X.X.O.E E v J H N 1.4.q.V.A.A.A.A.A.S.A.S.S.S.L.L.L.L.H.H.H.P.P.P.P.P.P.L.L.P.P.P.J.G..X7XDXKXLXFXKXKXKXKXKXKXKXKXHXHXnXCXGXGXAXCXAXHXCXHXCXnXAXSXkXSXSXSXSXSXHXHXHXGXHXnX}.G G E b G J D M V 6.4.q.V.q.C.C.C.F.j.j.d.Z Z Z _ g.Z S d.H.L.L.H.L.L.K.K.A.K.K.P.cXJXGXjX<XpXpXfXfX-X{.+.;X&X;X+.R Q ;X&X&X{.&X-X&X|.-X<XpXkXpXaXjXjXkXkXhXNXdXNXSX<XF W g j B C C 5.5.5.C.C.K.K.L.K.K.K.L.K.L.P.J.P.XXP.P.P.P.P.!.!.Q.Q.Q.Q.Q.Q.Q.Q.Q.P.J..X5XDXKXKXGXSXHXZXVXjXjXjXnXnXBXBXSXSXNXjXkXaXZXSXlXjXlXlXlXdXlXeXeXkXlXVXZXVXSXBXjXAX@Xg g j e e u V V 1.6.5.5.5.j.j.j.v.v.3.t t _ Z 2.P.H.F.L.L.L.L.L.W.S.S.L.L.L.F.b.7XvXrX<XdX2X-XpXlXkXdXqX<XqXpXfXrXpXdX>XqXaXrXVXNXVXkXjXdXjXnXNXNXNXNXjXdXaXeXwXqXqXwXOXe e M C 6.1.4.4.5.q.5.5.5.9.v.F.F.K.L.L.K.K.L.L.L.L.L.P.P.P.P.J.J..X_.'.}.+X|.{.&X*XzXdXpXwXtXaXaXtXwXqXeXeXqXrXyXaXyXhXSXAXAXHXHXCXnXCXAXCXCXCXSXSXBXBXCXCXAXSXAXHXPXDXv.4 i y <.<.>.>.>.>.,.V.>.a y i Z s._ n.d.V u 1.F.K.C.K.A.K.K.K.K.A.A.S.K.A.K.G.m..X$XOX].).}.>XdXpX<X,X*X|.].].|.|.|.].+.o.o.].}.@XrX0XrX0X#XeX9X9X0XBXGXGXbXaXeXeXwXwX9XiX7X.XV u u V 1.2.4.q.q.q.q.V.V.A.A.C.q.C.A.C.A.A.A.A.A.C.C.J.G.G..XoX`.`.OX(.v X.#X0XsXhX0X0XhXCXCXCXAXHXCXNXZXbXbXGXsXeXCX",
"FXHXHXGXFXFXHXKXCXGXKXKXKXKXKXKXKXKXKXKXKXKXKXKXKXKXnX}.W X.X.X.Q E v F K m 6.5.q.q.V.A.A.A.A.S.S.S.S.S.L.L.L.L.H.H.L.L.L.L.P.P.L.L.P.P.XXXXXX.X.X7XDXKXLXFXLXKXKXKXKXKXKXKXHXHXbXCXCXGXGXCXCXGXPXKXCXhXSXAXlXSXZXZXZXAXHXHXZXBXjXeX}.G G G F G J K B 6.5.4.q.V.q.F.F.F.F.j.d.s.s._ d _ g._ _ g.n.H.H.H.G.H.L.L.K.K.I.P.cXDXMXeX<XfXzXfX2X&X;X{.+.Q ! ! +.;X-X&X{.{.&X-X-X2XlXzXrXaXpXeXlXSXjXhXsXCXjXSXZXqXG W j D K C C 3.j.5.F.C.F.K.K.K.K.K.K.K.P.P.J.J.XXP.P.P.P.P.Q.Q.L.L.Q.Q.!.Q.P.P.P.P.G..X7XDXKXKXHXZXSXlXdXdXjXnXhXgXNXNXVXVXNXjXyX0XkXzXzXkXkXkXpXpXeX>X0XjXNXlXlXjXkXjXkXHX,Xz g k e e u N V 6.3.5.5.5.9.v.v.v.A N S t A A z.XXG.J.I.P.L.K.W.W.E.W.L.L.P.F.m.7XbXrX-X2X1X&X1X<X1X-X|. X X&X*X*X|.*X|.|.+X+XdXkXkXaXjXjXjXNXAXAXNXNXdXdXsXeXrXrXwXtXOXh 5 e N 6.6.5.5.5.5.C.5.j.F.F.F.K.K.K.K.K.L.L.L.L.P.P.P.J.J.J.J.m._._.).}.@X|.{.-X1XlXjXjXaXtX9XqXtXtXeXaXyXeXwXsXkXyXhXNXAXAXHXNX,X}.#X>X,X,X,X,X,X,X,X,X>X<X,X,XwX5X7X6.4 i i <.>.>.>.>.,.p.:.i w i d d.s.Z _ n.n.3.a V j.F.F.K.K.K.F.K.K.A.S.L.A.K.H.m._.$XOX[.(.(.].}.].].].o.E T E ....Q T T E o.o.o.}.,X,XrXeX,XsXwX0X0XbXnXbXdXtXeXqX0XnXgXuXiX7X$X.X7.C 6.6.6.4.q.C.A.V.V.V.C.C.C.C.C.C.C.C.C.C.C.F.v.v.b..X$X$XOX[.[.).X.+XdXjXhXdX,XwXaXdXdXjXZXZXNXNXZXjXjXAXhXeXZX",
"SXHXHXKXHXFXFXHXnXFXKXKXKXKXKXKXKXKXKXKXKXKXKXKXKXKXnX}.W X.X.E W b g j B m C 5.4.q.V.V.D.A.A.A.E.E.E.S.S.S.S.L.S.L.L.L.L.L.L.P.P.P.P.P.P.P.G.G.XXiXJXKXKXLXLXKXKXKXKXKXKXKXHXHXCXGXHXHXHXHXHXHXCXCXhXyXkXjXzXzXlXSXSXlXVXVXjXaX,X@X).E G G F F W K C 6.5.5.q.C.F.F.F.F.j.j.s.s.f.( f ( f.f._ g.d.j.j.n.G.G.H.L.L.P.I.XXcXDXPXaXfX2X-X{.;X+.+.+.! R > R +.;X{.+.{.|.<XfXfXlXlXfXaXaXeXeXVXAXNXbXnXHXCXZXAXrXE W v K H K C 3.v.j.F.F.F.H.K.K.L.K.L.K.P.P.G.J.P.P.XXT.T.T.!.!.Q.Q.Q.!.!.Q.P.P.P.J.b..X7XPXLXCXBXNXlXkXdXjXNXNXbXyXnXNXNXNXNXjXaX<X,XrXkXzXkXpXpXrXpX<XeXlXVXNXSXVXNXSXNXHX,Xv g k e u N V 6.3.3.9.9.9.9.v.v.A N N M.S A ` x.m.J.J.I.I.K.L.K.W.W.W.K.L.P.F.J.7XPXeX[. X].+.+.].+.o.+...Q o.+.o.o.o.o.X.X.).rXeXeXpXjXdXhXNXZXNXjXdXeXyXyXwX0XqXwXwX#Xx.h e u m 1.6.5.5.5.5.5.C.F.F.C.K.K.K.K.K.L.L.I.J.J.J.G.G.J.J.XX`.%XOX}.|.*X&X{.-X1XlXkXjXjXsX9XeXaXaXaXaXsXaXyXsXkXkXjXNXSXCXAXyX(.v F X.G W X.X.X.O.o.o.o.o.X./.`.x.z.u w a ;.<.>.>.>.>.>.>.p y f :.h.s.Z Z 3.z.m.m.d.Z A n.F.F.F.F.F.K.K.A.S.E.K.K.H.v.M.OX).o.X.E E Q Q Q T T R R T Q Q T c : T ...... X,X=X0XyXwXbXsXsXtXbXsXyXtXaXaXaXaXZXnXsXuXPXDXiX$X'.b.9.3.6.4.5.C.C.q.C.C.C.C.C.C.C.C.C.C.C.v.G.b..X'._.[.[.}.|.*X=X,XdXNXwX0XeXwXjXeXqXqXdXNXNXNXjXNXjXbXZXbXsXZX",
"SXVXNXNXCXGXHXHXMXFXLXKXKXKXKXKXKXHXKXHXKXKXKXKXKXKXnX}.J X.J G E b g j D M C 6.4.4.V.A.A.D.A.A.E.E.E.E.E.S.S.S.S.L.L.L.L.L.L.P.P.XXXXP.I..XXXXX5XiXPXLXLXKXKXGXKXKXKXKXKXKXKXKXKXKXKXKXKXKXHXHXyX@X}.|.|.|.|.*X*X-X1X-X-X-X*X*X X[.o.W E E G G X.K B C 5.5.V.C.F.F.F.v.j.s.s.u.u.u.s s f.k.f.f.s.f.l.n.H.J.H.I.I.I.P.XXcXFXbXqX&X$. .U ! !  .+.+.! R ! ;X;X{.{.&X<XfXlXlXlXdXaXlXlXaXdXCXCXnXBXZXHXNXVXZXrXG G j D K H H 7.9.v.j.Z.Z.Z.K.L.L.L.L.K.L.P.F.G.P.P.T.T.P.T.!.!.Q.L.P.P.P.P.P.P.P.J.m.%X7XMXMXhXbXjXNXlXlXNXZXCXNXjXjXlXlXlXVXVXkXrX>XpXkXlXkXpXpXrXpXpXkXSXSXSXSXSXlXSXzXlX@Xv z g u u V C 3.7.7.0.9.9.z.v.Z t f d.m.z.A z.z.z.m.J.G.G.I.I.K.K.I.L.K.L.P.G.J.iXmXwXo.Q E ..Q Q E T Q Q Q Q Q Q Q T Q b z X.pXaXyXjXkXdXjXjXjXdXeXwX0XwXeXqX0X0XqXwXuX9XOX'.7.C 3.V 6.5.5.5.5.C.F.F.C.A.K.K.K.K.I.I.G.G.G.J..X_._._.OXOX@X#X@X-X1X*X&X2X<XdX<XrXyXsXtXaXdXaXaXaXaXyXaXyXaXjXjXjXnXSXHXkXo.- l b z b b b G T E E E E G D J B e e u i a ;.>.>.>.>.>.p p s :.h.s.s.s.s.v.d.d.n.B.c.d.d.j.v.F.F.F.K.K.K.E.E.K.K.G.v.x.%XX.X.W E E Q Q ..T R R R ! ....| c : R +.....|.<X>X>XaXeXbXbXBXyXvXsXsXsXsXhXNXZXjXdXqXwXvXgXiX7X5X$XXX_.v.5.5.6.C.5.C.C.C.C.C.C.F.F.v.v.v.b.J..XXX'.(.[.|.*X-XpXdXjXbXaX0XqXaXjXdXwX0XaXjXjXaXaXaXjXbXNXBXNXNXBX",
"lXaX0X0XyXnXHXKXMXFXKXKXKXKXKXKXKXHXKXHXKXKXKXKXKXKXnX}.G W G G E b g D J B A 6.6.5.C.C.A.A.A.A.A.A.E.E.E.E.S.L.L.L.L.L.L.L.L.P..XXXXXXXXXoX5X7XiXuXuXhXnXKXKXHXHXKXKXKXKXKXKXKXKXKXHXHXHXKXHXZX@Xn - b G b T Q T Q ..Q ..o.+.o.o.o.o...Q Q E E X.K B C 3.5.5.j.v.v.v.j.d.s.u.u.i.i.y.y.i.k.k.k.k.k.l.H.H.H.H.F.G.G.J.XXxXIX>X X..! ! = Y U  .+. . . .+.;X$.;X-X<XfXdXdXlXdXdXVXkXjXaXdXNXNXNXHXZXHXdXdXVXrXG F k j D K H H 7.v.j.Z.Z.S.S.L.K.K.W.L.L.L.F.K.P.P.T.P.P.P.P.P.L.L.L.P.P.P.P.J.J.J.XX$XiXmXMXhXnXnXNXNXZXZXAXSXBXNXjXjXkXjXSXSXjXrX>X<X<X1X-X*X*X*X|.&X1XpX<X<X<X1X<X<X,X<X].l z g h N C C 3.7.0.0.9.9.z.d.u w f R.d.z._ M.z.A v.v.G.G.G.G.I.I.P.I.L.L.P.F.J.iXPX0X).E E o...Q ....Q ....Q Q ....Q T l - E pXkXhXSXjXjXNXNXjXeXqXqX0XeXaXeXqXwXeXeXyXFXFXvX7XoXb.3.6.3.5.5.5.5.v.F.C.A.K.K.F.F.G.J.b.b._._._.`.`.%X@X#X,X0X<X<X1X*X2XlXdXdX=X,XwXsXNXjXsXpXeXaXyXwXyXrXeXjXNXjXjXNXSXpXO.; : l l c c c c n T T T b X.F X.j 5 e u i a a a >.:.>.p r :.i.i.u.:.s.j.d.j.n.n.g.l.B.B.g.g.v.v.v.F.F.K.K.E.E.K.K.J.v.x.`.o.o.o.....Q ......| ! ! !  . .| ! : R +..... X,XrX<XdXwXyXhXCXwXsXsXsXsXsXsXVXHXZXjXaXaXsX9X9XuX9X9X5X5X$X.Xv.5.v.5.5.C.F.j.j.F.v.v.v.b.b.m..X%X'./.`.+X<XfXfXfXqXdXaXaXNXZXjXeXwX0XeXNXGXdX0X9XwXaXNXZXBXAXAXNX",
"*X].W W >XKXHXKXLXLXKXKXKXKXKXKXCXHXKXHXLXKXKXKXKXBXyX0X=X}.(.G E l l G J D M C 6.5.j.C.C.A.A.A.A.E.W.E.A.A.S.W.L.L.L.K.L.P.H.G..X.X$X5X7XiXiX9XwX9X9XwXyXjXSXHXHXKXKXKXKXKXKXHXKXKXKXHXKXHXCXNX].l : l : : : c c R T ! T T T Q O.O.O.......Q E X.J J 7.z.d.s.s.n.d.2.s.s.( / u.i.u.y.i.k.D.D.k.k.k.k.l.Y.H.H.H.H.F.G.oX9XOXQ +.> > Y Y Y !  .!  .! ! ! !  .+.-XfXpXpXdXlXjXdXNXbXsXhXNXCXCXnXnXCXjXlXeXaX*X+X].l k j D K H 7.v.j.C.C.S.S.L.L.W.W.W.Q.W.K.L.!.!.P.T.T.P.P.P.T.!.L.P.P.P.J.J..XoXiXiXMXLXFXCXCXbXNXAXAXnXNXAXHXNXjXlXNXlXjXzXjXlXpX@XE E E o.E E E Q Q o.X.o.o.o.o.o.o.X.E v l v B C K 7.0.8.0.b.b.v.3.Z Z g.N.N.n.d.j.l.n.n.Z 3.d.v.J.J.J.J..XP.K.P.P.G.XX5XiXIXOX).X.o.o.o.o.o.o.o.Q ........Q T c ; E dXkXlXjXaXjXjXjXyXqXqXqXwX0X0XaXjXeX=XOXwXyXCXKXDXDXxX$XJ.7.3.3.5.v.v.j.j.C.F.F.v.b.m..X_._.`.OXOXOX}.[.+X=X0XpXpX<XpXlXSXpXzXlX,X0XaX=XkXlXjXjX>XeXeXdXhXsXsXsXsXhXnXAXlX2XQ # % : : : : : l c c c c b b F F B k e e u a V 2.a r w s u.y.t.y.i.i.u.s.h.H.j.d.n.n.l.l.B.n.d.3.3.j.L.L.K.A.A.K.F.G.b.x.}.[.{.+.+.+.+.+.+.! !  . . . . .! ! R Q ....+. X}.=X0XwXhXtX0XnXbXvXvXyXwXeXdXkXkXVXNXjXhXaXtXwXwX9X9X5X5X7XiX5XoXJ.v.9.9.v.v.v.v.7.'.'.x._.OXOX`.'.(.}.rXfXpXpX<XaXdXjXNXlXdXeXqX=XqXaXHXAXqX>X=X>XqXaXdXbXZXZXNX",
"o.X.E W ,XHXFXKXKXKXKXKXKXKXKXKXCXCXFXHXKXKXFXvXnXbXhXhXnXjXyX0X|.F % k D K K C C 6.5.5.5.5.C.A.A.A.A.A.S.W.L.S.L.L.H.H.P.J.G.J.%X$X9XiX9XwXwX,X,X,X,X>XrXaXlXAXHXHXHXHXKXKXKXGXHXKXKXKXKXCXbXkX{.c : : ; ; ; > > , R R R R R R ..T T T T Q Q Q (.W D H z.d.s.Z s._ _ _ ( ( ( i./ y.u.k.D.D.D.p.i.i.i.k.k.l.j.j.F.J.b._.`.W T R , Y U Y Y !  .! U Y ! U R ! ! {.fXlXVXZXGXBXlXbXNXNXnXnXnXbXyXwXNXaXrX>XrXeXaXeXqX(.j j D 8.x.7.j.j.C.S.S.S.L.W.W.W.Q.Q.K.L.Q.Q.P.T.T.T.P.P.H.H.T.P.G.G..XoX7XcXPXMXFXFXnXbXBXnXeXNXHXHXHXHXAXNXjXjXlXlXlXkXkXkXrXo.; - - l l b c b b T b b E E E E Q X.E b l l h B K H 7.8.8.b.7.3.d._ s.N.N.N.l.s.l.f.l.n.d.d.v.z.z.3.A A z.v.5.K.F.F.P.5XiXiX#X}.(.(.(.o.o.o.(.(.o.o.o.o.......b : E lXSXNXjXkXjXNXjXdXeXwXwXqXwXsXjXnXdX0X=X>X0XkXnXMXJXJXDXxXoXb.z.9.9.v.v.v.v.b.b.b.b.x.x.'.`.OX+X}.}.+X,X0XeXkXkX<X-X2XlXlXzXpXrX,X>XaXyXkXaXeXkXeXeXeXdXsXyXeXyXhXjXnXNXlXfXQ X X ; - l : l l c n b b b v F D j e h m u u t w w t s d u.t.t.y.y.u.u.s.l.n.j.j.n.B.l.l.l.n.n.d.Z 2.j.F.K.K.A.L.K.G.b.'.#X*X|.{.+.+.+.+.+... .| ! ! !  .| ! R ..+.o.{.*X*X<XkXjXbXtXwXGXBXnXhXtXwXwXeXdXjXkXkXkXdXaXeXwXeXqXqXUX#X5X9X7X5X5XoXb.9.9.9.v.b.'._.`.`.OXOX`.[.@X,XkXkX<X=X<XaXaXjXdXeXeXaXqX*X=XpXdXNXdX>X0X,X=X>X0XqXaXNXZXZX",
"Q Q E o.>XHXFXKXKXKXKXKXKXKXKXKXCXCXHXKXKXHXvX9XwXwXtXhXCXHXZXZXjX=X).J D D j j C A 7.v.9.5.5.F.K.A.A.A.K.L.A.A.L.L.J.J.J.v..X7X9XyXyX,X+X=X<X*XeXpXeX<X<XrXpXrXNXGXHXHXHXHXKXKXKXKXKXKXKXFXmXlX Xc , > # # # > > > , R R R R T T T b c c R E Q ].X.D B _ d._ d d d ( ( ( ( ( ( s / s.k.Z.Z.Z.k.i.i.i.k.k.k.h.h.l.T.m.m./.). X..! ! ! ! ! ! ! ! R R ! ! ! ! R +.fXZXAXBXZXBXbXjXNXZXZXCXCXCXjXwXAXjX0X>X>XaXdXjXNXyX9X$Xx.K H x.v.F.L.L.L.L.L.W.Q.W.Q.Q.L.L.Q.Q.!.P.P.P.P.P.P.P.G.J..X$X7XxXDXJXJXFXLXLXmXCXGXCXjXBXHXHXZXZXZXAXkXjXlXVXlXzXpXpXpXb . % % ; - b b b b b b b b b b b b G G v g - k j B K H 7.7.7.V 3.d.g.l.N.N.N.k.l.l.s.f.n.g.l.g.d.Z u e u N A 2.5.C.v.G.XX5X5X$X`./.X.X.J G J J W W W G G E E o.Q b o.lXNXSXNXjXjXjXhXaXeXeXeXeXjXNXjXjXjXdXwX<XrXkXnXnXHXKXDXcX7X5X5XXXb.9.7.z.v.b.b.x.x.` J X.).|.@X@X@X<XaXlXlXSXlX=X*XfXlXlXlXpX>X,X=X,XaXjXqX0XeXkXwXaXjXyX0X9XwXsXhXhXdXlXfXQ .   . X % % ; - - g g g g g v j k e h N N f e w w f ( ( / y.y.y.u.( s.g.B.c.z.z.n.n.B.N.g.n.n.g.Z Z 2.j.C.L.A.K.F.v.z.x.,X<X*X{.{.{.{.+.+.+.+...| ! ! | ....Q +.+.+.{.,XrXkXSXnXsXtXbXKXBXBXsXqX0X0XqXyXjXeXaXdXhXhXdXtXqXqXqX9X#X#X5X9XiXiX7X5X$X.Xx.8.8.#XOX).(.).).[.#XaXhXkXrX1X<XpXeX0XaXeX0XeXkXwX+X=XaXaXeX,X*X0X0X=X>X>X>XqXdXVXAX",
"T E E o.0XHXFXKXKXKXKXKXKXKXKXKXLXHXHXHXCXbXuXuXsXyXyXsXBXGXHXHXKXKXHXyXOXW D j J K C 9.v.9.9.F.F.K.K.K.C.C.K.L.H.G.m..XoX.X$XuX0X<X,X*X@X<XkXpXkXlXzXrX1X1X,X@XrXnXHXHXCXnXHXKXKXKXKXKXGXLXKXHX|.R c : # # # > > > : c R T T E E T b b b b E X.].X.K S _ _ d d f ( ( ( ( _ ( s f _ g.n.g.d.j.l.k.k.k.k.k.k.k.k.s.Z.j.m._.+XzX&X..R R ! ! R R R ! ! ..Q Q E T ].aXZXVXdXaXhXbXNXjXZXHXAXGXHXCXyXaXaX>XwX>XdXdXlXlXjXBXCXuX$X'.8.v.v.G.J.I.L.L.L.Q.W.Q.Q.L.W.!.!.!.P.P.J.J.P.P.XXJ.oX7XcXJXJXDXPXFXCXHXKXFXFXHXCXGXNXjXNXZXNXCXAXkXkXlXlXlXzXpXpXkXv . - - - : z v v v z l g l v v l g g g g g k j j K H H C C V Z d.l.l.N.N.N.f.s.l.H.f.s.l.l.g.c.c.g.S N S ` z.j.F.F.F.v.G.G.b.m.8.H H K D B B B B B j j g l l Q o.E ).dXaXjXNXjXdXeXqX0XqXeXsXNXSXZXdXaXjXnXkXrX<XrXyXjXCXCXgX#X7X7X7X5XoX_.7.7.x.x.x.x.` ` X.X.).}.@X1XpXzXNXNXkXAXSX1X*XpXkXdXSXaX>XrX>X*XaXaXqXrX>XpX0XjXNXrX9X9XqXtXyXyXaXkXfXo..       . X X X + + + + * + k k e e N S V t t f f s ( / / u.u.u._ _ S ` M.` ` ` ` c.B.B.g.g.l.c.c.d.s.d.j.Z.j.F.H.b.b.'.9XrX=X|. X X|.{.].+.+.+.+.+...........o.+.]. X<XlXHXNXyXwXtXNXGXhXhXyX0X,X,XqXwXwXqXwXaXhXNXNXsXqX0X0X=X@X+X#X9XwX#X#X#X$XOX/.K j `.r.W W [.@XeXHXVXyX<X,X,XkXkX9X=X0XeXeXaXdX0X+X=XqX0X0X>X=XqXqX=X>X>X<X0XwXdXlX",
": : z G ,XHXLXKXKXKXKXKXKXKXKXHXHXHXCXnXhXbXnXmXMXvXsXsXbXBXGXHXHXKXKXLXmXyX@X)./.D B K 8.8.b.G.F.F.F.F.F.F.H.J.G.m..X5XiX9X,XqX-X|.*X<XpXkXkXpX,XrXrX<X>X<X<X*X>XhXCXCXnXnXFXKXKXKXKXHXLXLXKXHX*XQ c : # # # - % ; : c b F G F E G G F F G W X.(.x.` _ Z f f s s / ( ( _ _ _ t t _ c.M.` S S ` g.f.f.f.f.f.k.k.k.U.l.R.M.%XSXzX).E G E E T E ..E o.O.E W W G [.aXCXNXyXyXhXjXNXnXHXHXSXBXBXkXwXaXjXaXjXqXaXwXaXjXeXyXCXKXGXuX$X_.b.v.v.F.G.P.P.P.L.Q.Q.L.P.!.P.P.P.T.P.P.P.XXXX8XxXcXJXJXLXPXCXCXBXGXHXCXCXCXnXnXwX0XhXHXHXVXjXkXkXkXzXlXlXkXpXpXb X : - : ; % + + + + + + + ; * * ; * k k j B D K H H 7.A A Z d.j.l.l.N.N.l.g.2.n.B.c.d.g.n.g.g.c.c.c.g.z.n.n.H.H.H.H.G.F.v.v.v.7.7.H C B B N N m h h j g g - E o.E o.pXaXkXkXaXwX>X,X>XeXjXNXAXHXAXjXsXjXjXdXeX,X}.}.<XSXAXAX,X9X$X$X$X#X5X'.'.'.x.` X.X.W E X.).|.1XpXlXSXNXlXkXSXZX<X=XqXqXaXjXqX<XlXkX0XlX*XrXdX=XqX0XjXNXyXtXtXyXuXtXyXhXjXdX(.X   . . @ @ @ O + + 5 e e e e e m N N V Z f f d ( / / / / ( _ _ S x x x n n n G K ` c.c.c.g.g.B.B.c.g.d.d.d a 2.j.b.b.x.$X#X+X}.[.[.`.).(.(.o.o.o.o.o.o.o...o.o.o.].}.>XSXHXkXyXsXsXsXtXwXqXeX0X@X#X0XwX=X9XqXeXsXBXGXbXeX>X,X*X+X@X*X,X>X0X#X[.`.[.`.W D /.).[.+XeXNXAXHXpXrX<X,X@X>XeX0X>X0XqXdXaX>X@X+X0X>X=XqXaXqXpXeX@X=X>X<X<X>X0XqX",
": : : b ,XHXKXKXKXKXKXKXKXHXHXHXHXBXyXwXhXFXKXKXFXmXbXsXhXbXNXCXKXJXPXCXHXKXZXaX@X).J K 8.8.7.3.G.F.v.v.F.H.F.v.7.oXiXMXnXrX=X*X1X|.&X2XfXfXpX<X*X=X>X<XeXkXkXyXsXhXkXjXCXHXKXFXFXHXKXKXKXKXKXHX*XQ R c ; ; - l % % ; g l v D D D F F F K G J X.` ` ` Z d t f / s s / ( _ _ _ x e x ` ` n x g x _ g.g.f.f.f.f.i.U.U.U.R._ S ,XkX$X/.K K v v F G W X.G v F v j (.tXNXNXjXjXjXkXjXnXZXHXSXjXjXkXyXAXHXZXVXaXaXeXaXjXjXSXHXGXGXKXLXiX5XXX'.G.G.I.G.P.I.P.P.I.P.P.P.P.P.J.J.P.4X8X8XDXcXPXDXmXhXgXhXNXjXbXnXbXBXGXCXnX0X=XqXnXCXjXdXjXkXaXkXlXlXlXkXfXE X - ; % X .   @ @ O O O + + + e e e h h B B B B H H d.3.2.2.l.l.l.l.l.N.l.l.A m.m.n.c.g.c._ _ _ g.g.g.g.g.d.H.H.H.H.H.G.F.F.G.v.9.3.C C C C V N m m j j j g X.o.G o.kXlXkX0XwX0X>X>XeXjXZXHXHXHXHXZXNXNXjXwXkX,X].[.<XNXZXAXrXNXyX9X#X#XuX9X#X`.J G J W E b o.|.<XpXpXkXSXSXAXlXSXZXeX>XqXqXhXaX0XrXlXjXeXkX}.pXjX>XwXpXdXkXhXjXNXNXhXsXhXBXBXnX'.@   @ O O O O 5 5 w e e e e e u N V a f a d s s s / y.y.( _ S S x x : , , , c n n G ` ` c.g.g.g.N.c.g.g.g.d a 2.d.b.b.8.'.'./././.J J J K J J K D F G J J W o.o.).[.}.,XNXSXyXjXnXaX0X=X9X>XrX>X@X#XqXqX=XtXsXsXbXBXHXZXsX0X>X=X*X*X*X*X*X>X>X*X}.].[.}.OX=XwXeXeXSXHXSXkX,X*X,X<X=X@X,X0X0X0XqXdXeX=X=X>X>X=X+XqXkXqXqX>X*X=X>XqXqX<X>X<X",
"R c c E <XHXKXKXKXKXKXKXKXGXGXZXnXgX0X9XhXFXKXFXKXKXKXFXBXBXBXCXKXKXJXCXCXHXHXHXNXeX#XOX`.'.H M v.b.G.G.G.v.v.m..XxXJXmXaX<X-X*X&X X-X2XfXlXlXlX>X-X=X0XaXnXNXbXnXkXhXgXnXGXHXGXCXFXHXKXKXKXKXHX*XE b b l : - l % % ; k j j j j B B D K K K H H H A S d f f s / s y.y.u._ S S x x x n n n : < ; S _ _ _ g.f.i.i.i.i.a.N.f t ` %X%XH N h e * * e j B h + e + + D wXjXnXNXCXnXkXjXNXSXCXSXNXjXBXSXNXNXNXlXSXNXAXAXHXAXAXHXHXKXKXCXKXMXiX5X$XXX.Xb.XXI.I.P.G.J.P.J.XXJ.J.XX4X8XcXDXcXcXcXPXCXkXeX0XjXyXyXsXsXnXGXGXBXyX9X9XeXjXjXjXjXkXaXpXlXzXzXpXdXX.% - - %   . @ O O + 5 5 e e e e u u m N N N N S A _ d.d.s.s.l.k.k.l.n.n.l.d.H '.M.` ` S c._ _ g.l.l.n.n.l.l.j.j.j.F.F.F.F.F.G.F.v.3.3.6.3.3.V V V N N B j g X.o.E o.pXzXdX>XwXwXeXdXNXAXAXZXZXAXHXHXAXNXdXrXNXkX<X<XzXlXkXlXkXHXHXHXyX,XbXhXwX#X`.W F E o.).|.1XpXpXkXVXZXSXAXSXjXjXwX9XwXjXbXqXwXjXNXkXaX<X,XVXzXeXdXlXeXdXyXjXBXZXnXsXhXbXmXMX'.O   O O O 4 4 4 w w w y y e e u a a f f a :.s p p ^ t.t.u._ x n n , , U U U U U R n n n ` c.g.g.g.g.g.g.n.Y.n.H.n.J..Xx.'.8.8.8.7.H K K C K C B B B B C K W o.o.).}.}.@XkXnX0XtXwX0XqX=X0XqX<X=X*X,X9XqX9XvXBXBXnXmXGXFXnXaXrX<X,X=X*X@X|.{.*X*X{.W o.*XaXuXyXwX>XkXHXSXaX,X}.+X0X0X#X@X=X=X>XqXpXqX0XqXpX0X0X=XpXdXqXqX-X-X,X0XpXpXqX0XqX",
"c c b E 0XKXLXKXKXKXKXKXKXGXZXBXwXwXyXuXsXbXmXMXLXLXGXFXCXBXBXCXFXFXLXLXHXHXAXZXHXHXBXsXwX+XW j M z.oXoXm.b..X$XxXDXvX,X>XaX<X|. X1XzXSXSXSXSXlX>X*X+X=XwXaXsXsXhXkXgXwX0XyXnXGXnXnXbXBXGXKXKXKX*X..E G g ; + + ; ; k k h M B B C K H H H H H 7.d.S t t f s s / y.y.u.s._ x x x n , , , , , < , ; x ' _ _ f.i.i.a.y.a.N.s.d N S z.N m u e e e 5 5 e e O 5 5 O H uXjXnXCXHXZXNXAXSXSXSXSXjXjXNXAXHXSXZXjXHXVXAXVXAXZXAXZXNXCXHXCXZXBXMXIXiX5XXX'._.b._..XG..XXX.X.XXXoX8XcXcXcXcXDXMXMXCXHXSXkXrXNXsXsXsXyXhXnXhXwXtXtXaXjXNXNXbXjXkXaXdXjXlXpXpXpX..% l l X   . O 4 5 e e e e e e u u u m V A V S S _ d.f.l.l.l.l.f.s.g.c.c.` D G X.G F x x ` ` ` _ g.g.l.l.l.k.l.j.j.v.H.F.F.F.9.F.F.F.5.5.6.6.1.2.Z V N B B v G ).o.).pXrXpX0XyXyXjXCXKXHXCXhXBXBXCXHXZXjXdXaXSXAXlXzXSXSXSXHXHXAXdXHXKXhXBXwXeXeX=X].E E |.rX<XpXpXpXVXHXHXSXlXjXrX>X,X=XqXBXdX,XkXHXHXAXSX<XZXHXkXdXlXZXeXkX0XeXbXBXbXsXtXsXuXcX_.O o O 4 e 4 w w w y y i i e u u u t f d s s >.s y.y.y.y.( x , , , U U U U Y Y U | R , c ' c.l.N.B.N.g.g.N.g.l.n.d.b.m.x.x.'.b.x.x.z.7.7.3.3.3.3.3.3.3.A C J X.X.(.}.[.}.eXZX,X=X+X@XaXwX0XaX,X@X,X9X9X0XuXhXCXGXbXsXvXBXnXjXkXeX<X,X@X|.|.|.|.].W W }.pXZXhXuX#X@X0XkXrX,X<X|.*XdXpX+X+X=X=X<XeXqXqXqX0X>XeXjXdXjXdXaXdX<X0X>X<XrXrXqX<X<X",
"v j j D wXKXKXKXKXKXKXKXLXCXwX@XhXbXbXbXhXhXbXCXHXCXFXHXHXmXnXmXFXKXKXJXFXKXKXGXGXBXHXHXSXdX*X+X/.J x.'.'.OXiXuXCXbXsXyXrXrX>X|.].*XfXSXSXSXSXAXkXeXwXsXNXBXsXwXwXyX0X9XhXjXeXjXNXHXnXvXLXKXFXKX@XE b b l ; X + + k h N N V V C C H 7.C 3.v.d.a f t t s / s p / s d _ _ ; ; , , U U U U , , , , , ; ; x c.n.k.i.N./ a.i.i.N.f.s.Z 3.3.a i a i e y y e e e w w z.uXCXCXbXZXHXHXVXAXSXSXSXAXAXSXjXCXNXjXNXZXNXjXZXZXSXlXkXaXpXpXdXhXbXZXKXCX0XOX'.K './.J /.'.'.%XoX5XiXcXPXMXIXPXFXFXFXFXHXKXGXnXhXvXhXhXvXvXbXmXwXuXwX9XtXGXKXBXyXwXwXsXjXjXpXpXfX+.# - z %   @ 4 w e e e e u u u u u u N V Z V N C 3.d.h.k.k.k.f.g.` ` ` n , , > U R , > c n n ' ` c.g.N.N.N.l.H.l.l.l.Z.H.H.L.F.F.F.5.5.5.5.4.1.2.2.V C C B h X.(.X.o.dXkXrXrXuXbXLXKXKXJXJXKXKXFXMXnXnXsXaXeXjXwXdXZXHXHXHXHXAXHXNXjXHXKXCXnXZX=X[.}.*X1XpXSXdX2X<XpXSXSXlXaXpXaXdXpX<X<XqX<X|.>XrXSXHXbXtX9XVXSXzXfXSXkXrXlXaX>X-XpXVXNXpX0XwXIX'.O O 4 4 y y y y i u e e u V u e t f ( / s p s y.u.u.( d S , , , < I I Y Y Y U I I U U , G x.n.n.l.N.N.f.f.N.g.c.c.c.` ` ` _.M.x.z.v.z.3.5.4.4.4.3.3.3.3.A x.` /.`.[.OX@X=X0X=X[.+XdXkX1X@X0XaX0X=X9XyXyXwXnXCXFX9X(.+XVXGXeXkXrX,X,X@X|.*X+X].W G [.pXZXNXjXkXyX@X#XaXrX=X<X,XaXdX-X@X-X>X<X-X>X0XaXhXsXyX9XsXsXbXsXeXaXqX*X=X<XqX-X<X*X<X",
"j j j H uXKXKXLXKXLXPXKXmX$X@XHXCXFXBXbXhXhXbXCXLXKXKXKXKXKXHXFXFXLXKXKXKXKXKXFXbXnXZXlXlXlX1X+X0XOX/./.+XbXbX>XdXbXZXVXeX0X0X,X|.*XpXAXAXlXdXkXdXkXnXCXAXZXCXBXGXCXtXeXVXVXpXwXNXHXKXKXKXLXmXCX|.E G G g % X + e h N N N V V A C C 3.3.3.2.d f r p s s p s / / s.s._ x : , U Y Y Y Y P Y Y Y , , , : ; e 3.Z.k./ i.N.) f.N.k.Z.2.2.1.V a a i i i y y y w w w z.cXLXCXhXjXCXZXZXlXlXlXSXAXAXAXCXnXwX@X#XkXHXSXrXAXSXzXpXqXqXpXaXkXNXjXjXAXHXNX>X[.W F J `.`.}.#XtXmXPXmXPXFXMXIXuXIXNXHXKXKXCXnXhXwX#X#XgXCXmXnXyXhXyXtXbXGXGXhX9X9X0XtXsXdXkXlXfX+.X : z - X + 4 w e e e u m m m m m m N V Z V C A d.j.D.i.i.i.f.g.` ' c < < , Y Y Y P < U , , ' ' ` _ g.g.N.Y.Y.l.l.h.s.h.j.H.F.F.F.5.5.5.5.4.4.3.3.1.C C B j D (.`.).dXkXrXrXLXJXJXJXJXJXKXKXJXFXFXLXFXsXeX9XwX9XaXNXbXbXZXHXHXKXHXNXZXAXCXBX,Xo.G ].<XpXpXdXpX<X<X<XrX<X<X<XfXfXlXlXfXpXpX2X|.,XrXNXKXBXbXsXdXlX<X|.*XdXlXVXfX<X-X>XqXrXeXeXtXMX.XO O w w y y y i i u e u u u u t t f s ^ ^ ^ y.y.u.d S S x , , I I I I I I Y Y I I U , > c J v.z.f.l.N.f.N.f.g.g.c.` ` B.oX%X%Xm.z.z.j.j.j.4.4.4.4.5.5.3.3.H x.'.`.[.[.[.+X+X|.+XqXVXaX,X*X0XaXeX0XyXhXwX,XwXnXHXwX`.+XnXZXSXkX,X,X<X=X+X-X[.W E [.aXAXZXjXhXeXyX>X>XaXeXeX@X*XaXjX<X-X>X<XqX<X0XrXaXtXwX9XwXwX9XqXeXeXdXpX0X<X<X<X*X<X*X-X",
"B j B 8.gXKXKXJXKXKXKXwX@XgXHXhXFXLXFXmXbXbXmXFXCXKXKXHXHXKXKXLXPXmXPXKXKXKXLXFX9XeXHXHXlX1X].].>X#X@XwXZXZXsXaXjXhXNXNXaXeXwX,X+X[.|.<XpX,X@X@XqXdXNXNXbXjXNXGXnXBXjXsXjXdXaXjXqXpXNXZXCXGXHXCX].E E G g % + k h N N N N V 3.3.C C 3.3.2.f f f r p s p p / y.s s.d.S x , U U U U Y Y P Y I P = < < : x B V s.k.N./ ) N.f.u.N.j.j.2.V 1.1.a a ;.i i i e i e e z.uXPXLXCXCXnXjXNXVXSXSXCXCXCXCXCXyXCXHXsX=XyXHXAXAXSXlXkXpXdXlXSXSXSXVXjXZXHXdX*X@X[.(./.(.OX9XbXbXKXGXIXMXGXbXtXbXbXbXBXBXBXNXBXCXuX#X#XhXCXnXbXbXhXsXhXBXFXnXsXaXhXjXhXyXrXpXzXzX+.X : l g + e 5 e e u u m m m m V V N V Z A A A _ d.k.D.k.k.k.g.` ' n , < < < I P P P P I , , n ' ` c.n.N.Y.Z.Y.Y.Y.l.s.s.j.F.F.F.F.5.5.5.5.5.4.5.3.6.3.C C B J `.).W *XrXkXSXGXLXLXJXKXJXLXDXLXFXLXKXKXBXsXtXaXeXsXNXbXbXGXKXHXHXHXHXHXHXNX,Xo.G E *XlXlXpXpX<X<X<X1X-X*X-X<XqX<XrXpXfXrXpX2X@XrXpXVXZXsXsXtXpX<X-X>XkXSXVXjXeXpXpXqX>X>X>X>XwXvX_.O O w w w y i i u u u u u u a d d s p s ^ y.y.u.d Z S S x , Y I I I I I I Y U I I < = # - K z.z.s.f.k.k.N.N.l.c.c.` ` %X$X:X7X$Xm.v.j.j.C.q.V.V.q.j.j.j.3.H x.`.OX`.[.[.+X*X[.+XpXaX,X,XrX=X<X>X,XrXhXeXeXnXyXyX0X=XaXBXtXlXkXrX,X=X@X|.|.E X.|.aXHXHXAXCXhXrXyXeXwXrXqXlX=X=X<XpX<X>XqXpXqXqXqXeXeXeXqX9X9XwXtXNXlXpXaXpX*X-XqX<X*X<X*X1X",
"K B B 8.iXDXKXKXLXKX9X#XbXKXCXKXbXmXFXFXmXbXMXmXCXLXHXHXLXHXHXLXmXvXvXFXKXKXFXFXbXhXZXdX@Xo...].X.@XsXHXHXeX9XbXCXjXdXsXaXaXwX=XrX@X}.|.*X,X>X0XwXkXnXhXyXyXbXBXhXnXnXjXaXeXaXkXlXeXeXjXNXHXKXjXo.T E b g ; % k h m N V V 3.3.3.3.A 3.A a t t f f f p p s u.y.s d c.` c , < I U U U U U I = = = < < : O._.v.Z f N.y.i.U.u.( R.f.j.d.2.2.V a a >.i i i i a i u v.cXmXFXFXFXnXbXZXZXAXGXLXFXPXPXPXnXZXHXNX=XwXAXSXlXSXSXSXSXlXlXlXSXVXVXNXpX*X|.|.+X[.[.).(.OXyXhXwXNXnXyXsXnXbXaXBXNXbXbXbXhXnXCXHXCXhXgXmXCXnXmXbXyXtXsXnXBXnXbXaXjXSXZXjXdXdXzXzX+.# z l g + e e e u u u m M N N V V V Z A d.d.d.d.d.h.k.D.Z.l._ ' x < < , Y = P = P I I I < , , , x _ g.Y.Y.Z.l.B.Y.B.g.f.j.n.F.H.F.F.j.v.5.5.5.5.5.3.3.A C B K (.).X.<XlXSXlXSXCXLXHXKXKXKXLXKXKXKXKXKXGXBXBXGXnXnXBXnXBXHXHXHXSXZXAXVXjX,XX.b X.*XkXSXkXrXrXpXpXrX<X<X-X-X=X<X>X>X=X*X1X<X*XX.*XeXNXZXnXBXZXaX=X=XqXpXrXaXaXeXaXpX>X=X<XpXaX=X#XH O 4 e w w y u i u u N u u t f d d s s / y.y.u.:.d A ` ` n > < = = I I I U U I = = = # # ; v ` z.d.f.k.k.k.N.N.c.c.` ` ` M.$X7X:Xm.v.v.C.C.q.q.q.q.V.j.j.5.7.8.'.%X`.[.+X=XpX+X-XpX>X+X#X>X,X0X<X>X0X0X>X0XeXyXkXeX=X>XaXaXkXSXkX>X=X*X[.W F @XNXAXZXSXHXAXjXwXeXeXqX<X>XkXdX0X=X,X<X<XrXaXpXpXpXaXtXeXqX0XwX0X=XrXqX=X<XpXqX<X-X-X-XfX&X X",
"3.C B 7.iXPXJXLXmX@X,XLXCXhXCXHXhXmXFXFXmXmXmXPXFXMXmXKXKXFXFXKXFXvXuXMXHXKXHXGXHXnXpX+X].].O.X.].sXAXsXsXNXbXhXbXsXNXNXsXtXeX0XkXpX<X*X,XkXSXSXSXZXCXnXbXmXFXGXKXZXnXjXjXkXpX>XkXqXrXaXdXVXNXqXo.T Q b l g k k h B C C A 3.3.3.3.d.A f t t t f d f f s s d :.2.z._.X., < = = = Y U U U = = = = U U R n (.oXn.f p U.k.u.N.l.l.n.g.n.d.V a 1.1.a i a V u u e u v.DXmXMXvXbXbXmXKXCXAXGXHXHXLXLXHXCXkXjXNXaXlXZXdXkXlXSXSXVXjXkXaXlXkXaXrX=X}.}.*X*X].|.aXjXnXCXHX0XhXnXnXnXsXyXjXtXsXnXBXBXBXCXGXCXLXCXmXCXCXmXGXsXtXyXbXBXBXNXNXlXVXAXAXSXVXlXzXzX+.# z l g + e e u u u m m N V N V V S Z d.d.d.d.d.j.h.k.k.k.l._ x : < < P P P P = P I I P = < < < ; e N h.S.!.l.B.B.l.g.l.n.l.j.v.F.v.v.v.5.5.5.5.5.3.3.A C K D /.`.(.,XzXAXAXSXBXnXnXbXCXHXKXKXKXKXKXKXHXGXGXKXFXmXvXqX9XwXeXZXNXHXZX<X+X[.X.b |.pXlXpX<XrXpXlXkXpXpXpX<X-X|.<XpXaX<X-X1X*X).}.aXAXHXSXsXaXeX<XaXjXrX*X,XrX<X=X<XpXrX<XqX<X=X).W k + e e w e e u u u u V u e t t f s s ( y.:.>.:.2.3.z.` n ; < = = = = = I U U = = = = = > : : G x.z.l.k.k.D.k.g.g.c.` ` z.z.x.oXoXb.v.F.F.C.q.q.q.q.q.q.5.5.7.7.'.`.OXOX+X@X<X*X<XkXrX,X=X@X@X,X0XrXrX<X>XeX9X0XrX>X+X+X=XqXjXkXaX<X=X*X[.W +XeXZXAXGXHXCXhXnXtXtX9X>XqX>XwXdXaXrXrXrX<XqXpXlXkXdXaXeXwX0X9X0X=X@X<XpX<X<X<X&X-XfXfX-X-X+.+.",
"6.C A 8.xXJXKXFX#XwXuXyXCXCXhXPXCXFXFXPXbXbXPXHXMXtXuXHXKXCXCXKXHXbXyXbXCXHXHXGXCX>X=X*X|.o.E ].lXHXHXjXhXZXAXBXbXsXNXHXKXZXsX0X0XaXkXrXrXlXSXjXSXGXCXnXmXHXKXHXHXNXjXjXdXkXkXpXpXpXdXpX<X,X@X{.+.Q Q b l z g k j B C A 3.3.3.3.3.d.Z t w t t f t f s ( d s s.H..X/.n < < = = = = > > , < = = = I , > c W `..Xn.l.p :.Y.f.s.Y.a n.n.g.Z a 2.1.a u a V u u u u m.uXgXhXhXmXnXnXZXHXHXHXHXHXHXHXHXHXlXSXHXZXSXSXlXkXjXlXSXSXlXlXlXaXaXrX1X*X*X|.[.(.[.>XNXAXSXjXyX0XyXjXSXCXyXrXnXeXhXbXhXbXCXHXGXCXmXyXuXhXvXhXhXyXsXnXGXHXCXNXnXSXSXSXSXZXZXSXlX1XQ % : - k g k h u m m m N V V V Z S Z Z _ d.d.d.d.l.k.k.h.s._ ` n , , = = P I P P I I I = = I < , , x S 2.V.L.Y.B.N.g.g.n.n.l.d.d.v.v.v.v.5.3.5.5.5.5.3.3.A H J `.OXo.].|.pXkXZXAXAXCXBXNXBXBXjXjXNXGXKXKXKXKXKXKXLXuX}.(.).[.,X=XqXpX1X[.o.o.*XpXlXfX<X<XpXpXpXpX<X<XpXfX<X*X=XqXjXkXpXpX*Xo.].pXSXAXZXjXnXdXpXrXrXpXkXkXpX2X2XrX2X1X|.].o.E G g + + e e e u u u u u N a t w w w r f s u.:.:.:.2.j.b.x.F - # = = = = = < , U , < # < = = > > ; l K z.Z.V.p.D.k.l.g._ c.M.M.x.H m.m.v.v.F.F.C.q.q.q.q.q.5.5.5.9.7.x.`.}.[.).o.].{.|.1X<XrXqX>X-X>X<X,X,X,X<XjXeX>X=X*X*X*X=X>XqX>X<X<X}.(.|.-X0XqXdXHXKXKXCXCXhXeXeX>X0XyXqXqX,XpXlXSXlXqX>XpXdXaXeXeXeXeXwXqX>XeXqXfXrX1XfXlXlXlXfX&Xc : # > ",
"6.7.7.7.iXDXJXMXwX=X0XhXhXnXCXCXLXLXFXmXbXMXFXKXuXuXsXFXKXFXFXKXKXCXhXsXnXCXCXNXdX@X+X].X.G ].NXVXkXNXHXNXeXsXZXBXsXhXHXKXKXbXqX,XaXjXdXrXyXyXrXyXnXBXhXhXbXCXnXhXaXjXdX<X<XzXlXfXzXpX1X|.].W G ..Q ..T v v j k B K H 3.3.5.3.3.d.Z f t t t t t t f d d :.s.H.J._.F : < < I I < > > - : , , = = = = # > b X._.oXR.Z.y f R.s.w g.n.n.g.2.Z 2.Z V i u m u N m m x.OX9XhXCXHXSXjXjXHXAXSXZXGXGXGXCXHXSXjXSXHXZXkXrXjXlXSXSXSXSXSXSXpXrX<X*X*X|.{.o.[.pXAXVXZXHXSXyXyXeXeXjXSXyX0XhXeXbXhXqXwXCXKXCXCXbXwX9XyXgXwXwXyXbXZXHXGXZXNXNXkXzXlXlXSXSXlXpX].c - : z g D h h m M C C V C Z Z Z V Z Z d.d._ s.f.l.k.s.2._ _ ` n , < = = P I I I I P P P P P I U R O.x.j.q.V.Z.B.N.g.g.n.n.d.d.d.j.z.v.v.v.j.j.5.5.5.5.3.3.7.B '.@X[.].o.].].eXdXNXHXHXHXSXnXaXyXsXjXNXZXGXKXKXKXKXbX#XOX+X+X+X[.].|.|.+.o.{.SXlXzXpXpXpXpXpX<X<X<X<XpXkXpXrX*X=XeXzXaXrX>X+X>XSXVXzXkXaXpX>XzX1X X*XzXfX1X<XpX-X].T c l c b v k + e e e e u u u u N u t w t w w w r s u.:.:.j.j.b.x.G : % # = = = = < < : l - # # > < = > # # ; g H F.A.V.D.k.l.g.g.c.M.M.x.x.m.b.v.G.F.j.C.q.q.C.q.C.5.5.9.9.8.x.'.`.).X.E E ....o. X|.*X<XpXpX<X,X1X@X*XrX,X>X<X>X=X+X*XpX=X*X,X+XX.(.<XZXwXeXnXHXHXCXCXLXyXqXeXqXeXsXwXwX*XqXdXNXSXpX=X0X0X9X9XwXeXaXeXqXqXpX<X-X&X&X2XzX2X+.- # . - - R ",
"6.9.6.C 5XcXPXuX,XwXwX9XwXyXCXKXCXFXLXFXmXnXPXLXuXvXmXLXKXKXGXGXHXCXjXyXhXnXjXaX[.@X+XG F *XlXHXpXeXSXHXNXjXGXHXbXhXBXGXNXvXvXsX=X<XrX0X=X@X@X=X9XhXCXhXtXuXhXkXHXjXdXqX*X-X2X<X X X..b E E b T T T ..E b G D j B C 3.3.3.j.j.j.d.d t f f t r t d d f f 2.H.T.m.J : > Y = = Y , R l q g b c < = = = = # : X.`..XJ.P.C.i i 2.Z B.Y.n.d.d.s.Z V V V V V N C M e M '.#XdXNXAXZXSXZXlXlXlXSXAXHXHXAXSXAXSXVXSXjXdXkXVXSXSXSXlXzXpXrXpX-X|.|.|.].].|.fXjXdXdXZXAXkXkXSXkXrXpXkXyX,X,X#XyXsXwXyXKXKXnXnXvXuXuXbXhXtXwXaXNXGXSXNXNXZXSXAXAXAXVXpX=X).G E l c b W D J h e m V C C A Z Z Z Z f f Z s.d._ s.f.h.s.d Z _ ` G ; # = = = = P I I = = = P I I I = < n ` b.F.C.2.g.l.g.l.l.s.Z g.g.z.d.z.v.v.v.j.j.5.j.5.3.3.7.7.x.`./.(.X.).(.X.).}.>XjXAXAXSXVXjXaXyXaXdXNXGXKXJXKXKXFXHXHXAXAXpX@X|. X+.|.SXlXpX<XpXpXpXpXpXpXfXpX<X2XpXkXkXrX=X,XrX<X,X<XrXrXlXpX<XpXkXlXpX&X2X2X2XzX2X{.+.R c c b c c c b z k k h e e e u u u u u e w w w r w w r s :.4.2.v.v.8.J l # # > $ $ $ # ; % ; k + @ + ; % # > > < ; ; B G.A.V.D.u.k.l.g.d.z.z.z.x.M.z.7.v.v.v.F.C.C.C.C.F.C.C.9.0.0.8./.(.o.O.........Q ..Q ..{.*X*X<XfXzXpX<XpXqX-X+X=XrX<X-X>X<X-X+Xo.o.0XHXNXNXHXHXnXnXCXMXuXwX9XeXtXyXyX0XeXqX<X=X0XNXdX=X=X>X,X>XqXeXpXqX>X=X=X*X2XzX2X&XR - & % - # # # : ",
"9.9.3.3..XiXDXJXwX$X,XhXhXhXbXbXhXCXCXHXKXHXCXHXKXKXFXnXFXPXBXGXKXHXCXkXkXkX<X+X+X@X).X.=XSXZXZXSXSXSXAXHXBXnXHXhXwXnXKXnXyXvXhXwX>X*X|.X.b G ).=X,X>XyXBXhXhXCXrXaXlXkX<X|.+...T T Q E E E E W T R R E X.W F j B C C V 1.3.5.s.d f d ( f f ( f f f Z j.J.J.m.x.l > , Y = = > R z @ @ 5 q g c , = > = < > c W %XoXJ.P.K.i d Y.B.g.n.g.s.s.2.Z 3.A V m m M B C K (.).}.+X,XpXlXSXlXlXlXlXSXlXdXpXaXlXlXlXlXpXkXfXlXdXSXAXpX,X<X,X1X|.|. Xo.|.fXfXlXlXdXeXeXdXVXSXAXlXrXrXkXjXrX,XrX0XaXNXBXBXCXBXbXhXhXvXCXCXhXwXBXZXjXdXCXSXjXSXkX<X|.(.X.G G G F E E z g j D C M C 3.3.3.3.z.d.Z f t t f _ g.g.l.f.d d Z d.` ` : < = = = = = = = > , > > U Y P P Y , , b 8.v.F.s.Z _ g.B.g._ Z c.g.d.d.d.z.7.3.5.4.4.4.5.3.3.3.A b.oXOX(.W X.).).(.(.(.).@XeXSXAXAXSXlXlXjXNXNXKXFXBXFXGXCXSXHXSX*X|.].T &XSXfXpXpXpX<X<X<XpXpXpXpXdXpXrX<XpXkXSXpX<XpX<X+X@XqXdXpX-X<X>XlXpX2X1X2X2X-X+.T c , > : : : : : c c g j j B N u u u u u N e O w r w r r r f s a 4.F.3.b./.z # # & $ $ $ > - % @ o 9 5 o o + % - > # = < ; k C G.L.V.V.k.l.f.d.z.b.x.M.z.z.z.z.v.v.F.F.F.F.C.C.C.j.v.0.8.r.`.`.o.E T ..| ....+...Q E E Q +.|.*X*X-X-XfX<X*X>XpX<X*X*X-X|.(.+XVXHXNXGXCXGXCXgXgXvXgX9X#XyXyXqXhXhXqXeXjXeX0X>X=X*X=X0XsXBXqX@X0X<X-XpXfXzXzXfX-XQ - . ; % # # # ; : l ",
"9.9.9.6.7..XoX$XPXiXiXwXwXeXbXAXsXjXnXCXHXHXZXCXnXFXGXKXKXGXBXGXHXAXAXAXjXrX=X@X+X(.X.+XaXZXAXSXjXSXnXjXSXCXNXCXyXyXhXhXyXmXHXbXaX>X}.+XeX=X[.+XqXyXkXNXHXAXBXAXlXaX-X[.o.E T T ....Q E E G G G b b G E W J D B B C A V 2.3.h.s.s f s ( ) f s f d 2.d.v.m._.x.G > > Y < < , , z q 0 0 0 5 q j z > > = = > > v (.XXJ.P.T.5.u Z R.g.l.g.s.d.Z Z A Z V N V C 7..XOXOX[.].).].|.-X2XSXzXzXfXfXzXzXzXpXdXlXlXlXlXpXrXSXlXAXAXpX<XrX<X@X]. X}.).+XfXpXpXdXkXdXdXjXNXSXSXkXrXeXkXyX0XrXNXyXsXCXHXKXGXhXBXnXhXyXhXbXbXnXHXHXNXjXAXkX*X|.].o.X.G K K D D G G v g k j C C C 6.3.3.3.d.d.2.f f t t t f Z s.s.s.s.Z _ ` ` n : < = = = = = > c g k X - l U Y P P , , n K z.v.g.d.g.l.g.g.g.g.g.g.g.d.z.z.v.v.j.C.C.C.C.j.9.9.9.b..X_.x.J J J /./.(.(./.(.[.|.@XrXSXHXHXZXSXAXCXKXHXjXhXZXAXlX*X*X+.E {.zXSX2X2XpX2X<X<X<XpXpXpXpX<X<X<X<XpXdXkXkXpX-X@X*X=X=XfXpX<XpXfXSXlXzX2X;X! , > > : : > : : , , : : l g j j B N h m N N N V t w w r w w r r f s 2.j.F.9.8.F - # & $ $ # # % % + 0 3 9 -.3 o 0 + % ; # # < ; - M 9.F.C.C.Z.l.j.d.z.v.z.z.z.z.z.z.v.v.v.v.v.j.j.j.j.5.5.7.7.8.'.`.).o.+...Q R R ! ..+.+.......Q ..+.].{.<X2XfXdXpX-X|.-X*X|.+XeXZXHXAXNXCXCXnXyXgXnXvXwXwXmXbXwXyXsXeXyX=X0XdXkXqX=X>XaXhXZXaX0XdXdXqXfXfXfX-X..- # % : # % ; ; - ; ; X ",
"5.5.9.3.3.A 7.7.8._.#XwXBXBXNXZX=XkXHXHXHXAXHXHXBXCXGXHXGXvXsXBXHXAXZXlXeX=X@X@Xo.G }.VXHXAXZXjXnXCXBXhXnXHXGXCXFXCXnXyXuXCXFXsX=XrX-X@X,X).G +X>XpXjXSXHXAXSXSX}.].O.E E E Q E T T b b G G G G E E X.X.X.J K C C 3.3.3.j.j.h.2.s s s ) ) f f d 2.j.J.b.m.'.` l < P Y < , c l q 0 0 8 9 9 0 5 L b > < < < < : X.'.XXP.Q.P.a e n.g.g.g.g.g.Z N A d.3.3.3.7.b.XX5XOXOX}.].o.o.o.+.{.&X2XzXzXzXfX2XpXzXlXzXpXdXlXAXSXSXSXlXrX>X>X=X|.).).|.=XdXlX<X*X0XaXkXkXkXjXkXjXjXkXhXkX0X>XjXsXsXNXHXZXZXZXCXCXFXCXmXbXbXbXnXjXZXNXkX0X}.W F v v v D K K D D D j g k j B C C 6.3.3.3.3.j.2.a t t t t t t f d d 2.s.d.z.` n , < = = = = > : z L q 5 o 5 q z c , = Y U , c K b.v.n.n.n.g.g.g.B.g.g.c.c.c.z.v.n.F.F.K.C.F.F.F.F.v.v.b.9.7.H D D J /.).`.).(.(.(.].|.1XpXSXAXHXHXBXKXKXNXNXAXkX,X+Xo.E  XfXSXzX2X2X2X<X<X<X<XfXpXpX2X<X1X<XfXfXpX<XpXpX<X>XqXpX<X-X<XpXlXlXzX-X&X, > > > > , : : c c c l l : - - k k h h N m m N C V V t w r r w w r p f >.j.F.9.x.D ; # # & $ $ # # % @ 0 3 6 -.-.7 1 3 @ + % ; # # ; - g B 9.H.C.Z.Z.l.j.v.v.z.c.c.z.z.z.v.v.v.v.j.j.j.j.j.j.5.9.7.8./.).`.).].+...Q R R Q Q ........E Q Q Q Q o.{.&X-X-X|.*XqX}.|.pXHXZXHXKXjXCXCXhXuXhXFXFXbXmXFXCXbXhXhXhXyX9X9XeXjXjXeXrXeXaXjXdX0X<X<X<X<X&XQ % X # % ; % - - - ; % X X . ",
"3.3.3.v.9.3.3.7.H 7.D B W [.@XrXSXSXkXfXSXHXZXNXHXHXHXKXKXvXyXBXHXAXVXrX,X|.].o.E }.kXHXAXZXZXbXCXGXnXhXCXHXHXGXHXbXhXhXgXwXwX0X,XqX,X<XpX+XG b o.,XlXAXSXeX+X).E T T T E T b c c c b b F G W W X.X.X./.x.J H A 3.5.3.j.j.j.2.d s / s s ( f f s.j.H.J._.'.o.n > = P Y , : g q @ 3 8 8 8 -.9 0 q z l > < = = > b /.oXXXI.T.v.f d l.g.g.g.g._ Z A v.v.v.v.9.9.b._.`.`.OX}.).X.E Q Q ..+.&X&X2XzXlX2XfXzXlXpXlXzXSXpXlXlXaX<X,X*X|.}.].+XpXSXHXSX>X@X>XdXkXkXsXyXyXjXNXNXjXkXwXeXBXyXaXNXZXjXjXCXHXGXFXCXFXGXGXCXNX,X0X,X|.o.b v v b F K K K B B B h k k h B C V C 3.5.3.6.5.j.2.t t t f f t t f d Z 2.d.z.` G , < = = = = > : l k 5 0 9 3 0 0 q z , , P Y , : v x.v.n.H.n.l.g.g.c.g.g.c.g.g.d.z.n.F.C.C.C.C.C.C.F.F.9.9.9.7.7.H C B D J 8./.X.o.o.).o.o.].*XpXVXHXHXHXHXHXHXSX<X|.|.b o.lXSXzXzX<XfX2X<X<X<X<XfXpX2XpX2X1X<XfXpX<X<X<XfXlXdX-X*X*X-X<X2X2X*X].R : > > > > > : : : c : - - - - ; ; k e h h m m N N A V a t w r r r r r p s 4.C.v.7./.j # # # & & & # % q o 1 7 7 9 -.7 2 2 3 0 + ; # # < ; ; k K b.F.S.S.C.C.n.n.c.c.c.z.z.c.v.n.v.v.v.v.F.j.C.j.j.b.7.7.8.x.x././.).o.o.o...Q R R c b T ..+.....+.....Q ..o.Q +.|.].*XNXHXAXAXHXnXCXnXyXwXbXHXGXbXbXbXbXmXhXhXsXwXsXwXqXaXjXaXeXwXpXqX<X*X|.|.{.Q % # . X % - - - : ; X X   . @ O ",
"3.3.3.v.v.3.3.9.3.7.K D J G z l b  XpXSXAXSXkXdXSXSXCXHXKXnXyXjXAXVXzXrX@Xo.X.E +XlXHXNXsXdXNXKXCXnXhXbXFXFXCXKXCXnXnXCXnXyXuXjXkX>X*X-XpXlX=XE o.@X<X*X}.o.F z E T b c c z l l b b G G G G G G G J J J H C C 3.3.3.3.j.j.s.d f s / p p / s d h.L.J.G..X(.E , < = = Y , l q 0 3 7 8 7 8 -.9 9 9 q l > > = = < : /.XXXXI.P.T.v.f g.g.s.g.g.s.Z d.v.v.v.v.v.v.9.9.x.x.'./.W W X.o...Q T T ..{.2XzXzXzX2X<X1XlXfXzX2XkXzXpX<X=X+X}.[.,XVXHXZXlXjXdX>XaXNXSXnXhXhXhXnXHXGXjXkXjXjXnXNXsXsXjXjXnXCXNXHXCXnXBXHXKXAXNX}.).W b z v v v G J K B N h h h h e h M C V V 6.6.5.5.5.j.j.:.r p f f f f t f d h.j.v.z.G n > < = = = > l l k 5 3 2 9 8 8 3 5 q c , P P > > c G v.F.G.n.n.l.g.g.g.g.n.c.d.d.j.v.j.C.C.C.C.C.C.C.C.C.9.v.v.7.3.C B M M B K X.X.o.X.o.o.o.o.].*XpXZXAXAXAXlXrX@X}.E o.2XSXdXlXlX*X<X<X<X<XrXfXfXfX<XpXfX<X<XfXpX<XfX<XfXSXVXqX-X<XfX<X|.Q c - % # : > ; ; : : : ; % + + + + ; k k h h m m N N C C C V u w w r r r p r p :.C.j.9.x.J - # # # & & & % % 0 1 3 9 7 8 9 7 6 6 2 1 @ + ; # # < ; ; j 7.G.K.A.A.C.H.c.d.c.c.c.z.v.v.v.v.v.F.F.C.C.C.C.F.F.v.9.9.9.7.H H J W X.o.o...Q T c : : c T R T +.....Q Q T c T o.|.aXZXZXGXCXCXHXnXhXuXwXvXCXBXsXwX9XwXhXyXuXtX9XwXwXtXaXeXqXeXkXpX*X}.]...Q c X . # % % ; ; ; ; X . .   @ O O O ",
"z.3.3.z.v.5.5.9.9.8.H J /.X.F z z l : b |.pXlXAXZXAXSXCXHXCXnXBXAXpX,X,X].G O.*XlXAXAXlXNXsXsXKXBXbXhXmXHXCXCXKXCXKXHXBXnXkXjXHXkXqXrX<X*XfXpX|.E ).o.G v z b E c c c z l c c b b G G G F v D D x B B B B C 3.3.5.5.5.j.j.s.d s s ^ p p / s s.Z.P.I.G.'.X.c < = = = , c k 0 3 7 7 7 7 8 -.-.=.9 5 z c > = = = # W /.oX4XI.J.J._ s.g.s.s.g.s.Z d.n.v.v.v.b.v.v.b.v.x.x.8.J J W X.E ........o.+.{.fXzXzX2X|.pX<XzXkXlXzX<X=X|.].].>XjXHXHXNXdXaXkXjXNXHXCXnXvXvXbXnXKXGXhXbXCXnXhXhXeXyXsXyXkXCXAXHXGXGXHXHXnX0X+XW b v g g l b b v B j h e e e e m h m M V V 1.6.5.5.5.5.j.h.d p p p f f f f f Z v.v.v.` v : < = = = = > l k 5 1 3 6 =.7 8 8 3 @ l > P P = > , v b.F.G.v.n.n.l.g.g.l.n.l.l.g.j.v.F.F.C.C.C.A.A.A.C.A.F.F.v.9.3.3.7.C B B K J (.(.o.o.o.o.O.o.].}.@XpXAXzX>X@X}.).E fXAXpXfXzX2X1X-X1X<XfXdXfXfX<X-X<XrX<X<X2XpX2X2X<X<XfXdXlXfX-X|.o.b % # . # % % ; - : : ; % X X + + + e e e e h m N N N V C C V V u w r p r p p r f h.K.j.7.'.v ; # # $ & & & q 5 0 1 2 3 3 4 9 8 6 6 7 2 3 5 - # # = # % - B G.K.A.A.A.H.l.g.c.c.c.c.n.n.v.v.F.C.C.C.C.C.C.C.j.j.j.j.5.5.3.7.C K J J G E ....E c : z l - - : R T Q Q b l c o.<XAXAXnXGXCXvXKXmXbXyXyXbXBXbXsXwX9X9XwXhXyXtXyXeXqXwXhXjXhXsXdX+X].o.E ; # # # : - % % - % X .       O O O 4 4 ",
"c.z.A 3.3.5.9.9.6.C H /./.X.E c c l : - c T ].*XlXZXAXSXHXHXCXAXkX-X].o.X.o.@XlXNXlXVXAXHXBXbXCXFXFXFXFXKXHXCXHXCXHXCXkXeX=X,XjXlXzXlXlXzX<X XT - v G G G b c c z c c c z z c c l z v v v B D D B B B B C C 3.j.j.j.j.Z.j.s.d d s p s / s ( k.L.K.I.XXr.b , = = = = , : 5 0 3 8 7 7 8 =.8 =.-.9 5 g c , = = # # b 8.XX4XI.G.J.n._ g.g.s.g.g.d.Z n.n.v.m.G.v.v.G.b.v.b.b.x.J K D X.X.X...E Q Q ..Q  XfXlX<XlX-XpXlXlXrX*X|.].].@XNXAXSXSXAXZXjXsXBXZXGXBXbXbXvXnXBXGXBXbXBXCXnXhXsXyXkXjXrXyXSXHXCXFXBXbXqXOXX.F l g l z - g v l k k e e e e e e m m m M V 1.1.4.5.6.5.j.h.:.s p p p s s f f d d.v.v.z.H v > < = = = = > - + 3 3 7 7 -.7 =.8 4 o % > P P = = > l 0.F.G.F.n.n.g.g.l.l.l.l.l.l.j.j.F.K.K.K.A.A.A.A.A.A.A.K.F.5.5.3.3.6.C B B D G G o.Q E E Q o.o.o.X.|.<X1X@X[.].].,XSXSXpXdX<X,XpX<X<X2XfXfXfXfX2X<X<XrXrX2X<XrXfX<X2X-X-X<XfX{.z g % # . X . # # - - ; % X . X + + + + e e e e e u m N N N V C V C 6.a y p p r p p p >.V.K.v.9./.; # # # $ & & & q 0 0 2 2 1 3 u 6.i 7 2 7 7 3 0 % # $ = $ # ; k 9.K.E.E.A.Z.l.g.g.l.n.n.n.v.v.C.C.C.C.C.C.A.A.A.C.C.C.C.C.5.5.5.3.3.C D D v G E T b c R R : % # - c R R l - c ].kXZXHXCXCXnXCXHXCXvXyXyXIXbXIXaX9X9X9XuXFXnXyXnXnXyXwXhXNXhX>X@X(.].|.+.- . # - - : : - X .     @ o o O 4 4 4 4 ",
"c.d.3.A 2.3.5.5.9.C 7._.'.(.X.b b l : : c : : c ..*XfXlXAXSXyX>X+X}.X.G o.,XkXdXkXrXjXZXbXGXKXLXFXKXKXHXKXKXCXmXKXCXnXAXjX+X}.jXAXSXfX<X-X].E E T T b z z l : : : : : l l l l l v v j j j B D K B B A A A 3.3.j.j.j.j.j.h.:.s s / p s / p u.Z.P.F.XXXXW : < = P = Y : % 0 3 7 7 7 7 8 ;.8 =.-.-.0 q l : < $ # = : W XXXXP.T.J.n._ g.g.s.g.n.d.Z j.v.J.J.G.v.v.G.F.v.v.z.z.8.J J D G W X.O.W E E E E .. X&XAXfXfXfXpX*X X}.}.=XBXSXHXHXZXKXHXBXBXZXGXZXnXbXbXnXnXGXGXBXBXKXCXhXjXHXSXjXjXjXlXVXjXjXdXqX+XW v g g g ; ; g g j g + * + + e e u u u e u m V 1.6.4.6.4.4.5.C.h.s p p p p s s f f d n.j.9.7.G c < = P = = , l + o 1 8 2 8 ;.8 8 8 8 4 @ % , P = = > : D 9.G.J.H.l.f.s.l.g.g.g.l.l.j.j.F.F.K.A.A.A.A.A.A.A.A.A.F.F.j.5.3.9.7.H C j j v v F E W E E Q o.+.E Q +.{.].}.-XSXpXpXpX1X<XpXpXfXpXrX<X2XfXfX2XfX2XfXfXfX2X2XfX<X1X-X<XlXfXQ . . . . . # X % % % X . . X + + O + 5 5 5 5 e i u u N V N V A 3.6.1.3.a y p p r p p >.h.V.C.v.7.J % # # # $ & & % q 3 3 7 0 3 5 8.$X9.8 2 7 7 6 3 + % ; = $ # # ; 7.9.W.E.A.C.l.l.g.l.l.n.n.n.j.C.F.C.C.C.A.A.A.A.A.A.A.C.C.q.q.5.5.3.3.C B B D F v b b b Q ..R > # # % % l b  XlXjXsXGXHXnXnXHXLXbXyXwXwXtXaXtXwX#X#X,XuXKXFXyXBXCXnXhXhXrX@X[.(.}.*XfXfX{.; . # % - % + .       @ O 4 4 4 4 4 y ",
"n.l.d.2.5.5.5.5.5.5.3.7.7.x././.G c : : > > Y > Y R Q {.2XlXfX|.].X.W }.aXSXNXjXNXhXhXCXHXLXGXKXJXKXKXJXKXLXyX9XwXGXHXnXZXZXsXrXNXaX*Xo.E E b z l c c : : - ; % - l l l g k j B B B B B B C K C K C C 3.3.3.j.j.j.j.F.v.j.:.s s s y./ p / k.L.L.XX.X(.c > < = I = U - 5 0 6 8 7 o C G.M 8 =.=.-.7 5 q l , = $ = > c /..XXXP.H.Y.s.f.n.g.d.g.g.Z j.H.H.H.L.I.F.G.F.F.G.b.b.9.7.H H H K F D F G G G b n R ..{.2XzX1X&X X X@X<XnXGXHXHXHXHXKXKXKXKXKXGXCXbXhXhXhXhXKXCXBXCXBXhXhXjXHXCXNXjX>XjXZX[.*X*Xo.l : : - g g g k k e 5 + + e e e e e i i i u a V 1.6.6.4.5.5.5.V.C.u.s p p s p s s f d j.h.v.v.J c > = = = = < : k o 1 7 8 1 9 G.9 3 8 8 7 3 5 : < = = = > z H b.v.C.Z.V.u.s.g.g.g.g.l.h.2.C.L.A.C.S.S.A.A.A.A.A.C.C.C.j.5.5.7.3.3.6.C C B M j B D b b b T T Q +.+.Q o.-XjXdXdXpX,X1X2XpX2XfXfXpX2XpXfXfXfX2XfXfX2X2X2XfXfX1X<X2XzXlX2Xo.- .   X X X % # . . . . @ O O O O 5 e e e i i i i u a V V V V C Z 2.:.s p p p p p p >.D.C.q.F.0.K % # $ $ & & & - 0 0 3 0 3 o M OX#X`.M 1 6 7 7 6 0 k ; # $ $ # ; B G.K.A.W.S.l.l.g.g.g.g.l.l.n.v.j.C.C.A.A.A.C.A.A.A.A.A.C.q.5.5.5.3.3.3.A C C C B j D G T Q ! c > - % % b *XVXZXwXBXKXHXBXBXCXCXyXtXtXsXsXtXtXsX#XiXwXwXvXGXCXNXSXaXkXjX,X).o.].eXpXVXAXpX).l % % +     @ o o o 3 4 4 4 4 4 w w ",
"l.g.s.2.5.j.F.5.C.5.5.9.z.x.x.8.G b l l : U Y Y Y Y Y R ! +.+.o.X.X.}.sXHXCXNXHXGXCXCXFXmXbXvXmXKXKXKXJXKXPXuXwXBXKXCXyXyXjXNXNXjXrX).g % - z : l : : - ; % ; ; - - g g g j B B B C C C C C H H H H 3.3.3.h.j.j.j.v.F.j.s.:.s s s u./ p u.Z.L.P.XX'.E , < P = Y < , % 5 7 7 7 3 5 r.OX8.9 8 *.=.8 4 5 k l = $ $ $ > F '..XP.H.R.h.j.n.l.g.c.n.s.j.H.L.H.L.H.F.G.F.F.F.F.v.v.7.7.7.H H K D D K F X.b n T R , ..;X;X&X{. XkXZXNXKXKXKXKXKXKXKXKXKXKXHXCXbXhXhXhXhXGXCXBXnXhXsXsXhXHXZXVXjX0X0X>XE o.R - % ; ; - l - ; * + + 5 5 e w w e e i i i i a a >.1.6.4.5.5.5.5.V.C.u.s p p s f s d f :.j.j.v.z.G , < = = = < ; ; 5 o 2 7 6 1 6._.B 4 8 7 7 2 5 g < = = P > l K x.v.C.S.D.u.s.f.c.c.g.l.h.:.C.K.A.A.S.S.A.A.A.A.A.C.C.C.j.j.9.9.3.3.6.6.1.C C N B B v v b T R U T R R {.zXVXpXpXqX<X<X<X2X2X2X2X2X2X2X2X2X2X2X2X2X2X2X<X2X2X<X<XfXfX1X X]. Xb .   . X X . .     @ @ O O 4 4 w w y y i i i i a a V V V C 6.2.2.:.s p p p p p p >.D.D.V.F.b.J % & $ $ & & % q 0 3 3 0 3 0 8.+X+X[.L 0 2 7 *.6 3 q ; # $ $ # < g 0.I.A.S.A.Z.Z.l.g.g.g.g.g.l.n.v.F.K.K.K.K.F.K.A.A.A.A.A.C.5.5.5.5.3.3.3.2.1.Z V B B D T Q ! R R : % z +XdXdX0XyXmXKXGXmXmXFXKXsXwXtXNXbXtX9XtX9X9X9XwXBXGXbXsXjXeXeX<X|.].|.@XaXjXVXVXVXrXX.+ .       o o 3 3 3 4 4 5 4 w e e ",
"l.g.s.2.j.v.F.F.F.F.v.v.v.z.7.H F b b c c c > > > > > - - : l z v (.0XHXHXCXCXKXHXHXHXLXMXuXuXvXKXKXKXKXKXPXMXCXHXGXNXyX0XsXNXNXNX0X(.l % % - - % % # % % ; ; - ; - k k j j B C C C C C C A 7.7.H 7.3.3.5.j.j.j.j.F.F.j.s.d / y.y.u.s s h.S.L.I.XX'.b > < = Y Y U l + 0 7 7 7 1 K }.=X`.M 8 *.=.=.3 o + : > $ $ $ > z '.XXP.H.R.l.l.l.l.g.n.n.d.j.H.L.L.L.H.F.H.F.F.F.F.F.v.z.7.7.7.H K K D D D F F G b c R c , +.+.+.*XAXHXmXCXFXLXKXKXKXGXKXKXKXHXCXbXbXhXhXhXGXGXCXnXhXhXjXjXZXHXVXaX>X@Xo.+ - % # % ; ; - - + + O O O 4 e e e e e i i i i a a a >.1.4.4.5.5.5.5.C.h.u.s p p s f d d d s.l.j.v.7.n , < P P = , ; + @ o 3 3 1 0 `.[.` 5 8 7 *.7 0 k > = = P Y : D 8.v.F.A.D.h.s.d.g.g.c.l.f.:.h.S.S.A.S.S.A.A.A.A.A.A.C.C.j.j.9.9.5.3.6.6.6.6.6.B j j j l l l R , > : E -XlXSXaXqX<X<XrX2X<X1X<X2X2X2X<X<X2X<X<X<X2X2X2X-X<X2XfXpXfX1X[.o.*XlX1Xz .     .         @ O O 4 e w w e y i i i i i a >.1.1.6.6.3.2.2.:.p p p p p p s :.D.C.C.G.b.F % & $ $ # # % % 0 2 6 7 3 q `.|. X|.r.5 2 6 7 7 3 5 - # $ $ # < - 7.F.K.A.A.V.Z.k.g.g.g.g.g.l.n.F.F.K.K.K.K.K.K.A.A.A.A.A.C.5.5.5.5.5.5.3.3.3.3.V C B v T Q ! ! R : z [.jXBXjXaXnXFXKXGXmXMXBXKXvXtXsXGXCXwX9XwXwXiX9XyXCXnXyXyXeX>X=X+X}.+X2XkXjXHXHXjXkXzX=Xo.+     o o o 0 4 4 4 9 9 e e e e ",
"N.l.g.d.j.F.F.C.K.F.F.v.v.9.7.H K F F F v z l : : c z : : z l - F #XZXGXnXHXKXCXHXHXHXKXPXvXMXmXKXKXKXKXKXmXbXLXHXnXhXsXyXNXAXjXqX@X}.+X].b l l # # # % ; ; ; ; - g g j j B B C C A A A 3.3.3.7.7.3.3.5.j.j.j.F.F.F.F.j.:.:.y.y.y.u.s s k.L.W.I.XX`.l > < = Y > R g @ 3 7 7 3 3 8.}.*X+X7.9 8 =.=.7 3 + l > $ $ = # l /.oXJ.H.R.Z.l.l.l.g.l.n.j.j.H.L.L.P.L.G.H.F.F.F.F.F.v.v.v.9.7.8.H H K D D v b b l b Q T > R - o.lXVXNXFXgXbXFXKXKXLXFXLXKXHXHXFXCXBXnXbXbXGXHXGXnXjXnXNXNXNXHXaX+X+X@X(.% X . % ; ; ; - + X X O O 4 4 w w e e i i i i a a a >.1.1.4.4.5.5.5.C.C.h.u.s p s s s s d 2.h.j.j.v.H v , = P P = , ; @ o 1 3 3 o j  X+.O.m 3 7 =.7 3 5 : < = = Y : v K v.F.A.S.D.s.f.g.g.g.g.g.s.4.C.S.A.S.A.A.E.A.A.A.A.C.C.C.j.j.9.5.5.5.6.6.6.C C C B j g - - R R ; : &XzXzXlXjXqX<XpXfX2X1X<X2X2X2X2X2X<X<X<X<X<X<X2X2X<X2XfXfX2X1X{.].*XdXAXlX>XW .   . .     o O O 5 4 e e e i i i i i i a >.1.6.6.3.3.3.2.2.d p p p p p p s h.D.A.C.G.'.D & $ $ $ # # % % 0 6 7 7 1 h }. X@. X(.q 3 6 7 7 3 5 k ; # # # < % B F.K.A.A.V.Z.k.g.g.g.g.g.l.l.Z.F.K.K.K.K.K.K.A.A.A.A.A.C.C.C.C.j.5.5.5.5.5.3.C H B v E ..! Q c b ).rXZXNXNXHXHXHXKXHXnXuXbXGXbXsXbXBXNXtX9X0X9XuXyXsXbXsXyXjXeX=X|.}.+X<XlXZXZXZXAXSXkXrXpXdX`.+   o O 0 0 4 4 9 y y y y y i ",
"B.B.n.l.v.H.F.C.K.C.C.F.F.v.9.7.C K K D D v z z l z c c z z z b @XnXKXGXBXKXKXbXFXLXLXKXLXLXLXKXFXLXHXKXKXbXuXbXKXhXhXnXBXHXZXeX[.[.=XlXfX{.b z % # # ; - - % % - k j j N N N S A A A 3.3.3.3.3.3.3.5.j.j.v.F.F.F.H.H.j.:.y.t.t.u.:.s s Z.L.L.P.XX'.l > < = Y , c q 0 3 8 7 3 5 /. X X X/.5 8 =.=.7 3 5 z , = $ = # l /.oXP.L.L.H.l.l.l.g.l.n.l.j.H.L.L.P.P.G.H.F.F.F.F.F.v.v.v.v.z.8.8.H H K K K D j v z l b Q c c *XAXNXNXKXbXMXPXKXKXFXmXBXFXGXHXKXKXKXGXCXmXCXHXGXnXnXBXNXjXNXNX@X[.=XrX=Xo.- . . % - - % .   O O e w w y y y y i i u a a a >.1.1.4.4.4.q.q.q.C.C.h.:.s p s s s s d s.j.h.j.v.H l > = P P = : % o o 1 3 3 @ Q $. ...8.3 7 =.7 3 5 g , = = > > l D z.C.A.S.D.h.g.g.g.g.g.g.g.2.C.S.A.S.A.A.E.A.A.S.A.A.C.C.C.j.5.5.5.5.6.6.6.V C H D v g l l R R R +.<XzXlXzXVXpX<XfXfX2X<X2X2XfXfXrXrX2X2X2X2X<X<X2XfX2XfXfX<X*X[.].*XkXSXSXVXHXaXD       @ o O O 5 5 5 e e i i i i i i a a 1.1.6.6.6.3.5.2.u.s p p p p p p s h.D.S.C.F.x.l # $ $ $ # # - + 3 6 7 7 1 h  X@.@.@.X.5 3 7 7 7 2 0 q ; # # # # % h G.K.A.E.D.S.l.l.g.g.g.g.g.l.Z.Z.K.K.A.A.A.A.A.A.A.A.A.C.C.C.C.C.5.5.5.5.5.3.A H D F o.+.Q Q T o.*XkXAXBXNXNXHXHXHXGXMXyXvXFXbXnXbXIXaXaXtX9X9XyXsXwXaXhXhXjXeX+X[.@X0XkXlXSXVXeXqXlXZXlXkXjXhX`.+ o O 5 4 9 8 y y y y y i y ",
"B.B.n.n.H.H.L.K.C.C.C.C.C.j.5.9.7.7.H C C B D v v l v F v l W *XbXCXKXKXKXnXIXuXLXLXKXLXLXLXLXJXMXmXmXCXHXnXbXCXHXBXCXKXHXbX=X`.}.>XlXZXjX>X].b l % # % - : : : ; k j B B N S Z A A 3.3.3.3.3.3.5.5.j.v.v.F.F.F.F.H.F.h.:.y.t.^ u.:.s :.Z.L.L.I..X/., > < = P U b q 0 7 8 8 3 5 `. X@. X(.5 8 8 =.=.8 5 z , = $ = = : J XXP.P.P.R.l.l.Y.N.l.B.n.h.H.L.L.P.P.G.J.I.K.F.F.F.F.b.b.z.z.7.8.7.H H H K D D v j g l z b *XzXjXSXGXFXPXFXLXKXKXFXmXMXnXGXHXKXKXKXKXFXCXCXGXGXCXZXBXjXyXqX9X+X<XlXjXrX*X}.: X % g ; X   . O O 4 w w y y y i i i a a a >.1.1.2.4.4.5.q.q.q.C.C.h.:.p p s s s s d h.j.j.v.v.K : < = P P > l q 3 1 3 1 3 5 +.#.[ @.`.3 7 *.*.7 0 k > = $ = > : v z.F.A.A.S.Z.l.g.g.g.g.g.n.2.Z.S.S.S.S.A.E.S.S.S.A.A.A.C.C.j.j.5.5.5.5.5.6.3.3.H D v F E E T c &XzX1XfXAXzXlXpXqXfXfXfX2XfXfXfXpXfXpXpXfXfX2X2X<X2XfXfX2X<X*X{.].1XkXlXSXAXZXZXKX9XK     O O O 4 4 5 w e y i i i i a a a >.1.1.4.6.5.5.5.s.u.s p p p p p p s h.V.Z.F.v./.g # $ $ $ # # : + 2 6 7 7 3 e ].@.@.@.F + 3 7 7 7 7 0 q - # # # # % k b.K.A.E.D.S.h.l.g.g.g.g.l.l.Z.Z.A.K.A.A.A.A.A.A.A.A.A.A.A.C.C.C.C.j.5.5.5.5.7.H K W +.+.Q Q ..&XpXVXZXZXNXsXFXLXLXCXbXhXnXGXNXFXBXwXqXaXaXqX0XyXwX9XsXNXaX>X+X).[.<XjXVXSXSXaX0X=X0XkXSXNXjXmXIXx.O o 4 4 9 y y y y i i y y ",
"l.l.l.l.H.H.L.K.A.A.A.C.C.C.C.5.9.5.3.3.C C B B D x v v F W *XVXnXMXCXKXGXIXtXuXLXKXKXFXmXMXMXmXbXbXyXuXnXCXCXHXCXHXKXKXBX>X[.).tXZXHXVXjXdX>X[.E l % % : l c b j j j B N N C Z A 3.3.3.d.d.3.d.j.j.j.v.F.F.G.G.G.H.j.:.:.y.t.t.y.:.s u.S.W.L.I..XW , = I I P U E q 0 7 =.=.3 e `. X@. X(.5 8 7 =.=.7 5 g > = = = = : G _.XXP.P.T.Z.l.Y.N.N.N.N.s.H.L.L.P.P.I.J.H.H.H.F.F.F.v.v.v.v.z.7.7.H H H C K K D D D z - [.lXAXkXCXHXbXmXKXKXKXKXLXFXFXFXHXKXKXKXKXHXFXCXCXBXCXHXHXnXwX,X@X>XqXlXAXVXaX@XpX}.v ; - ; X @ O O O 4 w y y y y i i a a >.:.:.1.2.4.4.4.5.q.q.C.C.C.h.s p p s s s d 2.l.j.h.n.x.D , < = P = , z 5 1 2 7 1 1 k @.{ [ @./.9 7 *.*.7 0 5 > = = = > > x 7.F.A.A.E.A.Z.c.c.g.g.g.B.h.S.S.S.S.S.A.E.E.E.S.A.A.A.A.C.C.C.C.j.5.5.5.5.3.3.C D F X.o...Q ..2XlX<X2XlXfXfXpX<XrXfX2XfXfXzXfXfXfXfXfXfXfXfXfXfX2XfXfX-X|.|. X*XkXSXSXSXHXGXbXFXKXiXj   O O 4 5 w w y y i i i a a a a a 1.1.6.4.5.5.5.5.h.i.s p p p p p p s Z.h.C.C.v.'.- # $ $ $ $ & : @ 3 7 7 7 2 5 X. X X+.j @ 3 7 7 *.7 0 q g # # = # ; % 9.I.q.E.D.S.V.k.l.g.g.l.l.l.Z.H.K.K.A.A.A.A.A.A.A.A.A.A.A.A.C.C.C.C.5.q.5.5.7.H J (.o.+.....{.qXAXGXNXBXZXZXGXHXFXbXhXMXFXKXCXCXbXtXqXtXtXqX0XwXwXtXbXsX=X}.X.).=XkXjXlXSXVXqXqXqX<X0XaXNXAXnXJXiXC O 4 5 e y y y y y i i s ",
"g.g.g.g.v.H.F.C.S.A.C.V.C.C.C.C.5.5.5.5.3.3.V N m B B g F =XVXVXsXmXKXKXFXmXPXFXFXKXKXPXIXuXuXuXCXnXwX,XwXhXhXnXHXKXGXhXwX@X@XwXNXZXGXNXNXNXkXpX{.E : - l l b T G D B B B C A C A 3.3.3.d.d.7.d.j.j.j.F.F.G.G.G.J.H.j.d s y.t.t.u.:.>.u.L.L.L.P..XF , < I U = U r.9 0 7 =.=.3 9 '.|.{.|./.5 9 =.=.=.7 0 g > = = = = : G '.XXQ.P.L.h.l.Y.B.l.N.l.s.Z.L.L.P.P.I.J.P.H.H.F.F.F.F.v.b.v.v.7.7.7.7.7.7.C K J D k v (.NXNXHXHXFXCXFXmXKXKXKXKXKXKXKXKXKXKXKXHXGXCXCXCXnXhXbXZXZXsX=XOX@XjXlXaXaXZXHX<X>XaX}.; X - - + @ O 5 e y y y y i i i a >.>.2.1.2.4.4.4.5.5.q.V.V.C.Z.u.s p p s s ( d 2.Z.j.j.G.x.b , < = P = , z 0 2 6 7 1 o k @.{ [ @.L 9 7 *.*.7 3 @ # = P = < < l H F.A.E.E.D.C.n.c.c._ g.B.j.H.Z.Z.S.S.S.E.E.E.S.S.A.A.A.C.C.C.C.C.q.5.5.5.3.A B D J o.o.....1X2X1XzXpX-XfX<X<X<X2X2XfXfXfXzXdXfXfXrXfXfXfXfXfXfXfXfXfX-X). X1XpXlXSXAXAXCXCXMXmXDXLX#X5   O 4 w w y y i i i i a a a a 1.1.4.4.4.5.5.5.4.h.i.s p p p p p p d H.h.C.j.z.'.- # = $ $ $ # : @ 7 7 7 7 2 3 H +X@Xo.k 3 2 7 *.*.*.0 q k # # = # ; % 8.F.q.E.D.A.V.l.l.l.g.l.l.l.Z.Z.K.L.K.A.A.A.A.A.A.A.A.A.A.A.A.A.C.C.C.5.5.9.7.K /.].o...+.+.<XlXHXZXnXBXZXZXHXKXHXvXyXbXGXKXFXBXbXsXtXqX9XqX9XqXyXbXbX>X[.).X.+XkXSXkXaXkXyXqXwXaXjXkXyXkXBXLXPXPX$Xu O 5 e y y y y i i f a ",
"B.B.n.n.j.v.C.A.A.A.S.S.A.A.C.q.K.q.5.5.4.1.V A C A k h OXnXZXZXbXFXKXKXKXKXKXGXLXPXLXFXvXvXmXFXGXjXhXnXsX9XeXZXNXHXNX=XOX,XjXZXNXZXHXHXNXlXjXlX<X].b l l l c E G F D D B C C A A 3.3.3.7.7.z.j.C.j.j.F.J.G.G.G.J.v.d s u.i.t.y.i.>.>.Z.L.L.L.XX%Xb , = I I I U W 9 3 7 *.=.3 3 K }.|.+X0.0 7 =.*.=.7 0 % > P = = < > W `..XQ.K.P.Z.d H.l.l.B.N.s.j.H.P.L.K.K.P.P.H.H.H.F.F.G.G.b.b.v.v.7.7.7.7.7.8.K K 8.j K vXKXNXbXCXFXKXKXLXKXKXKXKXKXKXKXKXKXHXKXKXGXFXGXCXCXnXnXCXsX#XOX@XNXZX0XwXVXlXZXSXkX,X,X).; + g ; + + 5 e y y y i i i a >.>.>.>.4.4.4.4.q.4.q.V.V.C.C.h.:.p p s / / s d h.Z.j.C.v.x.n > < = P P > j 0 6 6 6 2 3 +  .#. .@.D 3 8 *.*.7 3 5 - = P = = < : K F.A.E.E.W.C.n.n._ _ c.g.j.4.R.Z.!.S.A.E.E.E.S.S.A.A.A.A.C.C.C.C.C.j.5.5.3.7.K K ).).o.].1X1X1X2X<X<X<X<X2X<X<X<XfXfXfXfXfXfXfXfXrXrXfXzXlXfXfXfXfX*X|.*X*XrXlXAXZXZXBXnXFXmXLXFXDXDXoXo O i 4 w i w i i a a a a >.1.1.1.4.5.5.4.5.j.j.h.:.s p p p p p s :.j.j.C.v.b.8.- # $ $ $ $ > - @ 3 6 7 6 2 1 9 XX#X'.0 1 7 7 *.*.7 7 0 g # # $ = # % C G.K.A.E.D.C.l.l.l.l.l.l.l.f.Z.L.L.S.A.S.L.A.S.S.S.A.A.A.A.A.A.C.C.C.F.5.3.H X.[.[.o...{.*XVXNXBXBXGXGXGXZXHXHXmXhXhXnXHXKXKXBXIXtX9XqXwX9X0XwXtXsXeX+X).}.>XdXNXkXyXaXeX>X=XwXjXNXjXsXkXhXCXMXDXxXx.e 5 e i y y y a f i >.",
"N.B.c.n.n.C.C.A.A.S.S.S.A.A.C.q.q.q.q.C.5.5.2.3.A A C '.tXGXGXKXGXKXKXKXKXKXKXLXKXFXKXKXmXmXLXHXKXsX0XyXdXeXsXHXGXsX>X#X9XsXNXCXBXGXHXGXBXjXjXkXkX@XO.v l l z b E G F D D B C C 3.3.7.7.7.7.z.v.j.j.C.H.G.F.G.J.P.h.f s y.y.^ y.:.>.4.S.!.L.P.XX_.n , = I I P U K 9 7 7 7 8 7 3 h `.#X`.w.7 *.=.*.=.7 0 % > Y P = < : W `..XP.K.!.Z.a s.n.g.g.B.f.h.Z.L.T.L.H.H.J.J.H.H.H.G.G.F.b.v.v.v.z.7.7.7.3.8.7.K K J $XmXGXbXhXbXbXLXKXKXKXKXKXKXKXKXKXKXKXFXHXHXCXFXKXGXCXCXnXtX=X+X,XhXNXAXeX>XdXVXSXSXNXyX>X+XW g ; j k e 5 e i i y y a a >.>.>.>.>.>.4.4.4.q.q.q.V.V.C.V.h.:.s s s s / s d h.l.j.C.v.` c > = = P Y : q 3 2 6 6 2 1 @ +.$. .+.M 8 7 *.*.7 3 5 - < P P = < ; B F.K.E.E.E.V.l.n.c.` c.c.j.2.H.H.C.S.W.S.S.S.S.S.A.A.A.A.A.A.C.C.C.j.5.5.3.7.H J ).(.o.|.1X1X<X<X<X-X<XfX<X<X<X<XfXfXzXfXzXzXfXfXfXfXfXzXlXlXzX2X*X|.*X<XqXkXZXAXAXSXnXhXbXMXFXDXDXKXiXH o w e 4 i i y i a a a a >.1.1.1.4.5.5.4.5.j.h.s.s p p p p p s s s.l.j.C.v.b.x.- # $ = $ $ > % @ 1 2 7 7 6 2 0 0.XX0.0 2 7 7 *.*.7 7 0 k & # # $ # % B G.K.A.E.A.A.Z.l.l.l.l.l.l.l.l.C.S.S.S.S.C.C.C.A.S.S.A.A.A.A.A.C.C.F.F.j.9.J (.[.].o.+.&XrXVXBXnXbXPXGXKXGXHXGXmXbXMXCXKXKXKXbXsXtX9XqXwX0XtXeXeXeX>XOX[.@XsXjXjXaXrXyXeXwX,XwXsXCXAXCXjXyXbXKXMXiX5X7.5 4 i i y y i ;.a >.",
"g.B.B.n.n.F.K.L.L.S.S.A.A.A.C.C.q.C.A.C.5.5.3.6.V C b.9XLXKXGXKXKXGXCXPXGXKXKXFXmXbXFXKXFXFXKXKXHXNXdXeX<X>XeXjXjX=X+X9XnXCXCXCXGXGXHXHXGXCXnXjXZXrX|.E v l z c E E G F D K K C 3.7.7.7.v.z.v.v.C.Z.H.F.v.v.G.J.J.d f s u.y.y.u.>.:.V.L.Q.Q.P.XX'.n , I I I P R L 0 7 7 7 7 7 8 0 0.5Xb.9 7 *.=.*.*.7 0 % , Y Y = = > W `..XP.P.P.L.a f Y.g.f.N.l.h.h.H.T.T.P.H.J.J.J.J.J.G.G.F.b.b.b.v.v.9.7.7.7.8.8.K K $XPXBXGXBXnXhXuXCXKXLXKXKXKXKXLXLXFXFXCXmXCXbXbXFXKXHXGXsX,X@X@X9XnXHXAXAXjX=X0XVXlXlXSXBXwX<X=XG % D D h e 5 e i i i >.>.>.>.>.>.>.>.4.4.4.q.h.V.V.V.C.h.u.:.s ^ / s / s d h.j.j.j.v.J c < = P P Y : q 1 6 6 6 2 1 o z ;X+.G 0 8 7 =.=.8 7 5 - < = = = < ; j v.W.E.E.A.V.d.g.c.g._ c.n.Z 2.T.C.C.!.A.S.S.S.A.S.A.A.A.A.A.C.C.C.j.5.5.7.H 8.'.(.o.{.1X<X1X<X-X-X-X<XfX<X<X<X2XfXpXzXzXlXlXzXfXfXfXfXlXlXlXrX*X[.|.-XpXjXZXHXHXAXCXnXhXvXbXFXFXmXKXJX7X5 O e e i a i i a a >.>.1.1.1.1.4.4.5.5.j.j.s.d p p s s s s :.d j.F.C.F.v.b./.l # $ = = = > % @ o 2 7 7 6 6 3 q 0.q 1 2 7 6 *.*.7 7 0 k % # # $ # % B b.F.A.E.A.S.Z.l.l.g.l.n.n.l.j.j.C.H.L.Z.C.C.K.K.A.S.S.S.A.A.A.A.C.F.F.v.z./.].[.].+.{.<XlXNXnXMXMXPXKXKXGXGXLXmXbXmXGXKXGXGXIXtXtX0XqXqXqXsXaXqX#X}.}.=XwXCXNXkXrXwXwXeXyX0XwXtXnXHXHXnXwXbXFXuXuXDX5Xm 4 i i i y i a >.>.",
"g.B.B.B.n.C.K.L.L.S.S.A.A.A.C.C.C.A.A.q.5.5.5.3.V 7.$XPXKXGXGXGXGXFXmXmXFXKXGXBXuXuXvXFXFXGXKXHXNXHXAXdX0XqXqX,X=X#X9XnXHXCXnXCXFXBXNXBXGXHXGXSXAXlX<X].E c z c T E W G K K K H 7.7.7.v.v.v.v.v.Z.H.H.F.v.J.J.J.3.f f u.u.u.u.u.a 4.Z.L.L.P.P..X/.c U I I I P R L 0 7 7 7 *.7 8 3 M G.w.7 =.*.*.=.=.7 O % > Y P = < > E `..XXXP.F.P.j.e s.g.B.f.N.l.j.Z.P.T.P.H.J.J.J.G.G.G.G.G.b.b.b.b.v.v.9.7.9.8.7.H `.IXKXmXFXFXCXhXuXmXKXLXKXKXLXLXLXFXFXFXbXbXbXhXhXCXKXFXCX=X`.OXeXZXHXSXHXNXjX>X0XVXaXdXCXAXkXaXaX[.v v D D h e e i a a >.>.>.>.>.4.4.4.4.4.4.V.V.V.C.V.Z.h.u.>.s ^ ^ / / d :.j.j.j.C.v.G , < = P P , : q 1 2 6 6 6 2 1 + |.[.k 1 8 =.*.*.7 7 0 - > = = = < ; j F.W.E.E.E.V.d Z c.c._ B.n.Z i T.L.C.L.S.S.S.S.S.A.A.A.C.A.A.C.C.C.j.5.3.7.H /.(.W o.*XfX<X-X-X-X-X-X<X2X<X<X2XfXfXfXdXkXVXlXzXfXrXfXlXlXlXrX*X{.|.=XpXjXZXHXHXHXHXHXCXbXnXmXHXLXmXLXKXDXXXO 4 u e i a i a >.>.1.1.2.6.2.4.5.5.5.h.d.s.d s s s s s :.:.2.j.H.C.F.v.b./.l # $ = = = > % @ o 2 7 6 6 7 1 5 M q 1 2 7 7 *.*.7 7 0 k % # # $ # % D b.F.A.E.A.A.C.Z.l.g.l.n.B.g.j.h.j.Z.H.H.Z.K.K.K.K.K.L.S.S.S.A.C.F.F.v.v.b.`.[.{.].].-XzXZXbXbXMXMXFXKXKXGXBXmXmXmXFXKXKXGXGXsXtXtX9XUX0XtXNXaX=X}.[.=XjXCXZXjXeXwXwXwXeXhXyXtXeXsXbXnXhXyXvXuXuXDXDXxX.Xe e i i i i a >.>.",
"N.B.Y.B.n.F.H.L.L.S.A.A.A.C.C.C.C.A.C.C.F.F.F.9.9.oXcXKXKXGXKXGXKXGXCXFXGXGXCXnXbXyXvXFXGXGXHXCXVXVXlXNXVXlX<X}.#XwXBXKXHXCXBXFXnXbXsXsXnXFXGXAXSXAXlX,Xo.b v v b E W W J K H H 7.7.v.v.v.v.v.v.j.Z.F.F.J.J.m.d.w t d u.( u.s.d a j.L.L.L.L.P.J./.c I I I I Y ! L 0 3 7 *.=.7 7 3 3 M 9 7 =.*.*.=.=.8 O % > Y P P < > E `..XXXP.G.J.J.u f _ B.g.N.l.l.l.H.H.H.J.J.J.J.G.G.G.J.J.b.b.b.b.v.v.v.9.x.7.H '.iXKXLXmXsXMXnXhXyXBXKXKXKXKXKXLXLXLXHXKXmXbXbXbXnXCXFXhX9XOXOXwXHXHXnXsXHXaXdXeXaXNXeXaXhXnXnXaXpXqX[.v F K D m e e u a >.>.>.>.:.4.4.4.4.4.h.V.V.V.V.C.Z.h.:.s ^ / y./ / d s.h.j.j.C.v.G , < P P P > : 5 o 2 6 6 7 6 3 @ r.'.5 7 8 =.7 7 7 7 0 - > = = = = - B F.W.E.E.E.C.d Z n.n.g.n.n.d.w 2.H.L.S.L.L.K.S.S.L.K.A.A.A.A.C.C.C.j.j.7.H x.'.X.W {.<XfX2X-X-X-X2X2X2X<X<X2XfXfXpXpXkXlXlXlXfX<XqXdXlXVXdX-X|.@X<XpXlXHXHXHXHXHXHXKXHXCXCXCXKXKXFXCXFXDXcXz.4 e i i 1.a >.>.>.1.2.4.4.4.4.j.j.3.2.2.2.( s s s s s :.s.j.j.H.j.F.v.b./.z > = = $ $ : % @ 1 2 7 6 7 3 o + L L 0 1 6 7 *.7 7 6 0 q % # # $ # % D b.F.A.S.A.A.C.C.j.g.n.c.n.n.g.j.j.j.l.l.F.K.K.K.L.L.L.S.S.K.K.F.F.v.v.v.b.[.{.{.].&X2XlXNXyXvXPXLXKXKXGXBXbXbXMXBXHXKXKXGXBXsXyXtX9X9XtXsXZX}.W }.qXNXAXZXjXeXwXeXyXwXwXyXyXyXyXsXyXtXtXtXtXwXvXFXDXMX5Xx.e y i a a a >.>.",
"B.B.B.Y.H.H.H.L.L.S.A.C.C.C.F.C.C.A.C.K.F.F.9.7.oXxXKXKXKXKXKXHXKXGXGXGXFXnXvXhXHXnXCXHXHXAXmXhXjXrXaXZXVX0X@X*XaXNXHXGXCXGXFXCXBXbXyXsXbXCXHXHXCXHXAXdX|.X.b c b E W X.X.` H H 7.7.v.v.v.v.v.F.C.Z.H.J.J.v.V e w f s.u.( u.s.d 4.C.P.L.P.Q.P..X/.c I I P I Y ! j 0 3 7 *.=.7 7 3 1 3 3 7 =.=.*.*.8 8 O % > Y P Y > > X.`.J.P.P.XXG.J.3.t d g.B.N.B.Z.l.j.F.H.J.J.J.J.G.G.J.J.J.b.b.b.b.v.v.b.b.x.H x.5XKXKXmXLXbXnXCXBXbXFXKXKXLXLXLXFXLXGXHXKXFXbXbXCXCXmXyX,X(.OXtXHXKXNXjXCXZXqXqXdXkXjXaXyX=XwXdX0X>XdX<XE F F J K m u u a >.>.>.>.>.4.4.V.4.q.V.V.h.V.V.C.V.:.>.s y./ / y./ u.h.j.j.j.C.z.G , = P P P > l + o 2 6 6 6 6 6 1 5 M 3 -.7 7 7 7 7 7 0 q : < = = = : K G.E.E.E.S.V.h.d.n.n.c.c.z.m.u e j.T.L.L.L.K.L.S.K.K.K.K.A.C.C.C.C.j.j.z.7.'.(.W o.-X2XfX2X-X-X2XfXfX2X<X<X2XfXfXpXkXlXSXlXfX2X-XqXlXlXlX-X|.+X<XdXdXlXHXHXKXHXGXGXHXHXCXCXCXHXHXHXGXCXFXDXcXV O u a V V >.>.1.2.4.4.4.2.4.j.j.2.a a d d s f f s d 2.j.v.j.F.j.F.v.b./.z > = $ $ $ : k @ 1 6 7 7 3 1   + o.X.q o 1 6 7 7 7 7 0 q % & # $ # % D b.v.C.A.D.A.A.C.j.l.c.c.c.n.n.n.l.j.j.j.j.F.K.K.K.L.L.L.L.K.K.F.F.v.v.b._.}.{.].|.<XfXkXaXtXMXLXJXKXGXGXBXIXbXmXFXKXKXKXFXbXyXyXtXqXwXsXdXqXg % }.GXHXnXaXwX0X0XeXyXeXwXwXwXgXbXnXhXtXeXtX9XNXMXIXLXvX5X7XV e i a a >.>.>.",
"B.B.B.B.H.H.H.L.L.S.S.S.K.K.F.F.S.C.C.K.F.5.9.b.iXJXKXFXKXKXCXCXFXGXKXKXBXhXhXnXKXnXnXCXCXjXhX0XqX<XrXaX>X+X=XkXZXAXZXNXmXCXCXBXCXbXvXvXmXGXKXHXAXAXAXSX<X{.E b b b E X.X.` ` H 3.d.v.v.v.v.v.F.H.H.H.F.v.V u e f _ f.s.s.s.s.d.H.H.L.L.Q.Q.P..XX., I I I I Y R q 0 3 7 7 =.7 7 7 9 0 0 8 8 =.=.*.8 3 @ % > Y Y Y > : X.`.m.J.P.XXG.G.M.A S t g.g.N.Y.Z.l.n.H.H.J.J.J.J.J.J.m.m.b.b.b.b.b.b.b.b.8.x.$XPXKXJXKXJXKXHXKXHXBXCXKXKXFXFXPXPXBXFXFXFXKXbXbXHXHXhX#X`.(.=XBXHXCXBXAXHXjXeXqXaXrXrXkXrX+X,XwX>X=XrXqX|.W G J ` H N u a >.>.>.>.4.4.4.q.4.q.V.V.V.V.V.C.h.:.>.y.y.y./ / / u.h.j.j.j.F.x.n , > Y P Y > l + o 1 2 6 7 6 6 1 1 9 3 8 =.7 7 7 7 7 0 q - > > = = l K G.E.E.E.A.C.F.j.d.d.n.c.n.m.z.f d.H.C.K.L.L.L.K.K.K.K.K.C.C.C.C.C.j.v.z.b.`.(.X.&X2X2X2X2X<X2XfXfXfXfXfX2XfXfXfXzXlXSXSXlXfX<X-XqXdXfX<X}.|.=XfXlXjXjXSXHXKXKXFXCXFXGXCXCXCXCXCXHXHXSXLXDXJX7Xu u V a V 1.1.1.2.4.4.4.2.2.d.d.Z a f f s f s s d s.d.v.F.v.F.C.F.F.b./.z & $ $ $ & : - @ 2 6 7 7 2 o @ :  X XF 5 1 1 7 7 7 7 0 q % & # $ & % v b.v.C.S.D.A.K.F.j.l.g.g.c.n.n.n.n.n.l.d.d.F.K.K.K.K.K.S.S.L.C.F.H.v.v.m.OX}.{.{.-XfXlXdXaXsXPXJXJXFXFXGXGXvXmXFXHXKXKXGXFXIXyXtX9XqXtXwX=XW . X [.jXNXjX0X0X0XwXyXyXwX0X9XwXyXbXCXmXhXaXtX9XCXPXMXFXIX9XxXXXu i a a a 1.;.",
"B.B.B.n.H.H.H.L.L.L.K.K.L.L.K.K.L.C.C.F.F.9..X5XcXKXJXmXKXKXnXCXBXGXKXKXCXbXBXKXCXyXyXkXkXyX0X*X1X<X>X+X|.>XNXHXZXCXBXnXbXbXbXmXbXbXvXbXCXHXKXHXHXZXSXHXjX*Xo.E b b E X.X.X.` H H 7.v.v.v.v.v.v.C.j.j.j.V u V d.s.f._ ( _ Z S m.J.J.H.J.P.P..XXXX., I I I I Y R 5 3 8 7 *.*.7 7 0 M h 5 9 7 =.=.*.8 3 o X > Y P I < > O.%Xm.J.J.b.XX.Xm.M.c.e S f.l.Y.H.n.n.n.M.b.m.J..XJ.J.G.v.m.b.b.b.b.b.b.b.8.'.cXKXPXPXKXHXKXCXFXGXBXCXKXKXLXGXFXFXFXCXFXFXHXyXhXHXHXwX[.G =XhXCXhXjXKXKXNXhXjXeXeX,X,XkX<X@X0XwXqX<X<X<XfX).W G x.x.C m N >.>.>.4.4.4.4.4.q.4.V.V.h.V.C.C.:.s s y.u.y./ s d s.j.j.j.j.C.b.T , < I P Y > : @ o 2 6 6 7 6 6 1 5 w.9 2 8 8 7 7 7 7 0 q - > > = < : D G.K.A.E.A.A.H.h.a Z n.n.J.d..Xm.v.1.2.F.H.H.K.K.K.K.K.K.A.C.C.C.C.v.z.z._.`./.).<XfX2X2X2XqXfXfXfXfXfXfXfXfXfXzXlXlXSXSXVXlXqX-XqXfX<X|.[.+X<XkXZXZXlXyXGXKXKXFXBXCXGXGXGXHXNXjXCXCXSXCXJXDXDX.Xe u V a 1.1.1.2.4.4.4.2.2.2.Z V a a f f f f d s.d.z.x.x.z.v.z.b.b.'./.z # $ $ $ & - % o 2 6 7 2 1 o + | $.$...l 5 o 2 7 7 6 3 q % # # $ # # z /.x.v.H.v.b.v.v.z.z.` ` ` c.n.n.H.H.n.c.d.F.F.K.K.S.A.A.A.A.C.F.G.b.b._.$X|.{. X<XzXlXdXaXvXFXJXFXMXBXGXKXbXCXKXKXKXKXGXCXIXtXqX9X9XeX=X).+ X l ).=XjXAXeXwXwXeXeXwXwX9X,XwXuXsXbXCXBXhXtXsXsXFXKXIXuXuXiX7X3.e a a a >.i ",
"Y.H.H.n.n.n.H.H.H.L.L.W.W.K.K.K.A.A.K.H.v.9.oXDXJXLXLXLXGXHXGXGXHXKXKXmXmXCXFXKXGXBXBXwX=X*X@X1X<X-X|.o.=XHXAXVXjXyXwXuXhXgXvXMXvXtXtXbXGXGXGXGXGXGXKXHXBXsX@XW W F b G O.o././.H b.v.5.F.F.j.j.j.3.i V v.3.3.2.s.Z Z N t x n G 8.b.x.M.'._.`.`...> I = I Y U T 5 o 7 =.*.*.7 1 k o.+.; @ 4 =.=.=.8 9 0 + : = I I = < n ).%Xm.m.`.'.`.)./.'.x.u t d l.l.n.M.M.` D H x.b.G.H.H.H.J.J.J.b.8.'._.8./.iXKXLXLXKXKXKXKXmXhXyXvXmXFXFXKXKXKXGXmXHXKXCXFXCXNXBXdXX.v <XlXaXHXHXnXmXKXmXMXiXwXyX0X0XpXrXeXwXdXjX>X@X=X<X=X(.G J x.x.K u V 1.1.1.2.4.4.4.4.4.V.C.V.h.:.s p s u.k.u.d s.Z d.d.j.j.j.j.C.v.T U = = = = < : + o 6 7 6 6 6 o   r.`.h 3 7 8 *.*.7 7 3 q : > = = < : G x.v.C.A.A.K.L.K.j.2.s.l.v.n.m.m.z.A V N d.J.H.H.K.K.L.K.A.L.C.F.G.9.7._.#X(.(.-XfX2X<X2XfXfXpXpXqXqXdXZXSXjXlXSXlXjXSXZXNXdXfXqXlXfXo.Q |.<XlXAXZXNXjXhXMXFXKXKXLXKXKXGXnXCXCXnXnXZXCXnXyXbXKXxXH u V a V 1.1.1.1.1.1.1.V N V V a f f f f Z z.M.` ` G n O.` G G W W T c # # # # # % % @ 3 7 6 2 o @ : $.#.{ #. .l @ 1 7 *.7 7 @ % # < = = < : n E G G G b b n n ' n n ` _ d.j.j.H.H.m.m.v.G.I.K.A.E.A.D.A.C.J.3.'.OX).,X+X}.=XkXdXyXdXkXnXGXGXnXvXnXBXCXMXmXGXKXKXFXBXnXtXwXeX=XqX9X+X% ; g v G X.=XNXKX0X9XwXwX,XrXeX=XwXsXhXhXnXZXCXbXsXbXKXKXFXsXwXiXcX7X4 5 2.y i >.",
"Z.Z.H.n.B.n.n.j.H.H.K.K.K.K.W.Q.W.K.K.F.5.J.7XPXDXmXMXBXGXKXGXGXBXKXKXbXMXCXBXCXFXBXHXNXpX=X{. X*X XE T 1XZXjXVXjXeXwXyXhXuXvXmXnXsXyXhXBXCXCXBXGXGXHXKXGXBXwX}.W F F G O.o.)./.H 9.9.5.F.C.j.j.3.5.V Z d.Z Z Z 2.s.A N x g : : G J ` O.O.X.X.o.Q , I = I Y > z O 4 =.*.*.=.7 @ b @.@., ; 4 7 =.=.8 8 0 + - < = = = , | ].).` ` ).W o.o.O.X.` S Z a f d d.c.` ` D F H A 1.1.>.1.v.v.b.b.8.x.'.x.#XMXKXKXHXKXKXKXKXCXuX,X#X9XvXKXKXGXGXHXFXKXKXCXhXZXAXpX|.b l |.zXeXpXAXKXvXuXvXJXiX#XwXjXkXkXzXjXwXeXdX0X@X*X,X0X}.X.J J /.8.B V 1.1.3.5.5.5.5.q.h.h.4.:.>.>.s y.y.u.s.Z N d.z.z.z.z.z.z.v.v.x.c , = = = < < : + 1 6 6 6 6 2 o % ..].G k 0 7 =.=.=.7 3 5 : = = = < - n ` b.G.P.I.F.F.G.J.n.c.d.c.n.m.m.m.z.z.z.d.Y.H.F.H.C.K.A.C.C.C.F.v.9.x.%XOXX.[.<X<X2XfXfXdXdXdXfXeXpXjXGXVXdXlXVXVXVXZXSXpXqXpXdXdX{.- E {.fXAXHXZXZXnXuXPXLXKXLXLXKXKXLXCXFXCXmXCXGXCXnX#XsXKXPX$XN e Z V a a >.1.1.1.6.3.V u f a a d Z Z _ ` ` n c , , , : : : l , > > $ = $ $ # % %   1 2 3 1 o %  .#.{ { { #. .g o 6 *.*.8 5 b U U < < < , U U , , , , U , , , , l G M.n.H.C.v.v.z.z.9.F.K.A.E.E.E.A.V.j.v.z.`.+X X,X+X}.>XjXsXwXaXkXNXCXnXsXsXNXGXGXFXKXKXHXFXmXhXtX>XwX>X@X*XqXv . - l z v F ).9XCXhXwXwX0X9XqXwX0X0XeXaXhXbXCXGXGXnXGXKXKXGXbXsXuXcX7XC e u a ;.>.",
"l.n.n.B.B.n.n.j.j.H.L.L.L.L.L.P.L.K.I.F.b.7XDXDXcXuXuXvXBXGXGXCXnXKXKXmXCXLXCXmXsXsXZXAXVXpX|.].].o.z z -XAXlXSXNXaXtXsXyXwXuXbXGXCXnXbXnXFXGXBXCXBXCXGXGXKXNXqX).W F G G o.[./.x.7.9.5.5.j.j.j.5.v.3.3.d.3.d.d.j.B.M.H ` O.| | T | | | | | .... .U U I U U R z @ 4 8 *.=.7 3 q +.$.$.@.n 5 7 =.=.=.8 3 0 g < = P I U ! ..E v v E b b T c n G K v.d.2.2.2.A ` M.J x.x.7.3.1.>.1.5.5.9.b.b.8.x.%XvXHXKXLXKXKXLXHXKXLXhX#X`.`.wXKXKXFXGXKXKXHXHXBXbXNXjX|.F g - E <XaX<XwXHXbX9XMXKXIX9XtXCXZXlXSXCXtXtXNXjX0X>X,XrX=X[.W J /./.H C V 1.3.5.1.1.4.1.4.4.>.a f d :.i.y.:.s.Z N H H H J J ` ` ` ` ` , > = < = < > z 0 2 6 6 6 6 1 @ T | @.+.G 5 6 =.*.*.2 o + - = = $ $ > c G J H H 7.C C H x.` S x z.v.v.v.b.m.m.J.Z H.H.H.K.C.K.A.A.V.C.F.9.7.'.`.`.(.,XzX-X2XSXfXkXlXdXpXeXdXNXVXVXbXNXVXNXZXSXdXeX-XdXlX&X- # z Q *XlXAXAXHXCXbXmXFXFXFXLXKXKXGXFXHXGXCXCXHXGXCXwXbXmXJXDXm.e u V a a >.4.1.4.4.3.V u a Z 2.s.d.d.z.` D l , > > , , , , , , Y I I I I Y Y : g @ 3 2 3 o X T $.#.} &.{ { $.Q + 1 7 7 3 5 X.| U I I I I Y Y Y Y Y < Y Y < < < , G M.m.H.H.F.n.z.z.7.F.K.A.E.E.E.S.A.j.v._.@X@X+X*X+X@XeXNXsXrXeXhXbXnXhXsXhXCXHXGXFXKXHXmXmXCXbXwX,X,X>X=X=X+XX   % z z l v F ).wXnXhX0X,X9X0X0XwXwXeXsXjXjXbXCXKXGXKXKXGXBXCXnXIXcX7XoXu 5 >.>.i ",
"c.c.c.n.B.B.m.n.v.H.H.H.L.P.L.K.I.I.G.G.oXcXDXMXIXIXuXsXhXbXBXFXCXGXFXmXmXhXwXwXyXyXNXlXSXSX*Xo.Q Q b : ].lXSXlXZXdXeXsXyXwXwXsXCXKXKXCXBXGXKXGXNXbXbXBXBXKXKXbX#XX.G G n O.).)._.7.9.F.5.5.C.C.j.n.3.Z j.n.H.n.v.J.z.x O.+. . . . . . . . . . . .[ [ [ [  .! E 5 3 7 8 8 3 5 X.@.$.#.$.+.B 5 8 =.=.=.7 5 g > = P I Y Y R > > : , > > , > > l D _.J.H.H.j.d.d.x.'.'._.J.P.L.K.C.C.F.9.b.b.8.'.7XKXKXFXFXKXKXLXKXKXKXFXwXOXOXiXFXKXFXGXKXHXCXBXnXZXqX+XE z l - - ].fXpX=XaXBXbXLXMXKXPXyXnXCXNXjXnXyXhXHXHXVXaX>X<X0X=X).J /.'.8.H C C 3.3.1.a >.1.4.4.2.>.a :.:.:.:.:.j.A h v v n l l c n n c c > < = < < < > z 0 2 6 6 6 2 3 k @.[ [  .| j 0 7 *.*.6 o + > = = = $ > : c v g k k g g l l : : g z.v.3.A A z.m.m.V n.H.H.L.A.L.L.W.C.F.H.9.b.%X%X`.+XdXkX<XfXSXzXkXlXdXpXpXdXVXVXbXjXbXlXlXSXVXdXlX<XlXqXl . % - b Q *XVXHXAXZXHXbXMXMXMXPXKXKXKXFXHXHXFXFXHXHXCXHXHXmXJXJX7XC e a V :.1.1.4.4.4.6.1.1.s.d.d.d.d.z.z.` n , > , Y , , , , , I I I I I I Y U R l @ 3 7 o   - @.%.{ } { } { %.@.l 0 8 7 3 + F R , I I P I I I I I Y I Y I P I , , E x.m.J.H.H.H.n.n.j.F.K.A.E.E.E.A.A.v.v.OX,X=X*X|.@X>XjXSXjXwXrXhXsXhXbXbXBXGXGXCXFXHXmXyXhXCXnXwX0X+XeX0X=Xg   . X l z z b v F }.wXkXwX#X>X0X9X0XtXyXhXjXaXwXaXBXHXKXKXBXBXFXBXuXuXiX7Xv.e i >.i ",
"M.M.M.M.M.M.m.R.J.n.v.j.F.J.H.F.F.J.v..XxXDXuXMXFXCXCXbXhXbXFXKXKXBXvXbXhX=XOX#XbXbXNXaXlXSX*XE Q T T l c |.dXlXVXaXqXtXhXyXyXbXsXCXKXKXGXGXHXGXnXhXbXbXnXGXKXZXaX[.E E b G o.`.`.7.9.F.j.5.C.C.j.j.a a d.H.T.H.J..XH g n | [ [ [ [ [ [ [  . . . .[ [ [ [  .! W q 2 7 9 3 5 K &X$.#.#.$.$.o.h 3 8 *.=.7 9 z > P P I P P P = = Y < < = = = < : G '.v.j.L.P.H.j.7._.'.b.G.L.P.L.K.K.J.b.b.b.b.$XDXKXKXFXHXKXHXLXKXHXKXKXPXyXuXbXLXKXPXLXKXFXbXbXhXaX[.W b l l % X : &XlXrXqXlXGXGXvXKXKXnXnXnXhXsXgXvXCXFXZXHXSXwX0XpXwX}.J X.'./.7.A A 7.9.6.1.6.j.j.j.j.2.2.2.:.i.p.j.J.H g l : > < < < < < = = = = = = = = > L 0 2 6 6 3 o 5 O.@.[ [ [ [ | h 6 *.*.7 0 % > P P P P P = > > > : - > > > > < > c _.n.v.3.3.3.A Z a F.H.L.L.A.W.L.W.K.I.J.b..X$X#X+XeXkXpXfXfXdXzXdXdXfXpXfXlXSXZXaXdXlXjXkXVXZXlXdXVXfXQ .   % % b T ].rXAXHXHXHXMXmXMXMXmXLXKXKXFXGXGXFXFXHXHXHXGXHXKXKXDXDX5XN i a 1.>.>.4.4.>.1.2.h.j.l.g.d.c.z.` J n , , Y P P P P P = P I I I I P I U R z @ 1 7 o . | #.{ { &.} } } { $...k 0 4 3 + F , , U I I I P P P P P I I I P I Y , b /._.J.P.H.H.n.d.j.K.S.S.E.E.S.A.K.v.'.$X>X1X-X|.*XyXZXHXNXyXeXsXyXhXbXbXnXBXCXFXHXGXbX9X9XsXyX,X,X@XeX0XW     X X - : z G v v o.+XyXhX>X0XeXqX9XwXeXsXhXtX9XwXhXGXKXGXNXBXGXBXuXuXuXxX7X6.e >.>.",
"/.` ` ` M.M.m.J.J.J.J.G.G.G.3.m 9.7.7.oXDXDXuXLXFXHXGXmXbXbXFXKXKXBXhXbXbX9X#X9XNXnXBXkXjXdX{.b o.z b c : b |.SXVXkXaXeXsXhXhXhXqXsXCXGXGXGXCXBXBXbXnXBXnXCXHXGXNX=Xo.E G b X.}.`.8.9.v.j.j.C.C.j.j.a a 3.H.P.v.J..X` b |  .[ [ [ [ [ [ [ [  . .[ [ [ [ [  .! (.5 2 0 3 o j  X$.#.{ #.#.$.@.G O 8 7 8 8 9 L > P P P P P P P P P = = = = = = > G x.v.F.H.Z.C.j.v.$XoXJ.F.K.L.L.A.K.J.G.b.b.XXiXKXKXKXKXKXKXKXLXKXLXKXKXKXKXKXKXKXFXmXFXGXnXhXaXqX[.E b b z % . . X b <XlXfXeXjXBXKXGXGXKXKXBXbXnXMXmXmXbXbXCXHXjXeXaXeX@XX.J (.).J H C 7.z.v.v.F.H.F.F.j.5.j.d.j.S.S.H.J.K - > > P = = = = = $ = = = = = = = : L q 1 1 1 o + l @.[ [ [ [ [  .D 3 *.*.7 0 k : Y P P P P P = = = , > = = = = = > c x.n.n.n.n.v.3.Z 2.H.L.L.L.A.W.L.L.F.G.G.b.%X$X#X,XjXdXpXzXfX<XfXqX<X<XqXpXfXNXZXNXlXNXNXkXlXSXlX0XHX{.X . . . X - b X.}.qXAXHXZXGXLXFXmXMXFXHXKXFXFXFXFXFXGXHXKXHXCXKXKXPXJXcX3.e a >.;.>.>.4.>.4.4.h.j.d.s.d.c.z.` G c , P P P I P I P I I I I I I I I U R z 0 1 3   # #.#.{ &.&.} } &.} #.$.n o o O q W b , U I I I I I I Y I I I P P I I , c X.'.J.J.H.H.l.j.j.A.S.S.E.E.S.S.F.b.OX#X,X<X-X&X>XjXHXHXCXhXyXjXhXhXsXsXsXbXBXGXHXFXsX0X9XyXyX9X@X9X9X+XX   . X X ; - l b b b X.(.,XkXeXeXhXuX0X9XwXyXsXsXyXsXnXCXGXGXGXGXKXBXyXuXiXiXxXoXi i 1.",
"` ` ` ` x.M.m.m.n.J.J.J.J.v.6.u 3.M 7.7XJXFXnXmXnXNXNXnXmXCXLXKXKXGXMXMXLXFXnXCXGXbXZXZXdX*XQ T T c c c z ; c <XSXSXNXaXeXhXhXsXtXtXhXBXGXGXBXBXBXnXCXGXBXCXHXGXZXkX|.E E G G ).`.'.7.3.v.C.V.C.l.l.Z Z 3.j.H.G.J.b.J b ! [ [ [ [ ! !  . . . . . .[ [ [ [  .! (.0 3 0 o + O.$.#.{ { #.#.#.$.@.g 4 8 8 3 5 l > = = P P ~ P P P P = = = = = $ < R X..XT.F.4.2.j.H.5XoXP.H.K.K.L.L.F.F.G.b._.5XDXKXFXKXKXKXKXKXLXKXKXKXKXKXKXKXKXKXPXMXFXFXnXsX0X+XE z z z % # . . X ; o.2XfX>XqXBXKXBXBXKXGXBXFXKXPXgXuXhXyXbXCXSXNXdXaX>X[.X.X.(.x.H H H 7.z.v.v.F.F.v.j.j.v.n.H.L.L.F.b.v # = = P P = P P = = = = = = = = = : z q o o o @ c | [ [ [ } [ [ [ O.h 7 7 2 0 q z Y P = P P P P = = = P = = = = > > c x.v.v.n.H.n.d.2.2.L.L.L.L.S.W.S.L.J.G.b._.%XOX#XdXkXfXzXlXfX<XpX<X-X-XqXeXeXdXZXZXbXNXZXlXlXlXkXpX0Xg   . .   . . - b W }.dXHXHXKXKXKXBXbXnXFXKXHXHXHXGXFXCXGXKXKXCXKXKXMXJXDXoXV a >.>.>.>.,.4.4.4.h.h.s.s.d.d.z.` G c , P P P P P P P I I I I I I P Y , b L 5 2 o X U { { } } } } } } } { #.| + o + h r.F b c U U Y Y Y Y Y Y P I I I I P Y R X.'.b.v.j.l.l.Z.C.A.S.S.S.E.S.C.F.m.9X>X-X<X-X&XrXCXHXNXNXbXhXnXnXhXsXsXIXbXCXGXFXnXyXwXwXyXeX0X#XwX+Xv   . X + ; - : : z b G G X.}.wXkXaXyXuX9X>X0XwXwXtXhXbXnXnXNXBXGXKXKXBXvXuX7X7X7X7Xv.i 1.",
"c n G ` x.M.m.n.v.n.n.z.7.b.G.b.7.M _.DXJXCXnX>XjXjXjXCXHXKXKXKXKXKXCXvXCXKXKXFXKXnXAXHXpX].b E c T b l b X . E kXSXZXaXwXhXNXnXnXsXyXBXHXHXCXCXNXnXGXKXGXGXHXAXAXHX1XW E E F X.[.`.x.3.v.C.C.S.h.l.s.2.2.2.v.J.XXb.J T U U [ Y  .! ! ..+.+.+.+. .| |  .| | R ).5 0 0 + G $.#.{ { { &.#.#.%.$.O.O 4 4 3 5 k > = = = = $ = = = = = P = $ $ $ = R /.m.v.2.:.s.f.j.J.J.P.L.L.A.S.K.F.F.G.b..XiXKXDXmXFXLXLXKXKXHXKXKXKXKXKXKXKXKXKXFXPXFXFXNXsX=Xo.b c c - # .   X % # : ].<X<X<XZXBXbXBXbXwXvXKXKXbX9X9XuXyXwXhXNXKXjXjXjX,X).o.(.`.'.` H H 7.9.9.v.F.v.v.j.j.v.H.K.H.b.'.z # $ = = $ = = = = = = = = = = = < : z 5 o o @ %  .#.[ [ [ [ } [ [  .X.0 0 2 0 q z > P P P P P P = = = = P P P P = Y R _.n.j.j.j.h.2.a 2.H.K.K.W.L.W.K.F.J.G.b.XXOX#X9XSXpXdXSXlXfXfXrXqX=X-XpXfXeXdXHXlXpXdXSXSXSXSXlXAXW .       .   . % z E ).*XlXHXKXKXKXBXvXbXFXKXKXKXHXHXFXCXFXHXHXCXKXKXvXMXDXcX3.a i >.>.>.>.,.:.4.4.h.j.s.s._ z.` G c Y P P P I I I Y U U U U U U U c b F D 5 3 o ;  .{ } &.} } } } } } } { @.G 5 5 M r.r.W L c c , > > > > > P I I I I P Y R o.'.b.v.j.j.l.Z.C.S.E.S.S.S.A.C.J..XuX0X*X2X*X*XaXHXZXhXnXnXbXCXNXhXsXbXBXGXFXFXCXnXyXwX0X9X,X#XwX#X`.X . X . + - : l l l n E G G X.@XkXeX9X9X,X,X>X,X=X9XtXsXtXhXhXbXGXKXGXBXbXyX#X#X$XxX5Xe V ",
"c c F /.`..XJ.J.J.j.v.v.3..XG.b.H %X9XuXPXGXjXrXrXaXnXNXCXLXKXKXFXCXmXvXbXmXFXFXsXtXKXAX).b W T c c R : : .   % (.lXAXkXeXyXCXsXbXnXnXnXCXKXGXnXGXGXCXNXBXHXKXHXZXZXkX].X.o.F W (.OX_.3.5.F.C.C.j.j.j.h.h.j.j.j.J.x.D n | [ [ [ ! +.z z L J J /.X.....o.o.O.X.`.9 0   ; $.#.&.} } &.&.{ { %.#.@.k O o o + j l ; > = > > > > > = = = = $ $ $ > R X.M.Z w d l.f._ d.d.5.C.L.S.S.W.K.F.b.C $XDXuXKXbXKXKXLXFXKXKXKXKXKXKXKXKXKXKXKXKXMXFXGXwX}.(.b c c c % . . X # % % % l *XdX0XSXjXdXGXqXbXKXGXbXmXwX9XwXvXbXyXyXnXHXAXZXkX+XX.o.).(.`.`.x.7.z.9.v.9.F.v.P.v.v.v.v.v..X/.- # = = = $ = = = > > > = = = = = > l j 5     X | [ [ [ [ [ [ } [ [ [ @.+ o 0 1 5 L c = = P P P = = = = = P $ P P = > b 8.n.H.Z.h.u.:.d h.Z.P.Q.L.S.S.L.F..Xb.m.$X#X=XjXNXfXfXzXlXlXfXqX<XpXpXqXfXlXSXZXNXaXpXSXZXSX,XAX*XX   .     .   . . X g X.).,XHXHXGXHXHXFXmXFXKXKXKXKXKXHXBXnXmXbXHXKXKXPXPXDXDX8Xu 1.>.>.,.,.,.:.:.h.C.Z.h.s.d._ ` G T U P P P P Y P > % % % g - ; v G D J 8.M 0 0 :  .} } &.} } } } } } } { $.O.k 5 5 0 q 0 0 q q + @ X % + X = P P I I I U c X.x.3.5.h.Z.Z.Z.S.S.S.S.E.A.C.F..X7X0X<X-X&X-X-XZXjXhXNXBXsXtXsXsXyXsXBXFXCXFXKXCXbXsXtXwXyXwX#XwX9Xk   + . . ; ; z b l l b E E G X.(.,XCXCXwX9X9X,X#X#X=X,X9XqXwXtXsXBXGXCXbXbXhX9XuX5XiXxX6.u ",
"R c G /..X.XG.H.P.v.v.z.C G.b.0.8.9XLXFXCXCXBXjXyXaXkXhXbXmXJXKXKXCXvXvXMXBXCXBXtXhXhX@XW F E b ..: c z % . . % % @XZXdXjXCXnXnXGXHXGXBXnXnXnXbXCXHXHXCXnXCXKXKXHXZXNX=Xo.W E G (.OX`.x.9.v.C.V.Z.j.s.s.j.j.j.j.n.m.` O.| U Y [ ! Q % @ @ 0 o @ 5 k q q j L K '.w.9 @ : $.#.&.} } } { { { { { @.j 5 4 0 5 k k - l g z z g - ; ; # = = = = = > c X.A a s.f.( _ B.J.T.T.L.W.S.A.A.K.v.9..XiXMXPXLXvXMXFXKXKXKXKXKXKXKXKXKXKXKXKXKXPXPXLXbX#X).W b b z % X   . X X . - : - E <XlXqXNXGXKXbXsXbXBXFXHXnXbXMXmXMXbXbXbXNXSXNXdX=X].o.(.).`.`.x.7.z.9.F.v.F.v.G.v.v.v.H.v.m.J % # = = = $ = = > : g z : > > : : l L L 5 o   X | [ } [ [ [ [ } } [ [ @.c @ 3 0 9 L R > , > Y U U > Y P P P P P = = > b _.n.j.s.u.s s s j.Z.L.L.L.K.S.K.G.b.b._.$X#X0XZXkXlXlXlXkXaXpXrXqXfXpX<XpXjXjXlXpXdXNXZXkXkXSXzXv     . . . .   X . X k G o.+XdXHXKXKXHXFXFXLXHXHXHXKXKXKXKXKXFXmXFXHXMXgXIXDXJXcXJ.a >.>.>.,.q.,.:.h.Z.Z.l.s.d.S D n c , Y P P P Y = X . o o o o o @ 5 @ 5 5 0 0 0 : #.{ } } } } } } } } } { #.n @   o o o o 0 o o o o o 3 0   , I I I I , , : D A d.j.Z.Z.k.k.D.S.S.A.S.S.F.F.oX9X0X>X*X&X<XfXZXjXhXnXbXtXwXtXyXtXsXNXGXGXCXCXbXhXhXyX9X9X9X#X9XX.+ @ @ @ @ + % l v z l v b T E X.X.}.yXCXbXhXtX0X,X#X=X>X9XqXtXtXIXFXGXNXvXhXyXwXsXvXcXcXoXu ",
", , b X..XXXP.P.P.n.j.3.V b.9.0..XIXKXLXbXCXCXSXjXjXkXhXnXFXKXKXKXsXwXyXnXbXbXMXhXZX=XG F E E b c z l # . % % % X b kXNXhXZXnXCXFXGXGXCXbXhXnXGXGXHXHXZXBXCXGXGXHXSXVXdX[.E W E X.).OX_.7.5.C.q.Z.j.s.s.h.j.j.j.d._ x n |  .[ [ | Q % 5 0 9 9 9 3 4 3 1 9 0 3 9 9 5 X | $.{ { } } } { &.{ { { $.X.5 3 0 0 9 e 5 5 5 5 9 5 0 + + # $ = = = # # ; x S f.l.f.f._ ( a j.C.C.S.S.S.L.I.v.9.iXPXuXFXgXyXyXMXKXKXKXHXKXKXKXKXKXKXKXKXKXMXGXGXwX[.X.E b b - X . . X % X X ; ; l c o.pXqX=XaXKXaX9X9XtXhXKXKXKXKXFXmXbXnXmXnXCXZXlXaX=X].o.).`.).8.7.9.9.F.F.F.v.2.v.n.d.j.v.m.` - # = $ = $ = % X + @ 5 q k k k k j M w.9 5 k F | [ [ [ [ [ [ [ [ [ [ [ | . 0 9 9 q g % % % % % % % & # = = = = = = < c z.Z f f s s s >.Z.Z.L.L.L.L.S.K.b.b._.OX#X9XaXZXkXSXSXlXpXpXpXpXpXdXfX<XpXdXdXdXdXSXAXVX<XrXSX].X   . X . X X . X + X % v J ).@XCXHXKXHXGXHXHXCXmXFXFXLXKXKXKXmXCXLXFXbXuXvXDXJXJXxXu >.>.>.,.,.,.:.h.Z.Z.k.h.f._ S x l , , I I Y U ; . o 1 2 2 2 1 1 3 o o o o o o : @.&.} } } } } } } } &.{  .% @ @ o o 1 2 9 6 7 7 6 7 8 9 0 c Y Y I < , , x x Z j.Z.Z.k.k.k.A.L.S.A.A.K.G.J.$X9X>X1X*X|.rXSXAXnXbXBXbXtX9XwXtXtXsXbXBXPXMXsXwXyXbXhX9X9X9X9X#X+   + + + + + + - z b v z n b E E X.(.@XjXHXnXhXtX0X9X0XwXwXwXwXqXyXBXGXbXsXsXsXdXhXKXMXcXDXA ",
"< > c X..XXXP.P.Z.j.d.Z N b.b.b.iXPXLXbXnXAXAXCXjXjXsXhXmXKXKXKXKXhXyXCXKXFXFXKXHXbX[.v F W F b % c #   . ; X g z ; @XHXyXyXGXFXbXbXBXCXNXbXnXHXKXKXGXGXKXHXCXnXGXCXnXZX=XW Q W W X.}.%Xz.5.F.C.Z.h.h.h.h.j.j.f.g.N * ; ' |  .| | b + 0 3 7 7 7 8 7 7 9 -.9 3 0 0 @ % $.%.&.&.&.&.&.&.&.{ { #.%.G 5 9 9 0 3 3 3 3 3 7 8 7 3 4 O % > > = = # ; ; x d.N.u.( N.g.w f j.L.S.S.S.S.K.G.v..XLXFXwXCX9XwXuXmXKXKXKXKXKXKXKXKXKXKXKXKXKXvXGXNX@XX.E E v l % . . X % % X % X % b b z {.zX>XdXVXdXtXeXtXwXNXAXHXKXCXnXbXMXmXbXGXHXZXNXaX|.O.o.).(.J H 9.v.v.v.j.j.u d.n.d.d.j.m.` - # = = = = ; X   o o o o o o o o o 3 0 9 9 K |.| [ [ [ [ [ [ [ [ [ [ [ | . o 3 2 1       o o o o @ . . # = = = = = < , N f r p / y.y.:.Z.H.L.L.L.L.K.K.b.'.OX#X9XwXkXlXlXlXfX<X<XpXdXrXdXzXpX<XpXfXpXpXjXZXNXkX,XpX,X- X X X . X + @ + + + + + k D X.).yXCXKXKXHXHXHXBXbXFXLXPXLXKXLXMXFXKXKXHXFXFXLXJXDXDX9.1.1.>.,.,.>.:.:.h.k.k.k.f.n.z.S x : , , , < , % o 1 6 6 6 7 6 6 3 o o o o o   ;  .#.{ { } } } } } } { {  .b /.`.0.M 0 2 6 6 6 6 6 6 6 6 o l , , , , , n ' _ g.Z.Z.D.k.k.Z.S.L.K.S.K.F.G.oX#X0X,X1X-X@XrXZXHXZXZXHXBXyXwXwXtXsXsXyXsXvXyX9X9XwXsXsXiX9XwXiX`.    k + + + + + ; g v b v c b G E X.X.).0XGXbXqX9X,X,X9X9X9X,X9X9XtXCXKXFXnXBXNXjXhXKXIXgXJX$X",
"Y , c X._.J.H.H.h.f.s.Z N b.b.XXDXDXMXmXKXHXAXAXkXyX>X0XbXKXKXFXFXnXmXKXKXGXHXKXGX+XJ G G G b z c - . X % X   g F g G 9XhXhXKXCXnXnXBXGXCXsXyXsXGXGXKXKXKXGXCXBXCXKXhXmXbX[.E Q E E `.%Xx.9.F.C.A.C.Z.h.s.s.f.g.s._ S x g , |  .+.F 5 9 7 =.=.*.-.7 =.=.7 7 9 0 5 . X @.%.#.} &.{ &.&.{ #.#.#.$.l @ 3 9 7 7 8 9 8 8 7 *.7 8 4 o % c : > - ; n ' c.s.u.i.u.f.f.f Z H.T.L.S.S.S.K.G.G.7XKXmXyXhXwXwXMXKXFXCXHXKXKXKXKXKXKXKXKXKXKXnXGXeX).F b b l % X X X + ; k + + % - g b b E <XlXZXSXlXeX0X9X,XeXlXZXZXBXmXPXmXbXbXFXKXCXCXdX@Xo.X.o.(.J H 9.9.j.j.j.j.i d.n.j.l.l.c.D ; # # = = > l + o 1 1 2 7 7 6 2 1 1 1 1 o o q [.|  .[ [ [ [ [ [ [ [ } { U . o o 1 1 0 o o 1 1 1 1 1 o . # = = = = < < ; S f s / y.^ s :.Z.L.L.P.P.L.L.H.x.%X#X#X,XdXlXfXlXzXrX1X<XdXaX0XpXpX<X<XpXfXrXqXdXNXkXkXrXzXX.; ; + X @ + + @ + + k + + + j G (.@XyXKXKXGXGXFXmXmXKXKXKXLXKXKXmXKXKXKXKXKXKXKXLXDXJX8X1.1.>.,.q.>.:.:.h.h.k.k.k.Y.n.c.` n , , , , c ; o 1 6 *.*.*.6 6 2 1 3 5 5 h k v |  .#.&.} } } } } { { [ | |.$X5X5XXXw.3 6 7 *.*.*.*.7 7 1 j c c , , n ' _ N.N.D.D.i.i.k.Z.L.L.K.L.L.5.b.$X,XrX,X1X-X*XyXZXHXHXKXKXGXsXtXtXyXsXuXtXtXuXiXUX9X9XtXtXiXtXuX9Xk   @ 5 e e + k k % k D G b b b b E o.W W @XbXbXeX0X,X=X,X>X9X9XwXwXsXGXKXKXKXKXBXbXsXsXuXuXcXxX",
"P < , O._.J.H.H.h.h.s.Z S z.b.5XDXPXPXJXKXCXjXAXnXeX,X,XyXLXKXHXCXGXKXKXKXGXFXFXwXW F X.E b b z T X X ; X . X + + v ; J hXHXLXCXCXBXCXGXCXhXtXwXtXbXKXKXBXhXbXFXFXKXMXMXKX=XW W E E o.%X_.v.9.5.C.C.Z.h.s.s.s.f.s.N.g._ x l n | ' k 3 8 *.*.=.=.7 =.-.=.-.Q.xXiX5XX.c @.%.%.&.&.{ &.&.{ #.%.#.@.% @ 0 0 3 7 2 7 8 7 7 7 7 8 8 o + z - - ; ; n ' g.( y.i.k.f.( f d j.Z.Z.S.L.K.L.G.oXDXKXNXBXkXkXuXFXKXCXmXHXKXKXHXKXKXKXKXKXKXKXKXZX=XX.F b l : % X X X + ; k % + ; - ; b b z |.fXSXdXpX+X[.}.@X>XdXVXNXNXGXHXLXMXMXCXHXFXBXsX,X].O.X.(.x.H 3.j.C.C.C.j.:.h.n.l.k.l.l.` g % # # = > z 5 o 3 6 7 7 7 7 6 2 1 1 1 0 o + E |  .[ } } } } [ [ [ [ [ X X 5 3 1 o o 1 1 1 2 6 6 2 o @ % < = = = < , x _ ( / / ^ p ^ i.U.L.I.I.P.P.L.H.b.OX#X@X>XkXlXzXzXlXzXfXpXdXaXeX<X2X<X<XpXpXqXqXpXVXSXVXjX<Xl l ; X @ X + e + e + k k + + k D X.`.,XnXHXHXGXFXCXCXKXKXKXLXKXKXFXKXKXJXFXFXGXGXLXLXKXDXv.1.>.>.4.4.4.:.i.h.k.U.Z.k.l.B.M.` ' , , , b k 3 2 7 *.*.*.*.6 2 0 M 9.XXXX%X).|  .#.{ { } } } } { [  . .}.oXoX$X5X6X9 6 7 *.*.*.6 6 2 1 h l n n n ' ` g.N.k.a.p.p.i.k.Z.L.K.F.K.H.v..X7XwXdX1X*X*X,XnXKXHXHXKXHXNXyXwXtXyXyXyXuXtXuXtX9XwX9X9X9XiXiX#X/.    @ 5 k k 5 h k k k D W W G b b E W E E [.0XbXjXyX9X=X=X>XqXwXwXtXsXbXCXKXKXGXNXjXdXwXyXwX5XMX",
"P = , E '.G.H.Z.h.f._ _ S c.XXcXPXDXPXDXPXgXeXkXjXkXeXeXhXHXKXKXKXKXKXBXFXKXHXyX`.G F W G b b z - X % X . X - X + g + k #XFXLXLXBXCXGXBXBXnXbXsXtXhXCXGXnXsXbXFXLXKXFXPXKXsX(.W Q E X.[.OXb.9.5.C.A.Z.Z.h.s.f.f.f.f._ _ ' ' ' ' O.M 4 -.*.*.=.=.=.-.=.9 q.xXDXMXZXfX+.!  .#.{ { &.&.&.#.#.%.#. .n $XxX8X6Xw.8 8 8 8 =.=.8 8 9 5 + l ; - ; ; x S ( u.i.i.k.i.d f H.T.L.L.W.S.A.K.J.7XKXKXHXAXkXSXhXmXFXFXFXKXKXKXCXHXKXKXHXFXLXHXKXjX}.E G b : l % % X X + k j k ; % ; - v v v X.*XfXpXdX+X].+X,X=XdXVXlXjXCXKXKXPXmXMXCXKXCXsXyX*XO.W `._.7.3.j.C.C.C.h.h.h.l.k.i.k.l.c.` , # # = > z 5 o 2 6 6 6 *.7 6 2 9 ;.0.'.'.W ..| [ [ [ } } } } [ [ [ [ | ).5XXXq.9 o 1 1 1 2 2 6 2 o o X > < $ < , c ' S d s / ^ p y.U.U.L.P.I.I.I.K.H._.OXOX#XeXdXfXzXzXzXfXfXpXaXaXpX<X<X<X<XdXfXqXpXNXVXAXlXjXo.- - + @ @ + 5 k e k k k e k k k j J X.}.wXCXHXHXHXHXFXLXFXLXLXLXLXFXJXLXPXbXNXGXGXGXKXJXJX5X6.>.>.>.4.4.:.:.i.D.D.k.k.k.l.c.` ' ' , , l + o 2 6 *.*.6 7 2 1 9 0.5X5X5X7X+X+. . .{ { } } { { #. . .@.}.5XOX'.$X5Xi 1 7 *.*.*.6 6 2 1 h j K ` ` ` c.N.i.a.a.a.p.k.k.Z.L.K.F.C.J.XX$X7XtXkX1X+X*XrXLXKXKXKXGXNXyXqXwXtXwXwXtXyXyXwXiXwX9X9X9XUXiXiX`.k   @ @ 5 j k k j h k k v G W E G b E E W X.(.+XwXwXwX9X,X#X#X=X9XwXsXsXtXsXGXKXBXNXjXaX9XwXwX#XuX",
"Y > , G x.v.j.j.s.d._ _ A m.$XJXDXDXMXgXgXuXwXeXyXkXjXnXCXHXKXLXFXGXsX9XtXHXbX#XK G G F b b v l X . + . X X + + j + k j J uXKXKXFXHXGXnXbXBXCXBXGXBXnXCXGXCXBXCXKXFXKXLXKXCX+XW E E E `.#XXX9.v.C.C.C.Z.l.f.f.u.( f._ _ _ ` ' ' K e 3 =.*.*.=.*.*.=.6 ;.xXJXiXwXrXzX1XU  .#.%.&.&.&.&.%.%.#.#.@.1XwXuX7XcX8Xw.8 8 7 =.8 7 8 9 4 + v - g g x ` _ f.k.i.i.i.:.s h.R.L.Z.A.L.S.C.I.XXcXJXHXKXSXpXSXnXvXbXLXKXKXKXKXMXLXKXKXLXCXFXGXSX0Xo.b F l - l - % X + % j j e % k ; g g v W z  XrXpXVX,X+X@X,X=XpXVXjXaXbXFXHXJXFXgXbXKXCXyXjX<Xo.E }.%X8.3.j.F.j.C.h.Z.h.h.k.D.U.k.g.` ' : % # l L 5 1 6 6 *.*.*.7 6 7 w.6XcX7XgX>X+.| [ [ } [ } } } } [ [ U  X:X7X7X8X9.3 1 1 2 2 2 2 2 1 o @ ; : ; ; g x x _ f s / ^ ^ i.U.S.L.P.I.I.K.I.J.'.[.}.>XlXfX<XfXlXfX-X-X<XqXqXrX<X2X2XpXkXdXpXpXAXkXVXpXdX- - + X X + + + k e h h k e h h e k D J `.,XnXKXKXKXKXKXLXPXLXLXLXPXmXFXFXmXmXGXKXKXFXKXJXDXcXv.1.4.>.4.4.:.>.u.V.D.D.U.k.l.g.c.` ` ' x h O o 2 6 6 6 6 7 6 2 ;.XX5X5X$X#X#X|.+. .[ { } } { #.#. .@. XOX5X$XOX7XoXi 7 7 *.*.*.6 2 3 3 m A c.c.c.g.f.f.k.a.a.p.p.k.D.Z.H.P.v.3.J.5X7X9X0XdX,X|.,XyXHXHXKXKXGXhXwX9X9XtX9X9XtXsXuX9XUX9X9X9X9X9XiX9X8.    O @ e j e h h h h j B G X.W E b G E o.).W X.+X9XwXyXsXtXqX9X9XtXbXbXtXsXKXKXGXZXlXqX>X9XqX9X#X",
": : l G M.z.d.d.d.d.d.A H '.DXLXLXPXmXbXuXwXwXyXbXmXCXFXHXKXKXFXLXFXbX9X9XnXtX(.F G X.G z b c ;   + . X + + e h J j h h h }.CXFXBXKXHXBXZXHXGXZXZXnXbXBXFXJXKXKXKXKXKXKXBXNXpXX.X.W G X.$X#X_.v.v.j.C.H.C.:.u.k.u.f.f.f.f.f.g.c.3.u 4 8 8 *.*.*.*.=.7 ;.cXiXuXuX>XrXpX*X+. .#.#.{ &.&.{ { #.%.3XrX,X9XiXiXxX4X8 8 7 =.*.7 8 8 o 5 + e h S _ g.f.N.N.i.i.u.:.h.L.W.W.W.W.L.L.J.J.iXcXKXKXGXBXBXCXFXCXCXCXLXKXJXLXMXKXKXKXKXGXNXHXkXo.G G l l b ; + + + * k k k k e k k g g v b F E |.dXlXjX,X+XdX>X<X0X>X0XNXHXbXuXvXIXhXbXbXmXHXpX-XX.(.`.x.z.A v.j.C.C.j.4.h.Z.Z.D.k.f.g.c._ x * e e 4 1 6 *.*.*.*.*.7 ;.6XxX7X7XiXrX&X .| [ [ [ [ } [ } [ $. X,X@XOXOX9XoX5 3 1 6 7 2 2 1 o o @ + k k x _ ) ( ) ( / / s i.D.R.S.!.Q.I.I..XG.'.W ).+X<XlXfX<XfXdXfXpXqXqXpXpXrX0XpXaXkXkXyXyXjXkXkXpXSXW X - X X + + * e e e e e e e e e h h h /.` `.wXKXKXKXKXKXKXLXFXLXKXKXKXLXFXCXCXGXHXHXKXBXKXJXDX5X1.1.4.4.4.:.:.:.:.V.D.D.D.k.l.l.g.g.g.B.V 4 o 1 2 6 6 6 *.6 2 -.6X6X5X5X$X$X#X|.@. .#.{ &.{ {  .+.+.OXOX5X$XoX5XXX9 2 6 =.*.6 7 2 3 ;.V.k.k.k.k.k.k.N.k.k.D.D.D.D.D.Z.v.m._./.@XyX<X2XrXrX,X+X9XCXKXnXKXKXPXtX9X9XwXwXwXtXsXhXsX9X,X9X9X9XUXuXGX5Xh     O + 5 h h e h m h h j K ` X.X.G G E X.o.o.).[.wXeXtXtXwX0X9X,XwXsXnXFXFXmXMXyXGXKXhXqX=X#XyXtX",
"l g x H z.z.d.d.d.v.z.z.x.$XFXKXKXFXCXmXhXuXuXbXMXnXMXbXCXHXKXHXGXKXGXnXbXvX#XG F G E b c c : X . + @ O + + e h H h h j k J 9XGXhXCXBXbXBXZXZXHXZXBXBXCXFXPXFXKXHXHXKXKXZXSXjX[.X.X.W X.OX#XOX'.v.j.C.S.C.>.:.u.k.f.f.f.k.l.l.l.j.j.1.y 8 =.=.=.-.=.2 9 DXxX5XHXgXyXaX<X X .@.%.&.&.&.&.#.$.3X3X*X<XgXiXiXcXXX8 8 7 =.*.8 8 3 9 e h A _ _ ( i.N.f.i.y.u.h.h.Z.L.W.E.W.W.L.L.P.oXcXDXKXKXGXCXNXbXCXCXCXHXKXKXDXPXDXKXKXKXKXKXGXSX@X` n F g g g + + + * e k k k h h h h h j v F X.c E dXkX,X>X*X0X=X<X>X=X9XhXGXHXmXMXuXtXmXFXFXHXAXfX[.(.'./.x.A v.v.j.C.C.j.4.h.A.D.Z.k.l.g.g._ d a i 4 2 6 7 *.*.*.6 6 ;.6XxX5X7X7X9X<X X| [ [ [ [ [ [ [ [ @.*X@X:X:X X:X%X5 3 2 2 2 2 2 1 o o O e t t ) ( / / ( / s s u.D.S.L.L.L.L.I.J.G.b.'.). X-XpXSXlXpXlXjXkXfXpXpXpXpXrXrXaXjXkXeXyXjXVXpXlXfX<X- ; X X O O + e e h h e h m m m u u m m K J _.#XMXKXKXKXKXKXKXKXHXHXHXKXKXLXFXGXHXHXHXHXHXKXJXJX8Xv.a 2.4.:.:.:.q.V.V.V.D.D.Z.Z.k.N.N.N.N.Y.s.y 1 2 6 6 6 7 7 2 7 I.8X5X$X$X#X#X*X&X@.[ { { { #.@.+.}.#X$XXXOXiX5XC 1 2 7 7 *.7 2 8 1.h.U.U.U.U.U.k.k.k.N.Z.Z.Z.D.D.A.C.v.x.x./.,XlXfXzXpX<X=X#XwXCXHXNXFXmXyX9X9X9X9X9X9XwXsXsXwX9X9XeX0X0X9XuXtX'.+   o O O 5 e m u e h N j j D X.X.G G G G E X.X.(.).>XwXaXeX0X0XqXqX9XwXhXMXPXmXIXwXbXKXBXyX=X#XsXbX",
"G D D ` c.d.d.d.s.g.3.z.M.uXMXKXKXKXGXBXvXuXhXnXHXCXMXvXbXHXKXKXKXKXKXKXKX0X(.F F G G b b l % X X O + O + e e h B h h B h j `.MXmXLXFXBXCXBXZXKXZXZXGXGXPXMXmXFXLXHXKXKXZXZXZX,XX.X.W J (.#X9X_.v.j.C.C.C.h.:.:.k.f.f.f.g.l.l.l.l.H.H.4.8 8 =.=.=.7 9 i 5XFXsXwXuXiXeXkX2X@. .#.&.&.&.#.#.$.1XpX0XuXwXiXcXxXI.4 7 =.=.=.=.7 3 1.2._ s.f.f.u.i.i.i.y.s u.Z.H.L.K.W.E.W.W.K.F.oX7XDXJXKXKXKXGXBXbXCXCXCXLXKXJXFXPXLXJXKXKXGXKXGXdX(.G n b l - ; X + ; k e k h e h m h m j h j F O.z - 2XlX<XkXeXkXeXdX>X@X9XaXsXbXGXFXvXyXbXnXbXNXSXpX=X(./.'.x.7.z.v.j.C.C.C.V.4.C.C.l.l.l.g.g.N.g.f.2.y 2 2 6 7 *.*.6 2 9 6XxX7X7X5X9XwX1X+.| [ [ [ [ [ [  . X=X#X:X@X@X,XOX9 1 7 2 2 2 3 1 o o e f _ ( ( / ^ / u./ s y.D.U.~.S.!.L.K.J..Xb.'.`.+X*X<XlXlXlXlXlXkXdXaXpXqX0X0X0XdXkXSXjX0XyXSXVXpXSXlXo.% - . X O O * e h h h h m m m m m m m m h H '.%X9XKXKXLXKXKXKXKXKXHXKXKXKXKXLXGXHXHXHXHXKXKXKXJXDXoXa 1.>.:.4.V.V.V.V.V.V.D.Z.Z.l.l.N.N.Y.Y.H.C.;.7 2 7 7 2 6 2 o M $X7X$X#X#XOX@X1X@.| [ #.#.#.@. X+X$X$X$XOX}.W 5 o 1 7 2 6 7 8 >.L.Z.U.U.D.D.U.k.k.k.k.k.D.Z.S.S.S.L.G.z.x.`.>XSXzXzXrX>X#X,XsXZXAXNXFXvXwX9X9XtXwX0XwXqXwXwXqX9XqXeXqXqXqXwX$Xh     O O + e e h m u h B B h B ` X.G X.W G E W X.o.(.@XwXjXtX0XwXyXsX0XwXuXyXMXnXvXuXhXHXZXsX9X=XyXbX",
"` ` ` _ g.d.s.f.s.d.d.A oXPXIXKXKXKXKXCXbXuXMXBXKXLXbXvXnXKXKXKXKXLXPXGXBX+XG G G W G b b : X X + O e + + e 5 h h k h B B h J 9XJXKXLXFXGXCXGXKXGXGXHXHXFXmXMXmXFXKXKXHXCXCXAXdX).W W W W +X9X%Xz.v.j.C.S.Z.V.h.u.f.l.l.f.f.l.B.B.g.Z.Z.>.8 7 =.8 8 i O k #XSXrXyXuXwXkXzX3X .[ #.#.#.#.$.3X<XeXvXuXwXgXMX#XM 3 8 7 =.8 8 3 8 C.H.k.u.u.i.i.i.y.i.i.u.h.Z.L.L.K.W.E.W.Q.K.F.4XxXJXJXKXKXKXKXGXBXHXCXPXCXFXFXLXDXLXFXKXKXGXKXBX=XG G n n l - + + ; ; k k e e u h m m m B j j v G E - +XSXSXVXkXAXVXVX9X=XaXaX=X=XIXGXKXmXhXwXwXjXfXfXpX[.X.`.'.x.7.v.j.j.C.K.C.4.C.j.h.l.l.f.f.l.N.l.F.1.8 2 2 6 6 7 6 2 9 0.7XxX5XiX9XUX*X X+.U [ [ [ [ [ $.|.=X9X$X+X,X,Xx.0 1 2 2 2 2 1 1 4 y d u.u.( / / ^ y./ ( u.h.U.~.~.L.Q.P.J.J.XXXX%X@X=X*XrXzXkXzXlXkXfXaXpXpXqX0X0XqXlXzXSXjX>XaXSXkXfXSXkX- ; % . + O + e e h m m h h m m m m m m m h K /.'.#XmXKXLXLXKXKXKXKXKXKXKXKXKXHXHXHXHXHXHXKXLXKXJXJX8X3.>.>.>.4.V.V.V.V.V.V.V.V.Z.Z.Z.N.N.Y.l.Z.T.K.;.7 6 7 1 2 3 o @ G |.@X,X=X+X@X,X|.+.| @.@.$. X X}.}.}.@X].b l - q o 3 3 2 8 q.S.k.k.k.D.U.U.D.k.D.k.h.h.V.D.Z.S.A.K.F.J..XOX0XlXlXkX<X*X@X0XnXHXHXZXFXMXiX9XwXyXyXwXbXtX9X0XsXhXtX9XqX9XqX9X'.+   O O O 5 e 5 e N m m B B h B J X.X.X.X.W E W X.o.(.}.>XsXeX0XeXsXsXyXtXwXwXuXbXmXMXnXHXGXhXqX9XtXyX",
"_ _ _ _ _ s.f.l.s.d.v.z.7XJXmXKXKXKXKXLXmXbXmXFXLXCXbXMXCXKXKXKXKXCXbXbXeX(.F W W W G b v ; X ; + O e e e h e k h j j B K B B `.MXPXmXmXGXGXGXKXHXGXGXKXKXLXPXmXmXHXHXHXCXNXHXVX|.W W (.W }.9X$Xb.v.j.F.K.L.S.V.:.s.s.f.g.g.l.l.N.f.l.Y.V.<.8 8 8 8 4 + j b &XpXkXnXuX<XpX2X$.@.#.%.%.@.$.1XaXwXiXuXhXkX>XW + o 4 2 8 8 3 8 s k.k.i.i.i.i.y.i.i.y.i.Z.Z.L.L.L.W.W.E.W.W.K.F.4XcXDXJXKXKXKXKXGXFXHXCXPXPXFXJXJXJXLXDXKXKXKXKXsX[.b G n l - % X + * k k h e e u N V m m B B j j v X.G X.2XSXaXrXaXaXjXwXqXNXsX#X#X=XbXKXHXbXuXwXsXdXzXSX*X/.`.'.x.7.z.v.j.C.C.C.C.j.h.h.l.l.l.f.k.l.Z.Y.K.;.8 3 2 6 6 2 1 o e `.iXiXiX9X#X#X@X X| [ [ [ [ | &X*XUX#X#X,X@XX.5 1 2 1 2 2 1 1 4 y :.i.i./ ^ t.t.t.y.s u.k.Z.S.W.L.L.K.P.J..XoX#X#X=X<X1XpXlXpXdXlXdXpXpXpXaXpXpXpXdXlXkXVXjXrXjXAXdXdXVX+X% % X   + + * e e h m m h u u m m m m m m h D J /.OXuXFXKXLXFXBXFXKXKXKXHXKXKXKXHXGXGXGXGXKXKXKXDXJXDXJ.a >.>.,.q.,.q.q.V.V.V.V.Z.Z.Z.Y.Y.k.Y.Y.Z.L.W.;.2 1 2 1 o @ l R  .&X&X,X@X#X#X@X|.O.+.@. X X@X}.}. X| R R +.+.R + o 1 8 >.R.U.i.i.k.U.U.U.D.D.D.D.D.D.S.S.Z.C.V.j.v.oX5X5X0XVXSXzX>X@X#XtXCXHXAXHXCXMXtX9XwXwXwXtXGXbXtXyXnXBXsX0X0X=X9X#XK @   O O O e e O e N N N N B B B D ` ).X.X.X.W E X.o.(.).@X0XwXwXtXyXwXtXtXwX9XwXhXmXFXnXGXKXnXwX9XwXhX",
"_ _ _ _ s.s.f.f.s.d.n.m.DXJXDXFXHXKXKXKXLXFXFXCXhXvXbXMXLXKXKXHXGXBXbXtX@XW D W G G b v - % + + O O e e e h h h h D B M C C C 7.iXMXPXPXGXGXBXBXGXCXCXHXKXKXLXFXbXLXCXGXGXCXHXHX=XW G (.W ).#X5X.XF.5.9.K.K.K.Z.j.s.d _ g.n.l.s.N.N.N.l.Z.V.i 4 3 4 h `. X| @.@.@XyXkXrX2XfX3X$.$.%.$.$.&XrXsXiXuXyXpX*X+.T g + 5 3 8 8 4 p u.i.i.i.i.i.i.i.i.i.i.Z.L.L.K.K.K.L.W.L.L.L.K.J.5XcXJXKXKXKXLXGXKXGXGXFXFXLXKXKXKXLXLXLXKXKXKXCX,XX.b b v - ; + + + * k h u e e t u 3.V m N N j B D F ).G ].aXaXrX,X,XaXdXjXbXeX=X9X=XsXLXHXLXbXwX>XaXdXSX0X(./._._.H 7.v.j.j.C.C.S.j.j.h.h.l.l.l.k.k.k.Z.L.C.4.y 1 2 1 1 o   @ D @X0XUXUX9X,X@X}. X, [ [ [ | 1X=XUX#X,X XO.: + 0 1 1 1 1 1 4 ;.>.i.i.t.^ ^ t.t.t.i.:.h.Y.R.S.L.L.P.F.J.J._.OX=X>X>X<X<XpXlXkXzXlXkXpXrXpXfXaXpXaXjXlXkXjXjXjXCXAXjXjXdXb % X X   O + e e h h N N h e u m m m m N m m h B x.`.#XgXKXLXCXMXmXHXKXKXHXJXKXKXHXGXGXGXGXKXKXKXDXDXDX4X1.>.>.,.,.,.q.V.V.V.V.V.V.Z.Z.Z.Y.l.Y.Y.Z.S.!.A.;.3 o o + E +. . .@.$.&X1X,X#X#X,X+X].o.+.|.@X|. X@.[ [  .$.;X+.R @ o u T.k.i.U.a.U.U.U.D.D.V.D.D.S.S.S.S.S.C.C.C.5.XX5X9X9XlXHXlX>X=X,XsXZXGXZXGXBXbXyXwXwX9XwXtXbXbXbXhXsXyXtXtX9XUXUXOXh     O O e e e O w t N N N C C B B J ).X.X.X.W W X.o.o.).}.=XeXsXhXaXwX9XqXwXwXwXuXbXbXqXhXKXCXwX9XqXnX",
"_ f.f.f.s.s.s.s.s.d.z.5XJXJXMXuXmXLXKXKXKXHXFXbXtXsXbXCXKXKXKXFXBXBXBX0X).G F G F b b l ; % + + + O e h h h B h k M B B C C C C $XIXKXKXKXHXbXsXBXBXCXHXKXKXJXKXmXHXmXGXKXZXKXHXeX).W X.G X.OX#XoXb.9.v.F.K.C.H.H.j.s._ f.l.l.g.f.N.N.f.l.Z.s.u u N ).1X$.$.%. .|  X<XpX2X2X3X3X&X$.$.&X1XrXyXwXlX1X X@. .@.+.b h 4 4 8 y i.u.i.i.y.y.i.k.i.i.h.Z.R.T.L.K.K.K.K.W.L.L.L.J.XX7XDXJXKXKXKXKXKXKXKXHXFXFXLXKXKXKXJXFXLXFXHXKXhX}.F F b z - % + + k e e h t e e t f Z V V V N B B D j (.X.o.,XpXpX<X0XrXaXjXsXwX9X9X9XvXFXLXKXCXwX=X>X0XdXaX}./.`._.7.7.9.j.j.C.C.S.C.H.j.2.:.h.U.U.Z.k.Z.Z.H.L.4.y 3 o o 5 ; - b +. X&X1X<X,X@XOX@X| |  .| {.,X=X=X-X&X .| | n D 0 o o 1 4 ;.>.i.y.t.t.^ ^ y.y.>.>.h.Z.R.T.W.L.L.L.J.J.m.'.OX*X,X<X<XpXdXzXlXlXkXzXpXqXpXfXaXrXpXjXlXjXjXjXjXNXSXlXVX-X% % . X   + + e e h h N N N u m m N N V V N m h B H '.%XiXKXHXFXBXCXHXKXKXKXJXKXKXKXHXGXHXHXLXFXDXJXDXDXxX5.>.>.,.,.,.q.q.q.V.V.V.V.h.h.h.l.l.l.l.Y.R.L.L.L.a o   b ;X$.{ #.[ #.$.&X,X=X7X7X:X%X` o.@X|. X$.[ { #.#.[ #.$.+.% @ V R.k.i.U.a.U.k.i.i.i.V.D.S.S.E.S.S.L.L.L.L.F.G.XX5XwXaXZXdX=X=X9XhXGXGXAXHXNXIXtXwXwXwXtXsXwXhXbXsXwXqXeXtX9X9X7X'.5   O O 4 e e w w e e u a N C C C B H ` /.(.(.X.W X.o.o.).[.@XeXbXbXsXyX9XqXwXwXuXvXMXhX9XwXHXCXsXyX9XsX",
"( ( f.f.f.f.f.s.d.n.z.xXJXJXuX9XbXBXLXHXKXHXmXsXuXbXCXGXKXKXGXBXbXBXBX=XW F W F G v v g ; % + @ e e e m h k B h + k C C A A C C '.iXKXKXKXHXMXyXnXNXFXHXKXLXKXKXHXKXCXHXKXGXHXHXNX+X(.X.G X.}.#XOXb.9.v.G.F.C.H.H.H.l.d.2.s.l.Y.g.N.N.g.l.l.l.c.` %X1X$.$.%.#.#. .|  X2X2X2XpXfX3X X X*X1X1X<XpX1X@.@.$.#.#.$.+.j 5 4 8 h.U./ ( i.i.i.i.u.:.h.Z.L.L.L.K.K.P.Q.P.L.L.L.F.J.4XxXJXJXKXKXKXKXKXKXKXKXHXCXPXFXJXKXKXFXFXbXBXHXeX(.v b z l ; + + k e e u N u e w t f a V 2.Z V C B B B J (.o.|.<X,XrXkX<X>XeXsXtXwX9X9XvXFXLXKXFXyXqX,X>XeXVX=X(.`./.8.7.7.v.F.C.C.C.H.P.Z.a f :.Z.U.D.Z.U.Z.Z.Y.H.4.9 1 O k O.+.@. .| $.3X1X@X@X#X+X X| @.O.@X>X@X-X&X$. .#.%.@.].D o o 4 i :.i.y.t.t.i.i.i.i.s p y L.L.L.L.W.Q.Q.L.XXJ.b.'.}.@X1X2X1XpXpXpXlXlXpXkXdXpXfXkXdXpXpXjXlXNXjXjXjXkXkXNXVX].+ .   + O + e e e u N N S N N N N N V V V N C B B H x.`.9XCXKXKXHXHXKXKXKXKXKXKXKXKXKXHXHXKXmXvXMXJXJXDXDXJ.>.>.,.q.q.q.q.q.q.D.D.h.:.>.2.s.l.Y.Y.Z.Z.H.Z.j.V O ; +.@.#.{ } { #.#.@.&X,X,X#X7X).` o.&X&X+. .{ [ } { #.#.$.+.; h Z l.U.U.a.i.U.k.:.>.i.S.E.E.E.E.E.W.L.L.L.K.4XG.b.9XuXpXVXfX*X=X0XhXCXHXHXHXbXtX9X9XwXwXtXyXtXsXsXtXwXtXsXsX9XiX9X/.+   O 4 O e w w e e w t a V 3.A C H H K /.`.).X.X.X.X.o.(.(.OXqXhXsXaXsXtXtXwXwXyXnXBXnXtXwXBXFXHXHXwXwX",
"( ( s.f.s.s.h.j.v.m..XDXKXGXbXqXtXbXCXGXKXKXvXwXuXCXHXBXMXbXBXBXNXKXtX).W E G E F G v ; ; % + O e e e e h m h e O M 7.A C 3.3.C H $XPXKXFXLXLXbXGXFXGXHXLXBXLXKXKXKXHXFXCXCXFXCXCX,XX.G (.F ].+X$XOXb.9.G.I.F.H.j.F.H.H.l.d.j.l.g.N.N.g.g.g.c.` '  X3X$.#.#.{ #.%.@. .$.2X2X2XfX1X+. X*X1X2X3X3X@. .#.#.{ #.#.@.O.x u 2.D.k.( i.u.k.k.:.f a C.T.T.L.C.5.j.C.V.V.K.K.P.P.G.5XDXJXKXKXKXKXKXKXKXKXGXGXFXCXMXmXFXKXKXbXmXKXCX}.F v b v g ; + % e e e u t t t t f f f a V 1.Z C C C B J (.X.X.,XNXzXSXlXqX=XeXhXsXtXwX9XwXnXKXHXbXeXqX>X@XjXdX).X.'.8.H 7.v.F.C.A.A.C.C.C.j.h.4.h.h.U.Z.U.Z.Z.Z.N.H.5.4 + ` @. .[ [ [ [ @.$.&X1X#X+X&X| O.].+X=X*X&X$.#.{ { { #.@.+.+ o e s.u.y.i.t.i.y.y.y.u.s.h.4.L.L.L.L.Q.W.L.I.J.XX.X/.}.,X1X1X-XrXpXpXpXpXfXlXlXkXaXrXqXqXpXpXZXAXSXaXhXjXpXzXpX- X + @ O O + e e u u u N S S S Z V V V V V V C C M C x.'.OXuXKXHXCXGXKXKXJXKXKXKXKXKXGXLXKXKXFXuXMXJXJXJXDX4X>.>.>.,.,.q.V.q.V.V.4.>.>.4.1.a a d.B.f.B.n.l.f A x n +.#.{ } } } { #.#.$.&X*X@X@X|.+. X;X$.$.[ } } } } { #.@.| x t r p k.U.U.U.D.h.h.D.S.W.E.E.E.E.W.W.L.L.L.K.I.F..X5X#XbXjX<X=X*X9XsXBXHXHXNX9X9X9X9X9XqXtXsXtXyXhXhXtXqXwXsX9X9XiXK   O O e w w w w w w w w f a 2.3.A A H H J J ).[.(.X.X.(.(.).[.=XjXaX0XsXsXyXwXwXyXhXmXCXyX9XhXKXKXCXbXbX",
"f.f.s.s.j.j.H.H.v.m.$XJXLXGXCXjXNXFXBXMXCXmXuXuXvXFXKXFXbXvXnXGXGXZX>XX.E W E E G F g ; ; + + + e e u h h h h e 5 m 7.7.C 3.3.6.C %XxXJXJXKXKXCXHXGXGXHXFXCXFXKXLXHXHXGXFXFXFXCXGXyX(.W X.W (.}.7X$X.X0.9.F.F.K.T.T.H.n.j.d.j.j.g.l.l.l.l.c.` ` ' @.$.$.#.{ { &.#.#.@.@.&X1XpXlX-Xo.{.3X3X3X%.$.#.#.%.&.{ { #.@.n ` _ :.u.i.i.i.k.h.:.a 2.j.L.P.P.P.L.H.F.C.4.2.>.>.1.6.v.5XDXKXKXKXKXKXKXKXKXKXHXHXGXCXmXmXFXKXKXbXGXKXeX).F v b v g ; + k e e u u t t t t f f f a d 2.2.A A C K K /./.(.@XkXlXSXNXwX>XsXBXnXbXwX9X9XyXFXKXFXBXtX0X@XeXdX[.W (./.8.7.9.v.C.C.A.j.j.j.C.C.h.h.:.i.D.U.U.l.l.N.Y.F.V K o. .[ [ [ [ [ [  .$.&X-X=X1X+.n o.,X<X X@.#.{ { } { #.@.O.k e f l.u.y.i.y.y./ / d s.F.P.P.L.L.L.L.L.A.C.5.9.b.b.`.+X1X1X1X<XpXpXpXpXpXpXpXaXfXfXpX0X0XpXdXZXZXVXkXkXNXkXlX+X% X @   O O 5 e e u u u N S S Z Z Z V V V V V C C M B 8.'.`.9XCXHXCXCXKXKXLXKXKXKXKXKXGXLXKXKXKXMXFXKXJXJXDX7X6.1.4.q.4.,.q.q.,.q.4.>.4.C.j.2.w e g.B.B._ _ _ ` K ' |  .#.{ } } { { #. .@.;X1X1X*X@.@.$. .#.{ } } } } { #.@.x t t r p i.k.D.D.Z.Z.D.S.S.E.E.E.E.E.E.E.W.L.L.L.L.J.5XcXiXbXfX-X=X=XtXNXGXKXGXsXiX9X9X9X9XqXtXsXtXqX0XtXaXyXtXwXiXiX5XM   O O O w w w w w t t t f a 2.2.3.A A H H J /.`.).X.X.(.(.(.).+XdXjXrXsXyXtXwXwXwXyXbXmXgXwXyXHXKXbXhXCX",
"h.h.s.2.h.H.J.J.v.m.iXKXPXGXGXCXGXKXFXbXbXbXsXhXmXHXKXKXbXyXMXGXKXsX}.W E E E W E b g ; ; + + e e u m N N h u u e m A 3.3.3.3.3.C x.7XJXKXKXKXFXHXGXGXGXFXBXPXFXCXFXHXLXLXKXHXFXKXGX[.X.W X.W [.#X5XXX8.9.G.F.I.F.j.j.j.j.F.F.F.j.j.l.n.n.c.` ` ` O.@.%.#.#.#.{ #.%.#.@.$.&X2XlX|.o. X3X3X3X$.#.#.&.&.{ { &.%.@.; ' d.d s / i.k.l.s.:.2.C.P.P.P.P.P.P.T.T.L.Z.j.2.1.V 1.b.7XJXJXKXKXKXKXKXKXKXKXKXKXKXGXFXCXLXKXHXCXKXCX+XW b b F z k % k k h u S t r r t f p f f s d d 2.3.3.A 7.C J /.).}.0XlXjXjXeXqXbXGXFXFXuXtXtXvXLXKXHXGXjXqX=X>XdX@XW (./.J 7.9.5.C.V.C.C.j.j.C.C.V.V.i.:.h.Z.U.N.l.N.Y.j.d.M.O. .[ [ [ } } [ [  .@.&X*X*X Xc ].<X1X+.@.[ { &.} { #.@.| x S _ f.f.u.i.i.u.( d s.j.J.P.P.L.L.L.L.L.L.K.F.6.9.x.%X,X<X1X1X2XdXpXpXpXpXqXrX0XpXdXpX0X<XpXdXSXVXjXjXSXSXSXlXE X X X   O O e e u u u f d S Z Z Z Z Z Z V V V V C B B H '.`.OXbXLXGXCXLXKXKXKXKXKXKXKXLXLXLXKXKXLXKXKXLXKXJXxXv.6.1.4.4.>.,.q.,.q.V.q.V.A.C.C.V u 3.d.g.t _ c.` ` ' n | #.#.{ { } { #.#. .$.;X3X3X . .#. .{ { } } } #.#.| ] t r r p p p u.D.C.A.S.S.S.S.S.E.W.E.E.E.E.E.E.W.L.I..X5XJXPXNXeX*X=X9XhXGXKXKXBXtXiX9X9X9X9X9XtXsXyXwXwXyXhXsXtXwXtXiXOX5   O O 4 4 w w w w t t t f a d 2.3.3.3.A H H J /.%X/.` ).(.(.(.}.<XaXrXwXtXyXyXyXyXuXhXbXvXuXwXCXKXhXuXKX",
":.h.h.2.2.F.G.b.7._.PXKXIXFXCXCXFXKXHXCXFXFXnXmXGXKXKXKXFXvXMXGXKX>X(.G E E E W G b g ; * + * e h u m N N e e u e u N 3.3.3.3.3.7.H $XDXKXJXKXFXGXCXCXCXFXFXFXFXCXGXLXmXCXKXKXKXKXKX#X(.W X.E ).+X#XOXb.0.G.9.5.>.1.2.j.H.P.P.P.F.j.j.n.n.c.c.B.M.' O.@.$.%.%.#.#.#.%.$.$.&X1XzX{... X3X3X%.#.#.%.{ { #.%.%.@.] t t ( ( s p / h.2.j.C.H.L.P.P.P.P.P.L.L.T.T.T.T.L.H.v.v.oXcXKXLXKXKXKXKXKXKXKXKXKXKXKXKXGXLXKXKXGXHXKXyX(.b b v v g % + k h h u a t w t f f p s s f s d 2.2.3.3.7.C K /.(.`.=XdXyXkXaXyXbXZXBXFXIXIXvXFXKXKXGXmXnXyX0X>XdX,XW X./.8.7.3.5.5.q.q.C.C.V.C.C.C.A.D.h.:.u.k.Z.Y.l.s.s.d.` ` |  .[ [ [ } } { [  .+.;X&X-Xb |.&X@.@.#.{ { { { { #.@.' x _ f.s.f.u.u.u.f.f.f.l.H.P.I.G.L.L.L.Q.W.Q.Q.P.9.b.x.OX>XaX1X&XpXdXpXpXpXpX<XrXqXpXaXpXqXqXpXjXSXjXaXjXNXSXSXaXg X X @   O e e e u u u f f d d Z Z Z Z Z Z Z V V C C C H '.`.`.uXLXKXFXHXKXKXKXKXKXKXKXLXFXFXFXKXKXKXKXFXLXJXcXXX6.>.6.4.>.>.q.q.V.A.V.V.A.A.C.J.v.3.f Z _ g._ ` ` ' n c  .@.#.#.{ { #.#.#.#.#.%.$.[ [ #.#.{ { { { #.@.| ; * t r r p p r >.A.C.A.S.W.E.S.S.E.W.E.E.E.E.E.E.E.W.P.J.5XDXGXbX<X+X=X0XbXGXGXGXBXtXiXiX9X9X9XiXtXyXsXvXbXbXsXyXtXtXiXiX'.O o 4 4 w w w w w r r r t f f d :.2.d.3.3.7.7.K x.OX`.J (.(.(.(.).=XyXsXeXhXhXhXhXuXuXyXhXnXbXuXhXKXbXyXKX",
">.h.C.j.j.F.J.b.9.XXLXLXuXMXBXCXBXKXKXFXKXKXLXKXLXFXHXKXKXCXCXHXnX+XG F W E E E v b l ; * e e e m m m N u e t f t u u Z 3.3.5.7.9.C _.xXJXJXJXFXFXCXCXCXLXKXHXLXGXHXFXMXMXLXKXKXKXKXyX(.o.E E o.[.@XOX'.7.9.1.1.4.5.F.L.P.T.P.P.H.v.H.R.Y.n.c.B.B.` ` O.| @.3X$.#.#.#.$.$.$.3XzX+.| @.%.$.#.#.#.#.#.%.%.%. .x * ) ) ) ( / s p p 4.C.T.T.P.L.P.P.Q.L.L.K.L.L.L.L.T.P.J.XX7XDXKXKXKXKXKXKXKXKXKXKXKXKXKXKXKXKXKXKXGXKXZX#XG b b v v k + + k h h t t t r f p p p s s p s d 2.2.3.3.3.7.H J /.).+XqXeXjXjXjXbXhXsXbXtXuXvXmXKXKXGXCXmXhXsX0XaX<XX.X.(./.7.3.6.5.q.q.C.C.C.C.C.C.C.Z.Z.h.:.2.k.Z.h.d h.s._ ` O.| [ [ [ [ } [ [  . . .;X;XT 3X@.@.#.#.#.} { #.#.@.' ; ) g.f.u.k.k.u.s.s.k.H.R.T.P.P.L.L.L.W.W.W.L.L.L.J.J.b.OX>XkX1X XpXlXkXpXpXpX<XpXpXpXpXpXpXdXlXVXZXNXyXkXlXSXSX=X% X + @ o O e e i u t f f f f d ( ( ( s.2.2.1.1.V C C C H '.`.'.,XBXKXLXKXKXKXKXKXKXKXJXFXPXmXmXLXKXKXKXLXLXLXDX7X9.u 1.4.>.,.q.q.V.A.V.V.C.C.C.F.F.5.a s.g.B._ _ c.` ` n c c  .@.$.#.#. .#.#.#.%.#.[ [ #.{ { #. .$. .> X * t r r r p p p >.S.A.S.E.E.S.S.S.S.E.E.E.E.E.E.E.E.W.L..X5XgXhX<X-X*X=XqXbXBXnXBXBXaX9XiX9X9X9XwXtXtXhXbXbXhXyXwXqX9XiXiXK O O 4 4 w w w w w r r r p p f f d 2.d.d.3.7.7.C x.OX%Xx./.X.o.(.).+XeXnXjXnXnXnXhXyXwXuXhXvXGXvXgXFXFXnXHX",
"V.L.T.P.P.P.J.G.b.5XDXcXiXvXLXGXGXKXLXmXLXKXHXKXCXBXCXLXHXHXKXKXwX).F E E E E b z b l + + k h e M B N N u t t f d f f V 3.5.9.9.7.H x.5XPXKXJXKXGXGXFXFXKXKXKXFXCXGXCXvXvXLXKXKXKXHXCX[.o.E Q O.o.}.OX'.b.9.5.5.K.L.P.P.L.L.P.P.P.P.T.T.R.Y.l.B.g.c.M.' x x O.@.%.%.%.%.$.$.$.3X@.|  .$.%.%.#.#.#.#.%.$.c ; * t ) ) ) ^ / y.>.y S.L.L.L.L.W.W.Q.W.W.W.W.L.L.L.K.H.J.J.oXxXDXKXKXKXKXKXKXKXKXKXKXKXHXKXKXKXKXKXKXCXHXhX].b b b b v g % k h h e t e t f f s p s s p p s s :.2.3.3.3.7.7.H 8./.}.>XjXNXNXjXbXaXwXtXuXIXMXbXBXGXGXFXCXmXnXpXpX<X].E (./.7.6.6.4.q.q.q.q.C.A.C.V.C.C.Z.j.h.s.s.s.s.s.f.f.d._ ' n | @. .[ [ [ [ #.#. .3X+.R $.@.#.#.{ { { #.$. .n x x ) f.f.u.k.s.:.s.Z.H.R.R.P.L.W.Q.L.L.L.L.L.W.L.L.P.XXb.$X9XjX1X&XzXlXlXpXpXrX<XpXpXqXqXpXdXVXSXZXZXSXaXkXlXSXlX).X X @ @ O O e e u i i f f f f f ( ( ( s.s.2.2.1.1.C 3.H H x.`.'.OXyXHXHXKXKXKXKXKXJXKXJXLXPXmXMXmXLXKXKXKXHXHXJXcXJ.V V 4.4.4.q.q.q.V.V.V.V.C.A.K.q.F.5.l.s.g.f._ g.c.c.` * X ; R  .$.$.#.#.#.{ #.#.[ { { [ #.#. .Q -     w ) r r p p p p u.L.K.E.E.S.S.S.S.S.S.E.E.E.E.E.E.E.E.K.oXiXuX9X}.|.=X=XqXbXbXIXMXBXtX9XwXwX9X9XiXtX9XbXhXyXtXyXsXwX9XiX5XM O O O 4 w w w w w r r r p p p f s 2.s.h.5.7.z.7.x.oXOX'./.(.X.).).[.=XyXaXNXnXnXgXwXwXwXuXhXHXCXhXCXKXFXCX",
"L.Q.!.!.P.P.P.I..XxXDXxXMXMXJXPXKXKXFXmXGXKXHXKXLXGXFXMXbXCXHXHX=XX.F W E E E b v n g + * k h h M B N u t t t t d f f a Z 3.9.9.7.8.7.%XcXKXLXKXKXHXFXBXFXHXFXbXhXmXmXbXMXJXJXFXKXFXHX*XX.W W E O.}.OX%X_.v.F.P.L.L.P.L.L.L.L.Q.P.P.T.T.Y.H.l.l.N.B.B._ t * * x  .$.%.$.%.$.@.@. .[ @.$.%.%.%.#.%.#. .: .   w f.^ ^ ^ ^ ^ i.p.>.W.W.W.S.W.W.W.W.W.W.W.Q.Q.Q.W.P.P.J.J.5XcXDXFXKXKXKXKXKXKXKXJXKXKXKXKXKXKXKXHXLXbXHX0XX.b b b b v k ; k j h t t t t f f s s s s p s s s :.2.5.5.3.0.0.H J W ).>XSXNXdXaXbXsXwXwXmXPXmXMXbXmXCXCXCXCXbXdXrX<X*XE (./.7.C 1.4.q.q.q.q.C.C.C.C.V.j.C.C.C.j.j.s.h.h.u.f.f._ _ x l R  . .[ [ [ { { [ $. .!  .#.#.{ { { #.$. .; * N g.( f.u.u.s.:.2.j.T.T.R.L.L.L.W.W.L.L.L.L.W.W.Q.P.P.J.b.7XiXyX@X<XlXlXzXpXpXpXpXpXpXqXqXpXkXVXSXVXlXSXkXlXjXSXaXb . X @ O O 4 e y i i t f f f f f ( ( ( s.s.s.2.1.6.C 3.7.C x.`.'.).9XCXKXKXKXJXKXJXJXKXKXKXLXFXmXMXmXCXFXKXHXHXKXDXoXC V 2.4.4.q.q.q.V.V.V.V.A.A.Q.K.L.C.l.( f.N.f.g.g.n.n.e     X > ! $.$.#.{ { [ [ [ #.{ [ { U z +     O t s p p ^ p r s D.Z.S.E.E.E.S.S.S.S.S.S.S.E.E.E.E.E.E.P.5XcXuX>X[.|.=X=XeXNXnXsXIXsX0X9XiXtX9X9XtXwX9XbXbXsXyXyXsXtXwXuX$Xe O O O w w w w w w r r r p p p s s d 2.d.j.3.7.7.8._.OX%X/.(.X.).).).+X0XrXjXjXhXyXyXwXwXwXyXnXCXCXCXKXFXbX",
"!.Q.L.P.P.L.G.G.XXDXJXcXKXPXJXgXHXKXLXFXKXKXKXHXKXKXHXhXuXhXBXCX+XW F E E G G b b v k * e e e m m B m e e t t t f f t t V 3.v.9.7.b.7.b.xXJXPXLXKXHXCXnXmXCXbXwXqXhXMXMXmXJXJXMXKXGXKXwXE o.W E O.}.+XOX.Xv.9.I.K.K.L.P.L.L.W.L.P.P.H.v.j.l.N.N.N.N.U.B.d.w O e ; T @.@.$.3X$.[ I I #.%.#.$.%.%.$.! - .   4 s i.i.^ ^ t.y.>.p.W.S.W.W.W.W.W.W.W.!.W.W.W.W.L.L.L.P.J.G.5XDXLXmXKXKXKXKXKXKXKXKXKXKXKXKXKXKXJXFXFXuXHX,XF b b v G j k * h N m t t t f f p p s s s s s / d :.2.h.j.5.9.7.8.8.J (.,XSXjXqXrXjXbXtXwXvXmXBXbXbXnXBXnXJXFXhXhXqXqX<XE (./.J C 1.4.q.q.A.C.q.q.C.A.C.C.C.C.C.C.C.j.j.j.u.k.f.f.g.S k + : !  . .[ [ [ { [  .[ [ #.#.[ #.%.$.R %   O a f.f.u.f.k.h.4.j.L.L.L.L.L.W.W.W.W.L.L.L.L.L.L.L.L.P.G.b.cXuX0X|.pXlXlXfXrXfXdXfXdXpXpXpXaXkXlXlXjXsXSXkXlXlXNXrX- . @ @ O 5 e u t f i i f f f f s / ( ( u.s.s.2.2.3.V 3.7.C H '._./.,XCXKXKXKXLXKXJXJXKXKXKXKXLXFXvXMXbXmXHXHXGXKXJX5X7.6.1.1.4.4.V.q.V.V.V.V.A.A.q.q.K.C.H.h.k.s.l.l.f.l.R.V O o     % R  .#.#.{ { [ [ #. . .U # @ o o o w s / r p ^ r r y.Z.Z.S.S.E.W.E.S.S.S.S.S.S.E.E.E.E.E.K.oX7XMXwXeX*X*X*X=XaXZXBXsXsXtXUX9XwXtX9X9XtXwX9XsXnXnXsXqXqXwXuXxXoX5 o O 4 w w w w r r r r p p p p s s d 2.h.j.3.7.7.8.x.OXOX/./.W (.[.[.@XyXaXjXhXhXhXgXyXwXwXyXyXnXLXLXFXCXbX",
"W.!.W.L.Q.Q.I.P.5XDXJXLXJXLXMX9XbXCXHXLXGXKXKXKXKXKXGXbXyXnXNXyXX.G F G E G b b F D k 5 h N h N B B h e t t f t f f Z f t C b.7.v.9.3.v.5XDXKXLXGXGXGXBXBXBXnXvXbXnXhXuXDXKXDXcXJXKXCXjXo.W o.X.O.].+X#XoXJ.F.C.K.K.L.L.L.L.L.L.K.Q.L.F.H.l.f.N.N.N.N.h.R.>.4 8 5 @ h `.@X&X$. .= [ #.%.$.$.$...z + @ o o y p.>.t.t.t.t.i.i.~.W.E.E.W.W.W.W.W.W.W.W.W.W.W.W.W.P.P.F.XXxXDXJXHXKXKXKXKXKXKXKXKXKXGXHXKXKXKXJXPXFXmXBX[.b T b E F k e e j B N t t f p p s s ^ :.y.p s / y.( d 2.3.3.9.8.8.J J (.}.aXVX>XeXjXNXeXsXtXvXGXNXtXvXBXvXDXJXLXMXBXHXqXo.Q (.W K C 1.4.q.C.C.C.C.C.C.C.C.C.C.C.S.H.F.j.j.f.f.f._ s.j.a O O + b +. .[ [ [ [ Y I #.{ { #.@.+.l % @ o y D.i.k.u.k.k.a 4.!.P.P.P.L.L.L.L.L.L.L.L.L.Q.Q.L.L.L.P.J._.7XNX<X&XzXlXkXpXpXaXaXaXdXdXeXeXaXkXdXdXdXhXjXjXkXdXdX|.% +   O O e e w u t t f f f p p p / / u.u.s.s.s.s.s.3.3.3.3.C 8.`.).}.sXHXKXKXKXKXFXKXKXKXPXLXKXmXKXFXMXMXCXHXKXJXDXxX9.u 4.1.4.q.q.,.,.V.V.V.V.V.A.A.C.C.C.j.j.d.l.n.d.n.J.3.y o o o @ X >  .#.#.{ [ [ @.+.c % o 1 1 1 o f p p p r r r r k.D.Z.Z.L.K.K.S.S.S.A.A.E.S.A.S.L.K.K.F.oXsXNXdX*X>X=X*X>XjXHXZXtX0X9X#X9X=X9XtXtX0XwXsXbXsXtXwXwXwX9X9X$Xb.O O e O O w w w r r r r r p p s s s s :.s.j.v.3.7.z.8._.$X`.X.o.(.).].|.0XjXdX0X9XeXyX0X9XwX9XsXnXnXBXCXBXGX",
"S.W.W.K.Q.Q.I.P.7XDXJXPXmXbXsX9XbXCXHXHXLXLXmXMXFXGXGXCXNXSXjX,XW G F G G G b F G j e e h N h N B N u e t t f t f f d f t S z.z.v.v.5.v.4XcXKXLXFXGXGXCXBXFXFXmXFXHXCXMXPXJXPXMXKXKXHXBX).W o.X.X.].+X#X$X.XG.C.A.S.L.W.W.L.L.L.K.Q.L.H.H.l.f.N.N.N.k.k.S.q.8 8 8 8 8 u 8.@X&X .[ [ #.%.%.@.T % @ o o 1 3 <.p.>.t.t.t.y.y.U.~.!.E.W.W.W.W.W.W.W.W.W.W.W.W.W.L.P.P.F.4XcXJXLXZXZXHXKXKXKXKXKXKXKXGXHXHXKXKXJXMXMXBXaXo.b b b F v k e e h N N t t f p p p ^ ^ y.y.t.t.y.y.( d 2.d.3.9.8.8.8.J X.).rXVX>XqXjXHXNXnXtXtXtX9X0XsXGXFXLXJXJXDXmXGXaX XQ o.W K C 1.4.q.q.q.C.C.C.C.C.C.C.C.C.C.H.C.j.2.h.f.f.s.f.k.:.4 o o 5 z R  .[ [ { Y I { #.#.@...% @ o o 1 i D.p.i.i.k.h.:.j.Q.P.P.L.W.W.W.W.L.L.L.L.L.W.W.L.L.L.H.J.oXiXNX<X-XzXlXfXqXrXaXdXpXpXdXaXaXdXdXaXaXsXkXjXkXdXfXfXo.+ +   O 4 w e e u t i f f f s s s / / u.u.u.s.u.s.s.h.2.3.3.A 8.`.(.).0XHXKXKXKXJXKXKXMXKXLXmXKXmXLXLXLXLXLXKXKXKXDXcXG.V 6.1.4.4.q.q.,.V.V.V.D.V.A.A.A.A.C.C.j.d.n.n.d.n.H.j.a 3 3 1 o o X - ! #.#.[  .$.R @ o 1 2 2 3 4 p p p r r p p s D.Z.Z.S.K.K.K.K.K.E.E.E.E.A.S.L.K.C.F.J.OXpXdXrX+X*X@X*X>XdXHXNXeXwXwX9X9X,X,XqXwX0XqXtXsXsXtX9X9X#X#X#X$XK   o 5 O w w w w r r r r p p p s s s s :.s.d.v.3.z.z.x._.OX`.(.(.).].).}.=XpX>X,X,X>X0XwXwXwX#XtXhXbXCXHXGXHX",
"S.W.W.K.W.K.I.XXiXDXLXmXmXBXCXhXCXCXHXKXKXFXmXmXFXGXHXZXHXHXkX+XG G G G G G G G G k 5 e h m N N N N u t t t f t f f d Z u N z.v.v.v.v.v..XxXKXLXGXGXGXGXGXHXKXHXHXKXFXbXMXmXMXMXJXKXKXGX}.W X.W X.].+X#X$XoXJ.F.C.A.S.W.W.W.L.L.L.Q.L.H.R.n._ _ N.N.f.U.Z.A.;.8 =.-.8 3 5 J |.@. . .$.3X XT +   o o o 1 8 >.p.t.t.t.y.y.:.!.W.!.W.W.W.L.W.W.W.W.W.W.L.L.P.P.P.L.L.P.5XDXJXFXCXCXHXKXKXKXKXKXKXKXHXHXGXKXKXDXMXvXGX*XF b b F F g k e e h N u t f f p p p ^ ^ y.y.t.y.y.y.u.u.s.j.3.v.8.8.8.J G X.@XNXaXpXjXHXHXCXtXqX#X#X9XsXNXKXDXJXJXLXmXNXkX<XE o.X.G C 6.4.q.q.q.q.C.C.C.C.C.C.A.C.C.C.j.2.a s.f.f.f.f.k.h.a 3 o o @ - R  .[  .[  .[ $.@.T %   o o 1 4 :.k.i.i.i.k.:.4.L.Q.L.W.W.W.W.W.W.W.W.L.W.W.L.W.W.L.L.F.XX5XuXyX-X-XzXlXpX<XrXdXdXpXqXdXdXjXjXjXaXdXjXNXSXlXlXzXfXb % @ O O 5 e e e f t t f f f s s / / / u.u.u.u.u.s.2.s.2.2.3.3.8.'.).).=XBXKXKXKXKXKXMXuXLXLXMXmXMXmXLXKXKXKXLXKXKXJXDXoX6.1.1.4.q.q.q.q.V.V.V.D.D.A.A.A.A.A.C.j.j.l.c.g.n.n.F.4.4 2 1 1 1 o . % Q @. .+.T @ o 0 1 2 2 3 4 p p p p p p p u.D.S.D.L.K.K.K.E.E.E.E.E.A.A.S.L.S.C.F.J.@X>X,X=X}.=X@X*X>XkXAXnXeXwXeXwXqX9X9X9XqXwXeXeXbXvXsXuXwX9X9X9X$XM   O 5 O w w w r r r r p p p s s s s s d s.j.v.z.z.z.H x.`.'.(.(.].).).[.@XqXeXeX0X>X9XwXwX9X=XtXyXyXnXHXGXGX",
"S.W.W.W.W.K.I.4XcXJXPXmXFXHXKXHXKXLXHXKXKXPXPXKXKXCXBXnXCXAXrX).G G G G b G G G K k + h h m N N N N t t t t f t f f d S f N A z.v.v.b.b.b.7XKXLXKXKXKXGXGXGXKXKXCXHXCXbXmXMXMXMXDXKXKXHX@XW W W ..+.|.#X$XoXJ.F.C.A.S.S.E.E.W.W.W.W.L.H.J.n._ S c.B.f.Y.Z.S.4.8 =.=.-.8 3 5 K ].| @.&X+.b + o o 1 3 1 3 <.,.p.t.y./ y.p :.!.A.W.W.W.W.W.W.W.Q.W.W.P.P.L.L.L.L.L.K.P.8XDXJXFXZXCXKXKXKXKXKXKXKXKXHXHXCXPXLXPXIXvXCX[.b b b F F g e e h h N u t f f p p p ^ t.t.t.t.t.y.y.u.s.d.n.v.v.8.8.x.J G J ).aXNXNXjXjXBXBXsXtX#X@X0XwXtXBXPXPXLXLXmXjXzXpXE E X.K B 6.4.4.q.q.q.q.C.C.C.C.C.A.C.C.C.F.5.a :.u.f.f.u.k.Z.4.9 3 o o @ % c  . .@. . . XT %   o 0 1 2 i h.i.i.i.k.u.d h.P.Q.L.W.W.W.W.W.W.W.W.L.W.W.S.S.W.W.L.H.oX7XuX=X|.1XlXzXpXpXdXjXdXpXrXdXkXbXNXNXjXjXNXSXSXVXlXlXfXg ;   O 4 w e e e t t t f f s s s / / / y.u.u.u.s.s.2.s.2.3.3.7.7./.[.`.@XjXKXKXLXKXKXMXuXFXLXMXmXFXmXLXKXKXKXLXLXKXJXJX5X3.V 1.4.4.q.q.q.V.V.V.V.V.V.A.A.A.A.C.Z.l.l.g.n.n.l.H.F.9 2 2 2 2 1 o @ k W Q v +   1 0 2 2 1 3 y p p p p p p p D.S.W.A.W.K.K.K.E.E.E.E.E.A.A.S.S.A.C.K.J.OX|.{.|.+X>X*X@XqXNXZXdXwX0X0XwX9XwXwX9X9XqXeXwX0X9X9X9XwXwXwXuXOXk @ + e e t w r r r r p p p p s s s s s d s.j.d.z.z.z.H H x.'.(.o.).).).].@XwXNXjXwX0XwXwX9X=XqXyXtXtXbXGXHXKX",
"S.W.W.W.W.K.P.5XDXJXcXvXCXGXKXHXKXHXKXKXKXMXMXmXGXbXsXhXNXBX,XX.W G b n n G G F v + 5 h h N B N N t t t t f f f f f d d S u N z.v.v.G.b.9.5XDXLXKXKXKXGXGXGXHXKXGXHXFXCXKXLXPXPXPXFXKXHX>XX.W O.Q o.].@X#XoXJ.j.C.A.A.S.E.E.E.E.W.L.L.H.J.m.` S c.c.B.l.Z.Z.C.8 =.=.*.-.9 0 5 j G  X|.F + o o 2 2 6 2 3 <.p.i.y.y.^ u.r s.T.K.L.L.W.W.W.Q.Q.P.P.P.P.P.L.P.P.L.L.F.4XxXDXLXFXHXGXHXKXKXJXLXPXPXBXZXZXBXMXMXcXcXmXsXX.b b b v z k e e h N N u t f p p s ^ t.t.y.y.t.t.y.y.u.s.d.n.v.v.7.8.x.x.J X.(.,XdXjXjXaXbXjXsXaX=X#X=X#X=XsXmXMXPXKXFXNXlXdXE b W K B 3.4.4.5.5.q.C.C.C.C.C.C.C.C.j.F.F.j.4.s.s.k.k.u.k.k.V.y 3 2 0 o o + v +.+.R {.(.+ o 1 2 6 2 2 ;.h.i.i.i.k.u.s V.T.P.W.W.W.W.W.W.W.W.W.L.W.W.S.S.W.L.L.J.oXxXxX@X}.<XlXfXpXdXkXkXaXpXpXkXkXjXNXNXNXbXnXNXlXjXkXlX-X% %   O 5 e e e t t t f f s s s / / / / y.u.u.u.u.s.s.h.3.3.9.7.7./.}.`.}.eXHXKXJXKXKXMXMXFXmXFXKXKXLXKXKXKXKXKXKXJXJXJX7X3.u 6.4.4.4.q.q.V.V.V.V.V.V.A.A.A.A.A.Z.l.g.g.n.n.g.H.H.i 7 6 2 2 2 1 1 0 M q @ o 3 1 2 2 2 3 4 y p ^ p p p p >.E.E.W.A.W.K.K.K.K.E.E.E.S.E.A.A.A.K.F.F.J.`.].).|.}.=X@X+XrXNXNXeX0X9X9X0X=XqXtX9X=X9XqX0X=X#X#X9XqXwXwXwX'.+   + 5 e e r r r r r p p p p s p s s s d 2.j.j.v.v.z.z.H x._.).(.(.).).].@XwXNXwX>XwXsXyXqX9XqXtXyXsXnXCXBXGX",
"S.W.W.W.K.K.4X8XDXJXgXvXGXAXHXHXbXCXLXKXKXmXvXvXFXsXsXBXHXnX@XG W E G n n T G F j k e h N N N S u t t t f f f f f ( d d Z N N A v.v.G.b.9.oXcXJXKXGXKXKXGXBXCXHXZXHXZXFXKXKXPXDXLXFXLXHXyXX.W X.E ..].}.$XoXJ.j.C.A.A.A.S.E.E.E.W.S.K.H.J.m.z.N _ c.B.g.n.j.H.y =.=.*.*.-.8 0 5 j ).x.5 o 1 2 6 6 7 7 8 ,.p.t.t.y.^ ( f H.T.P.Q.L.L.W.W.W.Q.L.L.L.P.L.L.P.L.L.P.F.4XxXDXDXHXKXHXHXKXKXJXLXPXmXBXAXHXFXPXDXMXPXKX>XE b b z z g + e e h B N N f f f s p ^ t.t.y.y.t.t.y.y.u.s.d.n.v.v.7.8.x.x.x./.`.+X,X0XhXdXBXaXeXwX>X#X+XOX#XwXbXyXbXHXHXHXZXzXo.v G K B 3.2.4.5.5.5.q.q.C.C.C.C.C.C.C.F.F.F.F.j.h.k.k.u.i.k.h.;.2 2 9 0 1 1 5 F ].E G 5 o 1 6 6 6 6 7 ;.h.( ( i.k.u.:.Z.T.L.P.L.L.W.W.L.L.L.L.L.L.L.L.L.L.L.H.G.XXxXPX@X|.2XzXfXpXfXdXaXrXqXpXdXdXjXNXNXjXsXsXjXkXkXfXlX[.+ +   + 5 e e e t t f f f s s s ^ ^ / / y.u.u.u.u.s.s.h.3.3.9.7.H 8.`.).[.,XCXKXKXKXLXMXLXmXMXLXKXKXKXKXKXKXKXKXKXJXJXDXxXb.u 1.6.4.4.q.q.q.V.V.V.V.V.V.A.A.A.A.Z.l.j.l.g.n.j.n.H.>.3 2 2 2 2 2 1 o 5 M 0 o 1 1 1 6 2 3 4 p p p p p p s i.W.L.W.E.K.K.K.K.K.K.K.S.S.L.A.A.C.H.F.F.b.'.}.|.+X].+X+X=X0XlXjX0XwX0X>X0X=XwXtXwX9X0XqXqX9X#X#X9XwX9X9X7X'.+ O O O e e w r r r r p p p s s p s s s s :.j.v.v.v.v.b.7.x.%X}.).(.).).).+X0XjX0X9XsXnXhXwXwX9XwXyXbXbXwX,XwX",
"W.W.W.W.K.K.4XxXDXJXvXCXHXZXHXKXyXnXCXLXKXKXFXmXGXsXsXZXHXaX}.F F E E b b T G b k k k h B B N N t t t f f f d ( f ( ( d _ S S A v.v.b.b.b..XiXJXKXLXGXGXCXbXnXCXNXSXCXCXFXFXPXJXKXFXCXGXjXo.W O.Q ..o.}.$X$XJ.j.C.A.A.A.S.E.E.E.E.A.K.L.G.J.m.S S c.c.n.l.f.Y.>.=.=.=.=.=.8 8 5 M _.H O o 2 6 7 6 6 7 <.p.p.t.t.^ ( / :.R.!.P.!.W.W.W.W.W.W.W.L.W.P.W.P.L.L.L.P.G.5XcXJXFXKXKXFXLXKXKXKXLXFXGXGXHXKXKXKXKXJXJXKX+XF F F v v ; + e h N B C V f f s s ^ t.t.t.t.t.t.t.y.y.u.s.d.v.v.b.9.b.b.x.x./.).OX#X=XeXkXAXwX,X>XwX9X@X+X=X9X0X9XyXnXCXHXAXlX|.v F K B 3.1.4.4.4.q.q.q.V.C.C.C.V.C.K.H.j.C.H.C.h.h.k.i.i.k.h.>.8 6 7 *.7 6 3 + D /.5 o 3 6 6 *.6 6 -.,.i.y.( i.i.u.h.H.P.L.P.L.L.L.L.L.L.L.L.L.H.L.P.P.H.H.J.m..XuXCX@X X2XzXfXpXpXpXqX0XqXpXeXpXjXlXjXaXaXsXjXdXlXpXlXo.% + @ 5 e e e t f t f f s s p s ^ ^ / / y.u.u.u.u.f.s.d.3.3.9.7.7.J '.`.).@XnXKXKXKXFXMXLXMXvXLXLXKXKXKXKXKXKXKXLXLXJXJXPX.Xm V 1.6.4.4.4.q.V.V.V.D.V.V.V.D.A.A.C.l.j.l.g.g.l.l.n.4.4 1 1 2 3 1 3 0 0.XX0.0 o 1 2 2 3 3 4 >.p p p p p s Z.L.L.K.Q.K.I.I.I.K.K.K.K.K.K.F.F.F.F.v.G.m.`.|.|.}.o.}.+X=X<XjXaX>XeXeX>X9X9XwXtXtXaXaXtXwX9X=X#X9X9X,X#X#X'.k e e e e e w t r r r p p p s ^ p p s s s :.j.H.G.v.v.b.z.z.OXOX).(.).).`.OX,XnXhXbXBXBXhXwXqX,X9XtXbXyX+X}.=X",
"W.W.W.W.L.F.6XcXJXKXCXHXHXjXnXCXCXLXHXCXFXKXKXKXHXtXwXnXnX,X(.z z b E b n n b v ; g h h C S N N t t t f d d d ( f _ ( f _ _ S A v.b.b.b.b..X5XKXKXKXKXHXBXhXdXjXjXSXSXNXBXmXFXKXKXmXBXCXjXX.G O.T Q ..[.@X$X.Xv.C.C.A.A.S.S.E.E.E.S.L.L.H.XXJ.A u B.g.B.f.k.Y.h.=.=.*.=.-.8 3 9 9.6X0.5 3 6 6 7 6 2 7 <.i.t.t.t.^ i.s l.!.!.L.Q.Q.W.W.W.W.W.W.W.W.W.W.W.W.P.L.P.J.8XDXKXLXHXHXmXmXDXLXJXLXLXKXKXHXKXHXKXKXKXLXKX[.F G F b v ; + e h B B A S f f s s ^ t.t.t.t.t.t.t.y.i.u.s.d.v.v.b.b.b.m.x.8.x./.@XwX,X0XyXHXqX@X=XaXsX,X=X9X,X@X@X>XyXhXAXAXlX1Xv v G B 3.V 4.4.4.4.q.q.V.C.C.V.V.C.L.K.j.j.H.j.:.:.h.i.i.k.h.q.y 7 6 7 7 7 2 0 @ '.5 o 2 2 7 6 6 7 ;.D.D.i.i.i.s.s.n.R.J.J.J.J.H.H.H.H.H.H.G.J.G.J.J.J.m.m.m..X_.wXjX X{.2XfXlXfXqX<X0X0XrXaX>XeXjXNXjXaXsXbXjXdXlXpXlXE ; @ O e e e t t d t f p p p p p ^ ^ / / y.y.u.u.u.f.s.d.3.3.v.7.7.H `.}.`.+XjXKXKXKXLXuXmXMXuXmXmXKXLXLXKXKXLXLXFXPXPXJXJX$XB C V 6.6.4.4.q.q.V.V.D.V.V.V.A.A.C.C.j.j.n.d.g.n.g.l.j.9 3 1 1 1 o 5 0.5X5X$X0.5 1 1 2 3 3 4 >.p p p p s d L.H.J.F.XXF.G.G.G.G.G.G.F.F.v.v.v.b.v.v.b._.`.|.).o.W }.|.+X0XlXyX>XyXyX,X>XwXqXwXyXIXsXaXwXtXqXwXyXhXwX9X9X8.h m m N V e w t r r r p p p s ^ p p s s s :.j.H.H.j.v.m.z.z.oXOX).(.).`.`.OX#XhXCXHXZXnXsXwX>X=X=XwXvXtXOXOXyX",
"W.W.K.Q.K.I.8XDXJXLXHXHXZXnXNXHXHXKXKXCXmXFXGXKXFXhXqXhXZX,XW v v b b T T b b v k k h h B A S N t t f f f f ( ( ( _ _ _ _ _ _ A v.J.b.b.b.m.$XLXKXFXKXKXjXqXqXyXlXjXVXkXGXbXLXKXKXLXCXnXCX}.X.O...Q ..].}.%Xm.v.6.C.C.V.A.S.W.E.E.E.L.K.I.P.J.v.u n.Y.l.l.l.k.S.=.=.=.=.8 7 9 XXxXxX8XXX9 2 6 7 6 6 8 <.i.t.^ i./ / k.R.!.!.W.W.!.Q.W.W.Q.W.L.A.L.W.W.L.L.Q.W.K.J.iXDXDXCXZXCXCXgXmXPXPXKXKXGXBXHXGXKXKXKXDXKXCX).G G b b v ; k e h m B A Z a f s / t.t.t.t.t.t.t.t.i.i.i.s.s.j.v.b.b.b.b.x.x.x.x.%X#X0XeXhXyX<X=X>XjXjX0X=X9X9X#X0X0XwXwXeXCXZX2Xv F v h m 3.V 4.4.4.C.C.V.q.V.C.C.C.C.C.j.j.C.4.4.2.s.f.i.i.k.V.>.3 2 6 6 *.6 o e XXw.1 1 2 6 6 6 6 ,.D.D.a.y.f.f.g.J.oX.Xb..XJ.m.XXJ.m.J..XoX.X_._.oX7X_.'.'.`.).@X1X X&X2X2XpXpXpXpXpXpXpXdXkXdXdXsXjXNXNXNXdXqXdXlXpXb % X + e e e u f u f f p p p ^ ^ / ^ / y.y.i.u.i.f.k.j.s.3.3.3.7.7.8.%X}.`.}.>XKXCXKXKXKXKXKXmXMXmXKXvXMXvXuXMXLXLXLXMXFXFX5XC m 3.6.6.6.4.4.4.q.V.V.C.q.V.A.q.q.C.h.j.d.g.g.g.l.j.v.i 1 o 1 o 9 0.5X$X$X5X5X0.0 2 2 2 3 y >.r r ^ r f d J.J.v.b.b.b._.'.b.m._..X.Xb.b.x.x._._.x.'.`.).(.X.X.].|.+X=XaXdXsXyXeX>X,XwX9X=X9XsXBXBXsXaXtXtXqXyXuXwXgXiXH + h h e w w w t r p p p p p s ^ ^ s s s s :.s.j.j.v.v.v.z.b..XOX`.(.(.`.`.}.#XtXFXGXhXsXhXyXwX9XwXwXtX9X9XtX9X",
"L.L.K.L.F.I.xXDXJXJXCXSXSXBXGXKXKXKXKXHXLXFXLXLXKXCXbXCXCX=XW v b b b b n n v z ; g j B B N N N t f S S d ( ( ( ( _ _ _ _ _ _ S z.b.b.b.m.b.OXMXKXLXCXnXeXwXkXlXrXpXVXZXKXGXBXMXFXFXFXCXAX+XX.W Q T T o.}.`.b.z.v.F.F.C.A.A.S.S.S.S.L.L.P.P.J.v.V j.n.l.l.k.k.Z.<.8 8 8 8 8 w.8XxXxXxX8X9.9 6 6 2 3 8 >.i.t.^ ^ i.i.Z.L.Q.W.W.W.W.W.W.K.S.L.Q.!.L.P.L.L.L.P.W.L.XXxXJXPXmXCXCXnXvXPXPXPXmXbXnXKXKXGXKXKXKXMXKXbXo.F G b b v ; e e e h N N V f f s / t.t.t.t.t.t.t.t.i.i.i.s.d.j.v.b.b.b.b.b.b.x.x.`.#X9XwXrX>X=X<X,XqXsXaXtX9X#X+X>X,X0XwX0XjXHXpXb b v D K H V 6.1.2.4.5.4.4.V.4.h.C.C.C.j.j.F.j.j.j.h.k.u.i.k.Z.>.3 2 7 7 7 2 5 oX5X6Xi 1 2 2 6 2 2 ,.p.p.p.i.f.d.d.M.3.e e 7..X_.oXoX%X$XOXOXOX`.J '.`.x./.).`.o.[. X+.;X2X2XfXrXqXpXpXpXpXaXlXpX0XwXjXZXZXNXbXwXaXlX<Xz + @ e e u u u f u t f p p p ^ ^ / ^ / y.y.i.u.u.f.k.j.d.v.v.v.7.7.8.%X}.).}.,XKXGXKXKXKXKXLXMXuXvXMX9XuXMXuXIXKXKXLXnXmXFX9XH m H C 3.3.6.5.5.C.C.C.C.4.V.A.C.C.C.j.d.d.g.g.g.g.l.v.1.4 1 1 1 9 0.$X5X$X5XXXw.0 2 6 2 4 <.>.r p p r t Z J.oXXXoX_.'.'.`.OX#X#X7XiX#X#X#X#X#X#XOX$X#X}.|.[.}.=X>XqXaXZXNXeXqXyXeX9X9XwXwXyXsXnXBXIXtXeXtXtXbXhXuXyX9X8.+ h e e w w w t r p p p p p p ^ ^ s s s s :.2.j.j.v.v.v.v.v..XOX`./.(.`.`.[.@XtXmXnXwXeXaXeX9XwXtXtXhXsXsXBXsX",
"L.L.K.I.F.P.xXJXJXPXBXnXCXGXKXKXKXHXHXKXKXmXmXLXGXGXFXZXhX}.G b F F T b b b b b g j j B N S S N t t f f d d ( ( ( _ _ _ _ _ _ S 7.b.b.m.m.x.%XxXPXPXHXHXNXjXpX,X*X<X>XeXNXKXGXGXPXPXGXGXKX,Xo.W ..T E o.).`.x.7.7.9.v.v.C.F.K.K.S.L.L.L.I.J.J.J.2.s.l.Z.k.k.N.Z.,.8 8 8 8 9 9.xXxXiXxXxX6Xw.7 2 1 3 y u.i.t.^ ^ p u.Z.L.Q.!.Q.Q.L.Q.!.!.!.P.L.K.L.L.L.K.I.I.P.G.4XcXKXmXnXAXCXnXvXgXuXiX#XOX9XKXHXGXKXLXLXvXKXtXW b G G b g k e h e h h N N d f / y.t.t.t.t.t.t.t.p.i.i.i.f.g.n.v.b.b.b.b.b.b.x.x.`.$X9XwX0X,X,XrX>X>XrXeXyXwX#X+X,X@X,X0X=XrXZXlXE v v D D K B 3.3.3.5.j.j.j.C.j.j.j.j.v.v.v.b.v.v.j.f.f.u.i.i.Z.4.4 1 7 6 7 9 XX5XxX6X6Xi 1 2 3 3 3 ,.p.p.p.i.s.Z z.m.7.e M oXiX7XiX:X$X#X@X+X}.(.j G F F F X.F G o.+.+.&X2X2XzXpXpXpXpXpXaXdXZXlXdXdXNXZXBXNXCXyXaXlX,Xg + @ e e u u u a u f f p p p ^ ^ ^ / y.y.y.i.i.u.f.f.s.d.d.z.7.7.7.8.OXOX`.`.=XHXHXKXKXKXKXKXFXMXmXFX9XuXFXIXwXFXKXCXKXCXHXwXD k B M A C 6.6.6.5.5.j.F.j.5.C.F.C.j.v.d.d.d.g.g.g.n.H.6.9 1 o o 3 M 0.5X5XXX0.9 2 6 6 2 8 <.>.p p p p t Z J.oXOXOX_.'.`.`.OX@X=XyXnXyXsXhXhXhXyXeXwXwXaXpX<X,X0XeXdXNXkXdXqX>XwXrX,X=XwXsXsXyXsXbXsXtXeXyXsXnXhXuXgX9XH + h e e e w t r r r r p p p p ^ ^ ^ / :.s :.h.Z.C.F.F.v.j.v.J.$X}.'.'.[.[.}.OXtXnXnXyXsXsXwX>XyXsXsXnXBXCXKXBX",
"L.L.F.I.F.XXcXJXuXgXnXBXZXHXKXKXKXCXPXHXLXMXMXFXnXBXGXCXqX(.F b b b b n b T T G v j h h B A S t S S S S S _ _ _ _ _ _ _ _ _ S t A b.m.m.m.x..XiXJXKXHXCXjXjXrX|.<X<X@X*X0XHXHXKXmXmXBXnXZX0X(.W E T E o.).'./.8.H 7.7.9.v.v.F.F.H.H.F.F.F.G.G.J.j.2.h.Z.k.k.N.Z.V.8 3 8 7 9 q.6XxXxXxX6X0.-.6 2 2 3 i i.y.^ t.t.u.Z.!.!.!.!.T.L.4XP.H.I.I.P.P.P.P.P.P.J.J.J.J.G.5XcXLXvXhXCXCXBXhXuXiXiX#X%X#XZXHXFXKXLXPXvXHX9XF b G E b g * e h h h m N Z d d / y.t.t.t.t.t.t.t.p.p.i.f.f.j.n.b.b.b.v.v.b.v.b.x._.$XiXuX0X>XrXqX0XeXqX,X,X9X9X+X>X@X@X9X,XwXlXkXo.b b F F D H C A A 3.3.3.3.7.v.v.3.v.m.J.b.7.b.v.z.d.s.u.i.k.k.h.y 1 3 2 9 q.xX5X6XiX8X6Xo 3 3 3 8 ,.D.p.p.i.f.Z A .XXXx._.iXcXiX9XOX(.).o.E E G g b v g g b z b E Q ..&X2XfXlXdXpXpXaXpXpXaXNXZXHXHXBXNXbXnXCXsXaXlX@X; @ O e e e u u N N f f s p s ^ ^ / / y.y.y.i.i.u.f.f.Z 3.3.3.3.3.7.x.$X@X}.).#XNXHXKXKXKXKXKXKXLXKXKXuXuXMXuX9XvXKXCXHXnXAXwXJ j J x.8.7.7.3.3.3.5.5.v.v.3.5.F.5.5.v.d.d.g.g.d.g.c.n.9.9 1 o 1 1 1 0 0.0.w.0 1 2 6 6 3 y <.p p p p s d 3.m._._._./.`.@X}.[.}.>XlXNXeXaXjXjXdXaXdXaXwXaXdXrX<X>X=X*X,X*XwXyXqX0X>X,X9XtXyXtXwXtXsXsXsXsXhXsXbXuXwXhXiXK 5 m m N e w t r r r r p p p p p ^ ^ y.:.:.:.h.Z.C.F.H.v.v.v.b.$XOX`.).}.}.OXOXwXBXHXCXCXNXyX0XyXsXyXbXhXbXHXnX",
"K.L.K.P.G.oXxXDX9XgXBXCXCXGXKXKXKXCXbXCXFXMXnXGXbXbXGXCX>XX.F b b b b c b T E W W K B B C A N t t N S S d f ( _ _ _ S S _ _ S t A b.b.b.b.x._.7XKXKXKXCXlXlXrX|. X|.].|.>XHXZXGXmXbXvXyXhXwX(.E T T E F F J W /.8.8.x.b.b.b.b.b.v.v.b.b.b.G.J.J.n.2.s.Z.l.l.N.l.S.i 4 8 6 6 9 -.6X8X5Xw.9 3 2 2 2 8 >.i.t.^ t.^ i.Z.P.P.J.J.J.J.J.G.G.J.J.J..X.X.X.X.X.Xb.b.b.b.$XxXMXuXyXNXSXSXbXvXMXKXJXwX9XNXHXFXKXLXPXMXHX@Xb b G E b k k e h h N N S Z Z d / t.t.t.t.t.t.t.t.p.p.i.i.f.l.n.v.F.G.G.v.v.v.v.x.x.oX9XwX>X>XrX>XrXjXdX>X9XwXtX@X0X=X@X9XtXhXaX<Xo.: c E E G G /./.'._._._._._._._..XoX$X$X%X_.%X_.M.d.s.s.i.i.h.h.i 1 1 1 9 9.5X5X5X5X8X9 9 1 3 3 y V.D.i.i.i.l.d.3.b..X'._.$XiX:X#X}.o.o...T Q W W o.).b E W o.o.o.X.o.|.2XpXdXpXqXpXpXpXpXdXaXjXZXZXNXNXNXBXCXhXhXSX+X; @ O 5 e e u u V V a f s s s ^ ^ / / y.y.y.i.i.f.f.f.d.d.z.z.7.z.b._.$X,X@X).+XaXHXHXKXKXKXKXKXFXFXLXMXiXuXuX9XuXKXKXCXkXSXwXG k D J J H H 3.3.3.3.7.7.z.7.9.G.F.9.F.3.d.d.d.g.d.g.n.J.m 3 1 2 2 1 1 9 9 0 o 1 2 6 6 4 p >.p p p p / Z.H.J.b.b.b.x.OX@X[.[.+X>XeX0X@X,X0XeX0XqXeXeXqX=XqXrXpXeX>X@X+X@XpXNXjXeX0XqXsXbXwX9XtXsXsXbXZXsXhXsXhXwXuXhXiXK 5 m m S u w r t r r r p p p p p ^ ^ y.:.:.u.h.Z.Z.H.F.F.v.v.v.$X$X`.'.`.OXOX@X9XmXHXGXZXnXaXeXeXsXyXsXtXyXCXbX",
"K.L.F.I.G.oXcXDXuXBXAXNXbXCXKXKXKXCXmXCXFXFXFXKXvXhXCXBX#XW v v b b b b R Q ..O.(.(./.J K C S N N N S S S S _ _ _ _ _ _ _ _ _ S 7.b.b.m.m.b..X7XDXDXKXKXAXAXzX-X|.*X|.*XeXAXHXKXLXmXvXtXhXjX).X.E E b g ; k j D D J 8.8.x.'._.'.b._.%XoX$X5XoXJ.H.d.d.l.l.l.l.l.L.>.8 8 7 7 7 6 -.9.9.0 1 2 6 6 2 y >.p.t.t.t.t.u.H.4X4XXX.Xm.m.oX7XcXxX7XoX.X_.oX%X%X.X_.'._._.5XuXvXyXkXNXSXHXFXMXcXLXKXbXdXNXHXFXKXJXPXPXHX}.b G G E n k k e e h N N C 3.Z s / t.t.t.t.t.t.t.t.p.p.i.i.f.l.n.v.F.G.F.b.b.v.b.b.x.%X:X9X>X,X<X<XpXlXNXhXhXhXwX=XaX0X#X#X0XtX@X<X].% : T X.X.X.).`.}.}.}.OXOX%X%XOXOX}.`.}.@X,X=X@X%Xc.s.s.u.i.D.V.>.3 1 1 2 9 0.5XxX5X9 0 6 2 2 3 >.V.k.i.i.i.f.n.v.v.b.b.x.`.#X@X>X,X*X1X&X*X&X*X-X1XpX|.-X>X<XeXeX<X,X>X<X,XpXpXpXpXaXdXkXNXkXdXaXjXNXAXZXBXCXmXkXBX}.% . + e e e u N V N u s s s s ^ ^ / / y.y.y.i.i.f.f.s.l.n.J.m.m.m.m.b.$XiX=X`.+XrXHXGXKXKXKXKXKXLXFXFXLXuXuXMXMXMXKXKXHXAXAXpX).F D G D D B K C 7.7.7.x.'.b.b.G.G.9.6.3.3.d.d.g.g.g.c.M.C 4 o 1 2 2 2 2 8 3 1 2 2 2 2 y s p p p p ^ i.Z.H.G.9.G.b.b.$XOX).).}.}.|.*X=X,X<X0X>X0XwXeXeXrXpXpXrXaXeX<X0X0XaXhXaXeX>X9XsXbXqX9XtXbXdXsXZXtXsXyXsXuXwXyX7XK e m e N u w w r r r r p p p p ^ ^ ^ / y.:.u.k.Z.Z.H.H.F.F.F.v.oXOX`.'.`.`.OXOX9XbXCXbXhXyXwXeXtXhXvXnXsXhXGXBX",
"K.I.F.G.G.oXcXDXMXHXHXnXbXFXKXKXKXLXFXCXLXLXGXLXtXwXnXnXOXG v v T T T R R T E E X.(.'.x.H A S S S S S S _ _ _ _ f _ _ _ _ _ _ S z.m.b.b..Xb._.$XJXDXmXnXjXSXAXlXAXAXSXlXAXAXHXKXKXFXnXsXbXZX).W E b l % + + ; k k D J K J '.OXOX`.OX@X#X9XiX7XXXm.n.g.g.n.n.l.n.L.A.<.8 =.*.=.7 2 9 8 1 2 6 6 7 7 <.p.p.t.t.t.y.U.4X8XiX$X`.%XOXiXuXuX9XOX'.`.%X`././.W J J /.'.iXcXMXnXnXjXBXHXFXPXgXgXMXnXNXAXKXFXKXLXPXFXFXX.b G b G v ; k e e m N N C 3.2.d / t.t.t.t.t.t.t.t.p.p.i.u.f.l.n.G.G.G.G.G.G.v.b.m.x._.$X9X0X<X<X<XrXjXlXkXbXhX9XqXaXsXqX+X#X0X[.].+.- : R Q Q o.].].[.[.}. X}.[.+X@X+X|.].]. X|.@X+X%Xc.s.u.i.p.D.D.4.4 1 3 1 1 6.'.iXw.2 2 2 6 6 8 V.V.k.u.( u.f.F.H.G.G.b._.OX$X%X,XrX<X<X1X2X2XpX<XpXlXpXkXNXdXCXHXHXNXaX0X0XdXfXdXdXdXdXlXZXVXlXdXjXZXHXGXBXCXKXnXnX(.% . + e e u u N V N u s s s s ^ ^ / / y.y.y.i.f.f.f.s.n.n.m.m.J.J.m.x.`.9X,X).|.,XHXHXKXLXLXKXKXKXKXKXKXLXFXLXLXLXLXHXHXHXAXNXaX0X>XwXtXuXuXcXcXcXcXcXcXvXMXcXDXDX8XJ.3.3.d.z.c.g.g.g._ ` u o 1 2 2 6 6 8 3 1 3 1 o 3 a s p p p ^ y.U.Z.C.F.9.I.F.F.5XiX}.).}.}.}.,XjXaXaXeXqX0XrXeXaXdXaX<X,X<X0X<XrXrXeXeXeX0X@X@XwXhXtXwXsXsXaXaXhXtXsXwXwXwXwXuX#XB e h e V t w w f p p p p p p p ^ ^ ^ / / :.i.k.Z.Z.C.C.F.F.F.v..XOXOX'.`.`.`.OX9XsXjXsXtXwX9X0XtXhXhXBXbXbXFXhX",
"G.G.v.v.b.oXcXJXmXHXGXbXbXGXKXKXKXHXHXFXLXHXLXmX9X9XbXnX}.G F F T T b c c c b v v D D K H ` S N e w w e t t t t t t f S S _ S N A x.x.x.m.x.x.XXcXIXFXHXZXZXSXkXSXSXAXZXHXAXGXHXLXCXnXsXnXHX(.G l l g % % ; k k k K J D G ).OXOXOX@X+X+X=XuXiXoXm.Y.l.d.n.n.g.n.L.W.;.8 7 7 =.7 8 7 1 2 8 6 2 7 -.p.p.t.t.t.t.i.D.T.4X5X.X`.,XFXCXFXPXPXFXPXCXBXNXsXwX9X9XqXsXFXuXvXbXbXnXhXhXCXmXJXDXmXLXKXZXZXKXFXKXLXPXFXCXW b E b G v ; k e h N N N V 3.s.d y.y.t.t.t.t.t.t.t.p.p.i.u.h.n.n.G.G.G.G.G.G.G.v.z.x.'.OX7XwXrX<X<XpXkXaX0XwXwX9XwXeXbXbX#X#XtX+X].fXfXSXSXlXzXSXzXlXlXzXzXlXlXlXpXlXSXAXSXpX&X+.+.].%Xc._ :.i.p.i.D.C.y 1 3 1 3 0.0.9 3 2 6 7 2 7 8 S.Z.k.f.f.f.l.F.F.F.J.b.b.oX$X%X#X>X*X&X|.-X1X<X+XqXrXeXrXdXqXyXyXyXtX0XqXjXdXdXdXdXaXpXjXSXdXjXNXZXAXAXHXHXLXKXCXhX/.+ O + e e e u V V N u d s s s ^ ^ / / y.y.y.i.f.f.f.s.n.n.n.v.v.J.m.x.'.9X,X`.+X,XHXHXKXLXLXKXKXKXLXLXGXKXLXMXFXLXLXHXHXHXnXkXCXHXZXKXKXKXKXKXJXJXDXDXIXvXPXJXKXKXcXJ.3.3.z.z.c.d.d._ ` M.A 4 3 2 2 6 6 7 3 1 1 o 1 i u.s p p p ^ i.U.C.A.K.q.I.F.F.8XiX).X.}.}.}.*XeXNXjXdXrX0X0XwXtXaXdXaXaXkXdXqX0X0XeXjXjXwXOXOXqXhXbXnXnXbXsXtXtXsXsX9X9X9XwXgX7Xh 5 m u A a w w f p p p p p p p ^ ^ ^ ^ :.:.i.Z.Z.Z.C.C.F.F.C.v._.OXOX`.`.`.}.OX9XhXnXhXhXeX>X,X9XwXtXhXsXtXsX9X",
"$X$X$X7X7XiXmXKXHXHXHXCXGXGXCXmXnXhXnXFXFXFXHXCXwXBXNXaX).b E b b R R T G z k g j B K K H H S h S _ S t t t t t t t w w e t e e N C C C H H 8.%XcXJXFXLXHXCXCXnXNXnXNXGXKXKXKXKXKXFXbXsXyX9X,XwXyXyXrX0XeXjXNXnXCXHXCXnXhXbXbXhXjX0X].o.).`.`.m.v.H.H.h.j.H.B.n.R.H.4.i 8 7 7 7 7 8 8 7 3 1 3 8 <.i.p.i.y.i.p.i.D.S.Q.H.J.oXJXJXKXKXKXKXKXKXKXKXLXLXFXCXFXGXKXKXFXMXgXgXwX9XwXCXFXFXFXFXHXKXKXHXKXGXKXmXKXKXhXF W b F G j k e h m N V C Z 2.2.s.u.y.y.t.t.t.t.t.t.p.i.i.h.Z.H.F.G.G.G.G.G.G.F.G.v.b.x.$XMXwX,XwX>X>X<XqXhXFXmXyX#X0XaXaXsXaX9X+X0XSXZXdXNXAXZXZXAXNXlXkXkXZXZXaXaXpXzXAXSXpX].].}.`.x.z.j.h.i.D.V.Z.h.y 3 3 3 1 ;.I.w.2 1 2 2 3 4 ;.C.k.h.l.f.s.C.L.L.H.H.F..X$X#XOX>XeXrX<X@X+X(.0XjXeXrX0X,X,X,X9XrX0X0XeXhXjXdXdXjXdXdXlXBXZXBXZXZXAXHXHXZXCXHXGXHXMXJ e O O e e u a a V V f d s s / / / y.y.y.i.i.i.i.f.k.f.H.J.H.J.J.G.b.m.`.#X,X+X}.=XhXHXKXKXKXKXKXKXKXKXKXKXKXLXFXFXLXKXLXbXyXmXKXKXKXKXGXLXLXFXLXLXPXvXIXMXKXKXLXKXDX5XA 3.3.2.j.d.n.z.A ` b.9.i 3 1 1 2 1 1 o o 4 y s f t f t f _ n.T.F.C.A.K.A.F.5.8XiX[.`.[.}.>X0X=XjXHXGXdX0X>X9XyXwXdXbXbXjXdXjXNX9X0XyXhXyX>X>XeXtXqXsXFXbXqXwXyXwXyXwXuX9XwXyXOXh e m u V V f w w f f p p ^ ^ p ^ ^ ^ s :.:.h.Z.S.C.K.K.K.K.F.v..X$XOX`.`.}.}.}.0XhXhXtXyXFXGXhXyX+X`.,XCXKXBXyX",
"LXFXFXFXPXCXLXKXGXHXHXFXGXHXGXCXKXCXGXKXKXKXKXKXmXHXHXjX].b E b b R R G b g k k j B K H ` ` A N S _ _ Z d _ f.f.g._ _ Z _ _ _ _ z.b.b.x.x.x.x.%XvXKXJXKXKXHXHXCXHXGXGXKXKXKXKXKXCXmXMXuXtXuXMXBXCXCXnXnXnXAXHXAXGXCXnXkXhXnXCXZXVX0X).X.o.X./.H v.F.L.Z.h.s.n.R._ Y.T.H.i 8 3 8 6 7 3 1 1 3 4 f i.y.i.i.k.i.i.i.S.E.W.L.P.oXJXJXKXKXKXKXKXKXKXKXKXKXLXLXLXKXKXKXLXmXbXMXuX9XwXmXLXLXLXKXKXKXKXKXKXLXKXPXKXKXsXF E b G G j k e u m N V V Z 2.3.h.:.u.y.t.t.t.t.t.t.i.p.i.V.Z.H.F.G.G.G.G.G.G.F.G.b.m.x.5XPXvXyXhX0X9X>X9XtXhXuX9X9X0XtXsXaXwX9X=XBXGXNXbXBXHXGXGXGXZXAXNXjXNXNXaXaXjXSXAXlXpX].o.}.`.x.d.j.u.u.k.i.k.l.1.4 o 1 7 2 ;.;.3 2 3 3 4 >.V.Z.h.s.s.f.l.F.H.K.K.F.F.G.oX$X#XNXNX>X+X[.[.=XyXyX=X}.}.@X,X=X,X0XrXrXeXhXjXdXdXdXdXjXNXBXBXjXjXNXZXZXHXAXZXGXCXFXvXH e O 4 e i u u a a a f s f / / / / y.y.y.i.i.i.f.f.k.j.H.J.J.H.H.G.G.m.'.$X=X}.[.=XbXHXKXKXKXKXKXKXKXKXKXKXKXKXKXKXLXFXuXuXuXFXLXFXMXmXKXKXFXMXMXFXLXLXLXLXKXFXMXJXDXxX3.2.5.2.j.3.v.3.b.x.z.v.7.M 5 3 o 1 3 4 8 y <.>.s t r f g.m.n.5.F.C.A.A.A.K.5.8XiX`.).}.*XaXdXqXaXbXNXNXZXnXyXwXeXaXhXjXhXhXNXZXaXtXaXjXjXaXtXsXwXwXsXsXqXwXyXtXwXwX9X9X9XuXbX#XM e m u V V a e w f f p p ^ ^ ^ ^ ^ ^ :.:.h.C.L.C.C.S.K.K.K.C.v._.OXOX`.`.}.[.[.@XaXZXbXsXbXmXvXtX=X#X9XyXtXsXnX",
"KXKXKXKXLXPXCXLXLXGXGXFXGXKXKXHXKXCXCXKXKXHXKXKXKXKXHXjX).v G b b R b b b g k k j B C A H ` H S N S S _ _ _ _ _ f._ _ _ _ _ ` d.m.m.m.b.b.x.b.%XxXJXJXKXKXFXGXBXFXLXHXKXKXFXCXFXuXyXMXhXuXnXKXmXCXGXHXLXFXGXHXHXGXnXbXnXmXCXHXKXZX0X(.W X.X.J N v.C.S.L.h.d Z n.R.B.l.H.P.C.>.y 8 8 3 3 4 y >.k.i.i.i.i.u.:.h.S.W.W.W.L.P.5XJXKXKXKXKXKXKXKXKXKXKXKXKXKXKXKXKXKXKXKXLXFXbXuXhXFXKXLXHXKXKXKXKXKXHXFXKXFXKXKXwXF E b G G j k e u N V V V V 3.3.j.u.u.y.y.t.t.t.t.i.i.p.p.Z.H.H.H.G.G.G.G.G.G.F.G.b.x.x.$XMXFXFXhXwX>X=X,X9X9X9X9XwX0XwXtXtX0XwXsXHXbXsXNXBXGXGXNXjXnXCXnXaXsXjXaX0XjXlXkXrXrXo.b ].`.x.d.h.h.u.k.k.s.s.5.i 3 1 3 o 3 3 1 o 1 8 y V.V.V.Z.j.s.s.l.H.L.K.K.F.F.G.oX#X,XlXjXeX<X+X`.eX0X,X@X+X#X,X,X9X0XrXaXyXwXwXdXNXNXlXjXkXNXbXjXdXjXjXNXNXSXSXNXGXBXCXuXK + O w e e u f a a a a f s ( / / / y.y.i.i.i.i.k.k.k.l.H.J.J.J.H.J.J.m._.#X>X}.[.,XNXHXKXKXKXKXKXKXKXKXKXKXKXKXKXKXLXmXMXMXKXKXKXKXLXKXKXKXFXMXMXmXLXKXLXJXKXvXuXPXJXDXb.1.2.2.j.2.v.v.A H z.b.b.b.7.6.u i i i a s s p r t f _ c.n.F.j.K.A.A.A.A.S.j.8XPX@X}.OX=XaXwX=XtXeX0XeXNXbXyXtXtXtXyXaXaXdXsXsXNXjXaXtXaXdXtXeXtXhXbX0X=XwXaX9XqXwXwXwX9XyXbX#XM e m u V Z Z f w i f s p p ^ ^ ^ ^ ^ y.u.h.C.L.K.K.K.K.K.K.K.v.x.`.OX`.}.OX}.}.@XeXnXhXhXnXMXwXsXhXyX9X#X#X9XyX",
"FXFXHXHXHXFXLXLXHXHXGXFXHXKXKXHXKXBXBXKXHXFXHXHXHXGXAXrXo.v b b c b b b b j k j j B A A H ` H S _ Z _ _ _ _ ( ( _ _ _ _ _ _ _ z.b.b.b.b.b.x.x.%XxXKXJXLXHXCXCXnXmXmXFXKXKXFXCXFXvXwXyXyXiXbXKXbXbXBXFXGXFXCXFXFXCXnXnXCXHXFXCXHXGX0Xo.E X.X.` C J.C.C.L.L.h.d Z Y.N.l.Y.R.!.L.A.4.;.y y >.h.h.u.y.i.i.:.:.h.S.W.W.W.W.L.P.8XJXJXKXKXKXKXKXKXKXKXKXKXKXKXKXKXKXKXKXKXKXKXFXbXmXHXLXLXLXKXKXKXKXLXHXFXKXJXKXKX=XF G b b b g e e u V V V V Z 3.3.j.s.u.i.i.t.t.t.t.p.p.p.D.Z.L.L.H.G.G.G.G.G.G.G.G.b.b.x.$XxXPXHXyXrX>X=X>X9X9X9XwXwX9X>X9XqXeXhXGXbXtXsXBXNXBXBXsXtXyXhXsXwXyXkXaXyXVXlXkXaXkX).v [.).x.A j.h.:.u.l.l.d.3.5.1.9 1 3 o 1 4 4 y 4.C.C.h.h.l.k.s.s.l.H.L.K.K.I.F.G.oXiX,XpXaXaXjX9X+X`.#XnXNX#X}.,XyX0X0XwXyXrX9X0XaXjXNXlXdXdXkXlXlXNXNXNXjXjXhXjXjXHXCXFXuXK + O e e e u a a a V d f s / ( / / y.y.i.i.i.i.k.k.l.l.H.J.J.J.H.J.J.b.`.,XwX+X[.,XbXHXKXLXKXKXKXKXKXKXKXKXKXKXKXKXFXMXMXmXLXKXKXLXKXKXLXLXFXmXmXFXFXPXMXFXLXbXuXMXDXDXXX1.1.2.j.4.H.J.M.z.z.z.z.z.b.b.0.C u e u f p r s u.l.j.d.j.F.L.A.A.A.A.A.S.4.8XcXOX[.OX=XbXjXeXeXqX>X>XwXqX0XyXwXwXeXtXsXsXtXwXNXhXwX9XqXtXtXwXsXNXNXtX9XtXsX9X9XyXyXgXuXyXbX#XB e m u V Z Z d t f f s s p ^ ^ ^ ^ y.y.u.h.C.L.K.S.K.S.K.K.K.F.8.`.OX`.}.OXOXOX=XeXjXyXtXhXhXuXsXCXnX,X#X9XqX=X",
"LXFXFXHXHXHXLXHXHXKXHXGXHXKXKXHXKXCXFXKXKXHXKXKXHXCXZX0XX.n b b b b b b b j k m B C A A H z.H S _ Z _ _ _ _ _ f._ f.g.f._ _ d.z.v.b.v.b.m.x.b.%XuXKXKXLXKXHXHXGXBXBXLXKXKXKXHXKXLX9X9XuXwXbXKXHXbXCXHXKXGXCXCXFXnXhXhXBXFXCXmXCXAX0Xo.E O.X.x.H v.5.V.S.L.L.j.s.u.f.Y.Y.H.H.L.T.!.H.h.V.D.V.u.:.i.:.s >.D.!.!.S.W.W.W.K.P.8XJXJXKXKXKXKXLXLXKXKXKXKXKXKXKXKXKXKXKXLXLXKXFXmXmXFXFXFXHXKXKXKXHXFXFXFXKXKXKXKX@XF E b b v k e h m V V C A 3.3.d.j.h.h.i.i.i.i.i.i.p.p.p.k.Z.L.L.J.G.G.G.G.G.G.G.G.m.m._.5XuXPXHXhXaXrX0X0XqX0XwXyXqX0X=X=X0XhXZXAXaXaXNXNXdXNXCXyXyXeXyXyXyXhXjXkXkXkXpXkXjXjX).v `.).H A j.4.>.f d f.n.j.j.F.4.i 4 o 4 u 1.2.C.C.Z.l.h.2.2.s.l.H.H.L.K.K.L.G..X$X#X9XNXdX<XqX>X,X+X+X9XhXrX9X,X@X,X,X,X9X>X>XrXhXpXdXdXaXpXdXNXZXNXNXNXjXhXkXjXjXHXZXHXgXB + O e e i f a a V V 2.f s ( u.y.y.y.y.i.i.i.i.k.k.l.Z.H.J.J.J.J.J.J.m._.9XtX*X}.=XdXGXKXFXKXKXKXKXKXKXKXKXKXKXKXFXmXMXmXMXmXFXLXKXKXKXmXmXMXmXLXKXLXMXMXLXKXPXMXPXDXJX4Xa 1.4.4.4.C.H.J.d.S S d.z.b.b._.7.N N Z d.l.k.Y.Z.Z.l.C.F.C.C.A.A.A.A.A.S.h.8XiX`.`.}.=XNXZXBXaXeX0X0XtXeXwXtX0X0X0XeXjXnXnXjXsXyX0X,X>XwXeXeXdXsXnXhXaXhXhXwXwXhXnXbXwXuXbX9XK e m u V Z 2.2.Z a f f s s ^ ^ ^ ^ / u.h.j.Z.H.C.S.K.L.K.K.K.F.b.OXOX%X[.}.OX+X+XaXZXsX,X,XuXbXwXsXyX0X0XyXyX9X",
"LXCXCXCXLXLXCXCXHXKXHXHXHXKXHXGXBXnXCXCXbXCXHXFXHXCXHX,XW G G G b T b F F j k m B C A A A 7.A V Z Z _ _ _ _ _ _ _ _ _ _ _ _ d.z.n.J.v.b.m.b.x.`.iXJXJXFXGXHXKXKXGXFXFXKXKXGXFXCXyX,X9XMXCXHXKXKXCXFXKXKXGXBXmXCXbXhXsXbXbXbXCXHXGXqX(.E X.` ` A 3.5.A.A.A.S.L.H.Z.k.h.l.Z.Y.H.l.H.Z.Z.Z.u.:.u.i.u.>.>.D.!.W.W.E.W.W.W.L.J.xXDXJXKXKXKXLXFXFXKXKXKXKXKXKXKXKXKXKXKXKXKXKXHXCXmXCXFXFXHXKXKXKXKXLXFXFXKXKXKXKXOXG G b b g k e m N C C C 6.3.3.5.j.j.h.h.i.i.i.i.i.i.i.k.Z.L.L.H.J.G.G.G.G.G.G.G.G.v.m.m.$XuXMXFXnXhXaXwX0X9X,X9XwXeXeX0X>XeXBXGXBXbXNXNXsXwXsXjXyXhXeXeXgXsXjXjXhXaXrX0XaXjXkXX.l (./.H A v.C.4.:.i a 2.d.j.C.C.C.5.m V G.H.H.F.h.:.h.h.2.s.l.n.l.F.K.K.K.I.F..X$X$X9XZXVXrX9X,X9X=X=X>X9X=X=X0XeX9X9X>X,X#X=X9XeXaXaXaXeXqXaXdXjXhXjXbXnXjXnXSXZXAXCXGXuXB O O e e u u a V V 2.2.d d u.u.y.y.y.i.i.i.i.i.k.k.Z.H.H.J.P.J.H.J.J.m.'.9XjX0X+X@XsXKXMXMXLXKXKXKXKXLXKXKXKXLXFXmXmXmXFXmXFXLXKXKXKXKXmXMXvXMXLXKXKXPXLXKXLXBXBXmXPXJX4Xi 1.4.4.4.4.5.3.A Z Z _ z.x.m.oX_.x.z.n.R.R.!.U.Z.C.C.S.L.A.C.A.A.A.A.A.S.4.8XxXOX}.OX=XsXNXbXNXaX=X#XwXhXyXtXeXwXqXwXeXdXbXNXtXeXwX>X=X=X>X0XsXsXNXBXbXhXsX0XyXbXbXhX9XuXCXiXK e M u V Z 2.2.d.2.d f s / ^ ^ ^ ^ / u.h.j.H.H.C.S.K.K.L.K.K.F._.$X#XOX`.`.}.}.+XeXNXsX,X,XwXhXtXqXwXsXaX0XeXnX",
"LXCXCXGXKXKXHXHXFXHXHXHXKXKXKXCXsXbXnXyXwXhXFXmXCXCXHX#XG E E G T E G F D j k B N C A A A 3.A u Z _ g._ _ s.f._ f.f.f.g.s.g.n.n.H.H.v.m.m.b.b..XiXLXFXnXNXZXKXGXGXmXbXmXCXnXvXuX9XiXuXFXKXKXHXFXCXCXFXFXPXbXMXmXvXbXmXbXMXCXKXKXGX0Xo.E X.G K m 1.5.A.A.V.A.S.L.Z.U.Z.Z.j.l.H.Y.f i d :.a >.h.D.V.h.D.!.Q.A.A.W.W.E.W.L.G.cXDXKXKXKXKXLXmXPXLXKXKXKXKXKXKXKXKXKXKXKXKXKXKXKXHXHXmXFXHXKXKXKXKXFXFXFXKXKXKXKX`.G F b b j k e N N V C 6.6.3.3.5.j.j.j.h.h.i.i.i.i.k.k.Z.Z.H.H.H.P.H.J.G.G.G.G.G.G.b.m.x.oXiXuXbXBXNXNXjXrX=X#X,X,XsXaXeXaXjXZXZXZXZXNXdXwXeXeXqXwXeX0XeXkXkXjXjXhXjXjXkXNXSXjX(.v ` ` H A v.F.C.C.1.a f a 2.h.V.C.j.Z V Z a a a a a 2.j.j.j.H.H.j.C.F.K.K.F.F..X$X#X#XjXSXlXjXwXwXeX=X}.OX9XhXsXtXsXhXyX>X#X=X9X9XdXdXaXeXtXaXaXeXyXjXNXNXCXZXAXHXAXSXLXuXB O O e u u u a V V 2.s.:.u.u.u.u.y.i.i.i.i.i.i.k.k.Z.H.J.J.P.P.L.J.J.m.'.9XNXdX*X@XaXKXtXIXLXKXKXKXKXKXKXKXKXLXFXFXFXFXmXMXmXmXLXLXFXMXmXMXMXMXLXKXKXFXPXJXmXbXBXmXMXDX4Xi 4.4.>.4.4.4.5.j.l.j.2.Z A z.m.m.m.m.n.n.l.Z.V.V.D.A.A.A.A.E.A.E.E.A.A.S.4.5XiX}.}.OX=XsXbXjXNXjX>X+X>XsXhXyXyXaXyXeXqXwXtXsXaXeXwXqX=X@X#X9XdXsXnXNXbXbXhX0XsXbXhXsXwXhXCX9XB e M m Z Z 2.2.h.s.:.s f / / p / / s u.h.Z.F.F.C.C.S.H.L.L.K.F._.$X#X%X`.`.[.}.@X0XeXwXwXeXyXwXjXyXeXeX0X9XyXZX",
"CXCXCXGXKXHXCXmXCXGXHXHXKXKXKXFXhXCXCXuX9XbXKXFXhXnXZX+XF E E G b G b F D h h B C A 3.3.3.d.A a t Z _ ( ( f.f._ f.f.s.s.s.g.n.n.H.H.n.n.J.m.m..XiXJXFXbXbXNXGXZXGXnXvXMXMXMXyXuXbXLXFXbXmXLXLXHXMXMXMXnXMXvXbXmXvXLXKXKXLXKXKXKXGX0Xo.O.O.` K e V 1.q.A.A.A.A.S.S.S.L.L.H.H.H.H.Z f :.h.h.D.L.S.E.W.W.L.L.W.W.E.W.E.Q.Q.G.cXDXKXJXKXKXLXPXmXLXKXKXKXKXKXKXKXKXKXKXKXKXKXKXKXKXKXMXmXFXKXKXKXLXFXFXLXKXKXLXKX).W b b F j k h N N V C 6.3.3.3.3.j.j.j.j.h.s.k.k.k.h.h.Z.H.H.F.H.P.H.J.H.G.G.G.G.G.J..X7..XiXuXyXCXHXHXAXyX9X,X9X9XhXaXdXNXAXZXZXHXHXNXwXeXNXaX,X0X0X9XeXnXnXnXBXjXkXNXnXNXjXjX(.j J x.H C 5.5.q.C.C.j.2.a a >.V.V.V Z 3.Z a a 1.2.j.C.Z.C.C.C.F.H.C.K.K.K.F.v..X$X#X@XdXSXlXjXwXuX#X,X#X@X9XyXtXhXjXBXnX0X,X0XwX0XeXwXqXeXjXNXjXeXeXjXCXAXAXZXZXZXHXZXGXuXB O e u u u u V V V 2.h.2.u.u.u.i.i.i.i.i.i.i.k.k.Z.Z.L.L.P.P.P.L.J.J.m.'.,XBXkX@X}.0XGX9XuXFXKXKXKXKXKXKXKXFXFXLXKXLXFXLXLXFXFXFXLXLXFXmXFXLXLXKXKXFXMXMXPXvXbXGXFXMXDX5Xa 4.>.>.q.q.q.C.4.4.h.j.d.v.v.A z.m.J.G.j.j.V.A.A.A.A.A.A.A.E.E.E.E.D.A.L.4.5XuXOX}.+X#XtXaXwXaXBXNXwXwXsXhXyXqXyXhXjXyXeXeXaXeXwXeXtXwX,X9XsXqXtXsXsXbXGXHXsXtXhXhXbXyXnXnX#XB e m m 1.1.2.2.2.j.s.d f s / p / s s :.h.Z.F.F.C.Z.S.H.L.K.H.F.x.OX$X%X`.`.[.}.@X0XyX0X>X0XyXhXjXjXeX@X#XsXZXZX",
"CXnXNXSXHXGXCXCXCXGXKXKXKXKXKXKXKXHXBXsXyXbXCXFXCXCXhX[.G E E G G G F F j k h B B A 3.3.3.z.v.d.d _ s._ _ f._ _ _ _ f.g.f.l.n.H.H.H.H.n.m.b.b._.iXLXFXbXbXsXNXNXbXBXMXvXMXwX9XuXCXKXKXMXsXvXvXuXPXbXMXvXuXvXFXFXFXLXLXKXLXGXKXKXPX9XX.X.X.G D + V 4.C.A.V.A.A.S.S.S.L.L.L.L.H.J.V j.F.H.L.L.W.W.W.W.W.W.W.W.W.W.W.W.W.L.P.cXDXKXKXKXKXKXKXKXKXKXKXKXKXKXKXKXKXKXKXKXKXKXKXKXKXKXHXMXMXFXKXKXLXFXLXKXKXKXKXKX`.F F G b g k e m V V 6.6.3.3.3.3.j.n.n.j.s.s.l.k.s.s.l.Y.H.H.C.F.H.H.J.G.G.G.G.G.G.b.b.m.%XiXiXyXCXNXyXNXHXtX9XwXwXNXnXNXNXNXjXNXHXZXjXsXjXNXjXrX9XeX0XeXjXSXnXBXHXCXnXjXAXNXjX(.j ` x.H V w.q.q.q.C.C.C.C.C.V.D.D.4.Z i j.C.j.j.S.C.C.C.C.C.C.C.K.C.L.K.F.F.G..XoXOX=XjXVXlXjXhXmXwX0X,X,X9XsXBXBXtXhXBXhXwXtXaX0XyXwXwX0X>X0XeXrXeXyXjXNXjXjXNXHXZXHXGXwXh O e e u u a V 1.2.2.2.s.s.u.u.i.i.i.i.i.i.i.k.Z.Z.L.P.P.P.P.P.P.I.J.G._.#XBXjX+X+XeXHXwXuXuXMXFXLXKXKXFXmXmXFXFXmXFXKXLXFXFXLXLXFXPXmXbXFXKXLXLXKXKXmXvXvXuXsXnXMXvXDX5Xi >.,.,.,.q.q.q.q.V.V.V.C.j.j.9.G.G.F.F.K.C.V.A.A.A.A.A.A.E.E.E.E.E.D.D.D.K.4XuX@X[.OX=XtXdXtXeXeXjXsX=X#XyXhXsXsXsXaXaXeXqX9XeXeX9X>X9X>XwXjXaXdXaXdXZXZXBXZXjXsX9X#X=X0X9X@XH e m V V 2.2.2.j.j.h.2.d f f s ( f s h.F.j.j.F.F.H.S.S.S.K.H.G.x.%XOX}.`.`.}.+X=X0XyXaXyXhXnXZXjXaX>X=XaXZXjXyX",
"AXNXnXCXHXHXHXGXCXFXHXKXKXKXKXKXHXHXGXCXCXFXCXnXmXCXjX`.F E E E E G F F j k h B C 3.3.3.3.z.v.d.Z _ s.s._ _ _ f.f.f.f.s.f.l.n.H.H.H.H.H.m.v.b._.iXJXLXBXNXjXNXjXsXbXvXuXuXwXwXMXFXKXKXCXbXbXbXMXCXMXvXvXuXbXmXbXFXKXKXKXGXCXPXFXFXwXX.G E G K + V 4.q.A.A.A.A.S.A.E.L.L.L.L.H.H.2.j.H.L.L.W.W.W.W.W.W.W.W.W.W.W.E.W.W.L.P.cXJXKXKXKXKXKXKXKXKXKXKXKXKXKXKXKXKXKXKXKXKXKXKXKXKXKXKXFXbXmXFXHXKXKXKXKXKXLXKXKX).G G F v j k e u V 1.6.3.3.3.3.5.v.j.n.l.d.d.g.f.s.l.l.H.H.H.H.H.L.H.H.G.G.G.G.G.G.b.b.b._.7X7X9XjXjX>XaXNXwX9XsXbXBXNXNXCXNXkXjXNXNXjXkXjXnXhXrX0XkXaXkXjXjXaXaXnXCXBXBXAXNXjX).v J 8.H 1.w.q.q.q.C.C.C.C.A.A.A.D.C.2.i C.C.C.C.A.A.A.A.A.A.A.A.A.C.K.K.F.K.G..XoX`.*XVXSXlXjXbXKXbXhXsXwX9X9XwXyXbXyXsXbXhXaXaXeXaXwXwX0X,X0XyXyXwXwXyXhXjXjXNXAXVXAXSXuXj O e e u u a V 1.2.2.2.h.h.s.u.u.i.i.i.i.i.k.k.Z.H.L.L.P.P.P.P.P.I.J.G._.#XCXjX+X@XeXGXbXMXMXmXFXFXLXKXKXFXmXFXFXPXLXKXLXFXFXLXFXmXmXmXFXLXKXLXLXFXmXMXMXIXwXyXnXbXMXDX5Xi ;.>.,.,.q.q.q.q.V.V.V.V.C.C.9.I.F.5.q.A.C.A.A.E.A.A.A.E.E.E.E.E.E.A.D.A.F.4XuX@X[.OX,XaXbXdXeXaXBXNX>X@X9XqX0XsXjXjXjXnXaX>X9X0X>X>X0X0XqXdX0XeXqXeXhXbXjXNXCXNX0X@X=XyXyX9XK e N V V 2.2.4.j.j.h.s.d f f d ( d :.j.H.F.F.H.H.H.S.S.S.K.K.G.x.%XOX%X`.`.}.@X,XyXjXjXhXnXCXCX>X>XeXdXNXNXeX=X",
"SXNXjXSXHXHXHXGXFXCXFXLXKXKXKXKXHXKXHXHXHXHXCXbXCXCXjX).b F G E E T G F v k h B C 3.3.3.3.3.v.v.2._ s.s._ _ _ g.f.f.s.s.j.n.H.J.H.H.H.H.J.b.b..XiXJXKXHXCXbXbXaXtXuXuXuXwXwXMXLXCXFXHXFXnXbXmXFXMXsXsXbXbXnXCXbXLXHXKXHXLXCXBXmXLXiXX.G E G J * V 6.q.q.A.A.A.A.E.E.W.L.L.L.I.L.4.C.L.L.W.W.W.W.W.W.W.W.W.W.W.W.E.W.W.L.P.cXJXKXKXKXKXKXKXKXKXKXLXKXKXKXKXKXKXKXKXKXKXKXKXKXKXKXKXHXCXmXmXCXHXKXKXKXKXFXKXHX).G G G v g e e u V 1.6.3.3.3.3.9.v.d.n.n.d.d.d.s.s.n.n.H.H.H.H.H.H.L.H.J.G.G.G.G.G.b.m.m._.9X9XwXbXZXwXyXjXwX9XbXGXCXNXNXSXjXyXrXaXjXjXjXNXjXaXyXyXSXjXjXnXkXrXrXkXSXSXZXAXNXbX[.D J 8.3.1.w.q.q.q.C.C.C.C.A.A.A.A.L.j.a C.C.A.V.V.A.A.A.A.A.A.A.A.C.K.K.K.I.G.m._.).+XfXlXjXnXMXJXCXCXCXhX9X@X#XqXbXsXhXNXBXBXbXwX0X,X9X9X,X>XwXwX0X>X9XeXjXNXZXAXVXZXCXyXj O e e u u a V 1.6.3.2.j.h.s.s.s.s.i.i.k.k.k.k.Z.L.L.L.P.P.P.P.P.P.J.G.'.$XCXjX@X@XpXHXKXLXLXLXLXFXLXKXLXFXFXFXFXFXFXKXKXLXFXmXMXMXMXmXLXFXFXLXFXMXMXMXvXuXiXyXCXnXMXJX8Xi ;.>.>.,.,.,.,.,.V.V.D.D.V.q.F.K.5.w.q.A.A.A.A.E.A.A.A.A.E.E.E.E.E.A.A.A.F.4XuX@X[.OX=XaXbXjXeXaXbXNXwX#X#X@XOX9XaXeXwXjXbXaX0XwX0X0XwX0X>XqX0XqX0XqXaXjXjXVXHXZXeX@X=XeXyX9XK e V 3.V 2.2.4.5.5.j.j.s.Z d d d s.f.j.v.v.F.F.F.C.Z.Z.S.S.F.F.x.%XOX`.`.).[.+X@XpXAXSXSXHXCXsX@X=XjXHXZXVXkX,X",
"NXjXjXNXCXNXNXBXGXCXmXmXLXKXKXKXKXKXHXCXbXnXCXCXCXCXhX).v F b G T G G F v j h B C 3.3.3.3.3.v.v.d._ _ s.s._ s.g.f.s.s.f.l.H.H.H.H.J.H.G.J.m.b..XiXJXKXLXGXbXjXaXtXwXhXbXyXbXKXKXMXMXnXFXFXBXCXFXyXtXsXbXnXFXKXFXKXFXmXmXFXHXGXFXLX9XW G E E G * B 6.5.q.q.A.A.A.E.E.S.L.L.L.L.L.6.q.K.W.W.W.W.W.W.W.W.W.W.W.W.E.E.W.W.L.XXcXKXKXKXKXKXKXKXKXKXKXJXKXKXKXKXKXKXKXKXKXKXKXKXKXKXKXKXKXKXLXCXmXFXKXKXKXKXLXKXFX(.G G b v k e u a V 1.6.6.3.3.3.5.v.d.v.n.z.d.d._ Z v.n.n.H.H.H.H.H.L.L.H.G.J.G.G.G.J.m._._.uXIXmXZXHXjXaXsXtXhXFXFXCXNXNXNXjXrXrXyXjXNXSXVXkXaXdXjXkXkXjXNXjXwXrXkXNXSXAXSXjXbX[.F J J C 1.w.q.q.q.q.C.C.C.A.A.A.A.S.V.;.A.A.A.A.A.A.A.A.A.A.A.A.A.A.K.C.K.H.G.b.'.[.}.=XrXjXGXMXmXBXNXBXnXtX=X,XtX9XhXZXBXBXKXGX0X,X#X,X9X,X>XwXwX0X>X,X0XeXjXNXZXSXAXSXyXj O e u u u V V 1.6.3.5.j.j.h.h.s.h.k.k.k.k.k.Z.H.L.P.I.P.P.P.P.P.I.J.J.'.$XNXjX+X@XaXHXKXKXLXKXKXKXKXKXMXmXPXFXLXFXFXFXKXFXMXvXuXuXvXmXFXMXMXFXmXMXvXmXgXuXwXbXZXbXuXDXxXa i ;.>.>.,.,.,.,.p.V.D.D.A.q.A.q.w.1.q.A.A.A.A.E.A.A.A.E.E.E.E.E.E.A.A.C.F.4XuX@X}.}.@XqXsXdXdXaXaXhXhXeX,X@XOX=X0XwXtXjXhXaXwXtXwXwXeXwX0XwX0XqX0XqXdXlXNXHXZXNXaX>X=X,X#X@X8.m V 3.V 2.2.5.5.5.j.j.j.d._ _ d s.l.v.v.v.F.F.F.C.Z.Z.Z.S.F.v.b.OX@X`.(./.).}.+XpXSXjXnXHXAXyX@X=XdXHXjXkXAXjX",
"lXlXVXNXjXdXsXhXGXCXMXvXPXKXKXKXKXKXHXmXhXgXmXHXCXBXeX(.v G b b b b b b v j j C C C 3.3.3.3.v.v.n.s.Z _ s._ _ f._ s.f.l.H.H.J.H.H.H.H.G.J.m.m.XXiXJXJXFXCXnXnXsXyXwXbXLXBXHXKXLXMXvXbXFXKXLXmXMXuXyXbXCXCXHXKXKXKXmXyXyXmXHXHXFXMX9XW W O.O.G + B 6.4.q.q.A.A.A.A.A.S.S.L.L.L.L.4.C.L.W.W.W.W.W.W.W.W.W.W.W.W.W.E.E.W.L.XXDXKXKXKXKXKXKXKXKXKXKXKXKXKXLXLXLXLXLXKXKXKXKXKXKXKXKXLXKXKXKXFXCXFXLXKXKXKXKXKXCX/.G G b z k e u a a 1.6.3.3.3.5.j.v.v.v.n.z.z.d.A S d.d.n.H.H.H.H.H.L.L.J.J.G.G.G.b.b.b.x.'.uXPXCXCXjXaXwX0XyXCXKXmXSXlXjXlXkXeXyXkXjXVXSXjXeXeXkXlXrXrXhXlXjXeXaXkXjXNXZXNXjXNX[.v F K C V 6.4.4.q.q.C.C.C.C.A.A.A.C.V.>.A.A.A.A.A.A.A.A.A.A.A.A.A.A.K.C.K.H.v.8.'.OX|.=X<XdXBXbXmXmXvXhXNXbXtXtXsX+XtXGXKXGXKXKXsXgX0X9X0X>X0XeXyXrX0X>X>X9XeXjXNXAXZXNXuXj O e u u a V 1.1.6.5.5.j.j.j.h.h.s.k.k.k.k.k.Z.L.P.P.P.P.P.P.P.P.P.J..X_.$XbXdX+X@XaXHXHXFXFXLXKXLXFXFXMXMXmXmXFXFXFXFXKXmXIXuXuXuXMXFXLXMXMXMXMXvXvXPXMXIXhXnXBXsXuXDXcXa i ;.>.>.,.,.,.,.,.,.V.D.q.q.q.q.w.1.q.A.A.D.A.E.E.A.A.A.D.E.E.D.E.A.A.F.G.5XiX@X}.}.+XwXsXdXbXhXdXjXbXsXwX9XwX>X9XjXZXbXwX,XqXeX0X0XtXaXtXaX>X>X>X>XpXdXlXAXjXaXeXqX=X+X}.@X'.N V A 1.2.4.5.j.5.j.v.j.d._ _ Z g.n.n.v.v.F.F.F.C.Z.Z.Z.F.F.v.b.OXOX%X).(.).}.*XkXjX0X0XSXCXyX+X@X0XVXaXwXAXSX",
"VXVXNXVXjXaXdXbXGXFXmXvXmXKXKXKXKXKXKXGXnXhXnXHXmXnXrXX.b E E G b b b b v j j C C C 3.3.7.3.v.v.n.d.Z _ s._ _ _ _ s.g.n.H.P.P.H.F.P.H.G.J.J.m.XXxXJXJXLXGXBXCXjXsXbXFXKXKXKXKXnXmXmXCXGXKXHXmXhXbXnXGXKXGXGXKXHXHXnXwXwXnXCXBXbXMX9X/.W O.E G + M C 5.q.q.A.A.A.A.S.S.S.S.L.L.L.q.A.W.W.E.E.E.E.E.W.W.W.W.W.W.E.E.E.W.L.oXDXKXKXKXKXKXKXKXKXKXKXmXuXwXwXuXMXFXLXKXKXKXKXKXKXHXLXKXKXKXCXmXFXHXKXKXKXKXKXKXCXX.G G b j k e m V a 6.6.5.5.5.5.j.v.v.z.v.z.z.d.A S Z d.v.H.H.H.H.L.L.I.I.J.G.G.G.b.b.b.x.b.uXmXnXsXaXaXwXrXhXGXHXnXNXjXjXjXkXyXaXjXjXjXjXeX0XrXkXkXrXrXhXNXNXkXkXVXkXNXNXbXjXBX[.g z v B N 1.4.q.q.q.V.V.C.C.A.A.A.C.V.>.S.A.A.A.A.A.A.A.A.A.D.D.S.A.K.A.K.I.v.x.'.}.+X<X<X0XwXiXvXFXbXhXnXBXbXsXhX@X=XbXKXKXHXKXHXKXgX0X0X>X0XyXyX0XrXqX>X>XqXaXjXSXVXjXwXB + e u u V V 1.1.6.5.5.5.j.j.j.h.h.k.k.k.k.Z.H.L.P.I.I.P.P.P.P.P.P.J..X_.OXbXpX|.@XaXHXLXmXMXmXLXmXMXvXmXmXMXMXMXFXLXKXLXMXuXuXuXuXMXLXLXPXMXMXvXuXIXMXDXDXmXbXbXhXMXJXDXV i ;.>.>.,.,.,.,.,.,.p.V.q.q.q.q.q.1.q.A.D.V.D.E.A.A.A.D.D.D.E.D.E.A.K.F.G.5X#XOX}.OX@XqXbXjXaXbXhXsXtX0X9XsXyX0X9XeXwX=X=XeXeXeX9X>XqXaXeXaX>X>X=X=XqXaXdXbXdXeXqX0X=X+X#X9X%XB V 3.1.2.4.5.C.j.j.j.d.3._ d.s.d.n.v.v.G.G.F.F.C.Z.Z.Z.F.F.v.x.%XOX%X`.).}.+X@XpXjX0XrXjXhX#X}.@X>XSXjX0XlXdX",
"ZXVXlXjXjXjXbXBXBXGXFXmXPXKXKXKXHXHXKXKXHXCXmXCXmXnXeX(.F E E E T b b b v j j C C C 3.7.9.7.9.v.n.d.d._ _ _ _ _ _ s.l.H.H.H.H.H.F.J.H.G.J.m.m.XXxXJXJXJXHXCXCXkXbXLXKXHXKXLXbXvXmXHXKXLXFXFXCXbXCXCXHXHXHXHXHXCXnXhXyXhXnXCXhXuXMX9X(.X.X.O.G ; h C 5.5.q.q.A.A.D.D.D.S.S.S.S.S.V.A.W.E.E.E.E.E.E.E.E.W.W.W.E.W.E.E.W.P.oXDXKXKXKXKXKXKXKXKXKXKXvX9XOXOX9XMXKXKXKXKXKXKXKXFXCXmXKXKXFXMXmXLXKXKXKXKXLXFXFXbXX.G E b g k e N V a 6.6.3.5.5.j.j.v.v.z.z.z.z.z.A C S A d.v.H.H.L.L.L.L.P.J.J.G.G.b.b.m.m.'.iXvXhXwXjXkXdXjXBXnXbXnXnXjXjXlXjXaXaXjXdXkXaX0X<XrXkXzXhXeXaXNXlXkXkXVXkXNXNXNXNXGX[.g g z j m 1.4.,.q.4.h.V.C.C.q.A.A.A.C.>.A.A.A.A.A.A.A.A.C.V.D.D.A.A.A.C.K.F.v.b.`.}.*XpXqX=X#X#XiXmXnXbXbXbXbXbXbXwX9XyXKXKXGXHXKXKXkX0XwXwXwXwX0X>X0XwX0X0XwXaXaXdXdXaXwXD + e u N V V 1.1.2.5.5.5.j.C.j.h.h.k.k.k.l.H.P.P.P.Q.Q.P.P.P.P.P.P.J..X_.$XbXaX+X@XaXHXKXFXMXMXFXmXvXuXMXmXmXMXMXmXFXmXmXuXuXuXMXmXFXLXKXLXMXuXuXuXvXIXPXLXPXbXmXnXPXJXDXV i i >.>.>.,.>.>.,.p.p.V.q.q.q.A.q.1.4.C.V.V.D.E.A.D.A.D.D.E.E.D.E.A.K.F.G.$X$X}.}.OX@XqXjXdXeXdXaXwXwX>X,XyX>X=X=X=XOX[.#XaXaXaX0X=X0XeXwXwXqX0X=X=XqXdXeXaXdXdXeX>X,X>XqXwX%XB C 3.2.4.5.C.C.5.5.3.1.Z Z d.d.d.d.v.v.G.G.F.H.H.S.Z.Z.H.H.G.x.%XOX%X}.}.}.+X+XeXkXyXyXjXwX}.}.=X=XVXSX0XdXrX",
"HXVXdXaXjXNXBXGXnXGXKXFXFXKXKXLXKXHXHXKXKXFXmXmXCXCXkX).F E E E E T b b v j j B C C 3.7.v.3.3.v.j.n.n.d.Z _ _ _ d.g.n.H.H.H.H.I.F.J.G.G.J.m.b..XxXJXJXJXHXCXnXsXnXKXKXCXFXbXyXsXbXHXKXCXnXCXGXBXKXGXHXKXKXKXHXBXhXhXhXnXCXCXhXuXMXiX).o.X.O.W k h C 5.5.q.q.A.A.D.D.D.D.S.A.S.S.q.A.W.W.E.E.~.~.E.W.W.W.W.W.E.~.~.W.W.P.oXDXKXKXKXKXKXKXKXKXKXKXLXiXOXOX9XMXKXKXKXKXKXKXKXFXMXbXKXKXFXmXFXKXKXGXKXGXFXmXnXjXX.G E b g k h N V V 2.3.3.5.5.j.j.v.n.d.d.c.c.z.H C S S A d.n.J.J.J.J.J.J.J.J.J.m.m.v.J..X_.iXuXuX9XhXaXsXCXZXhXgXHXNXjXlXVXkXaXyXkXaXaXrX0X0XyXjXkXhXrXrXkXkXaXpXkXjXNXNXNXZXKX[.; g l j m V >.>.,.,.V.V.V.V.q.q.A.S.C.>.A.A.A.A.A.A.A.D.V.V.D.D.S.A.A.A.F.F.v.'.OX=X-XpXqX,X#XOX$XvXNXBXbXhXbXNXBXbXsXsXbXNXHXKXGXGXyXwXhXhXgXwX,X=X>XqXqXeXaXaXeXqX2XrXrXD + e m N V V 1.1.2.5.5.5.5.C.C.j.j.h.h.k.Z.Y.T.P.P.Q.Q.P.P.P.P.P.P.J..X_.$XNXdX@X*XaXGXKXLXMXmXFXPXMXvXuXMXmXmXmXmXMXuXMXuXuXvXmXLXKXKXLXLXmXuXuXIXvXIXgXPXmXnXGXHXPXDXDXV i y >.<.>.,.>.>.,.p.p.V.V.q.q.A.4.1.4.j.h.V.D.A.A.A.D.D.E.E.E.D.E.A.F.9.9.oXOX}.}.OX+X0XaXtXaXaX0X0XdXeX>XwX>X=X@X#X>X,X@X}.tXtX9X=XwXaXeXeXpXqX=X=XqXpXqXqXjXNXjX0X9XyXeX9X_.B C 3.3.3.5.C.j.j.5.2.a f Z d.d.A A d.v.G.G.F.H.H.H.H.H.H.F.G.x.%XOX}.}.|. X|.*XpXaX<X<XkXrX@X+X=X@XdXVX<XaXrX",
"AXAXVXaXaXnXGXGXFXFXHXKXHXCXCXCXLXHXKXKXKXLXBXBXNXAXrX(.F G G F T G b F F B h B C A 3.5.j.j.v.v.n.n.n.z.z.z.z.z.z.n.H.H.H.L.L.I.G.F.J.G.J.J.b.oXxXDXKXKXPXhXhXGXGXGXKXHXbXwXsXHXKXGXNXNXZXHXHXHXKXFXGXKXKXGXCXhXhXnXCXFXCXBXbXbXKXdX[.W X.X.K + e A 1.4.q.q.E.A.A.D.A.A.S.K.L.H.5.C.L.L.W.E.E.E.L.L.L.W.W.E.E.E.E.W.W.F.4XDXJXDXPXKXKXJXLXKXKXKXLXMXiX9XwXFXKXKXKXKXKXKXJXJXJXDXJXJXKXKXKXKXKXKXKXKXbXNXAX,XX.G E F j k h B C V 3.3.3.5.9.v.v.j.l.f.d.g.c.M.z.A S N N S z.m._..Xb.J.J.J.G.J.m.m.b.XXG._.5XcXuXwXyXhXBXCXBXnXvXnXNXSXkXqXeXaXeXrXeXhXaXgXkXjXkXkXrXrXkXlXkXyXdXZXBXCXAXZXZXHX@X% ; l B m u >.4.,.,.,.p.V.V.D.A.A.A.C.4.V.A.V.A.D.A.A.A.D.D.D.D.D.A.C.C.F.F.9._.OX+X*X<XdXaX,X#X#XeXBXbXNXbXIXGXBXCXNXBXNXbXNXBXHXnXuXhXhXeXyX0X0X=X=X-X<XqXpXqX<X@X1XpX,XG g h h m N V 1.2.4.4.4.5.5.5.j.C.l.j.s.l.H.Y.R.L.L.Q.Q.P.XXP.P.P.P.J.J._.OXlXdX[.+XjXGXKXGXPXFXLXFXMXvXvXMXLXKXKXPXIXuXuXiXiXuXvXMXmXLXFXMXuXwXtXsXIXIXuXMXFXKXKXKXPXxXDX3.4 i >.<.,.>.,.,.,.,.V.V.V.q.q.V.4.1.4.C.C.5.V.V.D.A.E.E.E.E.E.E.A.C.F.b..XOX#X[.).}.#XeXIXsXsXeX0XtXaXyXwXqXwX9X9X0XwX9X,X=X,XnX,XwX9X[.OX[.|.[.].].[.}.+X+X@X}.}.OX@X@X).J j N N V V 2.2.2.d.Z f f f f d s.c._ S S A d.v.n.H.H.F.F.F.H.I.G.8.'.`.[.+X+X|.&X1X*X|.1XaXSXpX1X*X*X|.pXfX*X<X<X",
"HXHXSXjXsXbXBXCXGXCXCXLXCXBXBXCXHXLXKXKXKXKXGXCXNXZXrX).E W W E E T b F G B h C C 3.3.5.j.j.j.j.j.n.m.z.z.7.z.z.c.n.n.H.H.J.I.P.P.G.J.G.J.J.b.oXxXDXDXLXLXBXBXHXGXZXbXyXtXhXBXGXGXBXNXBXAXHXHXHXKXHXHXKXCXnXbXbXhXbXCXFXFXCXmXnXGXpX).W X./.K + h A 1.4.q.q.E.A.A.A.A.C.C.K.H.H.5.F.L.L.W.E.E.E.L.L.L.W.W.E.E.E.E.W.W.K.5XDXJXJXuXmXKXKXKXKXKXFXFXFXmXMXmXKXKXLXJXJXKXKXJXJXJXKXKXKXKXKXKXKXKXKXGXKXZXNXkX}.F E E G v k h B C C C A 7.9.v.F.F.j.l.f.f.g.c.z.z.H S S N S A ` x.m.b.J.G.G.J.m.m.m.J..Xb..X7XMXMXuXjXnXSXSXNXjXjXnXNXlXeX>XrXaXrX<XeXaXkXjXSXNXkXrXrXeXkXlXjXaXjXAXHXZXHXGXGXCXOX; % g j h m 1.4.q.,.,.p.V.D.D.A.A.A.V.4.V.A.V.A.D.D.D.D.A.D.A.A.A.A.C.F.J.G.b.r./.OX=XaXpX<X=X#X#X,XsXbXBXNXbXGXBXGXFXBXBXbXhXhXbX#X#XyXyX0XqX0XpX<X<X-X-X<XqXpXpX<X<X<X XF k h j B N C 3.2.4.4.4.C.C.F.H.j.2.s.g.l.l.Y.R.L.L.W.Q.XXXXP.P.P.P.J.m.'.OXkXpX|.*XkXZXtXIXPXKXKXFXMXMXvXbXmXFXFXPXMXIXiXiXiXIXMXMXMXmXmXvXtXwXyXbXbXIXIXmXFXKXKXLXvXiXcX9.e i <.<.,.,.,.,.,.,.,.q.q.V.C.C.q.4.4.C.F.C.C.A.A.E.E.E.E.E.E.E.A.F.G.G..X$XOX[.[.+X=XtXbXsXqXtXdXsXeX0XwXdXyXsXsXeX9X,X,X9X+XhXtXtX[.k j v v v v v v v F G G G G F D j k k h h N V V 2.3.2.Z d t t t f d s.Z _ g._ f f 3.J.n.v.v.F.F.F.I.F.x.`.OX[.[.{.{.{. X+.+.].&X1X*X|. X|.{.&X*X{.&X&X",
"HXAXNXnXbXbXnXCXGXBXnXnXBXnXnXnXCXFXJXJXKXKXGXGXSXAXrX].W W W W E T b b G D B C 3.3.3.j.j.j.j.j.v.n.m.b.z.H z.M.c.n.n.H.J.J.J.I.P.J.P.G.J.J.b.oXcXcXPXPXLXCXBXZXGXCXsXwXyXFXHXBXBXBXFXHXKXKXKXKXKXHXHXGXbXyXbXbXbXmXFXHXHXFXFXFXBXqX(.W X.(.G + h C V 2.q.q.A.V.A.A.A.A.A.K.K.H.5.C.L.W.W.E.E.E.W.L.W.W.W.E.E.E.S.W.L.F.5XDXDXDXuXMXKXKXKXKXKXmXmXKXKXKXKXKXKXFXKXJXKXKXKXFXJXKXKXKXKXKXKXKXKXKXKXKXKXZXpX].G O.E G D j h M C C C A z.z.j.j.h.s.f.f.g.g.g.z.v.z.Z S S S S A ` b..X.XJ.G.m..Xm.b..Xb._.oX5XuXbXsXlXlXlXlXlXkXlXlXSXNXrX>XaXjXyX0XkXkXjXSXNXSXjXwXeXyXkXlXjXjXNXHXHXAXHXHXGXCXOXk - g j j m N 1.>.q.q.q.q.V.V.A.A.A.V.4.V.A.V.A.D.D.D.A.A.A.A.A.A.A.C.v.v.b.x././.X.=XlXaX,X,X,X#X#XwXsXNXBXBXCXBXGXCXZXZXNXhXsXsX9X9XjXnXsXsXeXdXkXpX0X>X>X>X0XqX<X<X@Xo.F g k B B C A 3.5.4.j.j.C.5.j.F.j.Z Z g.f.l.n.H.P.P.L.P.P.P.P.P.P.H.J.m._.9XjXpX*X*X0XyX#XiXPXLXFXMXvXgXPXmXvXIXuXuXuXuXIXIXIXPXmXvXIXvXvXuXwXwXsXbXbXyXIXMXmXPXPXMXgXiXDXv.i i ;.<.<.<.,.,.,.,.,.V.V.V.A.C.q.q.q.A.C.C.V.A.A.A.A.E.A.D.V.A.K.F.b.b..X$X}.}.=XeXhXbXbXwXqXtXsXsXeX0XwXjXkXhXyXwXwXwX,X+XOXtXsXvX/.  . X . X X X X + % k j j v D j ; ; k h h B C 6.3.2.2.f f t r r f d s._ _ s._ d d 2.d.n.H.F.G.G.I.I.G.b.OXOX).o.o.Q Q E T n b ..o.o...Q o.Q Q E T ..T ",
"HXSXNXCXCXNXBXGXKXGXNXCXAXAXAXAXHXHXLXJXKXKXKXKXCXSX2X].W E W E E T b b G D B H 7.7.9.j.v.v.v.v.H.n.z.z.z.` z.c.M.n.n.m.J.J.J.I.J.G.J.G.J.J.m.$XxXcXcXbXCXCXnXBXZXCXbXhXnXFXmXsXBXFXLXKXKXKXKXHXKXCXCXmXyXuXbXnXmXCXCXCXCXFXHXHXBX0X(.W (.X.D + 5 B V 6.4.q.V.V.D.A.A.A.A.A.K.K.4.C.L.W.E.E.E.E.W.W.W.W.E.E.E.E.W.W.L.G.5XDXDXJXmXLXKXKXKXKXKXLXLXKXKXKXLXKXKXLXKXKXKXKXKXCXPXKXKXHXHXHXKXKXKXKXKXKXKXKXVX|.E G E G v j j B C C K H H d.s.2.:.u.s.f.g.g.d.v.v.v.Z S S _ S S _ z.J.J.G.b.m._._.x.'.x.`.#X5XqXjXVXlXSXSXSXSXSXSXSXAXSXdXrXjXlXaXrXNXjXNXSXjXnXnXyXyXpXjXNXVXNXNXAXAXCXLXCXCXCX#Xk X + k k M C 6.1.4.4.q.q.q.q.A.A.A.V.4.V.A.V.A.V.A.A.A.A.C.C.C.C.F.F.b.7.7.8.J J F @XbXjXeXwX9X#X#X>X0XdXbXbXBXbXBXbXBXZXGXBXbXjXwX#X>X>X,X>X#X+X=X*X+X+X|.}.}.}. X|.).X.G v h B C C A 6.3.4.j.j.h.2.s.d.d.s._ s.s.s.j.n.H.P.P.P.P.P.P.P.P.H.J.m._.gXlX<X|. X@X*XwXMXKXKXmXvXMXmXKXFXbXgXuXuXuXuXFXPXPXLXmXIXuXvXgXuXuXwXuXIXIXyXvXvXvXIXIXIXgXxXDXb.e y >.>.>.<.>.,.,.,.,.q.V.V.V.V.q.q.q.C.A.V.q.V.A.A.A.A.A.A.A.K.F.9.b.m..X$X=X>XjXHXKXHXBXtXtX0X9XwXeXeXeXyXsXsXtXwXsXhX9X}.#X9XwXhX(.                  @ + k k k j D g k k h m B A 2.1.d s t r r r r p / s.f.( ( ( s.f.s.d l.F.H.H.G.G.G.G..X#X#X`.W E T T b c c c b b T T b c z z : : : : ",
"HXCXCXGXGXBXBXCXHXBXnXNXSXAXAXAXAXAXCXCXFXHXHXHXSXSX<X].X.W W W Q T b G G F D H 7.7.9.v.v.v.v.v.n.d.A d.z._ d.c.B.B.m.m.m..X.X.XG.F.J.G.J.J.m.$XiXcXMXMXLXCXNXZXnXnXBXCXBXsXuXyXFXLXLXFXDXPXPXPXFXbXbXbXyXhXmXmXbXbXnXbXbXbXCXGXZXqX(.W o.X.z . + j C 3.5.4.V.V.D.A.A.A.A.A.K.K.q.A.L.W.E.E.E.E.W.W.W.E.E.E.E.W.W.P.P.J.5XDXDXJXKXKXKXKXKXKXKXKXKXKXKXKXKXKXKXKXKXFXGXKXHXZXZXHXHXHXHXHXHXHXKXKXKXKXGXHXNX+XX.G X.G v v D J '._.` H A _ s.u.u.f.s.f.g.d.j.j.j.j.Z S S S S S S Z z.v.v.b.b._.'.x.'.x.`.9XeXkXSXSXSXSXSXSXSXzXzXlXpXkXrX<XrXrX,X,XkXjXNXSXNXNXnXkXaXkXjXNXSXNXNXNXCXZXCXhXhXCX#Xk X + ; j D K C C 3.5.5.q.q.q.q.C.A.V.q.V.V.V.A.V.C.C.C.C.j.F.v.v.b.m.m.b.J J F F W +XdXNXhXuXwX9X9X=X=X0XtXIXbXBXbXIXbXGXHXAXNXNXW z l g g v v v v v v v v F F G b G F F J D j m C C A 6.2.4.4.j.s.l.l.f.s.s.s.d s.s.s.j.n.J.J.P.P.P.P.P.P.H.J.m.%XjXzX1X X].&X<XNXHXKXHXCXCXCXCXnXvXhXhXbXbXMXMXGXPXFXFXMXuXuXvXuXIXuXuXyXvXbXnXmXvXuXuXtXuXIXMXJX.Xe 5 i >.>.>.>.>.,.,.,.q.q.q.q.q.V.q.A.A.C.V.A.A.A.A.C.C.C.C.G.F.v.b.XX$X5XuXCXNXAXKXHXHXKXGXhXwX9X9XwXrXrX0X0XsXjXyXyXsXtX9X=X#X9XtX).                    @ + @ + k j k k h h h B C V a p r r r r r r p y.i.( u.i.i.u.( u.s.h.j.j.F.F.F.F.b.$X7X9XOX(.W E E T n n n n b b b z : : : : ; ; : ",
"HXHXGXHXHXCXNXnXHXCXSXAXAXAXAXAXAXAXAXCXGXHXGXSXAXAX2X Xo.W E W Q T T E W G D H 7.7.7.v.v.v.v.v.d.Z a Z d._ _ c.B.B.n.m.m._._._.J.J.J.G.G.m.m.$XcXDXDXPXCXBXjXSXNXNXZXAXbXeXaXBXGXHXLXFXDXPXDXDXmXsXhXbXbXmXFXCXmXmXbXnXbXnXFXHXZX0X(.W o.E l . + L C C 6.2.q.V.C.A.A.A.C.A.K.K.q.A.W.W.E.E.E.E.E.W.E.E.E.E.W.W.L.L.G.G.5XMXMXPXKXKXKXKXKXKXKXKXKXKXKXKXKXKXKXKXLXHXHXHXSXSXSXZXZXSXSXZXCXBXNXmXPXMXMXuX=X[.X.X.X.G v D J '.OX#X_.x._ _ s.u.u.f.s.g.z.z.z.v.H.n.z._ S S S S S _ 3.d.v.b.m..X_._.OX/.).#XeXdXpX<XpX2X2X<X1X1X*X*X|.+X|.}.}.].).).>XkXSXSXAXSXjXjXkXkXjXNXSXSXNXjXCXZXCXyXwXbX#Xj X X + + k j M M H 3.9.5.5.q.q.q.A.C.4.V.C.q.C.q.5.5.5.v.v.b.b.b._._.'./.J W (.).*X>XaXbXhXuXuXwXwX=X=X=X0XtXaXCXCXBXBXZXGXZXnXjX% X X       X + + + + + + + ; ; ; k k g v B B B C C A 3.2.2.4.h.s.R.R.k.( ( u.u.u.u.s.s.j.n.J.T.P.P.P.P.P.P.J.m.OXNXkX1X X{.2XzXlXZXHXZXSXAXAXZXjXjXjXnXCXBXBXnXBXBXFXFXMXwXiXuXuXMXMXMXMXmXFXKXLXPXMXIXsXsXvXPXLX5X7.m i i i >.>.>.>.,.,.q.q.q.q.q.q.V.A.A.V.V.A.A.C.C.q.5.9.9.b.m.'.XX7XxXMXJXHXCXHXKXGXHXKXKXnXbXsXuXwX0X9X0XwXyXeXqXeXsXsXtX9X9XqXtX`.            o @ @ @ @ + O + e e e k B h N C V a y r r r r r r r s u.i./ u.i.i.( / ( u.s.h.j.j.v.v.F.G.oX5X$X_.r.J b b v z v v l g g l l ; : : : - ; , ",
"KXKXHXGXHXGXBXbXZXCXSXAXAXAXSXSXSXSXSXSXZXSXlXkXdXpX1X].o.Q E Q ..Q E W X.J K H 7.7.v.v.v.v.v.j.s.d d d.g._ _ g.l.n.n.n.m..X_._.J.J.P.G.J.m.m.$XPXDXmXnXNXjXkXjXlXVXSXlXdXpXjXZXAXGXFXFXLXFXLXFXmXhXbXFXCXFXHXFXFXGXGXFXFXGXHXKXCX>XX.E X.E l . g F D C 3.2.5.4.V.C.V.C.A.C.K.K.V.A.W.W.E.E.E.E.E.E.E.E.W.W.W.L.L.F.J.XXiXDXmXFXKXKXKXKXKXKXKXKXKXKXKXKXKXKXKXKXFXKXAXaX=X@X*X@X|.+X+X@X@X+X$X$XOXOXOX`.J J W G G F v G J x._.oX%Xz._ ( u./ / ( g.c.z.H 7.b.J.m.x.` S S S _ _ _ s.d.n.v.b.m..X%X$X%X(.}.#X@X[.].[.{.].].+.o.o.X.X.X.E G G F b G *XlXSXNXHXlXeXlXjXjXjXjXNXZXBXnXZXNXmXhXuXbXwX`.+ X     . + k j D K 7.7.5.5.5.C.C.C.4.q.C.5.C.5.5.5.9.v.b.b._.'.`.'.(.`.[.+X=XqXdXaXaXsXsXhXIXuXsX>X0X>X=X9XqXBXGXBXnXBXZXBXjXaXk X X     . . X + + + + + + + % ; % ; k k j B B C C 3.3.2.h.h.s.u.U.U.i.^ y.i.i.i.i.h.h.h.j.n.J.P.P.P.P.P.P.J.m.:XSXpX1X&X{.1X2X<XpXaXpXaXkXkXpXaXpXpXpXpXpX<X-X=X0XsXBXMXwXiXuXuXMXFXFXFXLXHXHXPXmXmXPXBXbXbXFXPXxX5XXXv.V a a >.>.>.:.4.q.q.q.q.q.V.A.A.A.V.V.C.C.C.j.v.b.b.'.`.OX$X9XMXLXJXKXFXCXHXKXKXHXHXmXGXFXFXCXnXuXwXwXyXqX>X9XyXsXtX0XwXyXyXtXOX          o O O O O O O + + * * e h x N N N f i r r r r r r r p d s.f.( ( ( ( u.u.u.u.s.k.k.l.l.l.H.H.J.J.b.8.J D j v j g k g g k - - g - l - ; : : c ",
"HXKXHXFXGXKXGXbX,X,X>X<X<X1X1X1X1X*X-X1X1X*X|.}.{. X+.....E E ......E X.(.J K H 7.z.v.v.j.j.j.j.s.:.s.l.l.d d g.l.l.l.n.J.J._.b.G.J.J.J.J..X.X7XxXgXuXeXjXjXkXlXzXlXlXpXpXfXlXlXjXjXjXNXCXFXPXmXmXbXCXKXHXGXHXFXGXHXKXKXKXKXKXKXnX,XW G Q E l . E W D B C A 5.4.C.C.C.C.C.C.K.K.C.A.W.W.E.E.E.E.E.E.W.W.W.W.L.L.P.J.oX$XcXKXKXKXKXKXKXKXKXKXKXKXKXKXKXKXKXKXKXKXCXKXNX+XW b v c - g l v v v j j M M j k k D F j v v F J K B S H z.Z f s / y./ ( d.` K D D J x.x.J F D D S _ _ _ _ g.j.d.d.z.M._.%X%X_.'.`.(.W (.X.X.W E E E G G G G v v v v v F ,XAXSXkXSXdX<XNXVXjXkXjXNXAXCXNXCXhXnXCXbXnXBXuXOXW k X . X % g v D K 7.7.9.9.F.C.C.4.5.C.5.j.5.v.9.9.x.x./.'.'.).(.[.>XpXpXeXpXaXdXdXsXhXmXmXvXbXrXdXwX=X#X=XbXGXNXbXNXZXNXjXdXz + X     X @ @ @ + + + + * * ; k k k j k h B N C C 3.3.h.h.h.u.u.y.y.t.t.t.i.i.p.p.i.k.h.h.l.H.R.T.P.P.P.P.J._.:XnXpX2X&X.. X{.o.].].+.+.].].+.+.o.o.o.o.o.E b W ).=XyXsXuXuXuXIXMXFXLXKXKXFXnXvXvXFXKXKXCXBXCXmXPXMXcXiXoX9.6.a >.>.4.4.4.q.q.q.q.V.A.A.C.V.C.C.C.F.b.b..XOXOX+X=XeXmXKXKXJXKXKXLXHXHXLXGXHXCXKXKXHXKXHXCXgXwX9XwXsXhXsXwXqXwXtXsXtXwX#X      o O O O O O O O + + + e e h h t t f f r w w r r r r r r t _ d.d._ _ _ _ ( ( u.u.u.u.s.s.h.k.l.H.H.H.v.7.8.K B D D j h j B j j j g g z - ; c : c ",
"KXHXHXLXHXHXCXbX(.g v b z l l - > > : l T E T E n c n n R T T E ....O.X.(./.8.C 7.z.j.j.l.j.j.s.u.i.h.k.h.s.s.k.l.N.N.n.n.J.J.J.oXJ.b.J..Xm..XOX#X%X`.+X=X-X*X*X&X X X{.{.{. X|. X|.).aXNXhXhXbXbXFXKXFXnXmXCXFXHXHXKXHXKXKXKXHXnX>Xo.b T T % . z W r.J H C C v.5.j.C.F.F.F.F.C.C.A.K.L.L.W.W.W.W.W.W.W.L.L.L.J.XX5XxXDXKXKXKXKXKXKXKXKXKXKXKXKXKXKXKXKXKXKXKXKXKXHXkX].b b : ; # - l k k k k k e e e e k k k j k h x B S A S S a d / / ^ y.i.f.` J g X % v G G - % - v ` ` S _ s.s.s.l.g._ _ c.M._._._._.'././.J J J F v v j j g g g g g g g G rXAXSXlXkXkXlXkXZXjXeXdXZXHXNXsXwXyXbXmXFXFXFXCXKXPX9X).g X % g E k k K 0.3.3.9.G.5.5.6.5.v.6.b.7.x.8.x.`./.K F +X*XpXdXqXfXlXpXdXrX0XeXyXyXvXMXBXSXeX>XtX0X=X9XZXbXtXwXaXNXNXkXb % X   .     @ + + + + * * e e e k h j j B B A A 1.2.2.h.h.h.u.p t.t.t.t.t.t.i.p.p.p.i.i.i.k.k.Z.H.T.T.P.G.b._.:XnX2XpX1Xo.{...T T T E ..E T n T T T T T R R c E (.,XhXsXwXuXuXgXMXFXKXKXFXmXmXMXuXKXFXsXFXBXmXIXPXPXMXcXxX7X$XJ.v.3.1.1.4.4.4.q.q.C.Q.L.C.C.5.F.5.b.oX$X$XOX=XwXkXAXKXKXKXJXJXKXHXCXCXCXGXCXnXCXKXHXLXCXCXnXCXhXwXyXbXhX0XqXhXsXyX9X9XuX@   o O O 4 4 4 4 4 4 e e e e e N N t r w w r r r r r r r t t S ` ` ` ` _ _ _ _ ( ( ( ( u.u.u.u.u.k.N.Z.Z.H.v.9.3.A C B B N N m m h j j g j g g l b T ",
"KXHXHXGXHXKXGXNX).g z l : ; ; # # > > : c b b b T T T T T E ..O.o.o.o.).(.x.z.7.3.d.d.j.h.s.s.s.u.i.i.i.h.h.k.l.l.N.N.l.n.H.J.m.b.b.J..X.X.X_.'.'./.).#XqX=X}.(.Q Q E E T T R R R E b -XzXkXjXnXFXHXCXhXuXhXmXFXKXKXKXKXKXKXFXmXyX,X}.].).E l : z E W W J K B C 7.v.v.j.j.F.F.F.F.K.L.K.K.L.L.S.W.Q.P.K.F.P.4X8XxXcXJXKXKXKXGXGXLXKXKXKXKXLXKXKXKXKXKXKXKXKXKXKXHXHXjX].G b : ; ; l z k k k e h m m h h h h j j j x B S S N t u a s :.^ ^ / ( _ ' : # . # % - - & & & % l D ' ` d.s.f.g.s._ _ g.c.m._.%X_.b.x.x.K K B B j j j j j j j g g g j F eXAXSXVXSXlXlXaXSXjXsXdXbXNXjXsXhXbXBXFXHXHXGXLXFXFXGXZXqX].b g - k k k k M C C 6.3.v.9.9.9.7.b..X8.D 8.[.).).*X-X<XpXfX<XpXjXdXaXeXqX0XwXtXyXyXNXNXsXeXtX=X+X=XsXsXtXeXaXjXlXjXv % X   . . O O + + * e e e e k e h h h N N V Z Z 2.2.2.2.:.:.>.t.t.t.t.t.t.p.p.p.p.p.i.i.i.i.k.k.Z.H.P.P.J..X_.7XmXkXzX<X].].+.o.E T T T E E E T Q ....Q ! ! R Q ).>XjXhXtXuXuXMXDXKXKXKXLXCXmXmXvXLXmXtXsXbXIXIXIXIXuXgXgXxXiXiX7XoXv.3.1.1.4.4.4.C.!.P.3.j.G.v..X$X$XOXOX,XkXVXZXHXHXKXKXLXLXCXFXHXHXGXGXGXAXHXHXCXBXCXvXhXnXuXhXhXwXwXsXeX,X0XwXiXuXIXO   o O 4 4 4 e e e e e e e e t f t t r w w r r r r r r w * t x D G G n x x x _ _ _ ( ( ( i.i.i.i.i.i.k.Z.Z.C.j.3.3.C C C V V N N N M B j j j j v E E ",
"JXKXKXHXKXKXGXBX@Xb b b b c c > > , , : b b b F b G b G G E E W E X./.`./.H 3.v.d.j.h.s.u.u.u.u.i.i.i.i.k.l.Z.l.l.Z.N.l.n.Y.B.J.J..X.Xm.b.b._.'._./.`.#XwX>X+X).+.+.o.....Q Q R R T b 1XSXSXNXBXGXCXbXuXwXhXmXFXHXKXKXKXHXCXhXwXwXyX=X[.|.-X&X].Q E X.(././.x.x.7.7.z.v.v.v.v.9.v.H.P.L.L.L.L.K.L.F.F.J.4X8XcXDXJXKXKXKXKXLXGXKXFXKXLXKXKXLXKXKXKXKXKXKXKXKXKXKXHXHXjX[.E T l - : c l ; q 5 e u m m m m m m m h N B S S f t t f s >.:.y.y.( _ _ x ; # # # . . # & & # # ; l D ` _ g.g.f.s.( _ _ d.n.m.J.m.b.z.7.C C B B B M B B j B j j j j j D eXAXSXSXSXlXlXaXSXNXjXhXsXhXhXhXFXGXHXKXKXKXKXKXLXFXKXKXKXNX>X+XE g k K j + + h C 7.C 7.x.b._.'._.K L /.=X*X@X>XqXrXfXpX,XqXdXdXeXrXqX9X9X0X0X9XyXrXaXjXaX>X=X0XtXaXsXsXdXjXjXkXz % % . . @ + O e e e e e e e h e h h N N N V Z 2.2.:.:.:.>.>.s i.t.t.t.t.i.i.p.p.p.i.i.i.i.i.i.k.k.l.H.P.XX.Xm.7XcXnXgX,X}.].[.].O.b z z v b b c R Q Q ! ! ! R Q ).>XNXjXuXuXuXMXJXKXLXFXLXLXCXMXPXPXmXtXwXsXtXsXtXwXtXuXuXvXMXcXcXiX7XoXG.3.1.F.5.6.J.oXv.b.b..XoX$XOX@X9XjXSXAXAXHXHXHXKXLXLXHXHXGXCXCXCXHXHXHXCXnXhXbXyXuXnXMXFXnX>X=XeXdXeXwXwX9XiXcXO O O 4 4 4 w e e e e e e u u t t w w w w r r r r r w t t * ; g l c c : ; ; g n ` _ _ ( ( y.i.i.i.y.y.i.k.Z.Z.j.j.3.3.3.2.Z V V V V V M M B B j G X.W ",
"JXKXKXKXKXKXHXBX+Xb b b T T T , > , > : l l l v v v v v v v F F D D ` _.x.A 3.n.j.j.h.u.u./ ( u.i.i.u.h.l.l.H.n.l.l.Y.l.N.B.Y.B.oXoXoX.Xm.m._._..X'.'.OXUXUX=X+X[.].].+.o.Q T R R T b 1XSXSXjXkXnXbXhXhXbXCXHXHXFXKXKXHXFXbXwX9X0XdX0X+X-XlXlXpX|.).(.(.W W (./._.'.x.z.7.7.b.b.b.b.G.G.G.I.G.J.G.J.oX7XcXDXJXJXKXKXJXLXFXLXKXKXKXKXPXKXKXKXKXKXKXKXKXKXKXKXLXLXKXHXlX}.E T c : : c l % 5 e e m m m m m m N N N N N t t t t f s >.>.y.y.u.( S x : < = = $ # # # & $ & # # ; ; x _ g.g.s._ _ _ _ d.z.z.n.m.m.v.7.7.7.7.C C C B B M B j j j j j D uXCXBXNXSXkXzXkXSXNXNXjXhXjXNXBXHXHXKXHXKXKXHXKXLXPXmXFXGXGXHXKXaX=X`.D + @ + q K H B J /.'.%XJ K /.[.+X>XpX0X*X<XpXdXaXqXeXaXeXrX0X0X0X0X>X>X>X0X<XeXdXtXeXsXsXaXhXnXNXbXjXkXaXv ; ; X X + * + e e e e e e h h u h N N V Z Z Z 2.:.:.:.>.>.>.>.t.y.y.i.i.i.k.l.l.k.s.f.f.f.i.u.k.k.l.j.H.4X4XoXoXoX:X%X'./.J ).X.G v z g g g g - l c R R R ! T ..].>XNXjXtXuXIXvXJXKXPXMXFXLXmXvXKXFXLXbXwXaX9XtXqXeXsXhXyXeXyXwXuXcXPXcX7XoXJ.9.9.z.oXoX_._.`.%X`.OX#XyXAXHXZXAXAXAXHXKXKXKXLXKXFXBXCXAXCXjXaXnXnXjXnXnXyXuXnXKXHXFXhX>X@X>XjXtXwX9XiXcX+ O 5 4 4 w w e e e e u u u t w w w w r r r r r r r t t x ; ; > < > < < < < < : x _ _ _ ( ( ( y.y.i.i.i.k.k.l.j.j.5.5.3.3.2.1.V V V C V B C B B G X.W ",
"KXKXKXKXKXKXGXNX}.b E T R c c : > > : % % k k j B B D D D D D D D B H _.m.d.d.l.h.h.u.y.y.y.y.y.y.i.f.f.d.n.n.n.c.n.n.l.l.l.N.n.oXoX7X8X8XoXm.b._.b._.$XUX9XUX#XOX}.].o.....Q T R R z *XSXSXBXnXbXhXyXbXFXKXKXKXKXKXGXmXbXhXyXwX0X0XeXkXdX<X<XVXpX,X*X+X(.o.(.X././.'.`.`.'.x.8.b.z.v.G.G.v.v..XoX7XcXJXJXJXJXKXKXKXLXFXLXJXKXKXKXLXvXFXKXKXKXKXKXKXKXKXKXLXLXLXKXKXNX|.E T c : l b z k k h u V m M N N N V S N S a t t r t p s y.s s s f t k ; , < = P P = $ . # # # $ # X X g S _ d._ _ _ _ _ d.d.d.z.n.m.b.z.9.9.7.A C C C C C C B B B B B K uXHXSXNXkXaXlXlXNXNXbXbXNXZXGXHXKXKXKXKXHXHXKXKXPXDXKXKXKXGXGXGXKXKXbX+Xv + + + q D J /.J D J D /.9XbX0X*XeXlXdX0XdXlXkXkXkXaXyXrX>X>XeXrX-X=X<XrXrXeXwX0XaXbXhXhXhXbXNXNXjXdXpXG ; - + + + e e e e u u h h h h m N N V Z Z Z Z :.s s p s t.t.t.y.( u._ _ _ c.c.c.` _ _ f.f.f.( i.i.k.l.H.4X4X5Xm.c.m._ H x.C 8.K D B B B j j j g l l z R ........].<XNXNXyXuXvXMXJXJXMXvXFXLXCXvXKXFXKXGXyXsX9XaXrXeXjXjXrX>X0XrXrXgXMXDXDXcXxXm.b.H '.OX}.`.(.}.+X9XjXAXAXAXHXAXHXHXKXKXKXLXmXbXmXGXKXHXsX,X#XrXjXCXHXGXbXvXGXHXCXKXKXbX=X@XqXeXwX9XuXDXe O O e w e e e u u u u e e w w w w w w r r r r r t x g ; < < < = = = = = = < < ; x _ _ _ ( ( ( y.i.i.i.f.f.g.j.j.d.d.3.3.3.2.A A A C C C C B B G X.O.",
"KXKXKXJXKXKXGXNX+XF ..Q T R R c > c : % ; j B C B C C C C C C C K B H m.m.j.s.s.u.u.:.y.y.y.y.y.u.f.f.d.z.m.m.x.b.m.B.B.N.N.N.g.n.m.oX8X8XoXm.m._._..XXX$X$XOXOX`.`.(.X.X.W Q E b b z -XSXHXHXHXmXhXsXbXGXKXKXKXKXFXhXwXwXuXsXsXqX0X>XqXpX<X<XkXrXrXaXrX-X|.[.(.G G /.[.OX'.8.H x.8.b..XXX.XoX7XcXDXJXKXKXJXHXKXGXGXFXLXKXKXKXKXKXFXuXmXKXKXKXKXKXKXKXKXKXJXKXKXKXKXnX}.E T c : z b v k h m u a N V V N N V V N u t t t p p s p / s p t e * ; : > = = = P P $ # # # # $ < # ; n K A A _ _ _ _ _ g._ A d.v.m.m.b.9.9.7.3.C C C C C C C B C B B H gXHXZXSXlXaXlXSXjXhXjXNXZXHXKXHXKXKXKXKXKXKXKXKXKXJXKXKXKXKXLXmXKXmXLXKXIX(.k X X g G G ; % W ).0XsXnXeX>XdXSXNXdXNXjXaXjXjXsXaXeXqXrXpXpX<X-X<XqXrXrX0X0XeXsXhXsXaXsXjXjXjXkXdXO.; - % + * e e e u m m m m m N N N N V Z Z Z d s p p p p t.t.t.( ( _ S x x ' ` ' G ' ' _ _ _ ( i.i.i.k.j.H.T.oXH.n.B.c.n.J.7.9.7.K C C C B B B D v z z b O.o...o.].<XSXNXyXuXMXDXJXDXMXMXFXLXCXbXKXFXGXGXbXsXeXdXrXeXkXkXrX<XrXpXrXeXhXMXPXMXcXiX#XJ D J G o.].>XrXlXHXHXSXNXHXHXHXKXKXKXPXvXuXbXBXKXHXsX=X@X=X=XaXAXHXHXNXbXGXFXmXmXHXHXNXaXeXjXyX9XiXDXe 5 5 e e e e u u u u u e w w w w w w w r r r r t e k % # < < = = = = P P = = < ; ; * S _ _ f.u.u.u.u.f.f.f.s.g.z.z.z.3.3.3.3.A A C 6.3.C A H D F X.O.",
"JXJXJXJXKXKXGXNX}.b Q Q T R R c : c l % k h B C C C 6.6.6.6.6.3.A C A z.v.d.:.:.u.y.y.y.y.y.y.i.( ( d S ` M.x.H z.M.m.B.B.N.N.N.B.n.n.B.R.R.J.J.m.m.b.b.b.b.8.8.H K D v v v v z z v l @XNXCXFXPXCXbXbXmXHXKXHXHXbXhXwX9X9XwXwXtXaXdX=X+X0XjXaXrX|.>XrXrXpX<X*X{.[.o.W W W X./.'.x._.OX$X5X7XcXJXKXJXFXLXKXKXKXHXGXGXGXLXKXKXJXLXKXLXvXLXKXLXKXKXKXKXKXKXLXLXKXKXKXKXjX[.E T c : c b v k h m u a m V V N V V V u w w t f s s / ^ ^ p s S x k - > , Y Y P = = = = $ $ $ = > > : O.X.` z.z.d._ _ d._ _ d.z.v.m.b.b.z.9.7.7.7.3.A 3.3.3.C C C C K J gXLXSXNXlXaXzXSXkXhXNXZXHXKXKXKXKXKXKXKXKXKXKXKXKXKXLXDXJXJXKXKXKXKXKXFXGXGX0XW z - z l g E *XdXGXjXaXqX>XdXjXeXdXsXqX=XwXyXwXeXyXjXjXdXfXfX<X-X1X<X0XeXsX9X9XhXaXtXaXdXdXaXzXSXO.; ; ; * * h e u m N N N N N N N N V Z Z Z d f p p p p p t.t.t.( S x x x l c c c c n n ' ' _ _ i.i.i.k.h.h.j.l.l.l.l.l.H.H.3.5.9.7.3.3.C C C C C B v j F X.o.O.o.].<XSXNXyXuXMXKXLXPXMXmXPXCXvXMXFXGXBXKXGXeXeXeXrXrXeXpXpXrXpX2XpXaXkXhXgXuXuXuXuX@X).W : Q 2XzXlXlXlXVXZXCXmXKXKXJXJXFXmXbXvXKXGXGXBXwX+X+X=X@XdXAXHXGXZXBXCXLXbXuXhXHXHXHXZXBXbXwXiXcXe 5 e e e e e u u u u u w O 4 w w w r r r r r t t e * # # = = = = P P P P = = < < ; * S _ _ f.f.u.u.u.f.f.g.g.z.z.z.A 3.3.3.3.A A A A 3.A A H D v G O.",
"JXJXJXJXKXKXGXBX+XG W Q T R R c c T v k k M C V 1.1.6.3.6.6.6.6.3.3.3.d.d.s.u./ y.y.i.i.y.y.y.( S t * * x G G v v K ` M.c.c.N.N.B.B.g.g.n.B.R.R.m.J.J.J.J.G.b.b.x.8.H K D D D F z v j #XFXKXKXKXPXbXMXHXKXKXFXCXwXwXwXwXwXwXwX9XdXdXpXpXjXaX0XrX@XaXdXpXlXVXfX<X|.].].[.[.(.W J /.$X9X5X9XvXKXKXJXKXKXKXHXGXHXHXKXKXKXKXKXKXDXMXKXKXmXKXKXLXKXKXKXKXKXJXFXFXJXKXKXHXjX].E Q R : c G v k m N V V m V 6.V V V f t t t f s p p s / p s _ c.G c > U U Y = = P Y Y > = = = = Y , , T [.'.b.b.v.3._ d._ d.z.z.z.b.b.b.v.z.7.7.7.3.A A 3.3.C C C C K ` uXmXjXnXnXhXkXjXhXnXZXHXKXKXKXHXKXKXKXKXKXKXKXKXPXKXKXKXJXJXJXKXKXLXKXKXKXHXKXHX<Xb l v (.dXGXGXGXZXBX0X+X=XaXpX>X0X@XOX>XwX9X0XyXSXAXdXrXfXrX*X,X0XrXlXNX=X+XaXaXaXdXdXpXeXzXAXo.+ ; ; k e h u m N N N N N B B S V V Z Z d f p r p t.t.t.^ t./ _ x x , , U U , U U , , ] ' ' _ i.i.i.k.Z.k.h.k.k.N.k.k.Z.j.j.v.5.3.3.3.3.3.A C C C K D D X.o.o.o.].<XSXNXtXuXMXKXFXMXMXmXmXvXgXsXbXGXBXKXKX9X9X0X<X<XrXrXrXpXpXpXdXkXdXeXyXbXCXnXwX+XrXlX|.].-XlXSXlX<X<XjXZXCXKXKXKXJXJXJXKXKXKXGXGXGXbX>X}.`.>XNXKXHXKXKXGXGXBXyXeXnXAXZXNXVXjXnXuXcXDXe 5 e u u u u u u u u e w O w w w w w r r w f Z ` D : # < = = = = = P P P P = = < , n ` ` d.s.s.f.f.f.f.g.g.g.c.` A A 7.7.3.3.3.3.7.7.3.V A H B j n O.",
"KXKXKXKXKXKXHXBX+XG O.E T R R c c T v k h M 6.6.1.1.6.6.6.6.6.6.3.3.d.d._ s / y.^ t.t.^ / f.g.S ; ; < < < > > > > : n X.M.c.c.B.N.B.c.c.c.B.B.R.R.R.J.J.J.m.b.b.z.7.H H C C B B B D B 9XFXHXLXmXMXKXKXPXmXmXvXyXyXbXsX0X0XsXhXeXeX>XdX0X+XeXlX+X>XaXqXZXAXVXHXNXdX>X}.(.(.`.).X./.(.OXwXBXHXKXKXKXKXKXKXKXKXKXHXHXHXFXKXKXKXPXLXKXHXKXKXKXKXKXKXKXHXFXJXKXKXKXKXHXHXrXo.E E c : c G v j N V V V V N V 1.3.2.f t t r r f s :.s s :.u.g.` n , , Y P Y Y P > > > > < Y U I I = < , G %XXXF.G.n._ _ _ _ z.M.M.M.z.z.z.x.z.7.A A 3.3.3.3.3.C C B D J yXmXCXbXvXuXgXPXKXKXKXKXKXKXKXKXKXKXFXKXKXKXFXKXKXKXKXKXKXKXKXKXKXJXLXKXKXKXHXKXHX=X).=XHXHXZXGXKXKXbX0XaXsXeX0XpX>X0XaXrX>X,X@X,XCXZXsXaXtXqXeX0X<XrXjX=XE G (.[.-XjXSXlXdXdXlXG ; - k ; k h m m N B N N B B N N A _ Z d t r p p p ^ ^ ^ y.y._ ; < , I U I Y Y I I I [ , < n ` l.i.i.k.k.i.i.k.a.i.k.k.l.Z.C.j.3.v.7.A A A 3.C A C K D F o.].o.o.}.rXSXSXnXBXKXmXmXmXFXFXCXhXwX0XBXBXBXjXHXwX[.qXaXrX0X,X0XkXkXkXaXaXsXsXtXtXsXNXhX,X@XrXSXAXaXdXVXaX,X<XeXkXSXSXCXKXKXFXKXKXPXKXCXBXGXGXbXvXnXKXKXKXLXHXKXLXnXNXwXeXkXZXHXlXNXAXhXFXPX_.h e 5 e e e e S t * * O O w w w w w r r p s 1.7.J F c , = = < = < < = P = = I P = < , F 8.9.5.2.h.k.k.k.l.l.g._ _ _ A A A 7.7.3.7.7.7.3.3.C K D g b ].",
"LXKXLXLXKXKXKXHX+XG O.E ..R R R c T v k h V 6.5.5.5.6.3.3.5.9.v.2.Z Z Z d / ^ t.^ ^ ^ / f._ N ; ; = = = = P P Y > > : n ` M.B.B.B.B.B.B.B.c.c.l.Y.R.H.J.J.m.b.b.z.z.7.A A A A C C K K iXFXGXHXCXuXMXmXPXPXmXuXwX9XhXCXnXjXsXwX>XjX>X=X*X*XdXNX*X=XqXwXNXNXjXGXjXCXnXeX#X}.[.).X.F (.=XjXGXGXGXGXLXKXKXKXKXKXKXKXHXPXCXKXKXKXKXHXKXKXKXKXKXHXHXHXKXLXJXKXKXKXKXKXHXjX@XO.E T b c b G v h N V V V A A 3.3.2.Z f t t t t f s d d :.u.h.d.' n , I I I I Y U , - % ; , , U I I I I < n /.XXJ.G.n.z._ ` z.M.m.M.M.M.z.z.z.z.z.7.7.7.7.3.3.A C K K G /.yXhXvXhXvXMXDXKXKXKXKXKXKXKXKXKXKXKXHXmXFXFXLXKXKXKXKXKXKXKXKXKXKXKXKXKXKXKXKXKXHX9X9XhXwXyXKXKXZXZXsXsXGXGXsXdXjXpXpXrX>X<XyXjX0XnXCXyXyXeX>X>XjXlX=X).v W E o.b {.<XpXpXzXlXzXb - l g ; k h m m B C B B C C C Z A Z f f r r p p ^ ^ ^ p p t e : , < I I I I I I I I I I I , ' g.k.k.k.k.i.i.i.i.i.i.k.k.l.j.j.3.7.3.A A A A A C C H K G o.].o.o.}.,XjXHXZXBXmXmXBXLXLXFXPXbXhXbXZXnXNXsXNXeX>XHXCXAXkXrX0XgXhXsXaXaXaXaXtXeXaXhXyX>X#X>XjXSXNXNXaX0XqXeX1X,X<XkXSXHXKXFXLXKXPXMXCXGXBXCXKXKXFXbXmXKXKXKXFXCXBX0X0XdXkXdXkXlXHXhXgXuX_.O   e V e e e e t * O O O O w w w r w w p p :.5.8.G c > < = = < = < , < U Y = = = = = # c G 8.9.5.h.k.k.l.l.n.g._ S S S S A 7.z.7.7.7.3.7.z.7.H K D E ].",
"KXKXKXKXKXKXFXnX@XW X.E ..T T R R T b j m C 6.5.5.6.6.3.5.9.9.5.a f f d / / / t.t.t.y.u._ S g - # = = = = = P = Y > > : n ` M.B.B.n.l.l.B.B.N.l.B.H.H.J.J.m.b.v.z.z.z.7.7.H A C C H K iXFXFXGXBXCXPXvXvXmXCXvXnXmXnXsXwX>X9XyXbXNXaXeXaXaXjXeX+X=X0XaXNXjXNXZXbXjXAXSXaX,X+X+X|.X.+XdXAXHXGXAXZXFXKXKXKXKXKXKXKXLXbXmXKXKXKXKXCXKXKXKXKXKXKXKXHXHXKXKXKXKXKXKXKXKXpX].Q ..T c b b G D j N V V V N A A V i t t r t t f s s a :.s.j.d.` n , , I I I Y U c - + + + l c , < I I I < c G '.XXJ.J.m.c.c.c.m.m.m.m.M.z.z.z.z.z.z.7.9.7.z.z.7.A H K F J kXjXhXhXmXFXLXKXKXKXKXKXKXKXKXKXKXKXCXwXuXMXLXKXKXKXKXKXKXKXKXKXKXKXKXKXHXKXKXCXwX9XtXwX@X@XeXnXKXBXaXdXNXhXdXVXqXpXfXpXqXrXjXAXAXHXHXZXNXdXeXeXkX<XX.l - }.X.E b ].<XpXkXlXdX<Xz l b g k j j B N C C C C C C A d._ f t t p r p p t.t.p p f t * n U U I I I I I I I I I I U U n c.l.l.f.k.k.i.i.i.i.i.k.h.h.j.j.z.7.3.3.d.A A A 3.C K D F o.].+.).}.,XjXKXKXGXFXmXFXKXKXJXFXPXFXGXZXbXBXaXsXtXjXyX#XNXyXwX0XhXhXsXdXaXtXeX0XeXaXyX0X,X=XrXjXAXAXbX0X0XaXpXrXrXrXrXlXAXGXGXFXmXMXMXFXKXBXBXGXKXFXsXhXmXKXKXHXvXyXqXqXdXaXdXkX>X,XgX_.h + + e u O u u N u * O O O * O O w w w w p p :.s.z.H v : > = = = < < , c c > > > = $ = = $ > z J 8.v.j.s.s.l.Z.n.s.S S S S S A 7.z.7.7.7.3.C 7.H K K ` (.].",
"IXFXKXKXKXKXKXCX+XW X.E Q T T c R E F j m C 6.3.6.6.3.3.9.5.1.a t f f ( y.y.y.t.^ i.( t e k - ; # = = = = = = = = P , > : n ` n.Y.Y.l.l.B.B.B.B.n.n.n.n.J.m.m.v.z.z.z.z.7.7.H C C H H iXLXCXZXBXGXbXwXwXhXbXhXbXhXtXwXyXyXeXeXyX@X=X0XaXdXwX>X0XjXhXAXNXjXNXkXaX,XeXhXrX,X,X,X,X0XdXNXNXNXZXGXHXHXKXKXKXKXKXKXHXFXyXmXKXCXLXHXyXFXHXKXKXKXKXKXKXKXKXKXKXKXKXKXHXHXqXo.E E T b T b E F B B C 1.3.S A A u e w t r r t s d :.:.s.d.z.H D c , < I I I U , % @ 5 0 0 5 g c U I = I U , n /.XXJ.J.J.n.z.n.m.m.m.M.c.` z.z.z.z.v.7.7.3.V V C C H x./.`.kXjXjXNXHXHXLXKXKXKXKXKXKXKXKXKXKXHXuX#X#X9XvXLXKXKXKXKXKXKXKXKXKXKXKXHXKXKXmXyXqXCXyX,XyX9X+X>XHXHXZXbXdXqXwXkXdXdXaXrXrX,X@X#X>XhXSXAXAXNXjXVX<XQ b E o.&XW +.<XfXdXpX<X>X|.].l v G j k j m B B C C C C A A A d.s.t w t p p p p t.<.p ( _ ' g , U I I I I I I I I I [ I I U c ` n.c.g.f.k.a.i.i.i.i.i.s.s.f.d.v.7.3.z.z.A A A 7.H H D D o.].].).}.,XjXCXCXFXKXFXJXKXKXJXLXLXJXFXBXbXGXbXvXyXnX@XJ eXwXyXwXhXhXsXdXaXeX0X0XwXeXrX=X@X>XjXAXAXSXjXaXeX0X*X,X1X*X<XkXkXhXGXGXMXMXKXFXGXKXCXvXbXGXmXCXBXnXjXjXsXwX*X=XwXaXjXyX`.D k + + e e e m V u u Z t O O O O * O w w w w r d :.s.d.A D l > < < = < > > : z z . % : > = $ = = # - v J z.j.h.s.h.l.l.s.Z S S S S S N N N V C C C 3.C C K J X.[.",
"mXFXKXKXKXKXGXGX+XW o.E Q Q Q R R Q F j M C 6.6.3.3.3.9.9.3.V f f p / / y.y.y.y.y.y.f t x n , = $ = = = = P Y Y = P < < : v ` z.H.R.R.R.R.Y.B.B.N.l.n.n.m.m.m.v.v.z.z.7.7.7.7.H 7.H K iXLXHXGXbXhXeX9XwXnXjXyXyXwX>X0XnXKXGXsXqXeXaXaXdXdXeXdXHXdXaXjXjXdXZXBXjXjXCXZXBXNXCXZXCXjXhXeXqXaXNXHXHXKXKXKXKXKXKXLXmXPXuXPXKXCXFXFXwXLXHXKXKXKXKXKXKXHXHXGXGXHXKXKXHXSXrX].E E E T T T X.G B B C V V S S V i y r t r w t s :.2.2.d.z.J F c , < I I I I , ; + 0 9 8 7 0 + g R U = = U , , E _.m.G.L.F.n.n.n.m.m.m.M.z.` H H z.v.7.3.3.V V N B H x.(.}.kXVXlXNXHXHXHXKXKXKXKXKXKXKXKXKXKXCXwX#XOX}.#XPXKXKXKXKXKXKXKXKXKXKXKXKXHXnXyXwXGXKXnXwXHXBX@XOX=XaXZXZXaX,X*X*XdXpX-X-XrX,X|.}.+X0XZXHXSXdXfXfX{.l Q o.].T b 1XzXpXpXpX<X|.W b v G J j k h h N C V V C A C C Z s.d t t t p p p <.<.>.y.g.` ' , < = = = I I I I I I I I I = = , G M.M.c.s.f.k.i.i.i.i.f.s.s.d.d.m.z.3.z.` A A H A H H J J (.].].].}.,XjXCXBXMXmXKXJXJXJXJXJXLXFXPXFXmXKXmXKXmXmXuX`.hXhXnXyXhXtXdXaXtXqX9X9X0XqX,X@X#XeXSXHXAXSXNXNXZXlX<X<XkXpX<XrX>XrXCXHXBXBXKXFXGXKXGXbXnXZXCXHXAXeX>XaXkXjXaXNXNX@XF k % k h e e e e e 5 4 u u f e O O O O O O w d Z f f :.s.d._ K l : > < = < > : - X @ q o @ % : > # $ $ # # - v 8.v.j.h.h.j.f.s.s._ _ Z Z Z N N N V A 3.7.7.A H H D J `.",
"KXKXKXKXKXKXKXGX}.W o.W ..Q Q T Q O.G j B C 3.3.3.3.3.3.3.3.V f s / / / >.y.i.i.:.s Z ` O.R U U = = = = = = = P P P P < , T X.x.j.Z.L.R.R.R.Y.N.N.N.n.n.n.n.n.v.v.v.z.7.7.7.7.7.H H B 9XPXCXnXsXdXeX>X>XdXjXjXjXjXwX9XsXHXKXGXnXNXaX0X0XqX>X0XjX>X0X0XqXeXNXHXNXeXsXhXsXjXSXZXNX0X>X=X=XeXNXGXHXKXKXHXKXKXKXmXbXmXbXLXKXLXKXHXhXKXKXKXKXKXKXKXKXKXKXHXKXKXHXGXHXAXlX*Xo.E E T n E X.J D B C V V N t t w w w r w r t f 2.j.j.d.H F c , , I I I I = < + + 8 8 =.=.3 0 5 z U , I I I , n X.b.J.L.K.v.n.n.m.m.m.c.c._ S C 7.z.7.7.3.7.7.3.A H H J (.AXHXZXSXHXAXAXHXHXKXKXKXKXKXKXKXKXKXmXwX@X`.#XKXLXKXKXKXKXKXKXKXHXKXKXKXnXwXwXnXKXCXCXCXNXHXnX=X+X<XSXAXlXaXpX<X<X=X@X<XkX<X}.}.dXlXAXZXdXfXdXfX&XE +...{.o.*XAX<X-X*X<X@Xo.v v G X.` B j B m C C V V A 3.A S Z f d f t t p p :.<.>.>.h.c.' , < < = = = = Y ! [ [ U I P = P = = : F X.M.c.g.s.i.i.i.i.s.s.f._ d.n.v.z.z._ A A H 7.H H H G (.}. X].[.@XkXHXHXKXHXHXJXLXLXLXFXFXPXmXDXMXPXMXKXLXmXKX,XhXyXbXyXhXyXtXaXeX0X9X9X>X,X+X=XrXnXCXSXSXSX>X=XeXVXpX,X<XzXrX<X,X0XjXAXGXGXnXGXHXNXbXNXNXjXjXVXNXjXSXAXlX>X=X(.v ; k B k e O e e e e i a i u f t w O O O O w O w t s.s.s.s.d._ K v : > < = = > , g +   o 9 0 o o % : > $ $ $ $ # l F 8.z.j.h.h.h.h.d.d._ Z Z Z Z A 3.z.v.v.z.7.3.7.7.K J OX",
"mXCXGXGXKXKXSXjX[.E o.Q Q Q ..T ..o.J B B A 3.3.3.3.3.3.3.Z V f ) / / y.>.>.,.>.f Z z.X.T , P Y I P = Y > > = = Y I P I U R W '.j.V.V.Z.R.R.Y.N.N.N.B.B.n.n.n.m.b.b.z.z.z.7.7.7.H H B 7XMXbXbXaXdXpX=X|.=XqXaXkXdXeXeXjXHXKXCXbXdXwXeXjXNXjXdXjXaXnXeXeX0X0XjX>X9XyXhXnXCXHXHXGXeX9X=X=X>XeXjXZXKXKXKXKXHXCXbXbXCXHXKXKXKXKXKXFXKXKXKXKXKXKXKXKXKXKXKXKXZXaXtXkXSXkX*Xo...E T b O.(.X.K B C C A S t t i f t t t t t d 2.j.z.H K c , , I I I I I , - + 0 8 8 =.=.8 3 5 k , , I I I U , n x.J.L.L.H.n.n.m.m.m.c.M.` S S A z.z.7.9.3.3.3.C H J /.`.jXZXAXAXAXSXSXHXHXKXKXKXKXKXKXKXKXKXKXCXyX9XuXKXLXKXKXKXKXKXKXKXHXKXHXBXeXwXkXHXBXnXKXKXBXKXHXNX*X|.+X,X,X,X1X1XrXrX<XpXpX|.X.].rX<XpXfX<XzXlX2XT c T T {.*XpX<XpX*X).W v g g v J J J B B H B 3.3.3.3.d.d.Z Z a f s s f ) s s :.>.>.V.n.` x < < = P = = = U U R R U Y = = P P = < : G X.M.c.l.k.i.i.u.f.f.f._ _ z.c.M.c.` ` ` H 7.7.8.x./.`.|.|.].).[.,XkXSXAXHXBXGXGXZXCXCXCXCXmXPXIXMXvXJXmXmXFXwXwXwXuXuXhXhXeXeXqX0X0X0X>X=X#XwXnXSXCXCXSXAXjXjXlXHXAXrX,XrXrXrXrXpXaXjXZXHXnXGXGXNXnXSXNXaXdXaXkXSXAXlX|.W ; ; g k * + O + O e e w i u i i f d t w O w w w w w w t Z d.d.j.d.A x : > < = = = : : + @ o 3 -.7 2 o @ % - = $ = $ $ % l D 7.v.j.j.j.h.s.s.s.s.Z Z S Z A 3.3.3.3.7.7.7.8.H x.`.",
"GXGXKXGXVXrX|.o.].E o.Q Q Q ..T o.).J B C 3.3.3.3.7.z.z.d.A V f f ) / y.i.p.>.a h.n.M.' , U Y Y U Y U R ! R R U Y I I I = > T ).XXC.4.V.S.R.R.U.B.N.N.c.n.n.n.n.J.b.v.z.v.z.z.7.7.8.H 9XMXMXnXjXkXlXpX-X>XpXaXdXdXdXyXyXhXbXbXbXsXaXjXZXjXyXeXyXeXCXaXdXwX0XNX9X9XyXCXGXHXKXKXGXZXhX9X@X+X+X0XnXZXKXKXKXFXnXbXbXHXKXKXLXKXKXKXKXLXKXKXKXKXKXKXKXHXGXKXKXsX@X+X=X0X*X].E E E E X.o.)./.H H H 7.z.S t w f f r r t t f 2.5.v.7.H n , , I I I I U , b F M 0 2 8 =.*.8 8 4 + ; , U I I I < , ` .XW.W.H.H.H.n.n.n.c.z.c.A S A z.z.7.9.9.v.7.7.H H J `.+X0XjXSXAXSXSXAXHXKXKXKXKXKXKXKXKXKXFXFXKXKXHXKXFXLXKXKXKXKXKXKXKXKXnX0X>XhXZXHXwXCXKXHXGXZXCXSXSX*X|.,X,X1X<X,X<X<X<X<X<X).o.<X1X<XpXdXfXfX-XQ % c ..|.fXSXzX|.F b v g g k g j x B B h C H V 3.3.3.3.j.d.Z d d s / ( ) ) ) s :.V.V.F.b.D ; < = = = Y U > - - % g l c > = = P = = > , O./.m.n.Y.h.i.u.f.g.g._ _ _ c.m.c.` z.z.H H 8.XX$X#X#X@X}.+.o.o.+.].|.>XdXlXSXAXZXVXlXVXZXmXPXvXFXmXLXMXmXKXCXuXhXyXuXhXsXwXqX0X>X0X0X,X@XeXjXCXZXHXHXHXSXNXZXSXSXAXSXrXrXrXrXlXNXeXeXSXAXZXNXCXHXHXZXSXZXVXlXSXlX-XE - ; g + @   @ O O 5 5 e w i i y i a f d t O O w w w O w f s.d.3.3.3.z.D : ; < < = < > c %   o 1 2 7 7 7 2 1 @ % > = Y = $ $ - j H b.3.j.j.h.4.h.j.g.s._ Z Z A d.d.3.3.v.7.3.7.7.H 8.",
"lXrX*X|.].o.o.+...T c c T T T T ).).J B C 3.3.3.3.3.A A d.d.Z Z f ( s.i.>.<.>.F.v.x.` n , Y Y Y Y U R l Q o.Q , > P Y Y Y , R W XXP.L.K.L.!.R.Y.R.Y.N.N.g.g.d.d.v.b.v.v.v.v.v.7.C 8.8.7XJXFXKXBXSXlXpXpXaXdXpX<X0XqXsXNXBXhXhXbXyXjXNXCXCXCXSXNXjXnXNX,X>XZXhXwXuXPXKXBXmXHXKXGXHXHXsX[.F G }.>XNXZXHXHXKXCXbXnXCXHXKXKXKXKXKXKXKXKXKXGXKXKXKXKXKXKXCXhX9X+X[.).X.X.E E W X.X.(.X././.J H H 3.d.d t t r f f r t f Z 4.5.b.8.v : < I I I < U , - k 5 9 9 3 8 -.8 8 =.8 4 + : U P I I I , G J.Q.K.K.H.H.H.n.n.c.z.z.` z.z.z.z.9.9.v.v.z.7.7.H 8.x.`.(.).}.1XpXlXAXAXHXHXHXGXGXHXHXKXKXKXHXGXZXHXKXKXKXGXGXKXKXKXKXKXjX9X9XjXHXAXnXyXyXHXHXHXZXjXHXSXkX,X X|.1XpXpXpX1XpXpX].o.1XpX<X<X<XzXkXo.- - Q &XfXpX-X].F ; + % ; k k k k j h m B C C C 3.3.3.j.d.2.Z d d s :.s p / / ) ( h.C.F.G.K - < = = = = U : % @ 0 5 0 5 k c > = = = P = , T O.'.n.l.Z.Z.k.f.g.g._ _ Z _ z.c.z.` H z.H 7.b.oX$X#X$X}.].].].+.o.X.O.o.].|.<XfXlXzXlXSXHXPXbXvXnXbXhXuXKXHXnXwXwXhXbXyXeXwXwXeX0X=X#X,XjXNXZXHXHXZXnXhXjXjXAXSXSXAXNXAXkX<X<XkXlXrX>XaXNXNXSXHXAXAXVXeXlXSX0XG % % % + @ @ @ O O O O 4 e w y y i i a a f f w O w w w w w w f 2.j.3.3.7.` v : , < = = = , - @ o 3 2 2 8 *.6 6 2 o + - > P P $ $ % g L 8.v.j.j.j.j.h.h.j.s._ _ _ _ d.d.v.j.9.9.7.7.7.7.7.",
"+.o.....E n c c c c R ........O.).`./.H 7.7.3.3.3.A A A _ _ _ Z S Z s.2.:.>.5.G.m.` G , > Y Y < U c z % L j z z > > = P = > > z x.G.J.H.K.L.!.R.R.N.N.g.g.g.g.d.v.b.v.v.v.v.z.7.7.b.7.$XiXuXKXHXAXZXlXaXrXaXkXlXjXeXwXsXBXCXCXnXyXjXNXSXBXnXyX0XjXnXNX,X,XjXhXeXhXPXLXFXFXKXKXKXGXCXCXaX}.W X.+XrXkXnXBXAXGXGXKXKXHXHXKXKXKXGXBXmXKXKXKXCXmXHXKXhXwX=XOX).J K D J G G G F G G J J J J H C 7.7.d.f r f p p s r t d s.5.9.b.J v , < I I I , , g + 0 0 9 3 3 9 i 4 7 =.7 3 5 g , I I I I , n b.P.K.K.H.H.H.n.n.c.z.z.` z.z.z.z.z.9.v.v.v.7.7.7.8.x.J X.X.X.E E o.].rXsXBXHXKXKXHXGXGXCXCXHXKXKXKXCXBXFXKXKXGXFXCXGXZXwX9XhXGXZXCXHXwXbXCXyXjXKXHXSXZXlXrX|.}.@X<XpX<X1X<X|.G o.1X<X*XpX-Xo.X.W E o.*X*X].b - ; % + ; ; k k k k k h m N C C C 3.3.5.5.j.j.s.d d s s s s s s s ( s.j.v.G.8.L % # = = = = : % @ 3 0 9 3 3 5 j z > = = = = < , n X.M.n.n.Z.l.l.g._ _ _ _ _ _ c.c.` ` z.b.z.7.7.x.'.'.'.o.o.o.o.o.o.o.].o.o.o...+.&X2XSXZXHXKXHXSXNXNXNXhXGXHXbXtXyXsXaXaXpXaXeX>X@X,XeXSXZXHXHXHXHXZXNXHXCXSXaXkXSXkXrXkXrX<X<X<X,X>XrXdXjXZXNXaXaXlXlXqXX.; + ; % X   @ @ @ O O O 4 4 w w y i i i a a d f w w w w w w w w f s.j.3.3.7.J c > < = = = < : + @ o 2 2 2 -.-.6 6 2 o o % > > P $ $ & - z J v.j.j.j.V.h.h.h.s._ _ _ _ d.d.j.j.v.9.9.7.7.7.7.",
"T R c c c c c c c b T ..O.O.o.).X./.x.H 7.v.3.3.3.3.A Z _ _ _ _ _ Z Z 2.4.C.F.m.'.G c , < , Y , T z q + h 5 q L z c > > > > > : D x.J.J.K.K.L.R.Y.N.g.g.g.g.g.d.n.n.n.v.v.v.v.z.7.v.C x.'._.5X9XwXkXVXSXVXVXZXAXNXNXBXCXCXnXnXnXsXhXjXNXCXCXhX0XyXjXnX,X,XsXhXhXvXMXMXmXFXHXHXKXHXZXHXHXaX+X`.}.+X0XkXnXAXHXHXHXKXKXKXKXKXKXKXFXKXGXGXKXKXGXwX#X@X`./.K D j k j D D D v v B D D B C A A 3.3.3.d.f r f p p s r f s.h.C.9.b.J l , I I < , c z 5 o 3 7 8 3 4 1.6.y 8 8 7 8 4 5 : U I I I < c J G.L.K.L.H.H.n.n.c.c.c.` z.z.z.v.z.9.v.v.v.v.7.7.7.8.8.J G G G G G G X.).}.=XeXBXKXKXKXHXGXHXHXHXKXHXHXGXGXGXGXGXZXCXeX9XwXCXKXGXGXHXbXqX,XyXhXjXZXSXHXAXSXrX@X+X,XpX1X*X*X].E |.rX*X*X0X|.X.+XeX+XE v g % X . + k k k k k k e e h m N V C A 3.6.5.5.j.j.j.s.d s s s p y./ p s k.l.j.v.8.F - # $ $ = = > % @ 1 2 7 =.6 6 2 0 k l > = = P = < : ` '.m.n.H.H.n.g._ _ _ _ _ _ _ c.z.z.z.b.b.9.7.7.7.z.` G E O.O.O.X.o.+.o.o.o.o.....+.+.1XqXkXlXSXSXAXHXkXAXHXnXeXwXtXeXeXeXeXrX,X=XwXNXhXnXCXCXCXCXnXjXeXNXAX0X#X,X@X}.*X,X=X@X@X,XrXrXrX,X0XjXNXlX>X[.; + X % +       @ @ O O O 4 4 w y y y i i a a a d r w w w w w w w f d d.d.3.9.H F , > < = = = > % o 3 1 2 2 3 q.q.8 6 6 2 o @ g > $ $ $ $ & - L 7.j.j.j.C.C.h.h.s._ _ _ _ d.d.j.j.v.v.v.9.z.7.7.",
"T R R R R R R T E ....O.O.X.X.(.F J H A 3.j.3.d.d.d.A A _ s.f.s.c.d.2.h.C.F.b.x.G l > > < , U c L q @ 3 M 9 0 5 L L c > > Y Y > l J b.J.I.K.K.L.Y.l.f.g.g.g.g.g.n.n.n.n.v.v.v.v.v.b.7.b.8.7._.`.[.+X>XaXNXZXSXBXsXbXCXZXCXnXCXZXNXnXjXjXCXZXjXeXwXsXaX>X,XsXNXCXMXIXvXmXFXCXFXHXHXHXGXCXSXBX,XX.W }.0XjXHXHXAXCXHXKXKXKXBXnXFXKXHXHXKXHXhX#X`./.J K j j h h h j j j B B B B B C C C A A 3.5.5.3.t r s s p p r s h.j.C.9.8.F , , I I < , n j 5 3 7 8 7 8 i v.m.3.;.=.7 8 4 0 ; U I I I P , b b.I.K.L.H.H.n.n.c.c.c.c.z.z.z.v.v.v.v.j.v.v.v.7.7.7.H K B D J G F F J J J W (.OX9XsXGXHXKXKXHXZXHXKXHXHXCXAXHXHXnXyX,XwXnXCXHXKXKXHXHX,X+XCXbX+XeXHXZXAXHXZXpX=X=X>X<X<X<X|.{.<XfX*X=XpXeX=X+XX.k + . . X + k k k k k e k h e e u m N V A 3.3.5.5.5.j.C.h.u.d s s s s :.s s u.Z.H.5.b.8.l % > = $ = > - + o 1 6 *.=.*.7 2 3 5 k : < = P = < > n X.'.m.J.J.n.l.d._ _ s._ _ _ c.c.z.z.7.z.b.b.b.v.z.` K G G G G G W X.o.o.+.+...Q ! ! +.+.].&X2XzXlXlXAXHXZXdXqXeXeXqXeX0X,X,X,X>XeXjXhXNXZXZXGXGXCXnX#XyXZXeX=X=X}.).].}.+X+X*XrXpXrXqX=X,XaXdX@XF X .             O O O O O 4 w w w y y i i i a a a d w w w w w r w w s s.d.3.v.9.H b , < = = = = : % o 1 2 2 2 8 K.K.;.7 2 6 2 o q - > $ $ $ $ & z H z.v.C.C.C.j.s.s._ _ _ _ _ d.j.j.v.v.j.j.j.9.3.",
"c R R R R R R R ....O.X.X.G D D D H H A 5.j.j.j.d.d.Z _ _ s.s.s.g.d.j.j.H.G.x.` c > < Y , , , b 5 0 3 3 ;.9 8 0 9 h z l > > P = : n J '.I.I.K.S.Y.l.k.l.l.l.g.d.v.n.n.n.n.v.v.v.v.v.v.b.b.8.b.'.'.(.'.`.@X,XwXsXGXBXjXjXNXCXbXyXCXNXhXkXkXhXwX=XeXsXeXwXeXjXAXHXKXPXMXFXKXFXFXHXCXHXHXNXHXHX0XX.b X.}.,XkXAXHXHXHXKXHXBXbXvXNXHXKXNXeX#X`.X.F K k k e k h h h B h h B B B C C C C 3.3.3.3.j.5.2.t t s s p p p ( h.j.C.9.x.F , , I [ I , n k 0 3 8 7 7 8 6.J.B.n.4.-.8 8 8 4 5 l Y I P P < l H J.K.S.S.H.H.n.c.c.c.z.z.z.v.v.v.v.v.v.v.v.v.9.7.7.H H H K B h j v D D D F F J X.(.@XwXNXHXHXHXHXHXHXAXAXHXZXjX9X@X9XaXNXFXHXKXKXGXKXhX9XBXjX#XyXHXnXnXZXHXNXqX*X@X<XfXlXpX|.|.<XqX,X*X}.X.k     @ + + * k k k e e e e e m m u m m V V 1.6.6.5.5.j.h.V.k.u.s s s s / s s :.V.Z.F.9.r.F % # $ = $ > : q 0 1 2 7 *.=.7 7 6 6 3 5 k c < = = < > l G /.'.m.m.n.n.g.s.Z s._ _ _ _ c.z.z.7.7.9.9.9.7.v.c.H H K K D D D F X.X.O.......+.+...Q Q +.{.&X*X*XlXSXZXlXdXaXeX0XeX,X@X=X0XaXaXwXjXBXBXbXnXGXGXBX9XwXnXnXCXnX>X@X@X@X*X,X0XrXrX<X=X*X=X+XF +               @ @ o O O O 4 w w w w y y i i a a a a f w w w r w r r w s s.h.3.9.9.H c > < P = = > l @ 3 1 6 2 1 i v.4.1.;.7 2 6 1 0 q - $ $ $ $ $ : D 7.v.v.q.C.j.s.s._ _ _ _ _ d.j.v.v.v.j.j.j.j.d.",
"R R R R R T Q T ..E F F F D B B H 7.7.3.5.5.h.j.d.d.Z _ _ s.s.s.d.d.j.n.H.m.` G , < < Y Y , : g 0 9 8 7 -.=.8 8 0 9 q l > = = = < : n 8..XQ.W.L.L.Z.l.l.l.g.g.g.d.z.n.n.n.n.n.n.v.v.v.z.z.z.9.8.x././.J J J ).OXwXsXnXCXGXBXsX0XjXjXjXjXkXyX>X@XsXkXyXhXNXCXHXHXKXLXFXKXKXLXFXHXGXHXHXCXAXAXjX,X).).X.(.+XrXnXHXKXGXCXZXGXKXGXZXjX,X).X.F j k * + + e h h m h m N N N B B C C A 6.1.6.3.5.j.3.2.f r s s p s s u.h.j.C.9.x.n , I I I I , g + 3 3 7 7 8 ;.K.H.c.n.C.y 8 8 8 3 5 l Y P I P < : G m.K.S.S.Z.H.n.n.c.c.z.z.z.v.v.b.v.F.F.j.v.v.v.9.7.v.z.H H B B B D g g j v v D F G X.).+X0XnXAXHXHXAXAXAXjX0X=X=X>XjXsXbXKXKXGXGXKXKXCXeXjXNXwXwXBXZXNXBXHXKXBXpX0X*X1XzXlX<X|.|.@XW g X @ @ @ @ + + + e e e e h m e e u m N m N V V 1.6.3.5.5.5.j.V.V.h.:.s s s s u.s >.V.S.A.F.0.J l # # $ $ $ & g 5 3 2 6 7 7 =.6 6 7 7 2 0 q l < = = = > > z J '.b.b.n.n.n.d.s.s.s.f._ _ _ z.z.v.v.v.9.5.j.j.v.z.z.H H K K K D D F X.o.o...Q T | | ! ! ! Q +.+.*XfXSXSXjXpXqXqX<X=X*X<XkXZXZXNXBXNXaX0XtXBXHXCXyXwXnXHXHXCXsXjXsXwXqXpXdXaXrXpX(.b g % .             o o   o O O 4 4 4 w w y y y y i f a a a a d w w w r r r r r s h.j.5.9.9.H , < < = = = > g o 3 2 7 2 3 6.d.u 2.q.-.6 6 6 3 q % & $ $ $ $ > j A v.v.5.C.j.s.s._ _ _ _ s.d.d.v.v.v.j.j.j.j.j.",
"R T R R R Q ....E b v j j B C H C 7.7.3.j.5.4.j.d.d._ _ s.s.f.s.d.j.j.l.n.n.` n > = P Y Y U : % 0 =.-.8 ;.=.=.-.8 0 5 j : = = P = < l J .XI.Q.W.L.Z.l.l.l.g.f.g.d.d.v.n.n.n.H.n.J.G.G.v.b.b.b.b.8.J x.J K D D J F '.=XyXnXSXZXCXyXkXnXnXnXkXyX0XyXkXyXCXHXCXHXHXKXKXJXKXKXLXFXCXKXGXCXCXCXAXHXHXrX@X).X.).}.>XNXKXGXGXKXKXGXIX0X(.X.W v ; X + * k k h h m h h N N N N N V C 6.6.6.6.3.5.j.j.4.d f f s s p s s u.h.j.C.b.x.n , I I I U U - @ 3 3 7 7 =.,.W.P.l.n.F.i 7 8 =.7 5 g U P P I < > n b.K.S.S.Z.H.n.n.c.c.z.z.z.v.v.b.b.F.F.C.j.F.v.v.v.v.3.C C H H C B v j j g g g g j D K J (.}.=XwXyXkXkXeX>X#X,XeXNXCXnXnXGXKXGXGXKXKXBXyXhXBX>X+XGXGXBXBXGXKXKXGXNX1X&X&X1X*Xo.b l .         @ O O + e e e e e u u m u u m V V V V 1.2.3.5.5.5.q.C.V.V.u.:.s s s s d d u.D.S.A.9.8.G % . # $ $ & - q 0 2 6 6 7 8 ;.7 7 7 7 7 2 0 q > = = = < > l b /.'.b.b.n.n.l.l.s.f.f._ _ _ z.z.v.b.F.F.F.v.j.j.d.d.d.3.3.A H K D v v b T ....+.! ! ! ! R T Q ..+. X-X<X<X>X>X<X*X,XrXaXkXVXAXHXHXZXsXqXyXHXKXKXyXyXGXHXnXsXsXHXBXNXjXNXNXjXkXkXo.%             @       o o O 5 5 4 w w w w y y i f f a a a a d d f w r r r w r p :.h.h.j.9.7.K , < = = = < > k o 2 6 6 2 4 3.S t a C.,.7 7 6 6 0 % & $ $ $ $ & g A v.v.5.C.V.h.s._ _ _ _ s.d.d.v.v.v.v.j.j.j.j.",
"b T Q E E E G v v j B K C C C A A 7.7.v.F.j.j.Z.j.s._ _ f.g.f.f.j.v.n.j.n.z.n : < = = Y Y c k @ 9 *.7 8 ;.=.7 =.=.7 9 M z > = P = = > b '.I.K.W.L.S.Z.l.l.s.f.g.g.g.g.n.n.H.H.v.v.v.G.v.v.G.v.b.b.8.H 8.8.H D D B D J `.=XsXNXnXhXnXNXnXjXjXjXkX9XyXeXZXKXCXKXKXKXKXKXKXKXKXLXFXKXGXCXCXAXHXHXSXNXrX+X[.`.).+XyXZXHXKXKXNX9X[.X.b - % + + + + k h h m N m h m N N N N V V V 2.3.5.5.5.5.j.j.2.d s p s s p s s u.k.j.v.b.` n < I I I U U ; @ 3 7 7 =.=.;.K.H.g.B.H.i 8 =.=.7 0 k R I P I < > n b.H.K.S.Z.H.n.n.c.c.` ` z.z.v.v.v.F.F.C.C.F.F.v.v.v.v.z.7.A N B B j j j j j k g g k j D G G G o.].@X@X@X,X<XkXNXZXNXGXKXCXFXKXKXKXCXHXHXsXsX#X[.GXbXbXbXNXGXGXGXZXlX1X[.o.b % . .       @ @ O + 5 + e e e e m m u N u u u V V V 1.2.3.5.5.5.5.C.C.A.V.u.:.s s s s s :.D.S.A.q.9.x.E # # # & & > z q 0 2 6 7 6 9 q.;.7 6 7 7 6 0 5 > < = = = > , z X.'.b.G.F.n.n.l.s.f.s._ _ d.c.z.v.v.9.9.j.v.j.j.j.d.d.d.3.3.A C K D D v b F G T ! R R ! | ..| Q ......o.{.|.*X-X*XqXjXkX0X>XeXNXBXnXtX9XsXHXKXmXmXbXHXGXBXnXsXnXBXGXHXGXZXNXlXdX*Xv .               o o o O 4 4 4 4 w w w y y y f f f a a a V d a f w w r r w r s u.h.j.v.9.7.D , = P P = , : q o 2 7 6 2 i A t t w 2.q.=.7 6 2 o q - & $ $ $ $ - D b.v.5.q.V.h.s._ _ _ _ d.d.d.v.v.v.v.j.j.j.j.",
"W G G G G K D B B C C C A 6.6.3.3.9.9.5.j.j.Z.l.s.u.s.s._ _ _ ` z.v.b.m.b.` , < = = P , c L q 0 7 -.7 8 Q.9 8 8 -.=.9 9 q l , = P P , , n b.P.K.W.S.Z.l.l.g.f.f.s.s.g.l.n.H.H.F.F.F.F.G.G.G.G.v.v.v.v.v.b.8.7.H K D D D G (.@XwXbXCXmXhXjXCXhX,X#XjXKXHXHXLXLXKXKXKXKXKXKXmXMXnXGXGXGXCXCXGXAXCXZXHXhX}./.`.}.[.aXZXVX,X].o.E l % X X + X + h e m N V N N m N B B V V V Z 2.2.2.2.5.5.5.j.j.2.s p / p p ) t s f.l.j.v.x.F , U I I I U c k 4 3 7 8 7 =.,.L.Y.g.g.n.>.8 7 =.8 3 5 R Y I P I , n '.J.K.K.K.H.n.n.c.` _ _ _ c.c.n.n.F.F.F.F.F.F.F.F.9.9.9.7.3.C C C B B B B m m h h h k g z z l c b T o. X@X1XpXVXAXnXCXHXKXKXKXKXKXKXFXKXZXaX}.@XwXwXaXjXbXNXGXBXbXZXVX=Xl                 O O O e e e e u u u u m m N N N V V V 1.2.2.2.5.j.C.C.C.C.4.:.:.:.s / / s u.V.A.A.K.G.J c $ $ $ $ # - q 0 6 6 6 6 7 ;.>.i 8 6 6 7 6 6 0 q > < = P = = , E /..XG.G.H.H.g.d.s.s.s.s.s.d.v.v.v.v.v.v.v.j.j.v.v.v.3.3.3.7.H A K K B B B D F O...T R !  . .! ..T R : T ..T &XpXkXaX0X=X=X0XBXBXBXyX9XvXKXKXLXKXHXCXCXGXHXCXvXKXKXGXCXGXCXhX0X0X9XK           o o o o O o O 5 w w w w y y y y i a >.>.a 2.1.Z 2.f w w r r r r :.u.h.j.v.v.7.D : < P P P Y l 5 o 1 2 7 3 9 2.f f p w h.;.6 6 6 0 0 - & & $ $ $ % g H v.q.q.V.V.h.d._ _ _ _ d.j.j.v.v.v.v.j.j.j.",
"K K D D B B C V V V 1.2.2.6.2.3.3.9.v.j.j.j.Z.k.s.u.u.f._ _ ` ` x.v.G.b.x.G , < = = P , z M 9 8 8 -.7 ;.P.w.9 8 -.=.=.9 q g , = P P P < c ` J.K.W.E.S.Z.l.l.l.f.f.g.g.l.H.H.H.H.I.I.G.G.F.F.F.v.v.v.v.v.v.9.7.7.7.K B B B D J /.OX9XBXFXbXyXqX0XyXZXKXGXLXLXJXKXJXLXKXKXKXPXnXBXCXFXFXCXCXLXGXCXGXCXnXyX@X'.`.OX0X>X|.X.b c : # ; # % ; + * e u u V V V N N B C C C V Z 2.2.2.2.5.3.3.5.j.h.:.s p y.s f ) t ( k.Z.j.F.x.F , U I I I U c k 4 7 7 7 7 8 >.L.B.g.c.Y.>.8 8 =.8 3 5 b Y I P < , l /.J.K.K.K.H.v.c.c.c._ _ _ c.n.n.H.F.F.F.F.F.F.F.F.9.9.9.7.7.3.A C C C C C N M m m h h g g l : l c T T E +.@X<XdXlXjXCXHXKXKXKXKXKXKXGXKXFXsX+X+X,XwX0XwXNXGXBXbXnXKXHXsXX.X         .     O 5 5 e e e e u u m m N N N V V V V 1.2.2.4.4.5.j.j.C.C.C.h.:.>.s s p s s h.V.S.A.F.G.F : $ $ $ $ & % q 0 6 6 6 6 8 ;.s >.y 8 6 6 6 6 2 q : > = P P = < T /..XI.G.J.m.z.d.s.s.s.s.s.d.g.v.v.v.v.v.v.v.v.v.v.v.7.3.3.3.3.A H A C B B C B F G ....| ! ! +.R R > - R | T {.<XpX<X=X=X=X9XtXNXBXsXuXMXLXPXmXFXHXKXHXGXGXFXmXmXHXHXCXBXCXyX,XyXCX@Xj @         o o o 4 4 4 w e w w y y y y i i >.>.>.:.2.1.Z 2.f w w r r r r :.h.j.j.9.v.7.v > < P P P Y l + o 2 2 6 2 9 4.f p ^ r s.>.3 6 6 2 0 q & & $ $ $ # - K b.q.q.D.V.h.s._ _ _ _ s.d.j.v.v.v.v.j.C.C.",
"D B B B B B V V V 2.6.3.2.3.5.5.3.9.v.j.j.j.l.k.s.u.u.s._ _ ` ` m.b.b.G.x.n < < = = < , z q 0 7 =.=.8 q.P.P.1.8 7 *.=.9 0 q l > P P = < : J m.L.W.W.S.Z.l.N.l.l.g.g.g.l.H.H.H.P.L.I.I.G.F.F.v.v.v.v.v.v.9.9.7.7.7.K K K B j j j D /.+XqXtXwXrXeXSXHXGXCXHXLXDXKXFXFXLXKXLXFXBXFXCXFXFXGXFXFXCXCXHXCXHXKXuX`.J G G v ; % % % % # > ; - l - * e m m N V V N V C C C 6.6.2.2.2.3.3.5.5.5.5.j.j.:.s >.>.s s ( w d h.A.C.G.b.G , Y I I I U : + 4 7 7 *.*.8 ;.K.R.c.c.H.;.8 8 =.7 4 + c , I P < , l x.I.W.K.L.K.F.F.n.c.c.g.c.v.H.F.I.F.F.F.F.F.F.F.F.9.9.9.9.7.3.3.H H C C C C B B M j j g g l z c c c c E {.*X-X<XaXjXBXGXKXKXKXKXKXLXFXKXFXNX9X>X>XeX,X9XBXKXnXvXFXHXHXKXtXW X     . + @ @ + e e e e e u u u m N V V V V V V 1.6.3.5.4.5.j.j.j.C.C.C.h.:.:.:.s ^ / y.h.D.S.A.F.b.L - $ $ $ > - % @ 2 6 6 6 7 ;.>.s >.s 8 6 6 6 6 1 @ - > = P P P < c /..XP.G.H.n.n.d.s.s.f.s.s.d.g.v.v.v.v.v.v.v.v.v.v.v.9.3.3.3.3.3.A A A C C C B B v G ..+.! ! +.T c ; : E ..+. XrXrX=X+X*X,X,X,XsXbXsXvXPXPXMXMXmXCXCXFXHXHXFXmXbXHXKXbXbXCXbX9XyXHXhX$XD         o o o 4 4 4 4 w w y y y y i i >.>.>.>.1.2.3.1.d t w w r r r r :.h.j.j.v.9.H v > = P P P , - @ o 2 6 6 2 9 4.f p / f 2.4.7 6 6 2 0 + & & $ $ $ $ - K b.5.q.D.V.h.s._ _ _ _ d.d.j.v.v.F.F.C.C.C.",
"B B B B B C C V 2.2.3.3.3.3.5.5.5.v.v.v.v.F.l.h.s.u.s.f.d._ ` z.m.b.G.b.x.l < < I = , l k 0 0 8 =.8 y Q.G.4X5.9 7 *.=.7 0 q z > P P P = : D b.I.L.L.S.Z.l.l.l.l.g.g.g.l.n.H.H.P.H.H.I.G.F.F.v.v.v.v.v.v.v.9.7.7.7.H C H H B B B h j F /.}.>XdXNXZXSXNXCXKXLXMXmXFXFXKXKXKXLXLXLXHXGXHXHXHXCXCXFXFXHXHXHXCXqX(.k X . . . . X % : > > : v g k e m m m V V V V C C 6.6.3.3.3.3.5.5.9.9.9.v.v.j.:.p >.p y.s ( w :.C.A.K.G.b.F , U I I I U : + 3 7 8 *.=.=.-.C.T.n.n.C.y 8 =.=.7 4 O c < I P < , g x.L.E.E.L.K.K.F.n.n.n.z.v.v.F.K.K.F.F.F.F.F.F.F.F.9.9.9.9.9.7.7.7.7.3.C C C C B B B j g l b T R c : E &X2X<X*X,XeXjXNXGXKXKXKXKXKXFXFXKXBXGXhXhXwXhX9X9XmXKXBXbXLXGXCXKXKXeX/.+   X + + + + e e e e u u u u N N V V V V 1.1.2.3.3.5.5.j.j.j.j.C.C.h.:.:.>.y.y.t.y.u.k.D.S.A.F.b.j # $ $ $ > > % o 1 6 6 6 7 ;.:.p p >.y 7 6 6 6 1 @ % : = = P P = c W .XP.G.G.n.n.d.d.s.s.s.s.d.g.v.v.v.v.v.v.v.v.j.j.j.j.3.5.3.3.3.3.A A C C C C B B v b ..+...Q Q T - c ..o.&X2XkXdX>X+X@X>X,X,XtXhXbXCXKXCXMXFXFXbXuXhXFXKXCXyXFXKXFXhXhXCXFXbXnXBXnXFX#Xk     o o O O 4 4 4 w y y y y i i i ;.<.>.>.:.1.2.3.2.d t w w r r r r :.h.j.j.v.9.H v , = P P P Y - @ o 2 6 6 2 8 1.d p s f 2.K.7 6 6 6 1 @ & & $ $ $ $ > b 8.5.q.D.V.h.s._ _ _ _ g.g.j.v.v.F.F.F.F.C.",
"N B B C C A 3.2.2.3.3.3.3.3.5.5.5.v.v.v.F.F.l.h.s.u.s.f.s._ c.M.m.b.G._.J : < < I P , l q 0 7 8 8 8 4.T.v.J.J.;.8 8 =.7 3 5 j c P P P = , n 8.J.K.K.S.Z.Z.l.l.l.g.d.g.d.l.H.H.J.H.H.I.G.F.F.F.v.v.v.v.v.v.9.9.9.9.7.3.H H C B B B D v j G +XhXHXAXZXNXCXKXHXMXMXFXKXKXKXKXKXHXGXHXHXHXKXFXnXbXmXCXGXFXCXKXKX9XW + X X X # # # - > > , c z k e m m m N V V V C C 6.6.6.3.3.5.5.9.9.9.9.v.j.h.:.s y.p y.s u.w h.C.A.F.G.x.b , I I I I U : + 3 7 =.=.=.7 8 4.P.R.H.;.8 8 =.=.7 4 @ c < I I < , l x.L.S.S.L.K.C.C.H.n.n.v.v.v.F.K.I.K.F.F.F.F.F.F.F.v.v.v.9.9.7.7.7.3.3.3.C C C B B D v z v T Q R c R |.zXzX<X-X<XrXlXBXHXKXKXKXKXKXLXFXLXMXCXbXbXwXnXuXuXbXLXKXLXKXKXFXCXHXBX0XW X . + ; k + + e e u u u u u N V V V 1.1.2.2.6.3.5.5.5.j.j.j.C.C.C.:.s s s y.y.^ ^ u.Z.D.A.C.F.x.g # $ $ $ $ : %   1 6 6 2 8 ;.:.p r :.;.7 6 6 6 2 o % : > = P P = : G .XJ.J.G.n.n.c.g.d.s.s.s.d.d.n.v.v.v.v.v.v.j.v.v.v.j.j.3.3.3.3.3.3.3.3.C C C C B j g b +.+.Q Q Q z F X.(.<XVXzXlXrX@X@X,X<XeXhXNXCXGXHXBXbXFXHXbXuXuXbXCXbXuXKXCXbXhXbXCXHXKXKXHXFXKXFX%Xh   o o 4 4 4 4 y y y y y y i i ;.>.>.>.>.1.1.3.3.2.f r w w w r r y :.h.C.j.v.z.H v , < P P P Y - o o 2 6 6 2 3 i 2.f f y 2.K.7 6 6 6 2 @ % & # $ $ $ $ v 8.j.V.V.p.h.s.s.g._ c.g.d.j.v.v.v.F.F.F.F.",
"N N C C 3.6.2.2.3.3.5.5.3.3.5.j.j.v.v.v.F.H.l.h.s.s.f.f.s.d.z.M.m.b.G.b.G : < < I I , l 5 0 8 -.8 8 K.T.z.n.R.4.8 8 =.7 3 9 L c P P P I , l H G.K.L.S.Z.Z.Z.l.l.g.g.g.d.l.H.H.H.H.H.I.G.F.F.F.F.v.v.v.v.v.5.5.9.9.3.3.A A C C C K D j j /.9XjXaXAXHXZXCXHXLXmXFXFXKXKXKXKXKXKXGXHXFXHXHXCXbXhXbXKXGXFXFXKXKXbXwXX.v - - - ; # X > > , c v g k m m m N V V V A 6.3.3.3.6.5.5.9.9.9.9.v.F.j.s.:.s y.p / s s r V.A.K.K.G.x.n , I I I I U : + 3 8 =.*.=.*.8 ;.K.P.C.8 7 7 =.=.8 4 @ c < I I < , l M.H.S.S.S.S.C.C.v.n.c.z.z.v.F.F.F.F.F.F.F.F.F.F.F.F.F.v.v.v.9.7.9.3.3.3.C C C B B D v v b E Q R T  XpXzXpX1X>XqX0XdXnXCXGXGXKXKXKXPXMXMXuXMXMXCXgXFXmXbXMXFXKXKXKXKXKXJXFXBXbX=XG . . + g k + e k h u N N N V V V 1.1.6.1.6.3.5.5.5.j.j.j.j.C.C.C.:.s s >.y.y.t.^ u.Z.D.A.C.F.x.g # $ $ $ $ > % o 1 6 6 2 8 ;.:.p r :.;.7 6 6 6 2 o + l Y = P P = : G _.J.G.G.n.n.c.g.d.g.g.s.f.d.n.v.v.v.v.v.j.j.v.v.v.j.j.j.5.5.3.3.3.3.3.3.3.6.V C B j v Q +.+.Q Q T X.).+XyXAXaXaXrX=X*X=X<XkXsXNXNXjXhXyXwXyXHXHXCXbXyXsXbXbXHXnXyXbXmXmXmXFXKXKXGXKXKXmXOX+ o o O 5 4 4 y y y y y i i ;.>.>.>.>.>.1.1.3.3.2.t r w w r r r p :.V.C.C.v.z.H v , < P P P Y - o o 2 6 7 6 2 9 >.d d t j.q.7 6 7 6 2 o % & & $ $ $ $ z J 5.V.p.p.V.h.f.g.g.c.c.c.j.v.v.v.F.F.F.F.",
"V V V V 2.2.3.2.5.5.j.j.j.j.j.v.v.v.F.v.F.H.l.s.s.s.f.f.f.d.z.m.m.b.b.x.F : < I = Y c g 5 7 8 =.8 y L.H.g.n.B.j.8 7 8 8 7 0 M b Y P P I < : K J.L.L.L.Z.H.Z.Z.l.l.g.g.g.l.H.H.J.G.I.G.G.F.F.F.F.v.F.v.v.j.5.5.j.5.3.3.3.3.A A H K j h J 9XZXjX=XaXZXHXCXFXFXmXmXFXKXKXKXKXKXKXHXHXFXHXKXFXbXhXbXKXKXHXKXHXCXmXBX>X).b l l : % X > , : l b F j j N N V V 1.6.6.6.3.3.3.5.5.9.9.9.9.9.v.v.h.:.s s ^ ^ ^ p r f l.Z.H.F.m.` , , I I I I U g 5 3 8 =.*.*.=.8 8 q.F.;.7 =.=.=.=.8 4 O c < I I , , v M.H.S.S.S.Z.Z.j.g.c.c.c.z.c.n.v.G.F.H.F.F.F.F.F.F.F.F.v.v.v.9.7.9.3.3.3.A C C D D D v b E Q T ..{.zXzXzX2X<XrXrX>X<XeXsXnXBXFXGXKXPXvXvXuXFXFXKXPXJXFXPXPXFXKXKXKXJXJXKXKXFXGXsX#Xv + + j j ; ; k h u N N V V 1.1.1.6.6.2.2.5.5.5.5.5.5.j.j.C.C.Z.h.:.>.>.y.y.t.y.u.Z.A.Z.C.F.8.- & $ $ = $ > % o 1 6 6 6 7 i >.p p :.;.7 6 6 6 2 o + l U P P I = > F '.G.G.G.n.n.n.c.g.g.g.s.d.d.n.v.v.v.F.v.F.F.v.j.j.j.j.j.j.j.5.5.3.3.3.3.3.3.1.6.C D E +.+.+...Q o.].#XhXnXnXeXrX1X1X<X,X=X0XrXkXkXrXwXwX0X0XCXHXHXmXhXhXmXGXFXCXbXbXbXbXbXbXCXHXFXLXKXKXMX'.5 o O 5 4 w y y y y i i a ;.>.>.>.>.1.2.1.2.2.2.t r w r r r y p p.V.C.C.j.v.H v , < P P P Y - o 1 6 6 6 6 2 3 9 a 1.a 5.;.2 6 7 6 2 o % & & $ $ $ $ : H 5.V.p.p.D.V.h.d.g.g.c.c.d.d.d.j.v.n.v.v.",
"V V 1.1.6.2.5.5.5.5.j.j.j.j.v.v.v.F.F.F.H.H.l.s.s.s.f.f.f.d.n.m.v.J.b.8.F , < = = Y c j 9 7 7 =.8 ;.L.n.g.B.n.F.8 7 7 8 7 8 M L Y P P I < > F .XP.L.L.L.H.H.H.l.l.l.g.g.l.H.H.J.G.G.G.G.F.F.H.G.F.G.F.v.j.j.j.j.5.5.5.5.3.A V C B j J #XCXKXsX#X@XhXGXCXCXCXbXbXmXHXKXKXKXKXKXHXKXGXHXKXHXbXbXBXFXLXKXKXKXHXCXhXjX@XO.n c l : > > , c c E W D j B V V V 6.6.3.6.5.2.5.5.5.9.9.9.9.v.v.l.h.:.s / ^ ^ ^ ^ r s Z.H.H.n.M.' , < I I I I U g 0 3 7 =.=.*.=.8 8 ;.4.8 7 -.=.*.=.8 4 O c , I I , , c M.H.S.S.S.S.Z.j.g.M.c.` ` c.c.n.n.H.H.F.F.F.F.F.F.F.F.v.v.v.5.9.5.3.3.3.3.C K D D F b E ..Q T +.2XSXSXlXlXzXdXqX>X@X=XwXaXbXNXCXKXKXFXFXMXKXLXKXFXLXDXPXFXJXKXKXKXKXJXKXJXFXGXGXbX=Xg X g v k ; k h u N V V 1.2.1.1.2.2.4.4.5.5.5.j.j.5.j.C.C.C.j.Z.u.>.>.t.t.t.t.u.Z.S.S.C.v.J ; = = $ P & : + o 2 6 6 6 7 y >.s s >.;.7 6 7 6 6 1 @ g U P P I = > F x.b.G.H.n.n.n.c.g.g.g.s.s.d.n.v.v.v.v.F.F.v.v.v.v.j.j.j.j.j.j.5.5.3.5.3.3.3.3.V C J ].{.{.+.+.T ).}.wXKXCXyXpX<X,X2XpX,X+X@X,XpXaXrXrXyXeXeXmXCXCXnXnXCXHXKXHXKXHXbXyXbXbXbXHXFXFXKXLXFXKXxXH 5 4 e e y i y y y i a a >.>.>.>.>.2.2.1.2.2.2.r r r r r r p <.p.D.A.C.j.v.z.D , = = P P Y - o 1 7 6 6 6 2 3 3 i 3.V 5.9 2 7 6 7 2 o q > & $ $ $ # : H j.V.D.p.D.D.h.s.g.g.c.g.g.d.d.d.n.n.v.v.",
"1.2.3.3.2.4.5.5.5.j.j.j.j.v.v.v.F.F.F.H.H.H.j.s.f.f.f.f.s.j.v.G.v.m..X/.b > < P = , b k 0 9 =.-.8 8 H.Y.g.B.n.F.8 8 =.=.8 8 9 L U P P I = < b x.I.L.L.S.L.L.H.H.l.l.n.n.l.j.H.T.H.H.J.J.H.H.G.G.H.F.v.v.j.j.j.j.C.2.3.j.6.3.3.A m H #XmXKXKXBX9X@X,XdXSXHXnXhXyXhXHXKXHXKXKXHXKXHXmXMXmXKXKXKXFXLXKXKXKXKXHXCXmXSX,X).O.T l : c > > c R T W G B B B C 6.3.6.6.5.5.2.2.j.5.9.v.v.3.j.H.l.:.p p ^ ^ ^ p s ( k.l.l.H.v.m.` < < [ I I I R g 0 8 7 =.=.*.8 8 8 y y 8 =.=.=.=.=.8 4 O c U I I , , n x.S.D.A.A.S.S.l.d.d.c.M.` ` ` c.m.n.H.G.F.F.F.F.F.F.v.v.v.v.v.9.5.v.3.3.7.7.H D G b W o.o...{.<XzXlXSXlXzXjXlXrX+X<XqXeXsXsXsXbXBXKXJXLXKXKXFXKXKXFXuXMXKXMXmXKXJXLXLXLXFXLXKXKXGXbXOXk + g F l k h N V N N 1.2.1.4.4.4.4.5.5.5.5.j.C.C.C.C.F.Z.h.:.:.:.:.y.t.y.y.i.D.D.A.C.b.J ; = = = $ > l @ o 2 6 6 6 6 8 >.s s >.9 6 6 6 6 6 1 0 q R Y P P = , n '.J.G.H.n.m.c.c.c.c.g.s.s.l.n.v.v.v.v.v.v.v.v.n.j.j.j.j.j.j.j.5.5.5.9.3.3.3.v.N H /.}.&X+.+...+.|.0XBXHXLXSXkXrX,X1XrXrX>X,X<X>X<XeXkXlXjXaXnXFXKXCXhXmXKXFXKXBXKXKXCXmXbXCXHXFXFXKXKXKXKXKXxXH 4 4 4 y i y y y y a >.>.>.>.4.>.>.:.4.4.1.2.r r r r r r p >.V.q.V.C.j.v.z.x , = = P P Y ;   1 6 *.6 6 6 2 1 o v.5.i o 7 6 *.*.6 0 q > $ $ $ $ & - K F.D.p.p.D.p.h.h.d.d.g.g.d.d.d.z.c.z.v.v.",
"V 1.2.2.4.4.5.5.j.j.j.j.j.v.v.F.F.F.F.H.H.n.l.f.f.k.k.k.h.j.v.H.H.G.b.8.c > P I = , v q 0 =.=.=.8 y C.H.g.B.n.4.8 8 *.*.7 7 9 K , P P P P < n /.J.L.L.S.L.L.L.H.l.l.n.n.l.g.n.J.J.H.G.J.H.H.H.G.H.F.F.v.j.j.j.j.5.5.3.3.3.3.3.C C OXcXKXGXHXGXhXaXwXqXeXBXHXnXwXbXHXHXFXHXKXHXKXLXMXsXhXnXGXKXKXKXLXLXKXKXHXCXnXmXrX|.O.E b c c > > c T E E W D B B C 6.3.3.5.5.j.2.h.j.5.v.v.j.j.l.l.f.( s p p / / / ( s.l.H.H.G.v.m.` : , [ I I U R g 0 7 7 =.=.*.8 8 9 ;.;.8 =.=.=.=.=.8 4 O z , P I U > c x.K.E.E.E.W.L.F.j._ ` c.M.c.c.c.z.v.v.v.v.G.F.F.F.F.F.v.v.v.v.9.5.3.9.7.3.K H G F X.o.].+.].-XzXAXlXlXjXjXVXVXaX,X=X0XaXhXaXaXnXHXKXKXKXKXKXKXKXKXJXiXiXmXmXvXmXFXDXJXKXFXmXmXHXKXHXtX(.g k v v g h N V V V V 2.2.4.4.4.5.5.5.5.5.j.C.j.C.C.Z.j.h.s s :.:.y.t.y.y.V.D.D.A.C.m.G ; $ = = $ > l @ 1 6 6 6 6 6 8 ;.>.>.;.8 6 6 7 6 6 2 0 q c P P P = , n '.J.G.J.v.m.z.z.z.c.g.f.f.g.n.v.v.v.v.v.v.v.v.n.v.j.j.j.j.j.j.5.5.5.5.3.3.3.3.A x.}.|. X....+.{.,XlXNXeXeXSXkXrX1X<XrXrX<X1X<X>XeXkXkXeXpXNXhXhXmXbXwX9XbXFXFXhXCXCXBXHXFXKXKXLXLXKXKXKXKXKXPX7XC 4 e i y i y y s a >.>.>.>.:.1.2.2.h.2.a d r r r r r r s :.D.V.V.C.j.v.z.D , = = P P Y ;   1 6 6 7 6 6 2 1 4 5.6.4 1 2 6 6 *.6 0 q > $ $ ~ $ # - K v.C.D.D.D.V.h.h.d.d.g.g.g._ _ ` d.d.d.d.",
"V V 2.2.4.4.5.j.j.j.j.j.v.v.v.F.H.H.H.H.H.n.g.f.l.k.k.k.h.h.C.H.H.F.b.J l > P I = > v 5 7 =.=.=.=.8 4.H.n.n.j.a 8 =.=.=.*.7 9 L : P P P P < c /.I.L.S.S.S.L.L.H.n.n.n.n.l.j.n.J.J.J.J.G.G.G.G.G.G.F.F.F.C.C.j.j.5.j.5.3.9.7.C C _.uXKXKXLXHXHXGXCXdX,X+X9XNXNXyXCXKXHXCXHXKXKXKXFXmXvXIXvXPXKXKXKXGXGXLXKXKXCXbXnXkX@XX.X.E b b c : c T E E W G D B C A 3.3.5.5.h.2.j.j.5.v.v.j.l.f.s.( / s s s f d ( s.l.H.G.F.J.b._.` : , | U U U T k 0 7 7 =.*.8 8 8 ;.q.>.8 8 =.=.=.=.8 4 O v > = I U < c '.K.E.E.E.W.K.F.v.3.z.z.M.M.c.c.d.z.v.v.b.n.v.G.F.F.F.v.v.v.v.v.9.3.v.z.7.K K G W ].+.o.+.&XzXSXSXVXlXjXVXZXZXjXaX*X>XpXaX0X0XdXZXHXKXKXKXKXKXKXKXKXuXiXmXmXwXiXbXPXLXJXFXmXCXKXKXHXKX0XG k l v v h m N V V V 1.2.5.4.5.5.5.5.5.5.C.C.j.C.C.Z.h.:.f s :.y.y.y.y.y.D.D.S.A.C.m.G ; $ $ = $ > l @ 1 6 6 6 7 6 6 i >.4.y 7 6 6 *.*.6 6 1 q : P P P P < n /.m.G.J.n.J.z.d.d.c.n.g.g.l.n.v.v.v.v.v.v.v.v.v.v.j.j.j.j.C.5.j.j.5.3.3.7.7.A _.%X|.|.+.....{.*XkXSXyX,X<XNXkXrX0XrXeXeXrX0XrXrXaXaXeXrXdXlXhXwXyXsX,XOX,XhXuX9XuXuXhXHXHXFXFXPXFXHXHXGXGXKXJXDXoXe 5 e i i y y <.>.>.>.>.1.>.2.2.2.2.a y y w r r r r p :.h.V.V.C.C.j.v.z.D , = = P P Y ; o 1 6 6 7 7 2 1 1 ;.5.1.o 3 2 7 6 *.6 1 0 - > $ ~ $ $ - F z.j.h.V.V.V.5.5.d.d.d.d._ _ g.g.d.d.d.d.",
"V 1.2.3.5.5.5.5.j.j.j.j.F.F.F.F.F.H.H.H.H.l.g.s.f.f.k.k.h.Z.K.L.H.H.b.J l > P I = > z 5 7 =.=.=.=.8 i j.n.H.j.y 8 *.=.=.=.8 4 h c = P P P < R X..XL.S.S.S.S.L.H.H.l.n.n.l.g.n.J.J.J.J.G.G.G.F.F.G.F.F.F.F.C.j.j.5.v.5.3.7.3.7._.iXJXKXFXKXKXGXAXZXlX0X+X}.,XsXBXGXKXGXCXHXKXKXKXHXHXFXmXMXmXFXKXKXGXFXLXKXKXFXMXbXnX>X[.[.o.b b T c c T E E E G D D K H 3.3.5.5.3.3.j.v.9.v.v.d.s.( s s s f f f f Z d.z.n.m.b.b.b.b.'.J c c R U U U T k 0 8 *.=.=.8 8 ;.4.A.,.8 8 =.=.=.=.8 4 O z , = = = < c ).G.W.W.K.I.I.G.b.b.x.x.M.M.c.n.m.z.z.v.b.b.m.G.G.G.F.v.b.v.v.v.9.v.3.3.8.J D W ]. X..E ].pXAXSXdXlXjXjXNXSXVXlXlX>X0XwXwX<X>XeXjXZXKXKXLXGXKXKXKXKXmXMXLXmX,X#XgXmXPXFXFXHXKXKXHXCXKXjX}.F g l G B m m C C V 1.4.5.4.5.5.5.5.5.5.C.C.C.C.Z.Z.h.d s :.y.y.y.y.y.i.D.S.S.A.F.b.K ; = $ = $ > - @ 1 6 6 6 7 6 2 8 i ;.4 6 6 7 *.*.6 6 1 5 : P P P P < c x.m.G.H.v.J.z.z.z.n.n.n.n.l.n.n.v.v.n.v.v.v.v.v.v.v.j.j.C.C.5.j.v.5.7.7.9.7.` @X}.}. X..+.+.&XpXAXkX>X<XdXzXyXrXwXrXyXrX0X0XaXVXSXdXrXeXzXjXnXsXbXbX9XOX#X9XwX,X9X9XwXFXCXvXuXvXPXLXFXFXGXKXKXPXxXb.5 4 a i y y <.>.>.>.:.2.>.2.2.2.d f w w r r r w r s s.j.j.5.j.v.7.z.z.D , = = P P Y - @ 1 2 6 7 6 2 3 4 4.4.1.o 3 2 7 *.*.6 1 0 - > $ $ $ $ - v J z.5.5.j.j.9.7.7.z.d._ _ g.c.c.c.d.d.d.",
"V 3.3.3.5.5.5.j.j.j.C.C.F.F.F.F.F.K.H.H.H.j.s._ s.s.s.h.V.Z.K.L.S.H.G.J z > P P P > z 5 7 =.*.=.=.8 8 4.P.P.4.8 8 *.*.*.=.8 8 h z = P P P P R W J.L.S.S.S.S.L.H.l.l.l.n.n.c.n.J.J.J.J.G.G.G.F.F.G.F.F.F.F.F.C.j.5.v.7.7.7.C b.7XDXKXDXDXKXKXCXHXHXAXNXrX+X}.=XjXnXHXGXCXGXKXGXGXKXKXGXmXMXMXPXFXKXKXGXKXKXKXLXPXmXCXhXtXwX+XX.F E b b T E E E E K D D H 7.3.9.5.5.3.v.b.9.7.3.Z f f f p f f f f S H x.x./.'.'.'./././.O.n R U U U U R q 3 8 =.=.=.8 y >.Z.S.:.y 8 8 =.=.=.8 3 O j R U P = , R O._.I.G.G.G..X.X_.'.'./.M.M.z.z.m.z.z.z.b.b.b.b.m.G.G.v.b.v.b.v.9.v.3.H 7.J J o.{.{...+.1XlXSXkXkXjXjXNXNXlXdXkXlXaXrX0XrXeXeXeXaXjXGXKXHXGXKXKXKXmXPXFXGXBXtX9XwXyXhXLXKXKXKXKXHXGXGXBXaX}.z g G J B m N C 1.1.4.5.5.5.5.5.5.5.5.C.C.C.C.Z.Z.u.d :.:.y.y.y.y.i.i.D.S.S.A.F.m.K ; = = = $ > q @ 1 6 6 6 7 6 2 3 y i 3 2 6 7 *.*.6 6 1 + l Y P P = < , ` b.G.H.v.H.m.m.n.c.n.n.n.l.n.n.v.v.m.v.v.v.v.v.v.v.j.j.C.C.j.j.v.9.z.z.7.H `.>X|.{.{...+. XpXNXSXyXrXkXzXpXrXrXyXhXyX0X,X,X0XaXlXVXdXeXaXNXBXmXFXFXyX9X9X#XuX9XwX9XuXHXCXvXiXcXLXKXGXGXHXKXKXPXLXiX7.e u i i i >.>.>.>.1.2.1.2.2.a f r w w w r r t f _ g.d.z.z.z.z.7.x.` F < = = = P > - @ 1 2 6 7 6 2 3 y >.4.>.4 3 2 6 *.*.6 2 0 - > $ $ $ $ & l G x.x.7.b.9.8.8.8.x.` ` Z _ d.l.c.n.n.n.",
"A 3.3.3.3.5.5.j.j.j.C.C.F.F.F.F.K.K.L.H.n.d.s._ s.u.s.h.Z.S.L.L.S.H.J.J c Y I P P > l 5 7 =.=.=.=.=.8 ;.L.P.;.8 -.=.=.*.=.8 4 h l > P P P P R W I.L.S.S.S.S.L.H.l.l.l.n.n.n.n.m.J.J.J.J.G.G.G.G.F.F.F.F.F.F.C.j.j.5.9.7.H H OXcXJXJXJXKXKXFXCXHXHXAXAXNX0X}.}.#XeXCXHXHXKXKXHXKXKXFXmXvXIXIXmXFXKXKXKXKXKXKXKXKXPXPXLXKXGXtX[.E E b b E T E W W F D D H 7.9.9.v.9.3.7.b.7.7.A f t t f f f f f N x G ` O.X.X.O.O.O.O.O.| R R U U U U b q 3 8 =.=.8 8 <.V.L.Z.:.;.8 8 7 =.=.8 3 4 L Q ! U U U R T X.8.8.8.8.r././.X.` X.` ` K H z.z.z.x.x.x.b.b.b.b.v.b.b.b.b.v.9.9.v.7.K J (.).Q o.].-XzXNXpXyXCXnXNXCXNXbXkXjXjXeX<X,X0XpXaXpXrXrXjXHXKXHXKXKXKXLXGXFXGXHXHXjX0X,XhXHXHXGXCXHXKXKXZXZXHXeXX.g v J K B B C 3.3.5.5.5.5.5.5.5.5.j.C.C.C.C.h.h.u.d :.:.:.:.y.u.i.D.S.S.S.A.K.b.K % = $ = $ > q o 1 6 6 6 6 6 2 3 y i 8 6 6 7 *.6 6 6 1 5 l Y P P P < : ` b.G.H.F.H.J.m.n.v.g.l.l.l.n.n.n.m.m.M.M.M.v.v.v.v.v.C.C.C.F.j.j.v.7.H 7.J =X<X&X{.{.+.{.*XZXNXvXbXjXdXpX2X>X0XeXhXyX0X,X,X+Xo.).qXSXdXrXaXyXhXBXmXbXvXwX@XhX9XwXqXyXGXFXmXgXDXKXKXHXGXHXHXGXKXKXPX7XC 4 i i f >.>.>.>.1.1.a 2.a w w w w r w t f d _ c.` ` ` H x.x.J ` X.b , = = = = > - @ 1 2 6 6 6 2 8 >.>.>.>.i 4 3 6 *.*.6 2 0 % > = $ $ $ $ > b G J K K K D D D F K K u a Z 2.d.d.j.j.",
"C A 3.3.3.5.j.j.j.C.C.C.F.F.F.H.K.L.L.H.n.d.f.s.s.f.k.k.Z.S.L.L.S.H.J.J , Y I P I < g 5 3 =.=.=.=.=.8 8 5.5.8 8 ;.-.-.*.*.8 3 5 l > P I P = c W J.L.S.S.S.S.S.Z.l.l.l.n.n.c.n.n.m.H.J.G.G.G.H.G.F.F.F.F.F.F.C.j.j.5.9.7.7.XXiXJXJXJXKXKXJXLXKXHXHXZXZXZXkX,X+X}.+XyXCXHXKXKXKXKXKXFXnXMXMXmXPXPXGXKXKXKXKXKXKXKXJXPXKXKXCXmX0X(.W E E T T Q X.W W F K H 7.9.9.9.7.C 3.8.8.7.A t t f f s d d S S n n n R R R R R R | | R | U U U U U T q 3 8 =.=.8 =.>.Z.Z.Z.k.i.;.8 8 8 =.8 8 4 L T ! Y U U , , , l c l z z c c c : c n G D K H M.M.x.x.x.b.b.b.b.v.v.v.v.v.v.9.9.b.8.K X.}.(.c +.&XzXSXkXyXhXLXZXGXZXNXNXNXjXeX<X>X,X<XeXpXeXeXrXyXjXCXHXGXGXKXGXnXNXBXBXHXAXrX0XkXCXCXCXCXHXKXKXGXZXHXBX@XF g J J H B V 6.5.5.5.5.5.5.5.5.v.j.C.C.C.h.h.u.:.s :.:.:.y.i.i.k.D.S.E.E.A.K.G.G ; = $ $ $ - q o 1 6 7 6 6 6 2 4 ;.1.i 7 6 7 6 6 6 6 2 5 l Y P P P < , ` b.G.P.H.J.m.m.m.n.g.l.l.l.n.n.m.M.M.M.M.M.b.v.v.v.v.F.C.C.F.j.v.v.7.H x.%XqX-X*X{.{.{.&XqXGXMXIXIXsXqX<X<X,X>XwXeXeX0X>X>X+XW F |.kXjXpXqX0XwXhXhXhXbXuX#XBX9X9X9XwXmXCXFXDXDXLXCXCXZXZXNXZXHXFXLXDXoXu e i a >.>.:.:.V V u a t w w w w w w f S S ` ` ' n D D G G F G G n , = P P P , - @ o 2 6 6 2 7 i >.<.>.:.>.8 8 6 *.*.*.2 @ % > = $ ~ $ $ & - : g g - % % - g g g x a a u a a 1.2.1.",
"C A 3.3.3.5.j.j.j.C.C.C.F.F.H.H.L.L.H.H.l.j.g.l.l.l.k.Z.S.L.L.L.L.H.b.G : < I P I < g 5 7 =.=.=.*.=.8 3 1.6.3 ;.=.=.=.*.*.7 3 5 l < I I P = c J G.L.E.E.S.S.L.F.n.n.n.n.n.c.g.v.n.n.n.m.G.G.G.G.F.F.F.F.F.F.v.v.v.9.9.7.x.7XKXKXJXJXKXKXFXKXKXNXNXZXZXNXNXdX0X=X/.#XnXZXHXHXHXKXKXHXFXLXKXLXPXMXGXKXKXKXKXKXKXKXKXLXKXPXuXLXCXOXX.W E E b Q ..E X.W K H 7.7.3.3.C M M 7.8.v.3.f f f d d Z _ _ H c , U U U U U Y U U U U U U Y U U R E q 3 8 =.7 8 <.D.U.k.k.U.D.,.<.8 8 =.=.8 5 D c = = P = = = = = < < < < = = > < > c ` ` x.M.b.M.x.x.z.b.v.b.v.v.v.v.v.v.v.v.b.7.H J `.}.o.z {.<XSXSXjXBXCXPXZXZXnXsXjXZXdX>X>X>X0XrXeXrXeXdXdXwXwXjXBXGXKXKXsX9XyXsXtXBXHXnXnXjXkXjXGXKXKXLXFXKXHXZXHXkX].g J ` J K B C 3.5.5.5.q.C.C.j.v.F.C.C.C.h.:.:.:.s :.:.:.u.k.l.Z.Z.S.A.A.C.F.b.G % = $ $ $ - q 0 2 6 7 6 6 2 3 y 4.j.>.8 6 7 6 6 6 6 2 5 l Y = P I < , ` b.J.P.G.J.z.b.m.M.z.n.n.n.n.n.n.n.M.M.M.M.b.v.v.v.v.C.C.C.F.j.v.b.z.H _.9XdX&X&X{.].|.-XNXNXBXvXwX>X>X<X<X,X>X0XwXwXwX0XwX>X,X*X+X=XrXdXaXwXwXyXbXbXbXhX9XKXwX9X9XqXbXBXKXLXPXvXyXbXBXNXdXHXhXBXKXDXiX_.5 u a a a >.:.V a u a t w w r r r f N S S x x : c , : c c c c c , Y I P P P U - + o 2 6 6 2 8 i :.>.p :.:.y 8 7 6 *.7 2 o % ; $ $ $ $ $ # # # # # # # # # % - - g C a i i i f a i ",
"C 6.3.3.5.j.j.j.C.C.j.j.j.F.H.H.H.Z.l.k.f.f.l.l.j.j.C.S.L.W.W.L.H.J.b.F : < I I I , z 5 7 =.*.=.=.-.8 3 a v.4 4 8 =.*.*.*.7 7 5 : < P = < < c ` m.I.K.E.E.E.W.K.v.n.l.l.Y.Y.l.g.n.c.M.M.m.m.J.G.b.G.G.G.G.v.9.9.7.b.7.H $XDXKXJXKXKXKXKXKXKXGXBXNXnXNXNXnXdXtXyX@XX.,XZXGXHXGXKXHXLXLXLXKXKXmXuXIXKXKXKXKXKXKXKXKXKXKXmXMXFXMX9X).X.W Q b R Q ......W J J 7.7.7.3.7.v.b.b.v.v.3.Z s.s.d.d.3.7.J n , U I I I I I I I I I [ [ I I U U ..L 0 7 7 =.y p.U.U.i.U.U.p.p.>.=.8 =.=.7 5 W > = P P P P P = = = = P = = = P = > , G M.n.l.H.F.F.v.b.b.v.v.9.v.j.j.j.j.v.v.C 8.J X.+X|.o.[.<XjXZXVXnXAXHXAXZXnXkXNXBXjXqX>XpX>X>XkXrXSXlX>XaX=X+X+XCXvXKXKXPXIXuX9X,XbXKXCXhX0X9XaXNXCXLXKXKXKXKXHXHXAX,XX.g X.J J J B 7.6.4.4.V.V.C.5.j.j.j.4.:.:.:.:.:.:.d s.d.l.n.z.z.v.v.v.v.v.m.'.F % & $ $ = > q 1 2 6 7 6 6 1 4 >.:.s.:.;.4 2 7 7 6 6 2 0 g > = = P < c G x.m.b.m.m.x.x./.` ` x.M._ n.n.n.n.m.m._._._.m.m.v.F.F.F.F.5.G.z.7.x.x.%XvXpX*X X].].<XSXdXAXlXtXtXaX>X@X=X#X*X=X>XwXyXtXwX0X9XrXwX>X<X<X1X#X@X@XwXwXwXFXMXKX#XwXsXwX0XZXGXHXvXyXhXFXHXGXCXKXyXFXKXFXDX9XB 5 a a V 1.a 2.a 3.V u e i f f a Z S S x , , , , Y = P Y Y I I I I I I P I U l % o 1 2 2 3 y :.p p p p s >.<.8 6 6 6 6 o q % . & & & & & # # # # $ $ $ # & % - g B V i a >.<.<.:.",
"C 6.3.5.5.5.j.C.j.j.j.l.F.n.H.n.n.l.l.k.k.l.l.l.n.v.F.H.L.L.L.K.G.m.x.F > < I I P , z 9 8 =.=.=.*.=.7 i 5.d.1.8 7 *.*.*.*.7 7 5 > < I < U , c ` b.G.K.K.W.K.I.I.m.m.n.d.l.l.l.l.g.z.c.M.m.b.b.v.b.G.G.G.G.b.b.b.b.b.8..XiXJXKXKXKXKXKXKXKXGXBXBXhXnXhXwXtXNXNXhXgX`.}.eXSXGXGXKXGXFXLXJXKXLXMXuXbXKXKXLXKXKXLXKXKXKXKXFXmXFXuXOXOX(.X.O.T R R Q ..o.X.W J 7.9.z.v.v.b.b.b.v.v.d.s.s.s.d.j.z.z.` c U I I I I I I I I I I I I I [ U U ..L 0 7 7 8 <.p.U.a.i.k.U.p.D.p.<.=.=.=.8 9 W > = P P P P P P P = = = = $ P P P = , G M.F.C.K.K.F.F.v.b.v.v.v.v.j.j.j.j.j.z.H J J (.|.[.].*XkXVXZXZXGXHXHXHXAXjXkXjXjXtX0X0X0X0XqXlXyXNXjXyXqX>X+X% =XKXPXLXKXuXuXmXGXKXKXNX9X=XqXIXmXbXPXKXKXKXKXKXHXHXgX+Xn n X.).(.x.z.3.2.4.V.V.V.5.5.j.j.2.d d d :.:.:.s.j.d.z.x.x.` '.'.'.M.` ` X.E R & $ $ $ > g 3 2 6 6 7 2 3 y :.u.s u.>.<.8 2 6 7 7 2 0 L R Y P P U R O.(././.x.x.(.X.o.o.O.` ` M.m.n.n.n.m.m._._.M.c.n.v.F.C.C.C.F.v.z.7.x.`.5XbXqX*X|.{.|.pXZXlXZXlXpXeXeXqX>XrX=X,X>X>X0XwXwXwXwX>X0XeX>X<X<X@X+XF G ,XvXhXhXFXKX9XuX9X=X=XdXlXHXHXLXFXmXmXLXKXKXmXLXKXMXFXvXOXm e u a i a 1.V A A A Z Z d :.:.Z C B x , < I I I I I I I I I I I P I I I U , % o 1 2 3 8 <.:.p ^ ^ ^ s :.>.<.8 7 6 2 o q - # & & $ & & & # # $ $ $ $ # $ & - g M V i i <.<.<.i.",
"C 3.3.3.5.5.j.C.j.j.C.F.H.n.n.n.l.l.g.g.g.g.g.c.c.n.m.m.J.J.J.G..X_./.F , = = = = , L 5 7 =.=.=.=.7 8 q.d.s.F.i 8 7 *.*.=.7 7 5 : > Y Y U , c G /.b.G.I.I.I.G.b.x.m.m.z.n.n.l.n.c.c.M.M.m.x.7.3.v.v.v.v.v.9.7.7.b.H b.7XDXKXKXKXKXKXKXKXGXFXBXnXbXnXsXwXsXGXHXNXkXyX+X(.+XSXKXNXHXHXKXKXKXKXPXMXFXKXKXKXKXKXKXKXKXKXKXLXFXLXuX@X@X[.X.E Q T R Q Q o.o.J J 7.v.z.v.b.b.v.v.v.j.d.j.s.s.s.j.v.z.J R U I I [ I I I I Y I I I I I U U U T j 0 7 7 8 D.k.k.i.i.N.k.i.U.D.p.<.8 7 8 4 r.: = = P P P = P P P P = $ = P = = = , G x.F.C.C.C.F.v.v.v.v.v.v.j.j.j.j.j.j.7.H K /.+X|.).[.<XVXNXNXBXHXHXHXFXnXjXnXNXnXdXaXsXkXdXpXlXjXSXSXSXaX0X@X  k uXLXFXKXuXiXMXFXGXGXBX0X=X=XqXtXsXmXKXKXKXKXKXHXAXZXkX[.l X.).X.J C 3.1.4.4.4.5.5.5.j.j.s.:.a :.:.s.s.l.n.d.B D v v b F G G n n b R ! P P P P > b 0 2 6 6 7 1 8 >.:.u.p >.i.:.;.2 2 7 6 2 0 L R U Y Y Y U R R b v l l n g c E b g j ` M.n.n.n.n.m._._.m.n.n.H.H.K.F.F.G.v.b.x.x.$XuXtX=X&X{. X-XdXZXZXkXkXaXaXeXwX0X0X=X<XeXyXwX9X9X9XeX=XqXaX>X0XrX*Xo.+ k }.yXhX9XCXFXgXCXsXsXbXBXZXyXnXHXHXnXgXnXKXKXLXLXMXuXmXLXIX_.e u V i 1.1.V V A 3.3.2.2.:.:.1.A B v , < I I I I I I I I I I I I I I I U , % o o 1 3 <.>.>.p p p p p >.>.<.-.6 2 2 o q q & & & & & & # # # # # $ $ $ $ # # % j M u i p >.>.D.",
"A 3.3.3.5.5.j.j.C.F.F.H.H.v.j.d.j.j.f.f.g.g.g.` ` ` ` ` x.M.M.M.'./.X.b , < P P I , L 5 7 =.=.=.=.8 >.j.Z g.s.4.8 8 7 *.=.7 7 9 z U U U U U R T X./.b.b.b.b.x.x.` ` x.z.m.n.l.j.n.n.m.m.b.z.z.7.7.9.9.7.7.7.7.H 7.K oXcXJXJXKXJXKXKXKXKXGXFXCXCXCXhXyXnXGXGXCXCXCXNX+X].].|.dXHXKXKXKXKXKXKXLXFXFXKXKXLXKXKXKXKXKXKXKXLXLXKXLXuX9X,X[.E ..Q T Q Q o.(.W H 7.v.z.z.v.b.b.v.v.j.d.l.h.s.s.d.v.7.K R U I I [ I I U U U U U U U U ! | | G k 0 3 8 ;.U.k.i.i.i.a.a.a.i.i.D.,.8 8 9 5 r.z > = = = < = = P P P = = = = = = < : b x.G.F.C.C.C.v.v.v.v.v.v.F.C.j.j.j.9.7.H J }.,X Xo.@XpXVXkXsXNXFXCXCXAXhXnXZXHXZXdXtXaXNXjXeXjXAXHXSXSXjX0XJ     j MXKXJXFXMXvXbXHXKXKXBXtXUX=X9XqXsXBXKXHXKXKXGXCXAXSXrXE b X.X.D h A 2.4.4.4.5.5.5.j.j.j.j.h.h.h.h.j.n.z.C k ; ; ; - ; - : > > > > P P P P P > R 5 3 6 6 6 2 ;.i.>.y.y.^ :.>.;.8 7 6 6 6 0 k > $ $ $ $ = = = # # # # ; ; : R c - g ` M.M.n.n.n.n.M._.m.n.H.H.L.L.L.K.F.m.m.'.OXwXuX=X@X|.{.|.pXlXlXlXaXdXdXrX,X,X>X>X,XeXBXZXhX9X=X=X=X=XwXqX=XqXpX|.; . % F }.9XwXFXHXLXKXnXnXNXdXsXyXbXCXCXvXyXbXCXCXKXLXMXvXmXFXJX7XC u V 1.2.V V V Z A Z Z d :.:.2.3.B v , < I I I I I I I I I I I I I I < , l k @ 3 3 9 >.>.p p ^ ^ ^ ^ y.i.>.>.8 6 3 o 5 + X & & & & & & & & & $ $ $ $ $ # # # j M u i >.:.i.D.",
"7.3.C 3.3.9.5.5.j.C.F.F.v.v.d.3.d.d.d.d.g._ ` ' ' ' ' | | O.O.X.G W E R U U I I [ R F 5 8 =.=.=.8 i C.s.Z s.Z j.>.-.7 7 =.7 7 9 F R R U ! ! R R T E J J G K G G n n D K M.n.j.d.d.n.n.z.z.z.v.m.v.v.v.z.7.7.7.H H '.iXJXKXKXKXKXKXKXKXKXLXFXGXHXLXhXhXCXKXGXCXBXCXSX0X-X{.E |.dXGXHXHXLXLXLXLXFXMXmXMXMXFXLXKXKXKXKXKXKXLXKXKXKXCXGX>XX.W O.E E ..(.)./.8.7.b.v.z.b.b.G.G.H.l.h.h.h.s.s.d.d.7.J R U I I I I U U R R c c R T b n | G D 5 0 4 8 >.Z.i.i.i.a.a.a.a.i.i.D.>.4 3 4 4 K z l : > > > > Y Y Y > = = = = = = = > b /.G.G.C.V.j.j.v.v.v.v.F.C.C.5.j.5.9.7.H (.#X@Xo.].<XlXVXjXbXCXLXPXFXHXCXCXHXHXbX0X=X=X0XqXdXNXHXZXjXjXsX}.        '.FXFXKXKXFXBXHXHXGXKXZXbXtX0X9X9XtXKXGXKXKXHXCXZXSXkX+Xv X.}.J m A 2.4.4.4.5.j.j.j.j.H.H.H.Z.Z.Z.H.v.z.B ; - > > = = = < = = = $ $ ~ P ~ $ $ z @ 1 6 7 2 8 >.>.y.t.y.y.y.>.,.<.8 2 6 6 0 q # # # $ $ $ $ $ $ $ $ $ $ > > > > - l X.'.m.n.n.n.n.M.m.n.n.n.H.H.L.K.K.v.J.x.'.9XjX0X@X+X|.|.<XSXZXkXaXdXdXdX>X}.+X<XrXwXhXHXKXbX9X#X#X+X+X=X9X=XeX@Xb   . . - W }.jXKXZXCXmXbXBXBXyXnXKXKXHXCXgXuXbXHXmXKXLXMXmXFXFXKXPX$Xm u 3.V a V A Z Z Z Z :.:.:.4.3.C v , < I I I I I I I U , , Y I U , , , c j   o 3 y >.>.p ^ ^ ^ ^ ^ y.:.>.>.;.3 1 1 q k q % & & % % % % & & & $ $ $ $ # # # k M u a :.i.i.k.",
"z.7.A 3.7.9.5.5.5.j.F.F.v.v.j.d.d.d.d.d.c.` ` ' | | | | | | | | T T ! ! ! [ [ [  .| K 9 8 =.=.8 8 V.j.f.f._ f.h.V.;.8 7 8 7 7 9 G ! ! U U U U U R R b n n n c c c c l x ` m.v.j.j.v.v.3.A A z.m.b.b.b.b.b.x.x.x.8.$XDXKXJXKXKXKXKXKXKXKXHXLXHXKXLXHXLXCXHXKXKXCXnXHXAXpX|.Q W (.eXBXKXKXLXKXKXFXIXvXuXuXMXmXmXKXKXKXKXKXKXKXKXKXKXKXhX[.X.X...E W o.).(.x.7.7.v.9.b.G.G.H.F.h.s.i.h.k.f.g.d.z.J R U I I I I  .U b v v v F G D B j j M 9 9 8 8 q.U.i.i.a.a.a.a.a.a.i.i.:.w 4 5 5 K K r.r.W X.o.Q Q Q R > > = = = = = # ; v x.G.G.j.h.j.j.n.v.v.v.C.C.C.5.5.5.9.7.J `.@X XO. XlXAXVXNXBXGXLXCXFXHXHXHXZXCXdX>X=X=X>XeXZXNXCXnXGXGX#X+         + OXLXKXLXCXHXGXCXHXZXGXGXbX9X=XtXGXKXFXHXKXHXHXHXCXSXkXX.G }.J B A 3.4.4.5.C.C.j.j.3.n.H.Z.C.C.Z.C.v.z.j ; > = = $ = = = = = = $ $ $ ~ $ $ $ z @ 1 2 6 2 <.p.>.y.t.^ t.t.y.,.,.y 3 6 2 0 q % $ = P $ $ $ $ = = = = $ = $ $ & # - W '.m.n.n.n.c.z.z.n.n.F.F.K.K.K.G.b..Xx._.yXjX=X*X|.}.*XkXZXlXpXqXaXeXdXaX@X@X0XrXnXCXKXHXhX=X#X#X@X@X=X9XtX0XW .   .   X v W 0XZXeXhXmXFXFXLXtXuXbXLXKXHXvXyXbXHXHXKXLXmXLXKXKXKXDXcX7.u V u V 3.A Z V Z 2.:.:.>.4.6.C v , < I I I I I Y U U R c U U U , , T E G @ 4 9 ;.>.s p ^ p ^ ^ ^ p s s >.;.4 3 4 M M q + q q q q q % % % & & $ $ $ $ # # ; B V d s.k.k.u.",
"x.x.8.7.7.9.9.9.v.F.F.F.G.v.v.j.j.j.j.n.n.M.` ' | | [ [ [ U | | | | |  .[ [ [ [  ...J 9 7 =.=.8 i l.s.f.f._ f.u.V.,.=.8 8 7 7 9 D T R U U U Y U R R R c c , , , , , , x ` m.H.H.H.H.v.5.3.A d.z.v.b.b.b.b.x.x.x.%XuXKXJXLXKXKXKXKXKXKXKXHXLXHXKXHXKXHXHXHXHXHXHXHXjXSXlX|.T l z X.9XKXKXHXKXKXHXmXMXuXuXMXmXmXKXKXLXKXKXKXKXKXLXLXKXCX,X(.X.O.E E W X.'.x.7.7.z.9.v.v.v.F.Z.h.i.i.i.k.f.f.d.3.K R U Y [ I Y  .% @ @ @ O 5 5 0 3 0 5 9 0 9 8 y A.D.p.a.a.a.a.a.a.i.i.i.f.s.V m C M C 0.0.0.8.'.r.F L z - > = = $ = $ # ; v x.b.v.h.k.l.l.n.v.v.F.C.C.C.C.5.9.9.7./.[.@X]. X2XSXSXSXZXGXHXLXLXHXHXHXCXnXnXdX0X,X>XwXtXGXbXhXhXHXhXv   @ +       5 iXFXKXFXKXKXKXKXBXGXGXbX9X,XsXKXGXBXCXCXCXHXHXAXHXHX+XG X.` K C 3.5.4.5.C.j.j.j.j.j.j.h.h.C.C.j.v.x.l % $ $ $ $ $ $ $ $ $ = = P ~ ~ $ = > z 0 0 2 2 8 ,.p.y.t.t.^ t.t.t.y.>.y 8 7 6 0 5 % & $ $ $ $ $ $ = = $ $ $ = $ $ $ & & Q /.b.n.H.n.j.d.d.n.H.H.H.L.L.L.F.G.b.'.#XjXaX=X+X|.[.>XVXlXpXpXaXaX<XaXjX>X=X0X,XCXLXKXHXbX9X#X=X=X9X9XuXtX`.+   . .   . % v (.,XeXNXKXGXuXMX9X#XuXyXnXCXCXnXmXFXKXKXLXLXLXLXFXmXPXJX5XC m V 6.3.V V Z Z Z d :.>.4.2.B v , < I I I I I P > - - g - ; ; ; ; ; g k M M 6.j.i.p ^ ^ ^ ^ ^ ^ ^ s :.:.4.y 9 4 0 o o o o o o o o o     & & & $ $ $ $ # ; A d.s.s.k.k.i.",
"x.x.x.x.7.7.9.F.G.I.H.J.G.v.v.j.C.C.C.H.m.M.` | | [ [ [ U U !  .U U [ [ [ [ [ [ | ..8.9 7 =.=.8 j.d g.( ) f.( u.h.>.;.8 8 7 7 4 D T R U U U U U U U R R U U , < < U , n ` M.v.F.F.C.j.j.v.v.m.m.v.v.v.v.b.x.x.x.7XDXKXLXKXKXHXKXKXKXKXKXLXLXHXKXLXCXHXHXHXhXhXCXZXZXHX-XT E l X % [.CXHXCXKXKXGXKXKXMXvXPXLXLXKXKXFXLXKXKXKXKXKXKXKXKXhX}.X.X.W W G X.`.'.8.7.b.v.v.v.v.F.H.Z.k.i.i.i.f.s._ Z x T U U [ Y U ! . @ 0 0 4 4 4 7 7 3 3 3 3 8 8 8 S.D.p.a.a.a.a.a.a.a.i.i.f.d.e o o o 1 3 1 o o o o o o   . & > = $ $ # # ; x z.v.h.h.k.k.l.n.v.v.F.C.C.C.C.9.9.7.7./.}.|. X1XzXSXaXAXKXKXKXKXKXKXHXCXnXjXjXdX0X*X+X,X=XbXhXbXvXuX`.    @   @ +     K uXKXFXCXKXHXZXKXKXKXBXsXqX9XqXCXnXnXjXkXSXHXHXSXAXjX).X.[.J N 3.5.5.5.5.j.5.5.H.F.j.2.h.Z.K.F.v.8.g # $ $ ~ ~ $ $ = = = = $ = P $ $ > : L @ o 3 3 ;.,.y.i.t.t.t.t.t.t.y.i.s 8 6 2 0 5 % - > > > = = = = = $ $ $ $ $ $ ~ $ & E /.x.n.n.l.f.d.d.n.H.H.L.P.L.K.F.J.7.`.yXjXrX*X{.+X}.wXAXdX0XkXVXZX<X>X0X@X@XqX0XnXCXHXKXCXwX9X9X=XqXuXIXUXj       . X   . g v [.pXAXHXnX9XKXKXKXHXhXwXuXmXHXKXKXLXFXLXKXFXmXvXiXuXDXDXb.u C C V 3.A A Z d d u.u.2.Z S x , < I I I I I $ .                         o e a s p ^ ^ p p ^ ^ p p s u.>.4 o o o o o o o o 1 o 1 o o o + - & # # # # X k _ g.s.u.u.u.u.",
"` J J H 7.7.v.F.G.I.J.P.H.v.v.H.C.Z.S.H.J.M.` n | [ [ [ [ ! ! [ [ [ [ [ [ [ [ [ ! ].r.9 9 -.7 ;.l.f._ ( ( ( ( u.k.u.;.8 8 7 7 3 D n | R U U U U U U R R U U U I P U , c ` m.H.H.K.C.j.v.v.v.m.z.v.G.v.z.x.7.x.%XcXPXLXKXHXLXGXHXmXFXKXKXKXKXLXCXLXKXBXHXBXyX9XHXSXAX<XQ E z X X . v @XCXHXHXGXKXKXmXLXKXFXvXFXKXKXKXLXKXKXKXKXKXKXKXKXKX9XX.o.X.X.W G /.%Xx.C v.v.v.F.F.H.H.Z.k.i.i.i.k.f.f.Z N G , U | U R Q + 0 3 3 8 8 7 7 8 8 7 7 7 3 3 i 4.D.p.p.p.a.a.a.a.p.i.f._ d.O o 0 3 0 8 2 7 7 3 3 3 1 0   % > $ $ # # ; n ` c.f.h.h.k.f.l.l.n.j.C.C.C.K.C.v.b.C J ).@X+. XpXzXAXSXAXGXKXKXKXKXHXGXbXhXhXjXjXeX<X>XqX=XsXGXLXmXiX      @ O O O O O   /.PXuXtXHXBXKXKXKXHXHXBXtX0XqXeX9XwX9X@XyXHXHXHXAXHX=Xv )./.B 3.3.5.5.5.j.v.j.j.j.h.4.h.C.C.j.J.H g # = P ~ $ $ P = $ > > $ $ # > # & q L 0 o 1 9 >.p.y.t.t.t.t.t.t.t.y.y.s y 1 1 0 q q l - & - > > > > = $ $ P $ ~ ~ $ $ > b /.m.n.l.h.h.f.j.n.H.H.K.K.K.K.G.v.x.#XkXaX1X*X{.+X=XAXjXaXaXjXNXdXSXaX=X,X>X0XjXLXPXHXyXwXyX9X0XtX#X9X9XK @   @ @ .   . . X l o.}.AXlXHXKXuXmXKXKXHXHXKXHXLXHXKXHXKXKXKXKXKXFXMXFXFXKXiXC u 6.C A A Z Z d d u.u.2.Z S x < < = I I I Y #   o o 1 1 1 o o o o     o   O Z s.p r ^ ^ p / p ^ ^ p d f 4 o o o o o 1 1 1 1 1 2 2 1 o 0 L - # # # X # _ _ _ u.u.u.u.u.",
"J J J J 7.7.b.G.F.G.I.P.H.v.v.j.Z.S.S.H.G.m.X.R  .[ [ [ U ! !  .[ [ [ [  . . . .! (.0.0 7 8 7 ;.f._ _ ( ( ( ( ( u.u.h.>.y 8 8 i j n n c R U R R R R R R U U I P I U , n ` m.H.Z.S.Z.C.n.v.v.n.v.b.v.v.b.x.7.'.#XDXFXHXHXHXHXHXKXFXHXKXLXLXHXHXLXHXCXHXHX,XgXCXnXAXfX|.Q z % X . . % J 0XHXHXCXHXKXMXMXFXuXiXuXMXKXKXKXKXKXKXKXKXKXJXJXKXsX}.o.X.X.W J /._.x.H z.v.v.F.F.H.H.Z.k.k.i.i.k.l.l.g._ ` | | , , E r.@ 9 7 7 8 8 7 *.7 8 2 8 ;.6.1.2.l.k.k.p.a.a.a.a.a.i.i.f._ z.h 5 5 1 1 2 7 7 7 6 7 2 2 0 o % z > $ # > n ` _ f.k.k.k.k.l.l.l.j.C.C.C.q.F.F.v.b.7.'.@X|. X1XlXSXSXSXGXGXKXKXKXKXHXGXbXnXNXsX0X,X,X<X=X>XeXKXPXiXe       O O O O O O   + #XmX9XsXKXKXKXKXHXKXHXnXsXeX#X@X>X0X@X>XBXAXHXZXHXjX(.X.'.C C 3.5.5.5.j.v.j.v.l.h.:.:.:.:.a v.` v ; # $ ~ P $ Y > & : z l R z b z L 0.r.9 0 4 ;.C.V.i.t.t.t.t.t.t.t.t.y.:.a i 0 0 5 q z z z z z z g g - - U $ ~ $ $ ~ $ % G '.n.l.l.k.k.f.j.H.H.L.L.L.K.I.G..X_.:XjXpX-X*X*X>X0XZXjXjXjXjXeXlXlXjXqX=XwXVXHXKXLXKXgXwXtX=X=XbXIXiX_.5         @     X X % b E -XHXHXGXnXiXuXbXCXHXKXKXHXHXKXFXHXKXKXKXKXLXmXhXbXKXDX.Xm V C C C Z Z d u.u.u._ _ _ x , < < < < , U ; @ o 1 2 2 2 2 1 o o o 0 5 O O e f r r ^ ^ p ^ ^ ^ ^ ( f d.C u M M 9 0 o 2 2 2 2 6 6 2 1 0 q q X X % ; n _ ( ( ( u.u.h.k.",
"G W W J H 7.9.G.F.F.I.P.L.F.j.l.Z.S.S.F.v.b.X.| | [ [ [ [  . . . . . . .+. .+.+.{.`.0.9 8 8 9 5.s._ _ ( ( ( ( ( ( u.h.2.y 3 2 9 7.K F b T E E T G F E T R U U I I U , n ` m.n.Z.Z.C.Z.n.j.v.n.v.G.9.v.b.7.7.$XgXKXKXHXHXHXKXKXKXCXHXKXFXFXFXHXHXGXKXHXBXwXnXHXHXSX XQ E % X X . X X ; `.CXHXCXKXKXFXLXKXMXMXmXLXKXKXKXKXKXKXKXKXKXLXJXKXFX>X(.o.X.X.J J /.x.H z.v.v.F.F.F.H.H.Z.k.k.i.k.k.k.l.g.` ` ' n n G 8.o 9 7 7 8 8 =.=.7 7 9 9.8XxX7XoXc.g.f.i.i.i.i.i.i.k.k.l.n.$X5X5X5X9.;.6 7 6 7 7 7 7 2 3 o q z > & > T (.` _ ( y.i.k.l.l.l.l.j.C.C.K.C.F.v.9.7.x.%X+Xo. XpXAXSXlXHXHXLXLXLXKXKXHXGXBXGXNXwX=X*X,X>X,X>XnXLXPXH   @     O O O O O O e   j uXMXmXKXFXHXKXKXKXKXGXjXwXaXrXpXeX#X,XNXHXKXZXZXHX*XG ).J C 3.5.5.5.j.j.j.j.l.h.:.>.:.:.f f N ; % $ $ ~ ~ $ > & . X % % % q 5 5 5 q M 0 0 5 5.H.:.:.t.t.t.t.t.t.^ ^ y.u.2.6.5 o @ o   @   @ @ @ @ @ @ % b $ P $ $ = # X v M.n.l.k.k.k.k.l.H.H.L.L.L.L.I.G.b._.,XhX<X|.|.*XwXhXZXnXNXjXZXqXrX>XaXeX=XaXHXHXKXKXKXmXbXhX9X#XuXMX5Xh   o O o   5 @ + j l - b o.].pXAXHXKXMX9X#XwXCXLXHXKXKXLXMXMXFXKXKXKXFXCXhXsXJXDXoXm u 3.V C Z Z Z ( u.( ( _ _ ' ] , < < < , n ; o o 2 6 6 6 6 6 1 1 9 b.5X$X.X_ f f p r p ^ r / p p ( t z..X$X5X5X6Xw.1 2 2 6 6 6 6 2 2 0 q 5 @ + ; x _ ) ) ( / y.u.k.k.",
"E E W J 8.8.9.9.F.F.L.L.L.Z.l.l.k.Z.Z.Z.n.b.X.| U [ [ [  .! ! R T T Q Q Q E E E D L w.9 9 9 ;.j.g._ _ ( ( ( ( ( ( s d h.>.9 ;.q.6.B h k k j j h k k k l c U Y I Y U , n ` n.l.h.Z.V.Z.n.d.d.v.v.G.v.G.G.7.b.iXJXJXLXLXHXKXKXGXBXvXPXKXKXLXLXFXFXHXCXnXnXCXGXGXHX<XQ R b % . X . X X X G gXHXZXGXKXLXKXKXFXFXKXKXFXLXKXKXKXKXKXKXKXJXKXLXKXNX[.o.X.X.X.J ` x.x.7.v.v.v.F.F.H.H.Z.Z.Z.k.i.i.f.f.f.g._ ` ' ` D C 0 8 7 7 7 7 =.=.7 9 I.8X7XiXiX:X%Xg.f.f.i.i.i.i.k.k.u.d.m.$X7XiX7XxX6X8 2 6 7 6 7 7 2 2 o q k - z o.X.M._ ( / y.y.k.l.Z.l.j.j.C.K.K.C.F.F.3.H '.@X}.X.*XlXAXSXjXHXKXKXLXLXKXLXHXGXKXHXbX0X,X0X>X*X0XeXLXPXOX  @ O o O O O O O O + e + O '.LXKXKXKXGXKXKXGXCXCXkX0XkXeXrX>X+X=XdXNXKXZXBXVXdXX./.'.C 3.5.5.5.5.j.v.3.l.h.:.>.u.u.u.t e * % ; = $ $ > : %   @ o o o o o o o o o o o O 3.l.f s t.t.t.t.t.t.^ p s u.f.C @ o o o o o o o o o o o o 0 L > P $ $ > # % x c.l.k.i.k.k.l.l.H.H.L.P.L.K.G.G.z.$XhXjX<X&X*X-XeXBXGXnXNXhXHXeX=X=XqXwX<XdXVXjXbXCXKXKXHXZXtXUX9XiX'.@   O 5 O o 5 + + v v z c c Q ].lXdXOX0XwXOX0XnXCXFXKXKXCXMXMXMXKXKXKXLXFXjXkXmXDX5X7.m C C A A Z Z ( u.u.( _ _ _ ' ' ] , , , F k o 1 2 7 6 6 6 6 2 9 XXxXiXiXiXoXc.f t r p / r / p p f _ oX$X$X#X5X5X6X;.2 2 2 6 6 6 2 2 1 5 5 5 t S d f ) / / y.u.u.k.U.",
"E E X.X.'.'.b.9.F.F.K.L.H.Z.l.Z.k.Z.Z.Z.n.b.X.| | [ [ [  .R - X + + 5 5 5 @ @ @ @ 5 9 9 9 ;.9.z.g._ f.u.u.i.u.u.f.( ( s.a 4 7 -.9 9 0 0 0 0 0 0 0 0 5 + l , , Y U U , x ` g.j.k.D.Z.Z.l.j.z.v.v.F.F.J.b.7.oXcXJXJXLXHXKXKXGXbXyXsXCXKXKXKXKXHXHXGX,XhXKXCXHXKX=Xo.T l : % X . . X X X j @XCXHXGXKXLXKXLXmXFXKXFXFXLXKXKXKXKXKXKXKXKXKXmXKXHX@X(.o.X.X.J J /./.H v.v.v.v.F.H.H.H.H.Z.k.k.k.k.k.k.g._ ` ` M.H 6.4 8 8 =.8 7 7 *.7 ;.6XxX5X:XwXwX:XB.g.f.u.i.k.f.i.f.g.J.7XiX9X5X5X5X8X;.1 =.7 6 6 6 2 7 o 5 j J `.'._ ( ( y.y.t.i.k.l.Z.H.v.C.F.K.C.C.F.F.7.x.$X9X+X}.kXAXSXSXnXCXKXKXLXLXKXKXHXGXKXKXNXwX<XrX>X@X,XCXCXuX+   O O O O 4 4 O O 5 5 O m + h 5XmXKXKXKXKXKXLXCXBXkXrX,X>X>X=X=XeXaX0XZXGXHXdXAX@XJ '.C 3.3.5.5.5.j.v.d.l.l.:.s / y./ ( _ S ; # # $ $ > l %   o o o o o o 3 1 o o       A n.d / y.^ t.t.t.t.^ p s u.l.u O o o o o o 3 3 1 1 1 3 o 0 q > $ $ = # ; x _ f.f.i.i.i.k.l.n.H.H.P.P.L.I.F.m.b.iXLXhX*X@X-X>XjXBXbXyXbXyXZX>X,XeXrX0XaXaX0X0XyXnXBXBXbXdXqX#XiXOXh o o 5 4 O O O O + k v F c c ..+.pXlX+X=X,X#XuXnXnXCXHXKXLXHXFXFXKXKXLXPXMXaXhXLXKXDX5X7.u C 3.A Z Z d u.u.( ( ( _ _ ' ' ' x x D k 3 3 2 6 7 6 6 2 2 w.6XxX5XOX$XiX:X_ t f s / p ^ s p r B.:X$XOXOXOX5X6Xw.0 6 2 6 6 6 2 1 o 4 e f _ s.( / / / y.y.i.h.Z.U.",
"E E O./.`.%XG.9.G.F.F.Z.Z.Z.Z.N.k.N.U.Z.n.m.` | | U U [  .R %   0 0 9 9 9 0 0 0 0 0 7 7 3 i m.m._ _ f.k.i.i.i.( ( ( _ f.a 4 7 9 8 8 8 9 8 8 8 8 8 9 0 5 v R U U U U c x _ g.h.k.D.k.l.n.j.v.m.v.9.G.G.9.b.7XDXJXKXKXKXKXKXBXsXqXBXGXKXKXGXKXHXHXtXwXCXHXKXHXeXX.T T l % % # . X X X ; g /.wXHXHXCXmXLXKXmXFXKXKXKXKXKXKXKXKXKXKXLXKXKXCXKXHXeX}.(.X.X.` J /./.H z.v.n.v.F.G.J.H.H.Z.Z.k.k.k.k.k.k.k._ _ M.m.5.3 7 7 7 8 7 7 7 7 w.5XxXiXyXyX0XiX:XR.l.u.i.i.i.u._ c..XiXiX5X$X7XoXxX5.1 8 6 6 *.6 6 3 o h '._.M._ ( / y.i.t.t.i.k.l.l.F.F.F.F.K.K.C.F.F.7.'.,X,X@XqXAXHXZXHXGXFXKXKXLXJXKXKXHXGXCXHXBXyX>X,X,X,X>XCXCXJ @ @   O O 4 4 w w 5 5 5 5 m e 5 8.uXKXJXKXKXKXHXAXSXjXaXrXaXrX,XqXVXNXqXbXHXKXkXHXdX/./.H 3.3.5.5.5.5.j.j.l.l.u.s s ^ ^ ( _ _ x ; # # # ; - + o o 1 o o o o 2 o 3 5 j K j _.J._ s s ^ t.t.t.t.^ s s f.Y.J..XG.0.M 3 o 1 2 2 2 2 2 1 1 0 z & $ > # : ` _ u.i.i.i.i.k.l.n.H.H.J.I.I.G.G.G.oXcXFX,X}.|.-X<XHXbXuXqXhXyXsX+X=XeX>X*XqXqX=X>XhXBXhXtX=X#X#X+XUXK @ o O 4 4 4 5 4 5 e + v W T b b T ..<XlX=X+X#X0XuXyXhXCXKXKXKXHXFXMXMXMXIXwXyXjXKXKXJXcXoXm C A 3.Z Z d u.u.( ( ( ( _ _ _ _ ' x x + o o 2 6 6 6 2 2 3 w.5X5X7X#X,X9X7X$Xd.t f p p p ^ s t :XOX}.@X=X#X5X6Xw.0 2 2 2 2 2 1 1 1 4 a :./ / t.t./ / y.u.h.D.Z.L.",
"..E O.o.)..XG.v.F.F.C.S.Z.Z.Z.N.k.N.N.Z.H.m.X.O.| U U [  .T k @ 3 7 *.*.*.7 7 3 9 3 7 8 1 4 z.` _ _ f.k.i.i.u.( ) ( _ _ i 4 3 7 -.=.=.-.=.=.=.=.=.-.8 5 D T , U U R n D _ f.s.k.k.k.k.l.v.v.G.b.F.I.v.v.oXcXJXJXKXKXKXKXGXBXbXsXFXKXKXKXGXGXNXbXtXGXKXNXKXeX).G T c - & & # . X X X ; g v }.NXHXuXuXMXFXMXMXLXKXKXKXKXKXKXKXKXKXJXKXKXKXKXHXNX,X).X.X.X.J /.(.H d.l.n.v.F.G.J.J.H.H.Z.k.k.i.i.i.i.k.f.) g.n.K.;.8 7 7 7 7 7 7 7 w.6XiX5X9X0X9XgXxX4XY.V.p.i.i.f.B.$X7XiXUXUX$XiX7XxX2.3 7 6 7 7 7 6 2 3 6..Xc.d ( y.t.t.t.t.y.i.k.l.l.v.F.F.F.K.K.K.F.v.7.'.,X+X@XjXSXAXAXHXKXLXKXKXKXKXKXKXHXZXCXBXhXrX>X>X0XeXyXkX9X+ + @   O O 4 w e e e e e u 5 e e M 5XKXFXKXLXLXHXHXSXkXrXpXkX0X*X>XdXjXaXBXGXGXZXNXlX+X8.7.A 3.3.5.5.5.j.d.j.l.k.y.^ ^ / ^ ) _ S v l % # ; g 5 o 1 1 1 1 1 1 2 1 1..X#X0X#X#XoXg.f p ^ ^ ^ ^ ^ ^ / ( l.R.oX7X5X5X6Xw.3 2 1 2 2 2 2 2 2 0 z & # ; ; n ` _ ( y.i.i.a.k.l.n.J.J.J.G.I.I.J.J.7XDXPX,X@X*X<XkXGXuXgXwXhXuXwX#X=X0X<X=X,X>X>X>XsXFXIXqX@X[.#X+X'.5   o O 4 4 4 4 4 5 5 + ; v b T T +.Q ].pXZXNX9X9X,X9XwXyXnXFXFXLXMXuXuXvXuX9XyXhXFXJXDXDXxXb.M C A A Z Z ( ( u.u.u.u.u.u._ _ _ S N O o o 1 2 2 1 2 1 1 V $X7X$X9X,X$X7XxX4XZ f r / p p s N.:XOX}.|.|.[.$X$XM 3 2 2 2 2 1 1 4 i a s.u.^ ^ t.t.^ y.y.i.D.S.L.L.",
"....O.X./.x.b.9.F.C.C.L.L.Z.Z.l.k.f.k.l.Y.oX%X+.| | | | | b q 0 8 =.=.=.=.=.8 7 3 3 9 w.u e z._ _ _ f.u.i.i.i.i.( ( _ _ n.XXI.q.;.-.-.=.=.=.=.=.-.-.8 9 K E , , , n n ` g.f.u.i.k.u.h.j.j.v.G.v.G.G.9.b.7XDXJXKXKXKXKXGXGXGXCXCXCXGXKXKXGXBXtX9XHXbXKXHXkX].W b T - # # X . X X % X - g ; J wXGXmXbXFXKXPXMXFXKXLXFXFXLXKXKXKXKXKXKXFXKXKXCXHXaX).X.X.X.J /.(.` d.j.n.v.F.G.J.H.H.H.Z.Z.k.k.k.k.k.k.f.f.N.l.R.K.;.8 7 7 7 7 7 7 3 6XxXiXwXyXuXuXcX8X!.C.h.k.k.f.c.:X7XiXUX9X#XiX7X5X5 3 1 7 *.6 6 2 8 i G.d.( u./ t.t.^ ^ i.k.k.l.l.j.v.F.F.F.C.C.K.F.v.z.%XwX+X=XSXNXVXHXGXKXLXKXKXKXKXKXKXHXCXHXhX0X<XrXeXdXjXjXyXK k O   o O O 4 w e i i e e e 4 N m h '.iXKXKXCXnXGXHXnXeX0X,XwX>X>XeXaXsXbXKXZXbXHX0XaXyXJ 8.A A 3.5.5.5.5.j.j.Z.Z.i./ ^ ^ / ( ( _ ` D g ; + k 5 o o 1 1 1 o 1 2 3 I.5X:X#X,X$XoXm.f./ ^ ^ ^ ^ ^ ^ / u.B.oXoX7X$X6X8X9.9 2 2 6 6 2 2 2 1 0 g - % ; D ` _ ( y.t.i.i.a.k.l.H.H.P.I.I.I.G.J.J.xXMXyX,X=X=X<XjXsX9XCXhXhXtXwXyXqXwXlXkX,X>XqX=XeXGXbXaX=XOX9X9XL @ o O O 4 w 4 4 y e e e * k b O.E b ..o.|.HXeXjXwX9X,X,X9X9XuXBXFXMXuXuXMXMXwXeXeXFXJXcXJXDXoXm V A A Z Z 2.( u.u.i.i.u.u.( ( _ _ d.u 4 3 o 1 1 1 1 1 o 5 XX9X7X,X,X7XiX7X5XoXt r / / p s 5XoXOX+X*X*XOX#XXX0 1 2 2 2 2 1 4 y 4.:.y.y.t.t.t.^ y.y.u.h.Z.L.L.K.",
"....O.o.X.x.z.v.j.K.L.L.L.L.H.Z.k.N.N.N.Z.Y.B.%XO.O.' O.o.F q 0 9 *.*.=.=.=.7 7 9 oXxXcXiXz.N g.g.g.( f.f./ i.( ( d _ B.7XiXxXxX5X0.9 8 =.=.=.-.=.-.-.i M D n v ' ` _ g.f.u.i.i.i.i.k.Z.F.F.F.v.b.z.7.oXcXJXDXJXKXKXLXGXGXGXBXbXZXGXGXKXFXmXIXuXKXCXKXZX|.Q E c c # # X . X X + + + ; j j h '.MXBXsXKXKXMXKXLXJXKXJXJXKXKXHXKXKXKXKXKXKXKXHXCXnX@X(.X.(.X.X./.J 7.v.v.F.F.F.F.F.H.H.H.H.Z.Z.k.k.l.k.f.f.N.N.U.U.S.>.8 1 8 7 8 2 o e .XiXgX9XwXgXiXxX8XJ.2.f.N.( R.7XiX7X#X7XiX5X7X6.o 3 3 2 2 7 1 3 i V.k.y.^ i.^ t.t.^ ^ i.k.h.v.v.v.v.C.F.K.F.F.F.v.b.8.iXyX}.aXVXjXjXHXKXGXKXKXKXKXLXLXKXKXHXnXyXeXqXrXzXlXdXdX`.5 5   O O O O e e w i i w y e i u m N H $XPXKXFXGXGXnXwX9XuX9X#X@X,XtXhXhXhXHXNXCXNXkXAXjX`.x.8.m 3.v.3.j.j.j.5.j.Y.Z.u.s / / ^ / ( ( _ _ S N e O o 3 3 1 2 1 1 o 4 5X5X7X#X,X,X:X$XB.u.s t.^ ^ ^ p s R.8X$X$X$X$X$X5X6X;.2 2 6 6 2 2 2 1 o O e N _ _ u.( / t.t.i.i.i.k.Z.H.C.L.L.K.J.v.b.oXuXvX@X*X>X=XjXZXdXhXjXhXyXrXyXjX>XjXZXkX0X=X>X>X>XqX=X=X@X=XuXOX+ o o o 4 4 w i 4 y i e e e h h G X.T Q ..o.<XlXaXqX0X,X@X9XwX=XvXmXmXMXbXFXFXmXnXBXFXKXKXJXDXcXH m C V v.2.a j.s.s.u.u.u.i.y./ / ( s.s.2.u 4 o 1 1 o o o o M OXiX7X:X7X7X7XiXiXB.w p / p N.5XOX+X*X+X#X$X_.h o o 2 3 1 1 8 <.>.>.y.t.t.t.t.t./ s u.h.Z.Z.H.H.H.",
"....X.X.X.x.x.z.v.F.K.K.K.L.L.Z.l.N.N.N.Z.Y.Y.B.M.M.` X./.D q 0 -.-.=.=.=.*.8 8 9.PXLXyXMXcX$Xn._ f.g._ ( f.u.( ( _ n.7XgXuXwXIXxXXXw.8 =.=.=.=.-.-.9 9 m K K K _ g.f.f.f.i.i.i.i.k.k.Z.H.H.G.G.m.x.b.5XPXJXJXKXKXKXLXHXHXGXNXbXBXZXGXKXKXLXPXmXKXHXHXHX{.E R R % % : % . X X + + + k h h h 8.UXPXbXCXmXmXJXFXDXLXFXFXKXKXLXLXKXKXKXKXKXKXKXCXbX9X`.X.(.X.X.X.J 7.z.v.F.H.H.H.H.H.H.H.H.H.Z.Z.Z.l.l.N.N.k.a.k.k.k.Z.>.4 1 3 3 3 5 V .X7XgXgXwX9XuXxXiX4Xn.s.f.g.:X7X7X7X7X7X5X$X.X6.4 3 1 3 2 1 9 >.h.i.i.i.t.t.t.t.y.y.u.k.l.H.v.b.J.J.H.H.C.j.j.v.v.b.x.7X=XOXjXAXAXZXHXHXKXKXKXKXKXFXPXFXFXCXbXwXwXaXdXkXlXjX=XK 5 O o O O O e 5 4 e e w w f i u u m N C .XiXLXCXGXCXbXuXuXvXmXuX#X,XwXbXBXGXFXnXHXHXNXHXCX#X` H C H 7.3.j.5.F.v.v.H.Z.k.i./ y.y./ / / / ( ( _ N 4 o o 1 1 1 1 1 o 9 5X5X$X9X,X,X#X$XoXl.u.p ^ ^ ^ s u.oX7X$X@X}.$X$X5X6X;.2 2 2 2 2 1 1 1 3 w a f.f.y.y.y.i.i.i.i.i.k.l.Z.H.K.W.K.K.J.b.m.$XbXnX@X@X>X>XBXBXjXhXsXyXaXaXdXaX0XjXBXjX0X>X>X<X>XqX=X=X>XqX$XL o o o O 4 4 w y y i i y e e u h D (.Q E o.o. XzXjXtXwX0X9X9X9X,XtXNXKXKXKXKXKXFXHXFXCXLXKXJXPXcXoXm C 6.3.3.1.j.d.s.s.s.u.y.y.y.y.i.i.s.h.2.u 4 o o o o o o 5 b.$X7X7X7X7X7X9XiX:Xf f p s R.5X#X+X*X@X$X%Xz.m 5 3 1 o o 4 y >.t.<.t.t.t.t.t.y.s u.h.l.Z.H.H.H.H.",
"o.o.X.E X./.x.z.v.F.K.K.A.K.L.Z.N.N.U.U.Z.Z.Y.B.c.M.M.M.x.C 5 0 9 =.=.=.=.*.=.9 6XJXJXbXLXJXcX7X_ Z g._ ( f.( u.d n.:XxXPXuX9XIXxX5Xw.8 =.-.=.=.-.-.8 9 u A ` ` g.f.f.f.f.f.i.i.k.k.Z.Z.H.F.G.G.b.8.XXxXDXJXJXJXJXKXKXHXHXGXNXhXBXGXGXKXKXKXKXKXFXKXZXHXo.T R c # - : X . X + 5 e k k k k k L _.MXFXbXMXLXKXKXLXPXPXFXKXKXKXHXKXKXKXKXKXKXKXFXCXbXOX/././.X.X.J 8.9.z.v.F.F.H.H.H.H.J.J.H.H.H.Z.k.l.N.N.k.k.k.k.k.Y.C.4.3 3 3 i 9.b..X%X:XiXgXwXIXxXxXiXoX_ _ B.7X:X$X7X7X7XoX_.v.G.1.i 3 3 3 3 ,.D.D.i.y.i.i.^ t.^ y.k.Z.h.j.v.3.9.v.j.v.F.H.F.F.v.v.x.'.$X`.#XSXAXHXHXnXBXHXKXKXKXKXFXPXPXCXmXvXwXqXkXlXkXdXpXr.5 + @ 5 o 4 5 e O e Z 1.i i i f a u m V C b.$XmXHXKXFXbXhXPXLXKXmXuXbXFXHXGXCXmXnXHXKXCXHXGXyX'.K H 7.A 9.v.5.v.v.v.j.H.R.U.y./ / y./ / / / u.f.s.e o o 1 1 1 1 1 o 0 XXxX7X:X,X,X7X7X7XoXl.s ^ ^ p / Y.4X7X#X@X}.$X5X5XG.9 1 2 2 2 2 1 1 3 y s.u.i.i.y.i.i.i.i.i.i.k.l.H.H.H.P.L.K.H.J.b.%X7XFXjX@X+X=XqXHXbXaXyXwX0XeXjXjXdX0XaXjXaXqX0XqXqX<X0X=X#XeXtX8.@   o O 4 4 4 e y y i i y i i u h j /.(.E o...O.<XSXhXeXwXwX=X#X9X9XbXKXKXHXHXKXKXKXFXbXCXLXFXPXPXxXC C 3.V v.5.3.d.d.d.s.u.u.u.i.i.i.u.u.k.j.s.a 4 3 o o 4 5 M z.m.oX7X7X7X7X9X7XiXB.f t g.4X5X#X+X#X$X%X_ Z S C M 9 3 3 y >.i.t.>.t.t.t.t.t.y.y.k.Z.Z.H.H.H.H.G.",
"Q o.X.E X.(.'.z.9.v.F.K.K.L.L.Z.Z.Z.Z.U.Z.U.Y.B.l.B.n.n.m.3.e 4 8 7 =.=.=.=.=.-.8XcXMXmXDXcXcXDXoX` _ f.f.f.s _ d 7XcXuXgXuX9XiXcX5Xw.8 =.-.=.=.-.-.8 9 a d.c._ _ _ f.f.f.f.k.k.k.Z.Z.Z.F.F.F.G.x.x.$XDXJXDXJXJXKXKXKXKXKXGXNXbXGXGXGXKXKXKXKXKXLXHXGXaXT T c > > ; # . X % + k e k k k h h M H 9XMXuXvXKXFXKXKXPXPXLXKXKXKXKXKXKXKXKXKXKXKXHXGXHX,X(.X././.X.J x.8.9.v.F.F.F.F.G.J.J.J.J.L.L.H.j.l.k.k.k.k.k.U.Z.Z.F.P.i 4 9 G.oXXX.XM.M.$XiXgXxXiXxXxX5Xz.c.$X:X:X:X7X7X$Xm.z.J.P.J.5.4 o 4 ;.D.p.p.i.i.t.t.y.i.i.U.4X4XoXT.oXoXoXP.G.F.F.C.j.F.v.v.8.`.OX(.eXZXVXSXNXyXhXHXKXKXKXKXHXHXLXCXbXyXtXaXlXlXlXeX*Xq @ @ o 5 o 4 w 4 w V j.3.a a i u a u m V V 7._.iXCXKXLXhXbXLXKXKXLXHXKXKXKXGXmXmXvXFXKXCXCXGXCX$XK H H C 9.5.5.9.v.j.j.Z.R.Y.u./ / / / / / / ( u.f.2.y 3 o 1 3 1 1 o o M xX7X#X:X,X7X7X7X8XR.u.s s s u.oX8X5X$X$XOX$X5XoXw.1 1 2 2 2 1 1 4 ;.5.k.i.y.y.i.i.i.y.i.i.k.Z.H.H.J.J.L.L.K.H.G.b.$XuXCXeX+X+X*XaXHXeXaXkXsXrXeXjXjXaX0XwXeXqX0XqXpXpXqX>X=X@XqXUXk   o O 4 4 4 w i i y i i i i f u u m J (.W o.O.G |.jXBXsXwX0X=X#X0X,XtXbXvXuXuXmXHXKXbXhXmXKXLXDXDXcXm.M 7.V 5.5.2.3.3.d.d.s.u.u./ u.u.u.u.s.f.s.s.a 4 o o u 9.v.v.d.n.m.oX7XiXiX#XiX:XS t m.7XoX$X$X$X%Xg.d t Z 3.3.1.u y p :.y.t.t.t.t.t.t.y.i.i.Z.H.H.H.H.H.H.H.",
"Q o.X.E X.(.'.x.7.5.F.K.L.L.L.H.Z.Z.Z.Z.U.U.U.N.N.B.B.n.H.h.y 4 8 8 =.=.=.*.=.8 6XDXLXMXMXDXDXgXcX$X_ d.g.( _ d c.iXPXtXuXuX9XiXcX6X;.8 -.=.=.=.=.=.-.;.2.l.f._ _ _ f.f.u.u.k.k.Z.Z.H.H.F.F.F.F.z.m.7XJXJXDXJXJXKXKXKXKXKXGXCXBXGXGXGXKXKXKXKXKXKXBXAX Xc Q : % : # .   + % + k k k k k h M M L XXiXiXuXPXPXLXFXCXFXLXHXKXHXFXmXLXHXKXKXKXKXKXKXKXwX`.X././.X.W /.8.8.v.F.G.J.G.G.J.J.J.P.P.L.L.Z.Z.k.k.k.k.k.k.Z.s.F.P.v.u 3.4XXX.X.X_.B.%X$X7XxXxXcXcXiX%X_.:X$X7X7X$XoX_.n.d.n.n.R.H.a 4 y D.p.i.y.i.p.y.y.i.i.U.!.8X8X5X5X5X8X8X8X4X4X4XT.P.G.b.b.x.%X`.[.ZXNXkXjXNXhXnXKXKXKXKXLXKXKXHXbXyXwXaXbXjXlXVX0X(.    @ o O O 4 w w u Z f e f 2.u u a a V V C C x.$XgXKXKXvXvXFXKXKXKXHXFXBXFXGXHXFXCXCXHXZXBXZXHXuXJ K H C 3.3.9.v.v.v.v.j.j.l.k.u.u.y./ / y.y.y./ u.k.4.i 3 1 1 o 1 o o @ oX5X7X:X7X7X7X7X7X4XY.s s f g.5X7X$X$X$X%X$X$Xb.9 o 1 1 1 1 1 8 >.C.Z.i.i.i.i.t.t.i.i.k.k.Z.H.J.J.I.I.L.K.L.J.v._.:XvXhX,X}.+X,XjXZXqXhXNXCXjXyXeXaXaXqXqX0X>X>X0XqXpXqX=X=X=XUX'.@   o O 4 4 4 y i i y y y y i a a i M M '.(.X.o.O.o.,XNXNXaXeX0X=X9X9XqXwX9X9X9XuXbXbXsXvXFXKXLXDXDXcX7Xm C 3.1.3.3.3.3.j.j.j.f.s.( u.u.u.i.u.u.u.s.h.a 4 4 Z n.g._ s._ _ c.oX7XiXiX:X:X` N oX$XOX$XoXB._ ) ) s d Z Z Z d d s / ^ t.t.t.t.t.y.i.p.S.L.H.H.H.H.H.J.J.",
"Q o.X.E X./.'.M.z.9.F.K.L.L.H.H.Z.Z.Z.Z.S.U.U.U.N.U.N.U.U.Z.>.<.8 8 7 8 =.=.8 8 w.8XJXJXPXPXPXiXLXcXm._ _ ( f.f :XxXMXsXyXiXiXcX8X9.9 8 -.=.=.=.=.-.;.:.h.k.k.u.u.f.f.f.u.u.h.l.H.H.H.H.F.F.F.G.z.%XxXJXJXDXDXDXKXKXKXKXKXHXGXZXGXGXKXKXKXKXKXKXHXjXaXE c T - # ; . . . % + + k h h e e m M M M 8.$XiXcXMXPXPXmXFXFXFXFXCXCXbXyXmXFXHXKXKXKXKXKXKXnX@X/.X.(.X.X.J J 8.9.v.F.G.G.G.G.G.J.P.I.P.L.P.Z.Z.k.k.k.k.k.l.f.H.n.J.z.J.oXJ.m.m.R.oXB.%XoX7XxXxXcXuX$X%X,X7XiX7X%XM.c.c.g.l.l.Y.l.l.:.u.h.i.i.i.i.i.i.i.u.k.Y.T.T.P.XX4X4XoXoX4X4X4X4X4X4XoXXXXX%XOX`.=XAXjXhXnXGXHXKXKXKXKXKXLXHXHXmXyXwXwXIXBXjXNXSX=XL   @ @ O O 5 4 w w f d w O t Z a a V a V 1.V 6.7.%XiXKXKXFXmXFXHXKXKXKXFXmXFXKXKXKXHXHXHXHXBXCXKXPX`.H C C 3.3.9.v.5.v.v.v.j.j.Y.Z.k.u.y.t.t.t.t.y./ i.Z.4.i 4 o o o o @ 5 9.oX7X7X7X7X7X7X7X7XoXs.d d J.8X7X$X$X:X$X:X.X7.5 o 3 o o o 4 >.S.S.i.i.t.t.i.i.i.i.k.Z.Z.H.J.J.J.I.I.H.H.J.J.b.oXiXnXrX,X|.@XrXSXVXrXrXsXjXhXeXwXwXaXeXeXqX0X>X>X>X0X0X=XqXqXOXh   o o O 4 4 y y y w w r y y i a a a V m 8.`.X.o.o.O.].eXAXNXjXsXwX9XwXwXwXwXwXwXwXwXtXhXmXFXFXFXPXPXcXDXC u 3.a 2.5.5.9.v.v.n.l.s.s.u.u.f.f.u.( u.f.h.h.d d s.f.s.( ( ( ( _ c.oX7XxX:X0X/.K OX#X$X:XB._ ) ^ ^ / d f f s d ( ( / / ^ t.t.t.>.y.p.U.R.L.H.H.H.L.L.P.J.",
"o.X.X.O.X.X./._.b.v.v.F.H.H.H.H.H.H.Z.H.L.U.U.U.N.U.U.U.U.U.U.D.<.y 8 8 8 8 8 8 4 G.xXKXDXgXMXPXmXFX7XB.S ( d._ iXgXIXdXyXuXiX7X4X;.8 8 =.=.-.=.-.,.q.V.i.i.i.i.u.f.f.s.s.s.j.l.H.H.F.F.F.F.F.v.x.$XcXJXDXPXMXPXKXKXKXKXHXHXHXHXKXKXKXKXKXKXKXKXnXjX].b b c % % # . X + % k e h h e e e m M M C 7.XXxXcXcXLXLXFXLXLXFXCXCXFXmXgXvXMXFXKXKXKXKXKXGXHX0X).X./.X./.J J 8.8.v.v.F.F.G.G.G.G.I.L.L.L.L.L.Z.Z.k.k.k.k.l.n.B.m.m.m.m.m.J.n.n.n.B.B.B.B.oX7XiXuXuX#XOX9X7X$XoXm.c.g.g.N.N.N.Y.l.Y.N.l.u.i.i.i.i.i.i.k.h.R.R.T.H.G.I.P.I.XXJ.J.F.F.H.P.J.oXoXoX$X$X`.jXZXCXCXCXHXKXKXHXKXKXKXFXCXnXyXwXwXsXbXBXbXNXdX`.+   @ O O 4 4 4 e t t t w w e u a a V 1.1.1.1.1.3._.#XPXKXKXKXFXCXCXHXKXKXKXKXKXCXMXLXKXHXZXnXnXHXFX7Xx.H C A 3.3.3.3.3.v.v.v.H.H.H.Z.h.i.y.t.t.t.t.^ y.i.h.4.i 4 o o o C 7.b.XX.X:X7X7X7X7X7X7X7X.XA A oX7X7X:X:X:XoXR.d.A V 4 4 1 o 4 i V.Z.k.i.a.t.t.i.a.a.k.k.Z.H.H.J.J.I.G.G.J.H.J.G.m.$XgXnX0X*X+X,XkXAXjXeX0X,X>XwXeXwXwXaXeXeXeXeXqX0X>X9X9XUX9X9Xr.@   o O 4 4 e y w w w w r p p p >.>.;.1.V C /.(.o.o.O.(.@XjXZXNXnXjXeXnXhXhXbXmXMXtX9XiXMXFXmXbXbXPXDXLXJX.Xe 1.V 1.j.5.j.j.v.v.j.j.j.s.s.s.f.f.u.u.f.s.j.g.l.l.s.( u.( ( ( ( _ g.oX7X7XrX`.X.OX$X$X.X_ ) ^ ^ ^ / d f ( ) ( ( ( / / ^ y.y.y.i.V.S.S.L.L.H.K.H.L.P.I.L.",
"o.W X.X.O.X./.`._.b.v.F.F.F.H.L.L.H.H.H.H.H.Z.Z.U.U.U.U.U.U.U.U.E.,.y 8 8 8 8 8 8 9.5XcXJXDXFXgXBXBXJX:X_ _ _ .XxXvXIXwXiXgXiXoXoX;.y ;.8 8 -.8 ,.q.D.D.i.y.y.i.i.u.u.u.s.l.F.H.F.F.v.v.F.F.F.v._.iXJXJXJXDXPXFXKXKXKXKXGXGXHXHXKXKXKXKXKXGXFXCXsXNXv G b : % : X . X + + h h e h e + e m V V 3.C x.iXcXcXKXJXFXHXHXHXGXKXKXKXCXuXvXCXKXKXKXKXKXCXKXsX`.X./.X.X././.'.m.b.F.F.F.F.G.I.I.K.K.K.L.L.L.L.S.Z.k.Z.Z.l.n.n.oXm.m.z.M.c.B.Y.n.N.N.B.B.n.$X7XuXgX#XOXiX7XoXc.c.B.N.l.N.N.f.N.k.Y.l.N.f.i.i.i.i.i.k.Z.H.P.H.F.I.P.I.I.I.F.G.G.G.G.J.G.b.v.b._.$XOX`.HXAXHXKXCXCXKXHXCXKXKXKXFXBXhXwXyXhXbXbXnXnXbXqXG     O O 4 4 4 4 t f r w w w w w Z Z 2.1.1.1.1.1.3.b.OXiXDXKXKXmXgXmXCXCXCXKXKXLXMXuXmXHXFXBXhXhXCXFXIX_.H C C 9.3.v.5.3.3.9.v.v.j.j.h.k.i.i.y.t.t.t.t.t.i.u.Z.j.u o o m XXXXm.oXn.oXoX:X7X7X7X7X7X$Xx.z.$X7X7X7X7XoXB.f.f Z j.V i 3 4 y V.U.y.y.a.t.t.a.a.i.u.k.Y.H.H.J.J.J.G.G.G.P.H.H.b._.7XCXkX>X=X@X,XNXAXyXyXhX>X#X0XsXeXqXqX0XwXdXdXaXqX0X0XUX9XUX#XL   o o 4 4 4 y y w w w w r p p <.>.>.>.>.6.m H '.X.o.O.).}.0XjXjXjXCXjXHXmXbXCXKXFXuX9X9XbXGXMXuXhXFXKXKXDX5Xu 3.j.1.5.j.j.j.j.j.j.j.F.Z.h.s.f.f.f.f.f.g.n.l.g.g.( ( u.y./ ( ( ( u.N.oX7XwX%X(.OX$X%XS ( ^ ^ ^ ^ s f d ( ( ( u./ / y.y.u.y.i.k.S.L.L.C.H.H.K.L.I.P.I.L.",
"(.o.X.X.O.X.(.`.$X.X9.9.F.F.C.P.H.G.G.J.T.R.H.l.Y.U.U.U.U.U.U.U.U.S.p.<.8 8 8 w.C.P.oXoX7XDXDXgXbXLXcXcXc._ c.7XPXwX9XvXxX7XoXB.R.Z.1.i 8 8 y ;.V.D.h.i.y.y.i.i.u.u.s.k.Z.H.H.J.F.H.F.v.F.F.j.v.$XgXKXKXJXLXLXKXKXHXFXFXFXKXKXHXFXKXKXKXKXHXhXyXdX+Xg E c # ; ; . . X + k k h h e e e e m V 1.V C 7.oXxXcXPXJXFXHXCXKXKXHXKXKXKXFXFXFXFXLXKXKXKXBXKXZX#X(./.(.X.X./.x.x.v.F.F.L.F.K.K.K.K.L.L.W.L.L.L.L.U.U.U.Z.l.n.n.M.M.c.c.c.g.g.g.l.N.N.Y.R.n.m.$XcXgX@X$X7XoXB.n.g.l.N.N.N.N.N.k.l.f.g.B.f.k.k.k.k.k.Z.H.P.L.P.I.I.P.P.I.I.J.J.G.G.G.G.G.G.J.b._.OX`.tXNXHXFXFXFXHXKXKXKXKXKXGXBXnXsXwXsXBXFXIXZXsXjX+XX @ o O 4 4 5 4 w Z w w w w w w w f 2.2.1.1.1.2.4.6.7._.7XcXKXKXPXyXqXhXGXKXKXLXmXIX#XuXbXFXKXGXbXnXHXKX%XH 7.C 3.3.3.3.5.5.5.5.9.v.C.C.Z.D.p.p.i.t.t.t.t.y.u.u.s.d.e O m b.oXn.n.n.c.B.oX$X7X7X7X7X7X'.x.$X7X7X7XoXg.( ( d d f a V i :.h.k.i.i.i.i.a.a.i.i.i.k.Z.H.H.J.J.J.J.P.J.J.v.P.m.b.$XgXnXkX,X*X@XrXSXNXhXjXBXsX9XwX,X0XNXqXeXwXaXNXlXqX=X=X=X#XiX'.5 o o 4 4 4 4 4 w w w w w w p s >.>.>.>.>.4.1.V x.`.(.o.o.).@XrXkXdXkXnXHXGXBXbXyXuXiX9XwXMXCXhXhXGXKXLXKXDXxX7.V v.1.2.4.h.h.j.C.C.C.j.C.j.j.s.s.s._ _ c.z.g.g.g.f.u.u.i.y.y.y.i.u.i.f.oXgX:X/.+X`.H Z / ^ ^ ^ p s Z d i.y.y.y.y.y.y.y.:.h.Z.H.H.H.H.H.L.L.L.L.L.I.I.I.",
"X.W W O...O.O.(.OX.Xb.v.G.H.F.J.J.J.J.J.J.R.R.Y.Z.Z.U.U.U.U.U.U.U.S.S.,.y y 4.Q.4X4XoXoXoXoX7XDXLXMXxXcXoXS m.gXiXuXMXxX7XoXB.B.l.l.j.a y y >.C.h.h.u.u.i.y.i.i.u.f.l.Z.H.H.H.J.J.J.G.F.J.F.v.m.7XMXKXKXJXLXLXKXLXLXLXKXKXKXHXBXCXHXHXKXKXHXhX0X0XW l E l % : % . X X % k h m N e e e e u V 1.1.3.C J.7XcXMXMXFXbXhXCXHXGXHXKXFXKXKXHXLXFXFXGXHXGXKXCX=X)./.(./.X.` ` z.j.j.C.C.C.K.K.K.L.K.L.W.W.L.W.L.R.S.Y.H.l.n.n.M.M.c.c.c._ g.N.N.N.k.k.N.R.B.oX7X7X:X$X$Xn.n.Y.Y.N.N.N.U.N.U.k.l.g.f.c.g.k.k.l.l.l.H.L.P.P.P.I.P.L.L.L.L.H.H.H.H.H.G.G.G.b.m._.`.OXnXZXHXBXCXFXFXHXKXHXGXHXnXhXhXyXtXhXCXBXbXbXNXwXW + + o O 4 4 4 w e d w w w w w w w y 2.2.2.2.2.4.4.3.7.b.$XxXJXKXHXnXyXnXGXKXKXLXFXmXuXuXyXhXBXCXCXHXFXKX7X8.7.3.3.3.3.5.5.5.5.5.9.v.C.C.D.D.D.p.p.i.t.t.t.t.i.u.s.d.3.e u z.oXY.Y.l.B.B.n.m.oX7X7X7XiX`._.#X7X$XoXn.( / s / d d d d d s.k.k.a.i.i.i.i.i.i.k.k.Z.H.H.H.J.J.J.I.I.H.H.F.J.m.m.:XMXBXkX1X*X*XrXlXhXwXeXkX0X,XwX,X0XNXqXqXpXdXaXeX0X0X9X9X9XUXH @ o o 4 4 4 4 4 w w w w w w r p >.>.>.,.>.4.1.V 8.'.).o.o.o.[.,XeXdXaXsXHXCXbXhXuXuXuXuXvXFXFXbXbXGXKXHXFXJXDXoXV 3.1.4.h.h.h.V.V.C.C.C.C.j.j.j.j.g.s._ _ ` _ d.g.N.f.u.i.i.y.y.i.i.i.u.B.:XiX/.%X` S ( / ^ p s u.:.d d i.i.y.y.y.u.u.:.:.j.H.H.H.J.J.I.L.L.L.L.L.I.L.L.",
"X.W W ....O.O.X.`.`.b.9.v.H.F.F.J.I.J.J.J.J.J.R.Z.Z.Z.U.U.U.U.U.U.U.U.S.4.4.P.8X4XT.T.oXB.z..X7XDXvXcXcX7XS :XcXiXxXcX7XB.c.l.g.s.N.Z.2.i >.j.H.f.s.u.( u.i.i.i.k.l.Y.Y.H.H.H.J.J.P.J.J.J.G.G..XxXLXKXKXKXKXLXKXKXKXHXKXKXKXhX9XwXMXFXHXHXHXNXdX@Xl b b - % l . . X ; e k h N u e e e t u a a 2.3.A 7.5XcXcXIXMXtXtXnXZXCXZXCXvXHXKXKXKXLXFXFXGXGXHXCX0X}././.(.X.J H H j.j.C.C.C.C.L.K.L.S.S.W.W.L.W.W.W.R.L.Y.H.n.m.m.M.c.c.c._ g.l.l.U.U.Z.Z.R.R.R.oX$X:X$XB.B.N.N.l.Z.U.U.U.u.Z.k.k.l._ f.g.l.l.l.H.H.H.L.P.P.P.P.L.L.L.L.L.L.H.H.H.H.H.G.G.b._._.'.#XHXHXHXmXFXLXKXHXHXFXCXZXjXyXtXtXtXsXNXnXZXbXHX@Xk k 5 O O 4 4 4 e f f w w r r w w w w d :.2.4.4.4.4.6.3.x.oXiXPXKXKXGXnXZXHXHXKXKXKXFXLXFXbXsXnXBXBXGXnXLXgX_.C 3.3.3.5.5.5.5.5.5.j.C.C.C.C.D.D.D.D.p.t.t.t.y.i.u.f.s.n._ d.c.R.n.Y.n.Y.Y.l.g.B.$X7X7X9X`.`.7X7XoXc._ / s s / s s f f s.s.k.k.i.i.y.y.i.k.k.Z.Z.H.H.H.H.J.H.L.L.L.L.H.G.J.b._.7XbXkX0X*X@X=XdXNXyXwXwXeX,X,XrX0X9XdXwX=XeXjXeX0XqXqXqX9XwX$Xh o o o 5 4 4 4 O 4 w w w w r r p >.>.>.,.4.4.1.1.H /.`.).X.X.o.|.<XeXyXsXnXhXhXbXmXMXmXFXFXLXFXBXBXGXHXHXFXKXDXxX3.V 4.j.h.h.V.V.V.V.C.C.C.C.C.n.n.g.d._ H ` _ _ g.l.f.s s u.i.i.i.y.i.i.f.B.iX` /.S Z d / y.s :.2.a i f i.y.y.y.y.u.u.:.j.F.H.J.J.J.J.G.H.L.L.L.L.L.L.L.",
"/.X.X.O.......X.`.%X'.7.9.G.F.F.P.G.G.G.v.v.n.H.F.Z.Z.U.Y.U.U.U.U.U.U.Y.R.R.T.4XR.R.R.oXT.B.n.M.7XcXDXcXiXz.cXxXcXiX:XR.g.f.l.f.k.N.l.f.j.n.n.j.s.f.( ( ( f.k.l.H.H.Y.H.H.H.H.H.P.P.J.J.P.G.J.oXPXKXKXJXKXKXKXKXKXKXKXKXKXFXtX#X#XuXKXKXCXGXHXNX].l E c ; : : . . + k e e N N u w e t t t f a :.6.6.3..XxXDXIXMXtXyXnXHXZXCXnXyXbXFXKXKXKXHXHXKXnXCXZXhX#X(.W (.X.J H 3.j.C.C.C.A.C.K.L.S.S.S.W.W.W.W.W.W.!.R.R.H.H.m.m.c.c.c.c.c.g.d d k.U.R.R.Z.Y.R.B.oXoXR.B.Y.N.k.Z.U.Z.h.:.y k.h.s.l.f._ g.g.n.H.J.P.P.L.L.P.P.L.L.L.L.L.L.L.L.H.H.H.H.G.G.b.b.b.'.9XKXZXGXFXJXKXKXHXLXGXGXHXjXtXwXtXyXsXhXBXGXZXZX(.+ j + O O 4 4 4 f a w w r r r r w w r r s :.4.2.1.4.6.3.z.XX7XcXJXKXHXHXHXKXKXKXKXKXKXKXKXLXBXGXCXBXCXbXuXMXoXC C C 6.2.4.5.5.5.5.C.C.C.C.C.D.D.D.D.D.p.i.i.i.i.f.f.g.g.g.c.n.B.l.l.Y.l.Y.Y.B.n.B.oX7XiXOX$X7X$Xn._ d / / s s s s d d s.s.f.i.i.i.i.i.k.k.Z.Z.H.H.H.H.H.H.L.L.L.L.L.L.J.m.b..XiXhXqX*X+X+X<XlXSXhXhXhXhX9X9XyXqX9XeXeX*XqXdXaXqXqXqXeX9XiX'.+ o o O 4 4 4 4 O w w w w r w r p >.>.>.,.q.>.4.3.C 8.`.[.X.o.).|.,X0XyXjXwXwXyXCXLXmXmXFXKXFXBXGXGXAXGXHXKXKXxXDXm.1.5.4.4.h.V.V.V.V.V.V.C.C.C.F.H.n.v.d.z.c._ _ f.k.:.y w p u.h.i.y.i.i.s._ oX` z.S d d s i.:.>.a 4 4 f i.y.y.y.>.u.:.4.C.H.J.J.G.J.J.G.G.L.L.L.L.L.L.L.",
"/.X.X.O.......X.].OX_.7.9.G.H.F.I.F.F.v.v.n.H.J.H.L.L.L.Y.U.U.U.U.U.Y.Y.Y.Y.Y.Y.T.R.R.R.R.oXR.n.R.7XcXcXiX_.cXcXcXoXl.g.f.k.k.k.N.f.k.l.H.n.n.g.f.f._ _ _ f.l.Y.R.H.H.H.H.H.L.H.J.J.J.J.J.b.J.5XDXKXHXFXKXKXHXKXKXKXKXKXKXKXBXuXuXPXKXKXCXAXSX0XG G T : - T % . X * k e m V a e t t t t t f f a 1.5.3.v.7XDXPXMXyXaXNXHXZXCXnXuXuXvXFXKXKXKXHXKXmXCXHXCX>X(.J (.X.J H 7.j.C.C.A.A.A.K.K.K.S.L.L.L.W.W.W.W.W.T.P.P.J.J.m.n.c.c.c.B.d.e 4 y :.S.L.P.R.R.B.B.B.B.n.Z.U.R.R.S.4.y 4 4 D.Z.u.l.k.f.f.l.n.H.P.P.P.L.L.L.L.L.L.L.L.L.L.L.K.K.K.H.H.G.G.b.b.'.OXIXKXBXKXKXKXKXKXLXFXGXHXZXjXeXwXyXsXhXhXNXNXAX0XF ; e @ O O 5 4 w f f w w r r r r r r r r p :.h.4.4.4.5.3.z..X5XxXLXKXHXHXKXKXHXKXKXKXKXLXKXKXKXKXHXZXHXBXuXMX$XH B M 6.1.4.4.4.V.V.C.C.C.C.A.A.A.S.S.S.D.k.k.u.f.f.g.N.g.g.g.g.B.Y.l.Y.Z.k.N.Y.l.g.B.:XgX$X$X7XJ._ d s s :.:.s s ( u.f.f.f.f.f.k.k.k.k.Z.Z.Z.H.H.H.H.H.H.H.L.L.L.L.L.H.J.J.m.$XuXbX0X+X*X*XrXZXZXCXFXFXnXeXeXyXeXqXeXjX0XqXeXpXqX>X>XqXiX5XK @   o 4 4 4 4 4 4 w w w w r r r p >.>.>.>.,.>.4.3.C 7.`.OX).o.).|.,XrXaXkXwXwXyXnXnXIXuXvXKXFXmXZXGXAXAXHXKXFX7XDXJ.V 2.4.4.4.q.V.V.V.V.V.V.V.C.C.F.F.v.z.z.c.g._ s.f.:.y 4 4 4 i >.D.p.i.k.d c.M.` Z f u.u.u.;.i 4 o 3 >.y.t.y.y.y.u.h.h.H.H.J.J.G.G.G.G.L.L.L.L.H.L.L.L.",
"(.X.X.O...T E E ).OX%X9.9.v.F.F.K.F.F.F.G.J.J.P.L.L.L.L.Y.Y.Y.N.U.U.Y.B.c.c.B.R.R.R.R.R.R.R.R.R.Y.oX7XDXxX$XDXcX:Xl.( f.k.k.k.k.N.N.l.l.g.s.g.N.f.f._ _ f.g.H.P.P.J.G.H.H.H.L.H.H.H.F.J.G.b.oXxXJXKXLXFXKXKXHXKXKXKXKXKXKXKXKXHXKXJXKXHXHXHXjX].z E c - : T X X + * h h N V u w t r r t f f f f a 5.5.3.oXvXJXMXyXyXjXSXSXZXCXhXuXvXmXLXLXFXCXBXKXHXHXCX9X).W (.X.J H 7.5.C.C.A.A.A.K.K.K.K.K.L.L.W.W.W.W.W.Q.P.P.J.G.m.n.n.c.n.m.z.i 4 3 8 ;.C.!.T.m.B.B.B.B.l.Z.L.L.D.>.8 3 1 8 L.Z.u.k.k.i.f.l.H.H.P.P.P.L.L.L.L.L.L.L.I.I.L.K.K.K.K.H.H.G.G.G.b.oX7XLXLXCXKXKXKXKXKXFXCXCXCXnXaXwXwXsXbXNXbXNXSXZX|.j k +   O O 5 e e f t w w r r r w r r r r p :.h.4.5.5.5.3.7.b.$XiXPXKXKXHXHXHXGXKXKXKXKXLXKXKXKXKXFXCXHXGXvXMXiXx.M m 1.1.4.4.h.V.V.V.C.C.C.A.C.A.A.A.C.Z.Z.l.k.g.g.c.c._ B.g.c.n.n.d.Y.R.k.k.U.N.l.B.oX7X%XoXoXd.d d s s u.u.d s s ( f.f.f.f.f.f.k.k.l.Z.H.H.H.H.H.H.H.H.H.L.L.L.L.L.H.J.b.m.$XMXbX>X*X*X*XaXHXCXCXKXFXnXsXhXyXeXaXaXVXjXeX0X0X>X=X=XwXuXOXk     o 5 5 4 4 4 w w w w w r r r p >.>.>.>.:.>.4.4.3.7.'.OX|.).O.].,XaXkXyXyXsXhXbXvXbXmXFXLXFXmXBXBXSXAXHXCXMX9XDXoXV 1.4.4.4.q.q.V.V.V.V.D.V.V.C.C.C.v.n._ _ f.f.f.l.h.:.4 o o 4 i >.,.D.k.s.d.oX_ d f u.u.>.8 3 1 1 4 u.y.^ t.y.y.u.h.C.H.H.J.G.G.G.G.G.I.L.L.H.H.L.L.L.",
"(.X.X.....T E E (.OXOXb.7.v.j.C.A.A.K.H.H.H.J.P.L.L.L.L.L.Y.Y.Y.Y.Y.B.B.c.c.c.B.B.Y.Y.R.R.Y.R.R.R.n.$XxXcX9XcX7XB.f.i.a.i.k.k.k.i.k.N.l.f.s.g.g.f._ _ f.l.H.J.P.J.J.J.J.P.L.H.H.H.H.F.J.G.b.oXcXJXKXHXHXKXHXHXKXKXKXKXKXKXKXKXFXKXLXKXHXHXHXyXE b b l - c : . X ; e h N N a i w t t t t f f f f >.5.5.3.b.iXLXCXsXaXjXSXCXHXHXnXMXmXCXFXFXmXbXbXHXBXnXnX0X[.X.X.X.W J 7.9.5.C.A.C.A.K.K.K.K.L.L.W.L.W.W.W.W.Q.P.P.P.J.G.n.n.n.n.m.m.6.4 1 1 8 ;.5.F.J.B.B.B.Y.N.Y.Z.>.y 4 1 3 3 ;.W.A.h.k.i.i.k.n.H.H.H.R.P.L.L.L.L.L.P.I.P.I.I.L.L.L.K.K.H.H.G.J.J.iXcXJXLXHXKXKXKXKXKXKXCXBXjXjXhXrXrXaXhXbXsXjXAXzX(.j ; O O + 5 w e t e w w w r r r r r r r r p s :.2.4.5.5.3.3.z.XX7XMXHXKXHXHXCXnXBXJXKXKXKXKXKXLXKXCXNXCXBXGXDXiX.XB B V 1.:.4.V.V.V.V.V.V.V.A.A.C.K.K.K.H.H.H.n.c.c.c.` _ B.c.B.g.2.u h.Z.Z.U.N.N.N.B.B.m.z.x.z.Z d u.s :.u.:.f w r d f.f.f.f.s.s.f.f.j.H.H.H.H.H.H.H.H.L.L.L.L.L.I.I.G.G.v._.5XMXsX=X*X-X*XdXHXCXCXKXmXnXhXnXyXeXjXaXBXbXdXeX0X=X=X>XqXtX/.@   o O 5 5 4 4 4 w w w w r r r p p s >.>.:.:.:.4.2.3.A 8.OX+X].O.o.@XrXkXkXhXNXBXbXMXFXKXKXLXFXMXsXdXjXZXHXCXbXuXDX8X3.1.4.4.4.4.q.q.V.V.V.D.D.V.V.C.C.C.j._ _ f.f.k.k.C.C.y 3 1 3 3 4 <.V.h.l.d.B.g.t ( :.s 8 1 1 1 3 y i.^ ^ ^ / ( u.l.Z.H.H.H.H.I.P.I.I.L.H.H.H.H.H.H.H.",
").X.X.O.....E ..o.+X$X_.v.v.j.C.A.K.L.L.F.F.F.L.L.L.L.L.L.H.Y.Y.Y.l.l.c.B.B.c._ B.Y.R.U.R.R.T.R.R.g.oXoX7X7XxXM.l.N.k.a.a.U.k.i.s u.k.l.l.B.N.f.f._ _ g.n.J.J.G.F.G.P.P.L.H.H.H.L.H.F.J.J.m.5XDXJXKXKXHXKXHXFXKXKXKXKXKXKXKXKXFXKXJXKXKXCXZX>Xb E z : l E % . + e e h N N t y r t t f f f f f a :.1.5.3.7.5XDXLXbXsXjXSXSXHXKXCXKXKXLXFXFXCXmXbXbXyXyXhXeX+X(.W X.X.8.7.9.5.C.A.C.A.K.K.K.K.K.L.W.L.W.W.W.L.W.W.!.P.H.G.n.n.n.c.m.m.3.9 3 1 2 3 9 5.oXT.n.l.Y.Y.L.>.8 3 1 3 3 3 q.S.h.i.k.i.i.N.Y.J.J.H.P.P.L.L.L.L.L.P.I.P.I.I.L.L.K.K.L.H.G.G.b..XcXDXJXLXKXLXKXKXKXKXKXHXnXhXBXjXyXeXtXaXtX0XaXAX0XX.j +   O 5 5 4 e u w O w w r r r r r r r r p s :.2.4.5.5.j.5.7.J.5XgXLXKXHXGXBXbXmXLXKXKXJXKXJXKXKXKXZXZXsXKXLXxXoXC A V >.>.4.V.V.V.V.V.V.V.C.A.C.K.K.F.F.H.H.J.B.B.c._ _ c._ c.n.Z 4 w >.S.~.Z.k.Z.N.g.c._ _ _ S _ s.s :.>.a 4 O w s l.f.f.f.f.f.g.l.H.F.F.H.H.H.H.H.H.H.H.H.H.L.L.I.J.J.b..X7XbXaX=X*X-X*XkXKXFXFXKXbXbXjXCXeXeXjXwXbXaXjXdXqX>X0XeXeXiXH   o O O e 4 4 4 w w w w w r r r r r y >.:.:.>.h.4.4.3.C 7.%X}.[.).).}.,XkXAXnXHXKXmXMXmXPXMXLXFXMXwX0XaXBXHXKXmXcXJXDXJ.6.4.4.4.4.q.q.q.V.V.D.D.V.V.C.C.C.j.s._ f.f.f.f.j.F.w.9 1 1 2 2 7 ;.4.H.3.d.n.a s.f 4 3 2 2 1 3 y :.^ ^ ^ / ( s.l.H.H.H.L.H.L.P.P.L.L.H.H.H.H.H.H.H.",
"}.X.W o.O.O.o.Q o.].[.OX.X3.5.F.C.C.K.K.H.H.H.L.L.L.L.L.P.P.L.H.H.H.n.n.c.c.B.N.g.( l.R.R.Z.L.L.Y.R.R.c.%XB.B._ N.k.a.a.D.D.>.i w :.k.k.k.g.f.f.s.g.l.Y.H.H.J.J.J.J.H.H.L.L.L.L.K.P.F.G.J.J.7XJXKXKXKXKXKXKXKXKXKXKXKXHXFXFXFXCXLXLXLXKXGXVXo.b T c : - - + @ + e e N N u t w r t f f p f f s s f f 2.v.7.XXMXLXCXnXNXAXAXZXBXGXGXCXmXBXCXhXyXCX0X#X#XeXeX+X/.J X.X.8.H 3.5.C.C.C.A.A.K.K.K.K.L.L.L.L.L.L.L.W.W.L.Q.!.L.H.n.n.c.c.B.v.i 1 2 3 1 1 9 3.J.P.l.Z.Q.q.8 2 7 7 7 6 8 D.i.i.i.i.u.k.Y.H.J.J.P.P.P.L.L.L.L.L.L.L.I.I.L.L.L.H.F.F.F.G.G.J.oXcXDXLXKXBXKXLXKXKXKXKXKXKXFXHXHXBXbXsX9X=X0XdXSX@XJ k O O O 5 4 w t w w w w w w w r r r r r p p s u.h.h.5.j.j.5.j.G.oXiXPXKXGXZXHXFXvXMXJXJXJXKXKXKXKXKXGXZXsXKXLXKXoXC V V :.>.4.4.4.4.V.V.C.C.C.A.C.A.C.C.K.L.K.C.j.l.l.g.g.B._ _ Y.j.i o 3 y q.A.W.L.H.l.g.g._ _ ) ( u.2.>.y 4 o o y h.k.u.i.i.u.s.f.n.H.H.H.H.H.H.H.H.H.H.H.H.H.H.H.H.H.b._.oXwXZXfX*X-X*X>XbXGXMXFXKXMXvXbXuXqX,X=X0XBXbXaXnXtXaX9X0XuX5X5 o o 4 5 4 4 O O w w w w w r r r r p p s >.i.i.V.4.4.5.3.3._.$X@X}.(.].*XaXHXCXLXKXKXKXFXnXhXLXPXMXuXwX9XtXbXKXKXPXiXDX5XV 6.4.4.4.4.q.q.V.V.V.V.V.V.C.C.C.C.l.l.l.g.g.g.j.j.F.9 3 2 2 6 7 7 8 w.I.9.b.C m 4 1 2 2 6 2 3 >.:.^ ^ ^ s d s.H.P.G.G.H.H.H.H.L.L.H.H.H.H.H.H.H.H.",
" XX.W o.X.O.o.Q ..).[.OX.X9.v.F.F.F.F.H.H.L.L.L.L.L.P.P.P.P.P.P.J.n.n.n.n.n.N.N.N.f w i h.L.!.!.Y.Y.Y.B.c._ _ _ f.N.U.D.p.<.y 4 y u.Z.k.f.g.f.g.g.l.H.H.H.H.H.H.H.H.H.H.L.L.L.L.H.P.F.J.b.XXxXJXKXKXKXKXKXKXKXKXHXHXGXCXnXnXCXCXFXJXLXKXZXpXQ b Q : # .     + h e u N N u t r t f p p p f f f s f w a v.9._.iXKXCXjXkXnXZXGXGXGXKXFXnXnXbXwXwXCXyX>X,XwXwX+XX.J X.X.` H 3.3.j.C.C.A.A.A.K.K.K.L.L.L.L.L.L.L.W.W.L.Q.!.L.H.n.n.c.c.B.n.i 3 2 7 2 o 3 i 3.P.T.L.q.9 6 7 7 7 7 8 <.p.i./ i.i.u.l.Y.P.J.P.P.P.P.P.P.L.L.L.L.L.H.H.H.H.L.F.F.F.G.G.G._.$XMXLXLXKXBXGXGXKXKXKXKXKXKXKXKXKXHXBXvXwX0XaXlXlX[.D e O 5 4 5 4 e t w w w w r w w r r r r p p p s u.h.h.4.j.4.4.5.v.oX7XMXLXBXBXHXKXPXPXDXJXKXKXKXKXKXKXHXAXsXGXLXKX5X7.V V >.>.4.4.4.4.C.V.C.C.A.A.A.A.A.A.C.K.K.K.H.H.n.g.g.B._ g.B.n.a 3 1 3 8 ;.q.W.W.H.g.g._ _ ( _ 2.1.y 4 1 1 1 i h.k.i.i.i.i.f.l.n.H.H.H.H.H.H.H.H.H.H.H.H.H.H.H.H.H.b.'.OXeXlXfX*X*X-X<XjXCXMXLXKXmXIXMXuX9X9X=XqXBX9X>XsXtXtX=XiXIXXX5 o O 4 4 4 4 O O w w w w r r r r r p p p >.i.:.V.4.4.5.6.3.m.$X#XOX).].|.qXNXbXFXJXKXKXFXCXCXFXPXMXIXwX9XiXtXMXPXLXxXDXxXC 6.5.4.4.4.q.V.V.V.V.V.V.C.C.C.A.C.C.l.g.g.g.g.g.j.C.i 3 2 6 6 6 6 7 8 ;.XX7.C 9 o 2 6 6 7 2 8 1.:.^ ^ / / s.j.H.J.G.J.H.H.H.H.L.L.H.H.H.H.H.L.H.H.",
"|.o.E o.W W o.Q Q o.).OXXX9.F.F.C.C.K.H.K.K.L.L.L.L.L.P.P.P.P.P.H.n.n.n.n.l.l.l.N.d w O y >.A.W.T.Y.Y.R._ _ _ g.k.Z.D.p.y 4 4 4 a h.Z.l.l.g.f.s.g.n.H.H.P.H.H.H.J.H.H.H.H.H.H.H.H.J.G.J.b.$XDXJXJXKXKXLXGXKXKXKXHXHXLXCXnXnXBXFXFXKXKXHXNX=Xb T T - # X     + k e h N N t t r f p p p p p f s s f w a v.v.9.5XJXFXhXgXjXCXHXGXKXKXFXnXmXbX9XwXCXyXwX9XwX0X@X).` X.X.x.H 7.3.5.C.C.A.A.A.A.K.K.L.L.L.L.L.L.L.L.L.W.Q.!.P.H.n.c.c.c.B.H.;.3 2 7 2 1 1 3 i v.4XF.i 3 2 7 7 7 7 8 >.p.i.y.i.i.f.l.L.P.P.P.P.P.P.P.L.L.L.L.L.L.H.H.H.L.H.H.F.F.G.G.G.b.$XDXJXKXGXCXKXKXKXKXLXKXKXKXKXKXKXKXGXnXeXwXjXZXfXX.j e O 5 4 4 4 u f t w w w r r r r r r p p p p s u.h.h.4.j.4.4.5.v.XX7XvXCXNXbXGXKXKXDXDXJXKXKXKXKXKXKXHXHXbXnXLXJXiX7.B V >.>.4.4.4.4.V.C.C.C.C.C.A.A.A.A.C.C.K.K.H.H.l.g._ c.g.c.n.n.2.4 1 1 2 7 ;.q.K.H.n.c._ _ _ d.1.i 3 1 1 1 4 >.Z.h.i.i.i.i.k.l.H.H.H.H.H.H.H.H.H.H.H.H.H.H.H.H.H.H.b.'.OXeXpX<X*X&X-X0XsXbXbXFXKXmXIXvXuX9X9X,XtXZX>X*XwXeXtX=X9XiXK O o 4 4 4 4 4 O 4 w w r r r r p r p p p p :.i.i.V.4.4.5.6.3.b.$X#XOX).].}.-XdXsXmXJXKXLXFXGXKXFXPXPXMXyX9X9X9XuXIXKXDXDXJX9.V 4.4.4.4.q.V.V.V.V.V.V.C.V.A.C.C.C.l.g.g.g.g.g.d.j.1.8 2 6 6 6 6 2 1 4 P.v.u 3 o 2 2 6 7 2 8 4.u.^ ^ ^ / s.l.H.J.G.J.H.H.L.L.L.L.H.H.H.L.L.H.H.H.",
"*Xo.W o.W W o.Q Q o.o.}..X9.F.C.C.C.K.K.K.K.K.L.L.L.L.L.L.P.P.P.H.n.n.n.l.l.l.l.l.Z.a 4 3 4 y 4.L.R.T.R.S _ B.g.Z.h.>.y 4 4 4 4 >.V.Z.l.g.g.s.g.n.H.H.P.H.H.J.J.J.H.H.H.H.H.H.H.H.G.G.m.b.7XJXJXFXLXLXFXFXLXKXKXKXHXFXCXnXbXnXCXmXKXKXKXNX|.c T c ; : : X + k e h m N u t t t f p p p p p p s s s f :.v.G.0.XXMXLXnXhXjXCXGXKXGXBXmXmXCXbX9X9XhXwX0X>X0XeXwXOXX.X.X.x.H 7.3.5.C.C.A.A.S.A.K.L.L.L.W.L.L.L.L.L.L.W.Q.T.P.J.n.M.c.c.B.H.1.8 6 7 6 2 3 o 3 u 9.1.3 3 7 6 6 7 7 8 ,.p.i.i.i.i.k.Z.R.P.P.P.P.P.P.P.P.L.L.L.L.L.H.H.H.H.H.H.F.F.G.G.b.b.5XDXKXKXKXGXKXKXKXKXKXKXKXLXFXFXKXHXGXnXeX0XaXSX*XG k 5 O O 4 4 5 u a t w w w r r r r r p p p p p p :.h.h.j.j.V.V.5.v..X7XgXCXNXdXNXKXKXPXDXKXKXKXKXKXKXKXHXHXBXbXLXJXcXb.B u >.>.>.4.4.4.V.V.V.V.V.V.A.A.A.A.C.C.C.C.H.H.j._ _ c.c.c.g.n.v.i 3 2 2 2 6 8 w.I.J.c._ S 7.9.M 3 1 1 1 1 y 5.Z.u.f.i.u.i.k.Y.H.H.H.K.K.L.L.H.H.H.H.H.H.H.H.H.H.H.b.b.#XeX<X*X&X X*X<XaXyXuXMXFXmXuXMXuX9X9X0XdXHXdX=X=X0XuX9X9X$Xe o o 4 4 4 4 4 4 w w w w r r r r p p p p p >.i.h.q.4.5.5.3.3.7.$X#X@X`.).[.=XaXhXmXFXLXFXCXGXHXLXLXLXPXvXwX9X9X9XwXJXDXJXJX5XV 1.4.4.4.q.V.V.V.V.V.V.V.V.A.A.A.C.j.l.g.g.g.d.d.j.5.9 2 6 7 6 6 2 2 3 a P.4 o 1 2 2 6 6 2 8 :.u.^ ^ ^ / ( j.n.J.G.J.H.H.H.L.L.L.H.H.H.L.L.L.H.H.",
"1Xo.E o.W W o.Q Q o.X.`._.7.v.C.C.C.C.K.K.K.K.L.L.L.L.L.L.P.P.L.H.n.n.g.g.l.N.N.l.Z.>.4 4 4 8 8 4.C.T.oXZ z.n.j.L.>.y 8 4 3 4 4 4.Z.Z.l.l.g.g.g.H.H.P.P.L.P.J.J.J.H.H.H.H.H.H.H.G.v.J.b._.iXKXFXPXFXLXFXLXKXKXKXKXFXCXCXmXbXhXvXvXKXKXKXjX).b T c > : : % + k k h N N f t t t f p p s p s s s s s :.4.j.G.9..XiXJXFXCXCXCXFXGXGXbXbXbXmXhX9X#XwX,X,X>XwXjXhX@XX.W X./.8.7.3.5.q.C.A.A.A.A.A.K.L.W.W.W.L.L.L.L.L.P.L.P.P.J.m.M.M.c.c.H.5.8 6 6 6 6 2 o o i 6.i o 3 7 7 6 7 7 8 V.i.i.i.i.i.l.H.P.P.P.P.P.P.P.P.P.L.L.L.L.L.H.H.H.H.K.K.G.G.G.G.b._.7XDXKXKXHXKXKXKXKXKXKXKXLXFXPXmXCXCXCXBXtX0XqXlX[.v k + O O 5 5 e u f w w w w w r r r r r p p p p p :.h.h.j.j.C.C.5.v.J.$XuXnXNXaXhXGXFXmXJXKXKXKXKXKXKXKXHXHXHXnXKXJXJX%XM u >.>.>.4.4.q.q.V.V.V.V.V.V.C.A.A.K.F.C.C.C.F.j.d._ c.c.c.d.n.H.a 1 2 2 2 2 2 9 w.XXb.z.H 3.M 0 1 2 2 2 3 ;.C.Z.s.f.( u.f.N.Y.L.L.K.K.L.L.L.L.S.L.L.L.H.H.H.H.H.G.b.'.#XwX=X&X&X|.*X0XyXuXuXMXnXmXuXIXuX9X9XeXsXGXBX0X=X9XyX9XuX`.+ o o 4 4 w 4 4 w w w w w r r r r p p p p p s :.V.4.q.q.5.5.3.3.oX5X#X}.).].*XeXnXmXDXFXLXLXGXGXKXKXLXFXnXsXwXwX#X9XMXcXJXDXcX3.>.4.4.q.4.q.V.V.V.V.V.V.C.A.A.A.C.j.j.j.g.d.d.g.d.j.i 3 2 6 6 6 2 3 4 y Z.w o 3 2 2 6 6 2 y >.y.^ ^ / / ( s.n.J.J.J.H.H.H.H.H.H.L.L.L.L.H.L.H.H.",
"rX].E o.X.W o.Q Q o.X.`.'.7.9.C.C.C.C.K.K.K.K.K.L.L.L.L.L.P.P.L.Y.n.n.l.g.l.l.N.Z.S.4.y 8 8 8 8 8 y C.oXn.d.n.H.>.y 4 8 8 8 4 4 4.Z.Z.j.l.g.d.n.H.H.P.P.L.L.P.P.L.H.L.H.H.H.H.H.G.v.m.x.%XcXKXFXmXFXKXKXKXKXKXKXKXFXCXFXmXhXyXvXvXFXKXGXqXW T R : > : : % % k k h N N t t t f s p p s s s s s s s :.4.5.F.9..X5XJXJXLXCXCXCXBXmXBXFXCXbXhXwX0XuX9XwXeXhXCXnX#XX.J X./.8.H 3.5.5.C.A.A.A.A.A.K.K.E.W.W.L.L.L.L.L.P.L.P.P.J.m.M.M.c.B.H.C.-.6 6 6 6 2 1 4 1.5.i 3 1 2 6 6 7 7 y D.i.i.i.( f.l.H.P.P.P.P.P.P.P.P.P.I.P.I.J.H.H.H.H.K.K.I.G.G.G.b.m..XiXDXKXKXLXKXKXKXKXKXKXKXFXFXLXnXmXmXCXCXsXqXeX<Xo.v k O O O 5 e e e t w w w r w r r r r r p p p p p s s.j.j.j.C.C.5.9.b.$X9XsXNXaXdXNXnXmXKXKXKXKXKXKXKXKXHXHXKXCXKXJXJX$XM m >.>.4.4.4.4.4.V.C.V.V.C.C.C.C.C.F.F.F.C.F.H.n.l.g.c.c.c.z.z.n.3.3 2 2 6 6 2 2 8 9.b.m.7.u 0 1 2 2 2 2 4 1.H.l.f.u.( i.k.N.Y.L.L.K.K.L.L.S.S.S.L.K.K.H.H.H.K.I.G.b.`.#X>X*X&X&X|.-XeXsXuXMXMXbXnXiXuXtX9XqXwXaXNXsX0X9X9XwX9XvX`.O o O 4 4 i w w w w w w w r r r r p p p p p p >.V.4.q.C.5.5.5.3..X7X9X+X).].+X0XnXmXPXJXKXKXHXHXKXKXFXPXnXhXyXtX9XuXuXuXJXiXJXb.;.>.4.4.4.q.V.q.V.V.V.C.C.C.C.C.C.v.j.d.g.d._ _ d.j.1.8 2 6 6 6 2 3 8 h.:.s y 3 7 2 6 6 2 ;.>.y.^ ^ / / u.g.n.J.G.H.H.H.J.J.J.J.I.H.L.H.H.J.J.J.",
"pX].X.o.X.W X.Q Q ..o.`.'.7.9.v.C.C.C.C.K.K.K.K.L.L.L.L.L.P.P.L.H.Y.n.n.l.l.l.l.Z.L.S.>.8 7 8 =.2 3 i 5.P.J.H.C.4 3 3 8 8 8 8 y V.Z.l.j.g.d.d.j.H.L.L.L.L.L.L.P.L.L.L.L.L.L.K.H.H.v.J.b.$XMXDXFXMXFXKXKXKXKXKXKXKXHXFXFXbXwXtXbXFXFXKXBX=XF E c - > , : ; ; k k m N f t t f p p p p p s s s s s s :.:.5.F.9..X5XDXLXPXmXnXCXmXbXBXKXKXCXCXmXbXmXhXnXnXCXCXyX@X(.G X./.8.H 3.3.5.C.A.A.A.A.A.K.K.E.E.L.L.L.L.L.L.P.P.J.J.m.M.M.M.c.c.H.F.;.7 6 6 6 7 9 1.C.F.2.;.8 2 2 7 6 8 y S.i.i.i.( f.Y.R.P.P.P.P.P.P.P.P.P.P.J.J.J.J.H.G.G.G.G.G.G.G.G.b.m.oXxXDXKXKXLXKXLXKXKXKXKXFXbXPXKXFXLXCXBXBXaXwXaX-XG j + O 4 4 e e e e t w w w w r r r r r r r r p p p s 2.j.C.j.C.C.j.7.b.%X5XwXjXaXdXNXNXFXKXKXKXKXKXKXKXHXGXCXKXHXLXJXDX7XB m V >.1.2.4.4.5.5.C.C.C.C.C.C.C.C.v.F.F.F.F.H.H.n.n.B._ c.c.d.z.v.9 3 2 6 7 6 2 1 i 5.F.V 4 1 2 2 6 6 2 8 4.Z.f.f.( ( u.k.Z.H.L.K.K.K.K.L.L.L.L.L.K.K.H.H.I.G.G.G.b.OX#X@X*X|.|.*X0XdXsXtXnXPXbXbXiXuXtX9XqXwXeXsXeX0X9X9XiXiXmX'.O o 4 4 4 i y w w w w r r r r r p p p p p p s :.D.4.q.C.5.5.v.3.m.7XuX#X[.).}.=XnXmXFXJXLXFXGXGXLXPXmXnXbXyXwX0XwXwXuXuXDXiXJXoXa 1.4.4.4.5.q.4.C.C.C.C.C.C.C.C.F.v.j.d.d._ _ _ _ d.5.i 7 6 7 6 7 y >.D.s u.:.y 7 2 6 2 2 <.>.t.^ ^ / ( f.l.H.H.G.G.G.H.G.G.G.G.G.G.G.G.G.J.G.J.",
"lX}.X.o.X.W ..Q T ..o.[.'.7.9.v.C.C.C.C.K.K.K.K.L.L.L.L.L.P.P.L.H.Y.Y.Y.N.l.l.l.Z.Z.A.>.8 7 =.8 8 8 4 8 F.T.F.i 4 3 8 8 7 3 8 ;.V.Z.k.h.g.f.d.j.H.L.L.L.L.L.L.L.L.L.L.L.L.L.K.L.H.F.G.b.$XDXPXFXuXmXKXKXKXKXKXKXLXFXFXmXtX9X9XbXKXLXKXnX+Xb Q c - , , - ; ; k j N N u t t f p p p p p s s s ^ y.:.s :.C.F.9.G.5XDXPXMXhXbXPXmXIXyXGXKXLXKXKXKXGXFXHXHXGXnXwXOX(.G X./.J H A 3.5.C.C.C.C.A.K.K.K.K.K.L.L.L.L.L.P.P.J.G.J.m.M.x.M.c.c.n.F.;.8 7 7 6 8 ;.C.C.4.4.C.w.8 2 7 8 8 y Z.i.i.i.( f.Y.T.P.P.P.P.P.P.P.P.P.J.J.J.J.J.J.G.G.G.G.G.G.G.b.b.b.$XcXDXKXKXFXKXCXKXKXKXLXMXuXbXLXKXKXGXBXhXwX0XaX*Xb g + O 5 5 e e e e t w w w w r r r r r r r r p r p s 2.j.C.j.C.F.v.9.b.%X#XqXjXdXjXBXBXGXKXLXKXJXLXHXGXFXBXnXKXKXFXKXDXiXB B N V 1.2.3.3.5.5.5.5.5.5.9.v.v.v.v.v.F.F.F.F.v.v.m.m.` c.M._ d.G.i 3 2 6 7 6 6 7 3 a 2.w o 3 6 2 6 6 2 8 4.l.( ( ( ( f.l.Z.H.L.K.L.K.L.L.L.L.L.L.K.H.H.H.G.G.G.G.b.OXOX}.|. X X*XaXbXtXwXmXFXvXsXtXIXyX9X9XwXwXtXsXwX,X9XtXIXPXJ @ o 5 4 4 e y w w w w r r r r p p p p p p p s :.D.4.q.C.4.5.F.3.v.5XuX,X}.).}.@XhXmXLXJXPXbXnXBXPXMXvXhXsXwX>X,X@X+X#XwXIXcXJXiXu 1.5.6.6.5.5.5.5.5.5.j.v.F.F.F.v.v.v.d.d._ _ _ _ z.F.6.8 6 7 6 -.q.V.<.>.>.V.>.8 2 7 2 3 <.>.t.^ ^ / u.l.Y.n.v.G.G.G.G.G.G.G.G.G.G.G.G.G.J.G.G.",
"zX|.X.o.W E o.Q Q Q o.[.`.7.9.v.C.C.C.C.K.K.K.K.K.L.L.L.L.L.L.L.H.Y.Y.B.N.l.l.l.Z.Z.W.q.8 7 =.=.8 7 3 4 i F.5.4 3 3 7 2 8 8 8 >.Z.k.k.k.f.s.f.l.H.L.P.L.L.L.L.K.K.K.K.L.L.K.K.L.F.H.J.b.xXxXKXPXmXFXKXKXKXKXKXGXbXwXwXbXbXwX9XwXKXKXGXdXW E T l > c - ; - ; k B N N u e t f p p p p p p p ^ ^ s y.:.:.4.F.G.G.XX7XcXMXLXmXyXbXMXtXMXHXFXKXKXKXGXKXGXFXKXyX,X,X`.X.W W J H H 7.3.5.v.F.F.F.F.K.K.I.P.P.H.H.P.P.J.J.G.G.J.J.m.M.M.` c.m.v.1.8 7 7 8 ;.A.q.:.h.k.h.W.;.2 7 3 8 V.V.u.i.i.u.g.Y.T.P.P.P.F.T.XXG.J.J.J.G.J.b.b.b.b.b.J.G.b.b.b.b._..X7XcXJXKXKXFXKXKXCXKXKXHXhX9XwXLXKXKXCXhXwX,XwXpX].l g + O e e e e u u w w w w r r r r r r r p p p p p s 2.j.C.j.C.F.F.9.9.oX9X9XeXjXNXZXGXHXKXKXKXFXMXmXKXKXwXmXHXKXMXmXKX9XK h m m N C H 7.7.7.7.7.7.z.b.9.9.v.7.v.v.v.v.F.J.v.m.m.c.c.` z.c.v.6.3 2 2 6 6 2 2 y >.:.y 4 3 6 6 6 6 2 8 h.l.( ( u.( f.Z.H.H.L.H.L.K.K.L.L.K.L.L.K.F.H.G.J.J.G.b.oX$XOX(.o.{.*X=XaXsXGXLXvXMXIXUX9XyXUXtX=XqXbXaXsXwX9XtXMXuXvXD o O O 4 w w w w w w r r r r r p p p p p r p s i.V.V.V.q.q.5.5.5.C $XxXuX@X[.[.+XyXbXMXPXPXvXhXFXnXtXyXBXnXNXHXHXjX@X#X9XiXPXKXiXM 3.3.3.3.9.9.v.9.3.9.v.9.b.J.v.9.3.3.v.z.d._ _ _ _ d.6.8 2 6 6 -.q.,.,.<.,.V.;.8 7 6 2 8 >.p.t.t.^ y.u.f.l.n.n.G.G.v.v.b.m.G.G.G.J.G.G.b.b.G.J.",
"lX|.X.X.W E o.Q Q Q o.].).7.9.5.C.C.F.K.K.K.L.K.L.L.L.L.L.L.L.L.L.H.H.Y.N.l.l.l.Z.Z.L.A.;.8 8 8 7 -.3 8 4 4.i o 3 8 8 7 8 8 8 q.D.k.k.k.f.f.l.l.R.T.L.L.L.L.L.L.P.L.L.L.L.K.K.K.L.J.J.J.cXcXDXcXmXGXKXKXHXKXKXLXbXuXyXmXFXMXbXFXHXKXGXeXE b c - > , : l - ; j h N V u t f f p p p p p ^ ^ ^ ^ s y.u.:.4.F.F.G..X7XvXMXPXHXBXFXCXIXwXMXKXKXvXsXKXHXGXHXKXbXhXhXOXX.W W X.J K H C 9.v.v.v.v.v.F.G.F.F.F.J.J.J.m.b.J.G.J..X.Xm.M.` ` ` M.m.6.8 3 3 3 y q.D.h.:.u.Z.,.8 7 3 3 y V.k.i.f.f.s.l.Y.T.J.P.XXJ.J.J.m.J.m.m.m.m.b._._.'.b.9.b..X.Xb.8.'.oX7XvXDXKXKXJXKXKXKXKXFXPXnXyXyXmXCXCXgXyX0X=XqX0X).g j * + u e e e u t w w w w r r r r r r r r p p p p s s.Z.C.j.C.5.F.v.b.$XiX9XqXsXNXZXHXHXGXCXHX9X@X#XmXFXyXBXGXKXBXFXKXuX8.k K B B D H J x.x.'.'._._..X.X%XoXoXoXXXoX.Xv.G.v.m.m.c.z.` z.c.z.5.4 2 2 6 6 6 =.>.,.p.p.<.8 7 7 7 6 3 y j.l.( u.( f.l.H.H.H.H.H.K.K.K.K.F.F.F.F.H.H.G.v.b.b.G.b._.$X@X[.]. X*X1XdXbXKXLXuXuXtXUXqXtXtXsX9XqXsXhX0X>X=XwXMXuXiXk   O O 5 y w 4 w w w r r r r r p p p p p p p s u.V.V.V.q.q.C.j.5.3.oXiXuX@X).).}.,XnXFXvXvXMXsXwXsXvXtX#XOX0XlXVXAXyX9XuXwXvXMXMXK C C C H 7.x.x.b.8.x.'.b._..Xm.7.7.z.z.d.d._ _ _ _ z.5.9 2 6 6 7 y y ,.p.p.,.;.7 6 2 2 8 >.p.t.t./ y.u.l.n.n.m.J.J.J.J.m.b.b.b.b.b.b.b._..X_.b.",
"lX*XX.X.X.W o.Q Q Q Q ).'.H 7.5.C.C.F.F.K.K.K.H.L.H.L.L.L.L.L.L.L.H.H.H.B.N.l.l.Y.Z.L.S.;.8 7 7 7 -.7 8 4 4.a 4 4 3 7 7 8 8 8 V.k.k.k.k.f.f.l.H.H.L.L.K.H.H.H.H.H.K.K.L.K.K.K.K.F.F.G..XcXxXDXDXCXHXKXHXHXHXGXFXFXmXBXLXKXLXLXKXKXKXBX,XE b b : > : l : X + D m N V f t f s p p p p p ^ ^ ^ ^ ^ :.y.:.h.F.G.G..X5XDXPXvXCXMXbXBXtXuXvXmXMXbXMXFXHXKXHXFXhXbXyX}.X.W W X.J H 8.8.7.9.9.v.b.b.b.G.oXG.b.m..X_..XoXXX.XJ..X.Xm.M.z.M.` M.J.v.y 4 4 3 4 8 >.p.h.:.>.8 2 7 3 4 i h.i.k.k.f.f.n.R.J.J.G.XXXXJ..XoX$XXX_._.'.'.`.`.`.'.`._.'.'._.OX7XxXiXLXJXKXKXKXKXmXKXHXbXbXmXhXhXCXBXgX0XwX>X=XqX<XX.g j e e u e u u u t w w w r w r r r r r r r p p p s s :.Z.H.C.K.5.F.G.b.$XuXiX9XtXnXZXHXHXFXmX9X}.OX=XyXbXuXMXKXKXKXGXKXMX`.+ k k k g D G J J J /.`.`.OXOX#X5XuXiXiXcX7Xb.G.J.m.n.c.c.` c.z.z.v.9 3 2 6 6 8 ,.,.>.i.p.p.<.7 7 6 6 7 i h.f.( ( u.k.l.H.H.G.G.J.P.J.J.G.J.J.J.G.G.m.b.b.b.b.b.b.$X#X}.).]. X*X=XdXNXKXPXiX9X9X9X9X9XBXBXsXqXeXaX0X9X9XwXvXvX9Xe   O 4 e i w w w w w r r r r p p p p p p p p s u.V.V.V.q.C.C.C.v.9..XiXvX#X).`.}.@XnXKXmXmXFXvXqX9XvXtX#X,XlXHXAXSXeX@X9X,X9X9XMX/.D K J J 8.'.'.'./.'.`._.`.OX%X7.7.7.3.3.d.g.c._ _ c.j.i 3 2 6 1 3 3 <.V.>.y 8 2 2 2 2 y >.t.t.t.y.u.h.l.H.J.m.b.v.b.b.b.m._.'._.'.'.'.'.x.8.7.",
"kX=Xo.X.o.W o.T T Q Q )./.H 7.3.9.C.F.F.F.F.F.F.H.H.L.L.L.L.L.L.L.L.H.Y.H.N.l.l.N.l.H.L.,.8 7 8 8 7 8 8 ;.h.Z.>.y 8 7 8 8 3 8 V.k.k.k.f.f.g.l.H.H.H.L.L.J.H.H.H.J.G.J.P.P.P.P.P.J.J.J.oXiX#XuXFXFXHXKXHXGXHXHXFXKXKXKXLXLXKXKXLXKXKXbX+XF b b l % : : ; X + B m N V f t f f p p s ^ ^ ^ ^ t.^ ^ s y.:.h.K.J.G..X.XDXDXgXhXtXtXbXIXFXKXmXmXKXKXbXbXbXyXhXhXmXmX,XX.E X.W F K /.%X`.%XoXoXOX$X$X5X$X$X5XiXiX7X$XoXoX.XG.b.m.b.m.M.M.M.M.m.n.V 4 3 3 3 1 4 y ,.i 3 3 2 7 1 4 :.k.i.k.f.f.g.H.oX.XJ.4X7X7XcXDXDXJXPXcXuXuXuXhXvXsXtX9X9X9XiXuXwXiX9X9XKXKXKXKXKXKXFXGXHXFXCXCXvXvXCXCXyX>XwX>X,XeX<XG g g e e u e u a a f w w w r r r r r r r r r p r p s s h.4X8X8XP.C.F.F.9.XXiXuX9XtXnXZXHXHXFXmX,XOX#X9X9XMXmXLXKXKXKXKXKXGXOX% + % k l v F G G D G W W W W /.X.X./.`.7X5X9.9.v.n.n.c.c.c.c.c.d.n.i 3 1 2 7 -.q.p.i.>.t.p.,.=.2 6 2 3 >.k.u.( u.s u.h.H.J.v.z.J.J.G.b.z.v.b.v.v.b.b.m..XXX.X_.'.iX@XX.b o.|.-X<XbXBXLXMXiX9XqXwX9X=XGXGXCXqX=XqXaXaXwX9XuXgX#X+   o O 4 w 4 O w w w r r r r p p p p p p p p s u.V.C.C.C.C.C.C.F.F.b.7XmX,X`.}.}.,XhXKXKXKXmXtXwX9X9X#X#XdXAXSXSXAXrX@XrX=XtXsXmXOX/./.).(.).+X}.[.[.[.OXOXOXOXOXiX7XoXm.z.d.d.g.g._ d.d.1.8 2 6 2 2 2 3 ;.8 7 2 2 2 1 3 <.y.t.t.y.y.u.k.Z.H.J.m.XXXX.Xm.b.x.x./.8.'.'./.K B B B ",
"<X*X(.X.X.E ..Q T Q Q (./.H 7.3.9.v.F.F.F.F.F.F.I.H.H.H.L.L.L.L.L.L.L.H.H.n.l.l.N.l.Z.S.4.8 3 8 8 7 8 <.V.u.D.h.q.;.8 8 8 4 y D.k.i.i.f.f.g.l.n.J.J.J.J.J.J.m.m.b.b.b.b.G.b.v.b.b.b.x.$XxX9XvXKXHXHXKXFXCXGXHXHXHXKXKXLXLXKXKXKXKXHXsX).F b b : . - : ; k e h h N V f f f f p p ^ ^ ^ t.^ ^ y.y.s y.:.h.K.I.G..Xb.cXPXuXvXhXsXsXPXMXLXKXFX9X#XwXmXMXuXbXFXCXmX0Xo.W W W v v X.`.`.OXOX$X$X$X#X#X#X5X#XOX[.OX#X#XXX.Xb.b.v.v.v.n.c.M.m.m.n.3.e o o 3 3 3 3 8 4 1 2 2 3 1 w h.k.k.k.f.s.l.J.R..XJ..XXX$XcXJXDXMXyX0X,X=X=X,X,X=X@X+X,XwXwX=X@XOXOX#XGXKXLXKXKXKXKXKXKXKXHXKXLXBXLXCXeX9XyXrXwXkX,Xb g k + e e e u V a t w w w r r r r r p r r r r p p s s h.R.4X4XP.F.F.F.3.b.7XuXiXuXmXFXGXHXHXFXmX9X#X`.OXhXLXLXHXLXKXKXKXKX9Xv g b W W W W W W ).).(.(.(.).).).(.(.`.#X$Xb.G.v.v.n.n.c.c.c.d.d.n.V 3 1 2 6 8 ,.V.p.i.p.p.,.-.6 6 2 8 4.k.u.( i.k.k.H.4X4XoXoXiXXX%X_.b.b.m.m.x.x.x._.$XiXxXxXxX7X}.G b o.*X<XpXZXGXPXuXwX9XwXaXqX#XBXCXCXtX0XeXdXnXyX9X9XuX`.+ O O O 4 w 4 O w w r r r r r p p p p p p p p u.V.C.C.C.C.C.C.C.F.G.9.5XPXwX}.}.}.,XhXLXFXPXsXqX9XyXwX#X@XkXAXSXSXpX,X<XkX=XwXnXhX,X`.[.+X[.OX=X@X=X=X=X9X9X,X=X9XmXgX5Xm.3.d.d.s.g.d._ d.5.i 3 2 2 2 7 2 ;.8 2 2 2 2 1 4 <.i.t.t.y.i.i.k.H.J.J.b.7.7.x.x.x.x.8.J J 8./.W K D D K ",
"@X@Xo.W W E Q Q Q Q E o./.K 3.6.v.v.F.F.F.G.G.G.G.H.H.H.L.H.H.L.L.L.L.H.Y.n.l.g.l.l.Z.H.4.y 3 8 8 =.<.E.D.i.i.V.W.4.8 8 4 4 >.S.k.k.i.f.f.g.n.m.J.G.G.b.b.x.x.b.x.8.8.x.b.b.b.b.b.x.8.#XJXCXZXHXHXHXHXCXmXCXHXHXKXKXKXKXKXKXKXKXHXHXhX(.F b b - X l - ; j h M C C A V f f s s s ^ ^ t.t.^ ^ y.y./ u.u.2.F.G.G.b._.cXcXuXnXnXsXwXmXIXmXLX9X).`.uXFXmXyXCXHXbXwX@Xo.E E E z g v W (.(.`.[.[.[.).).(.[.}.].).}.[./.'.b.b.J.J.H.v.n.d.n.m.z.b.v.V 4 o 1 3 7 7 2 2 7 2 2 3 3 y i.k.i.k.f.f.n.J.J.m.m._.b.XXcXKXuX,X@X+X}.[.].[.{.].).].].].).(.).[.}.+XGXKXFXKXFXFXKXKXKXFXLXKXKXBXvXyX9XwXkXyXkXjX+Xv l k + e e e u V d f w w w r r r r r p r r r r p s s :.2.j.j.4.C.F.F.G.9.b.$XiXiXvXCXFXCXFXHXHXKXKXBXwXyXKXKXKXKXKXKXKXKXKXwXX.X.).].].).].[.[.}.[.).).].[.[.|.+X|.}.OX'.0.9.3.v.v.n.z.g.c.g.g.g.d.4 1 2 2 6 8 <.>.p.p.<.8 6 6 2 2 9 h.k.( ( u.s h.8XDXDXxX7X$X$X#X#X$XOX$X$XoX$XoX%XOX$XOXOX`.$X}.).).|.*X-XeXZXBXuX9X9X9X9XtXIX9XsXIXsXeXaXbXaXNXbXgXuXuXx.O O O w e i w 4 w w r r r r p p p p p p p p p u.D.C.A.A.A.A.C.C.C.F.9.oXcXyX@X}.}.}.gXFXvXvXmXsX0XtXnXsX=X,XpXpX<X].].<XdX=X#XtXtXFXsXhXNXsXbXGXGXNXBXnXNXBXhXtXhXyXwX$Xb.3.5.j.d.d._ g.n.v.6.9 2 1 2 7 6 -.-.7 2 2 2 3 y >.y.t.t.y.i.k.k.F.G.m.b.x._.OX$X7X7X#X@X+X+XOX+X+X@X@X+X",
"=X=X(.E W E Q Q R T T X./.K H 6.v.v.F.F.F.F.G.G.G.G.H.H.H.H.H.L.L.L.L.H.H.n.l.g.N.N.l.Z.Z.y 4 8 7 =.<.D.D.k.D.D.4.i 4 4 3 4 >.Z.k.i.f.f.f.g.n.m.J..X.XoXoX%X.X`.`.`.`.OX$X$X$X5X#X$X%X9XGXNXkXlXHXGXCXnXbXmXHXKXKXKXKXKXKXLXKXKXHXHXrXJ b b b - : l ; % k h H 3.A A V f f s s s ^ ^ t.t.t.t.t.t.y.y.:.:.j.F.G.b..XxXMXhXhXhXhXqXFXKXKXMX9X9XIXKXuXvXtXbXHXCXyX=X).E E E b z F W (.).].[.[.[.[.[.+X+X}.].].}.[.).8.8.b.J.G.F.v.n.g.n.n.z.n.J.9.u 4 3 1 2 7 9 9 7 2 2 3 y :.i.i.u.k.f.f.n.J.m.m.m._.'.%XgXMX#XOX+X@X+X|.|.|.|.|.{.|.|.|.|.+X+X[.(.#XHXKXGXKXMXIXPXKXKXFXCXHXCXhXgXwX9XwXhXrXdXjX].g l k + e e u u a d a r w w r r r r p p r r r p p p s h.Z.Z.F.F.q.K.F.F.F.b.oXiXiXIXFXFXmXmXFXHXtXsXbXuXnXFXuXMXKXLXHXKXKXGXaX@X+X*X*X|.|.@X*X*X>X=X=X=X=X+X+X*X1X*X}.[.'.0.G.b.v.v.z.g.g.g.g.g._ n.u 3 1 1 2 3 4 y >.>.8 1 2 2 2 3 y h.u./ / / u.h.T.4XXX5XgX:XOX#X9X,X#X9X7X#X:X$X#X7X9X7X7X9X#X#X=X,X<X1X>XpXnXMXiX5X9X9X9XdXBXIXqXaXUX>XaXdXaXnXbXbXIXIXx.O   O 4 w y w 4 4 w w r r p p p p p p p p p p u.Z.C.A.A.A.A.C.C.C.F.9..XiXbX,X}.}.[.wXmXMXPXLXBXbXyXBXBX>X}.[.].o.].|.pXrXjX=XwXnXyXyXsXsXsXsXVXGXKXKXGXHXKXnXyXCXAXAXxXoX5.5.j.s.s._ g.n.v.9.w.9 3 2 2 6 7 -.7 2 2 2 8 <.>.y.t.t.y.i.D.Z.F.F.b.b..XoX$X$X#X@X+XOX+X}.}.}.}.+X}.[.",
"rXrX).G W W Q T R R b W X.K H 7.9.9.v.v.v.v.v.b.G.G.G.G.J.J.J.J.J.I.J.J.H.n.l.g.N.N.l.Z.Z.>.4 4 8 7 -.y V.i.S.4.8 4 3 4 4 4 :.k.k.k.f.f.g.n.m.J.oXoX5XiXxXiX9X9X@X+X+X@X#X#X#X5X#X,X@X0XjXkXlXHXHXLXnXhXsXbXFXKXKXKXKXKXKXLXKXKXHXCX,Xv g z b : n ; % k k m 7.V A A V f f s s s ^ t.t.t.t.t.t.t./ / s a 4.F.F.b.x.iXDXPXyXyXCXBXCXKXKXFXFXKXKXmXbXKXnXbXGXHXbX,X}.X.G E E W (.].(.).].[.[.|.|.+X}.}.|.|.*X|.X.K H 7.v.v.F.j.C.H.n.n.n.n.n.J.m.v.i 9 3 o 2 9 9 2 3 8 4 >.Z.h.k.u.f.s.d.H.J.J.m.J.m._.oXiXgX#X#X,X@X@X@X&X&X&X&X|.|.@X*X|.|.+X@X=X=XGXGXGXKXnXuXBXCXKXKXGXmXgXgXnXyXwXeXeX,XeXdX(.- l ; + e e u u f d d f w w r r r r p p p r r p / s s h.Z.j.j.C.C.L.C.5.F.b..XiX9XIXFXFXbXMXmXLXKXsX#X#XnXKXMXKXbXsXbXGXKXGXNXjXkXjXdXqXqXpXrX>X].[.@XeXaX0X0XdXzX2X*X@X'.K 7.3.v.v.z.d.g.g.g.g._ B.V 4 3 1 2 2 1 y >.8 3 2 7 2 2 3 i h.u.( y./ u.Z.!.J.7.$XgX}.`.@XqXtXyXhXgXuXuXiXuXuXiX#X#X#X9X,X,X<XdXpXdXNXbXMXiX9XiXwXtXCXGXGXqXsX#X#X0X0XsXbXsXbXMXcXx.O O 5 e w i i w w w w r r r p p p p p p p p p :.h.C.A.A.A.A.A.C.C.F.9.J.iXFXwX}.}.+X,XhXLXKXMXIXFXKXBXGXZXrX>XrXpXpXaXaX<XHX,X=XCX9XyXsXtXtXdXBXGXGXKXGXGXKXbXuXnXnXAXcXoX9.3.5.2.d._ g.d.3.G.P.w.;.3 1 2 2 -.3 2 3 3 y p.y.y.y.t.i.p.Z.Z.F.F.b.b.z.x.x./.`.}.+X+X=X>X>X>X=X=X=X,X",
"lX,Xo.E X.W E E b T b l D G D D K 7.8.x.x.8.x.x.b.x.b.z.b._.b.b.v.b.G.J.m.n.c.n.B.g.l.Y.Y.:.y 4 7 8 8 8 =.q.q.8 8 3 4 4 4 y s.k.k.l.k.f.n.Y.m.m.b.b.%X7X9X@X}.+X+X+X@X+X}.[.}.[.`.OXOX0XkXjXAXAXNXnXnXnXnXCXHXKXKXKXKXHXFXKXKXKXLXLX+XF z b b : : ; + k h N 6.3.3.3.Z a f s s s ^ ^ t.t.t.t.t.y.s ( u.h.C.H.I.G..X$XDXKXbXFXHXGXLXKXKXGXCXLXKXKXKXLXbXmXKXHXuX9X}.(.X.(.`.}.OX+XOX+X@X#X*X*X@X@X+X|.{.*X].E G J m 3.F.F.C.C.H.C.v.n.n.n.n.m.m.m.J.7.u 4 O 4 4 o 4 i h.l.h.s.s.s.f.l.n.H.H.J.J.J..Xb.XXxXcXuXtXyXwXqX0X>X>X>X>X9XqX>X,X=X=X=X>X0X9XsXCXCXGXKXBXyXnXCXCXbXvXhXyXwX9X0XhXjXdXVXrXO.g ; * + e e u u a Z Z f r w r r p r p p p p p p p p y.h.Z.S.A.C.V.C.C.K.F.v.XXiXuXuXCXGXBXMXgXPXMXvXbXbXbXBXNXnXbXGXHXCXNXBXnXsXVXkXkXaX0XaXeX+X[.+XkXlX<XqXjX0XpXzXkX,XJ M 7.9.7.v.v.v.d.d.g.g._ n.v.u o 1 3 2 1 7 w.9 2 7 2 2 o y u.i.f.u.( k.u.Z.H.J.b.$XPX9X9X=X=XhXHXFXKXFXFXJXJXJXFXbXsXtXwXwXyXbXZXGXBXnXbXwX9X9XwXwXsXbXGXCXsXqX9X9X>XqXBXnXtX9XuXcXB O O 5 e w i y w w w w r r p p p p p p p p p >.u.D.V.A.A.A.A.D.D.A.S.q.F.8XJXwX}.}.}.,XnXKXLXMXvXnXBXnXnXNXBXnXjXnXyX#X9XsXwXwXhXyXuXbXMXhXIXsXnXKXKXKXLXFXLXKXLXMXbXmXPX5X7.6.v.j.3.d.d.d.d.g.v.n.G.9.i 4 4 9 4 o y <.i.p.i.>.y.i.D.Z.A.Z.C.F.F.J.x.x.` (.}.+X+X}.+X,X,X>XwXeXrXeX",
"aX,X).G G G F W F v - ; z F D F H H 8.8.8.8.8.x.x.8.x.x.x._._.OX$X$XoXXXm.v.d.g.c.B.l.l.Y.h.y 4 8 8 8 7 7 -.;.3 3 4 4 3 4 f k.h.l.l.f.f.n.H.J.J..X%XOX#X#X+X|.|.#X@X=X=X@X@X#X@X@X#X@XwXjXNXHXHXNXCXCXGXHXHXHXHXHXKXKXMXwXvXKXKXLXCX}.F n n b - : ; ; h m V 6.6.3.3.2.a a s s / ^ ^ t.t.t.t.t.y./ / u.h.Z.K.L.J.J.oXDXKXmXLXHXHXKXKXKXHXHXKXKXHXKXKXKXGXKXFXuX9XuXwXuXbXmXbXbXbXbXbXhXhXaXrX0X0XaX}.}.}.*Xv G H h 6.j.C.C.C.C.C.j.v.v.v.v.n.M.M.m.m.z.V N N e w f :.h.h.s.s.s.s.l.l.H.H.H.P.P.P.G.v.oXcXJXDXFXKXBXNXNXnXbXnXbXbXhXyXtXtXeXwXtXsXhXyXyXbXNXhXyXtXtXtXyXuXuXuXwX9X9X9XtXaXdXSX<XG l - ; * e u a a a V Z a y w w r p p p p p p p p p s i.k.Z.S.A.A.A.A.A.C.C.j.J.5X9XtXBXbXbXLXcXxXIXPXGXbXIXbXbXIXBXGXCXhXyXbXnXnXNXdXrX>X>XrXrX,XrXVXyXW l +XNX,X+XrXsX9XJ h 7.3.7.j.j.j.d.d.g.g.c.d.z.3.e o o 1 6 7 w.-.2 2 1 3 w :.k.h.s.u.d u.k.Y.H.H.v.$XPX9X@X*X=XbXKXLXKXKXKXKXKXKXKXKXGXCXbXbXnXCXHXHXFXBXFXbXyXtXwXwXwXwXBXNXsXqX9XqXwXbXGXVXsXtXgXiXm O 4 5 e w i f r w r w r r p p p p p p p p <.>.p.D.V.A.C.A.D.D.D.A.A.A.K.5XcXuX+X}.|.,XvXHXLXMXMXmXFXCXBXmXbXhXbXCXhXyXwX9XuXbXhXuXMXMXvXvXmXFXmXLXKXKXLXLXLXLXFXmXbXMXMX5X7.C 9.5.5.4.2.2.s.g.c.n.3.G..X9.e 4 w f >.y.p.i.y.>.i.p.C.C.C.S.C.S.F.G._.`.`.}.}.|.@X+X@X,X>XrXlXNXhXhX",
"lX<X].E W G F G X.X.W W ).).(.(.`._._.'.`.`.%X%X$XOX$X$XOXOX%X$XiXxX7XoXb.v.v.d.n.B.n.l.Z.Y.:.8 3 7 8 8 2 8 ;.4 3 4 4 O w h.Z.h.l.l.f.f.n.n.J.oXxXxXcXgXgXyXeXeX0X>X0XwX9XrXyXeXhXhXeXjXCXNXHXAXCXCXCXHXKXKXHXCXKXHXMXwX9XmXKXLXHXvX`.F G T n - - ; ; j B V 6.1.3.3.2.d s s s y.^ ^ t.t.t.t.t.t./ s u.h.Z.K.L.P.G.oXMXKXFXKXKXKXKXKXKXKXKXKXKXLXLXKXKXnXbXvXuXwXbXPXKXKXKXHXGXHXKXKXHXGXNXjXhXhXHX0X-X|.*Xv G K e V 5.j.j.C.C.C.C.v.v.v.v.z.z.n.z.m.J.m.m.v.d.Z j.h.h.s.s.s.s.s.l.n.H.H.J.P.J.I.J.b.oXcXJXJXKXKXKXKXHXHXHXHXKXKXHXZXCXCXCXBXBXCXHXhXwXeXyXyXyXsXqX0XwXwXwX9X9X9XwX9XwXyXjXSX,Xv l - ; * e u a V V V Z Z f w w r p p p p p p p p p y.i.D.A.A.A.A.A.A.A.C.C.j.b.oX#XuXGXbXbXKXMXiXiXPXGXbXIXBXCXbXBXnXsXtXsXNXBXnXjXaX<X,X>X>X,X,XaXlXjX+X(.#X<X[.].>XkX9XJ h C C 3.5.j.d.d.d.d.g.B._ z.m.3.5 3 1 o 1 -.9 2 1 1 8 >.i.h.i.s.u.u.s.k.Y.H.H.b.$XPX9X`.+X=XbXKXHXKXKXKXKXKXKXKXKXKXKXHXGXFXGXHXHXGXCXGXnXhXyXtXwXwXtXsXbXyXwXtXyXhXBXsXaXaXsXIXiXh O 4 5 e y i f r w w w r r r r p p p p p p <.u.D.D.V.C.C.D.D.D.D.A.V.A.F.XXiXuX@X[.}.,XhXHXHXmXMXCXCXFXHXCXbXyXbXCXbXbX9X,XnXCXhXCXmXmXMXMXKXKXFXLXKXLXFXKXLXmXMXmXbXvXgX$X7.C 9.5.5.4.2.2.2.d.g.n.J.b.J.J.G.2.a :.u.i.i.y.>.>.i.V.C.C.C.Z.C.K.F.G.m.OX@X}.}.|.+X+X+X*X,XeXSXSXhXeX",
"jX0X+X|.,X<X-X,X=XqXqX<XwXeX9X9XiXiX9X7X9XiXiX9X9X$X#XOX`.'./.OXiXxXiXoXb.v.n.d.l.n.n.g.n.R.h.i 4 8 8 8 3 8 ;.3 8 4 o 4 2.l.h.l.l.l.h.l.Y.n.J.5XDXDXKXHXZXAXSXlXaXeXsXsXeXaXNXBXHXHXnXSXZXNXHXSXHXCXnXnXCXGXFXCXHXCXvXwX9XsXGXFXKXgX(.b E T b - - % ; j B A 3.6.3.5.3.d d s s y.^ t.t.t.t.t.t.t.y.s :.Z.L.K.L.P.G.XXcXKXLXKXKXHXKXKXKXKXKXKXKXFXFXKXFXiX9XwXhXbXLXKXKXKXHXFXHXKXGXGXZXNXhXhXhXhXjXZXqX|.X.G J K e N 2.4.4.V.C.j.C.C.j.j.j.j.v.z.d.z.n.m.b.b.v.d.j.h.s.2.s.s.l.l.n.H.H.J.P.J.J.J.J.G.4XcXJXJXFXLXKXHXHXHXHXKXKXKXKXKXKXKXKXHXGXHXGXGXbX0X0XhXCXBXbXsXyXsXuXiX9XiXyXyXaXkXSXAX=Xz z g k * e u a V V V 2.s.d r r p r p p p p p p p s y.k.D.D.A.A.K.A.A.A.C.K.F.m.oX#XuXHXBXBXKXPXuXiXmXGXCXmXCXCXBXbXsXtXsXCXKXCXaXkXjXrX>X<X=X+X,XjX0XrXdXrX,X,X@X@XrXkX9XJ h C V 3.3.5.j.d.d.d.d.c.c.c.b.v.9.V 9 o o 9 4 1 3 4 i :.i.u.:.u.s.h.k.Z.Y.Z.H.b.$XgXOXW +X,XbXKXHXKXKXKXKXKXKXKXHXHXKXKXHXHXHXKXKXHXGXGXBXbXyXwXqXwXtX0XtXtXwXhXhXsXdXeXqXwXIXIX7Xe O 4 w e y i f f r w w r r p p p p p p p p >.p.D.V.C.C.A.D.D.D.A.A.V.A.F.XXxXvX#X[.}.,XhXKXKXFXPXLXCXFXKXHXCXnXbXmXbXwX,XyXGXnXbXKXmXKXKXLXKXFXFXKXKXFXFXKXLXMXMXFXnXuXuX5X9.C 3.5.j.j.4.4.2.d.d.v.m.v.b..XJ.j.2.2.u.u.:.:.:.i.p.D.C.C.C.Z.C.C.F.G.x.OX#X}.].}.+X+X@X@X@X0XSXNXeX>X",
"eXrX0XyXSXAXZXAXSXAXaX=XwXCXCXhXFXmXvXuXvXMXMXIX#X)./.J J J W OX#XiXiXoXb.J.J.v.l.l.n.n.Y.Y.l.j.y 4 3 4 3 8 i 4 4 3 4 a Z.j.s.l.l.h.j.H.R.H..X7XDXJXKXFXNXZXZXSXjXjXNXjXyXsXCXHXCXZXNXZXZXNXHXHXKXCXnXnXCXCXFXCXCXnXmXtXOXOXwXKXKXwXX.b E T b : : ; k j C 6.3.5.3.5.3.2.d s :.y.t.t.t.t.t.t.t.t.y.s :.Z.L.K.K.P.G..XxXKXJXKXHXHXKXKXKXKXKXLXFXFXmXKXMX9X9XyXBXKXKXKXKXKXLXHXKXKXHXHXGXnXsXsXsXaXwXbX-Xo.b G /.H e m 1.4.4.V.C.C.C.C.C.j.j.j.n.n.v.z.z.d.3.d.3.3.2.s.s.j.j.l.H.H.H.H.H.J.P.J.P.J.J.G.5XDXJXJXKXKXHXHXHXHXHXKXKXKXKXHXHXKXHXGXCXFXBXKXGXyXqXhXGXKXKXFXBXFXbXuXiXwXyXhXjXnXAXSX*Xv z g ; 5 e u a V 2.Z 2.d.2.f r p r p p p p p p p >.i.D.D.D.A.K.L.A.A.A.C.K.F.G.XX$XwXGXGXGXKXJXJXmXBXFXKXLXBXbXbXsXsXbXnXCXCXbXtXaXjXeX0X0X=X@X<XaX0X,X=X,XqXaXeX<X<X,XOXK h C V 3.3.j.j.j.d.d.d.d.c.c.z.z.m.b.3.M m u 4 O 4 a 2.V.u.u.:.u.h.k.k.Z.Y.Z.H.m.oX5XJ G +X=XsXKXLXLXKXKXKXKXKXKXKXHXHXKXKXKXKXKXKXKXHXKXKXFXbXyXwX9X9X9XwX9X9XyXyXwX0XeXqXaXbXgX$X+ O 4 w w y i i f f w r r p p p p p p p p p >.V.D.V.D.D.A.D.A.D.D.D.A.A.K.5XDXPX,X}.}.=XhXKXKXLXLXKXFXFXGXFXFXFXFXCXhX9XuXFXmXyXbXFXFXKXKXKXKXLXFXKXKXFXLXKXKXmXmXLXnXyXuX7Xb.C 3.5.j.j.j.j.j.j.j.j.d.v.v.m.v.d.2.s.:.:.:.y.i.h.V.D.C.C.C.Z.C.C.F.G.x.OX@X}.}.|.@X@X=X@X@X<XVXVXeX9X",
",XrXkXjXNXjXjXZXAXNX>X+XwXHXGXhXHXKXFXbXmXFXCXbX[.W W W W (.X.[.@X9X9XoXb.G.J.F.n.j.l.n.B.n.n.H.>.y 4 4 3 4 y 4 o 4 a j.H.j.s.l.h.h.l.H.J.m..X7XDXKXKXCXnXSXAXHXSXCXAXCXhXhXCXAXCXHXCXAXCXjXAXHXKXHXGXGXHXHXGXFXFXhXyXwX@XOXwXKXKX0XX.F E b c l z - k B C 6.5.5.5.j.j.2.:.:.y.y.t.t.t.t.t.t.t.t.y.:.h.Z.S.L.K.P.J..XiXKXKXKXFXHXKXHXHXKXGXFXCXFXnXGXnXuXhXFXKXKXKXKXKXFXFXHXHXFXKXKXGXbXhXnXnXbXCXeX+XG W v (.J e u 1.4.4.j.C.C.C.C.C.C.j.j.j.v.n.n.v.z.z.z.z.z.j.j.H.H.H.H.H.H.H.H.H.J.P.P.J.J.G.G.5XDXJXJXKXKXHXHXHXKXKXKXKXKXKXHXHXKXKXGXFXGXCXFXGXCXsXtXbXKXKXHXKXKXCXhXwXwXwXhXbXnXZXlX@Xb z g ; e e u a V 2.2.3.j.s.a r r p p p p p p p p y.p.D.D.A.A.L.K.A.S.A.A.K.F.b..X5XiXHXHXGXGXPXJXFXbXBXKXKXPXbXbXyXbXCXBXsXwXeXyXeXaXrX<X0X0XqXdXrXrX0X<XeXjXjXkXrX@X}.`.D e V V 6.3.5.j.j.j.j.d.d.d.d.c.z.z.b.z.b.b.v.Z a V 2.2.h.:.u.h.h.Z.Y.Z.Z.Y.F.P..X$X9XW G @X=XtXKXKXLXKXFXLXJXKXKXKXHXHXKXKXKXKXHXLXFXFXHXKXKXHXBXvXwX9XqXtX9X=X9XwX0X0XqXqXtXbXgX$X5 O 4 w w i i i a a w w r p p p p p p p <.<.:.V.D.V.D.D.D.A.A.D.D.D.S.A.F.8XJXFX,X|.}.=XhXKXKXKXLXKXKXHXCXmXCXHXGXCX9XwXmXFXyXbXKXbXKXKXmXmXKXKXFXPXKXLXKXKXKXLXFXFXnXtXgXiX.XC 3.5.5.5.C.C.C.C.C.j.v.v.d.5.v.H.j.2.h.h.p.k.D.Z.D.C.C.C.C.Z.C.C.F.G.b.%XOX}.}.|.@X+X,X@X@X<XNXVXyXeX",
",XrXkXNXAXSXAXHXBXnXeXwXnXGXmXhXCXHXGXmXCXHXGXNX(.W W W o.(.W o.|.,X9XoXG.G.G.H.H.j.l.n.n.n.n.B.H.j.i y 4 o 4 4 e V v.H.j.l.l.f.h.Z.H.H.J.m..X7XDXDXFXnXhXlXVXAXZXSXAXHXNXnXNXjXZXHXZXSXjXyXBXAXHXHXKXKXHXHXHXGXKXhXuXuXuXyXBXKXHX,XW G E n c c l - k B C 6.5.5.5.j.j.h.:.:.y.y.t.t.t.t.t.t.t.y.y.u.h.Z.S.L.L.P.J.J.iXJXKXKXFXHXHXCXmXFXHXLXFXGXBXKXLXCXHXKXKXKXKXKXKXKXHXKXKXHXGXGXnXhXbXCXGXCXKXeX@Xo.].v W J e u V 2.4.5.j.C.V.C.C.C.C.j.j.Z.j.j.n.v.n.n.m.J.H.H.H.R.R.H.H.H.J.J.J.J.P.J.J.J.J.J.5XDXJXJXLXFXHXKXKXKXKXKXKXKXKXKXKXKXKXKXHXKXGXGXHXHXBXsXhXBXBXGXKXKXFXMXuXiX9XhXbXjXSXzX|.b z g k e e u a a 2.2.3.d.j.:.f r p p p p p p p >.i.D.S.D.A.S.K.A.A.S.A.A.A.C.v..X5XuXGXHXGXGXmXPXmXbXBXFXGXFXnXbXbXnXnXhXeX9XqXeXeXwXwXrXwXdXjXyXjXdXeXyXjXjXNXHX<X|.`.}.H e m V 6.6.5.5.j.j.j.j.j.d.g.n.z.d.z.c.z.M.m.J.g.s.s.2.4.:.h.Z.Z.Y.R.Y.Z.R.H.P..X5XiX'.W =X=XqXKXKXLXKXPXPXDXFXLXHXGXHXKXKXKXLXFXmXFXFXFXLXKXKXKXKXmXyX9XtXwX,X9XwXwXtX9XUXqXuXuX$Xe O 4 w w i i i a :.y y r r p p p p p p >.:.i.V.D.D.A.A.A.A.A.A.D.A.A.A.F.5XDXPX=X}.}.#XsXHXKXKXLXKXKXHXFXmXFXGXBXhXwXgXbXhXhXFXHXnXKXLXMXMXKXKXLXFXKXKXKXKXKXKXLXCXbXwXIXxXXXC 1.5.4.4.q.C.C.C.C.j.j.H.J.F.j.j.C.Z.C.D.D.D.S.A.A.C.C.C.C.Z.C.C.F.G.b.`.}.}.}.}.+X@X=X@X@X<XlXlXyXsX",
"kXkXeXkXAXAXnXBXCXAXCXCXCXhXgXFXmXFXGXCXGXHXHXNX[.o.W E Q o.o.].}.@X#XoXb.G.P.P.L.F.l.n.n.n.n.n.n.T.j.j.3.i a 3.v.j.v.j.d.j.l.s.h.H.R.P.J.m.XX7XcXPXLXHXZXNXSXAXSXnXSXHXSXBXjXeXjXCXjXjXyX0XnXHXHXHXHXGXGXAXGXHXFXmXFXKXFXFXKXHXCX,XX.E O.b c c - ; k m C 6.5.5.5.v.C.j.s.u.y.y.y.t.t.t.t.t.t.y.y.h.Z.S.S.L.L.P.J.b.7XJXKXKXHXKXKXmXbXBXKXKXHXHXFXKXKXHXKXGXFXKXKXKXKXLXFXLXKXKXGXFXbXyXsXCXGXNXhXeX@X@X].E G J k u V 2.4.4.j.C.C.C.C.C.V.C.C.C.j.j.n.n.v.v.m.J.R.H.H.H.J.H.H.H.J.J.J.J.J.J.J.J.G.G.5XDXKXKXKXKXKXKXKXKXKXKXKXKXKXHXHXKXKXHXHXKXGXKXKXFXFXHXBXyXnXGXKXKXHXCXhX9XwXbXnXjXZXkX[.v z g k e u u V V 2.2.3.d.j.j.d y p p p p p p >.>.p.D.S.D.A.S.S.A.A.S.A.A.A.F.G.XX$XiXFXGXHXKXLXFXmXGXLXCXCXPXbXyXCXhXtXtXsXsXwX>XyXwXyXaXaXNXjX,X>XdXaXqXaXNXNXjXrX@X+X,X/.e m V 6.6.5.4.5.5.C.C.j.j.n.n.d.d.c.c.c.c.c.n.d.d Z s.h.4.Z.Y.H.H.R.Z.L.R.H.G.v.oX9X/./.=X=X9XKXKXKXKXFXFXFXFXLXGXHXHXKXKXKXFXFXFXLXKXJXLXFXmXLXKXJXmX=XtXyXwXwXwXtXsX9X9XqXiXiX$X5 O w w w i u a V 1.:.s p p p p p p p p >.i.p.V.D.S.A.A.A.A.A.D.D.A.A.A.F.4XDXFX,X}.}.#XyXHXKXKXLXKXFXHXKXKXHXFXhX9XmXFXhXuXCXBXhXmXFXFXMXMXFXLXLXKXKXKXKXKXKXKXKXmXhXwXIXcXoXC V 6.5.5.q.q.q.q.q.q.C.C.F.F.F.C.C.C.A.D.D.D.D.A.A.A.C.C.C.Z.C.C.F.m.b.`.}.}.}.}.@X,X=X#X#XrXlXjXyXhX",
"SXkXgXhXnXCXCXCXHXLXCXHXHXCXnXbXFXKXCXmXCXSXHXNX[.o.W Q Q o.Q +. X@X#X%Xb.G.P.I.P.H.n.g.d.c.c.n.n.R.J.H.J.m.v.v.v.v.v.j.j.d.f.h.R.L.L.H.P.J..X7XDXJXKXHXHXAXZXAXZXSXHXHXCXSXSXNXNXnXjXhXkXsXjXNXCXGXKXKXHXGXFXCXHXbXMXFXKXGXFXHXFX,XF E E b l l - ; j m M 3.5.5.5.5.C.C.h.u.u.y.y.y.t.t.t.t.t.y.i.Z.S.L.W.W.L.L.G..X7XJXKXKXKXGXbXMXbXBXHXKXFXnXKXHXFXFXHXKXKXKXKXKXKXKXKXKXKXKXGXCXbXyXsXbXnXbX9X9X@X>X].E G J e u V 2.2.4.5.j.C.C.C.C.V.C.C.C.C.Z.H.n.v.v.m.J.J.J.J.J.H.J.H.H.J.J.J.J.J.J.J.J.J.b.7XDXDXJXKXKXHXKXKXKXKXKXKXKXLXKXKXKXKXKXKXKXKXKXKXKXKXKXCXvXwXBXKXHXFXmXyXuXhXbXjXjXkXkX].v v g ; e m V V 2.2.3.3.3.j.j.h.s p p p p p p >.p.D.S.S.S.A.A.A.S.A.A.A.A.A.K.F.b.oX9XmXKXHXGXKXKXGXKXKXFXCXbXsXtXtXsXsXtXwXwXwXwXaXqXwXjXNXeX,X=XeX0X>XqXjXAXNXdX>X,X0X9X'.+ m m 1.6.5.5.5.C.C.C.C.C.C.j.v.n.z.c.c.c.n.n.s.2.s.l.H.H.H.H.H.H.H.L.L.L.P.P.b.oX9X`.`.@X9XtXCXKXKXKXLXKXKXKXLXCXnXbXmXKXKXKXLXLXLXLXFXKXKXLXPXmXmXFXtXbXhXwXuXyXsXhXtXaXIXwXuX$Xe O w w y i i a V V 1.d f p p p p p p p p >.D.D.D.D.A.A.A.A.A.A.D.A.A.A.F.XXcXmX,X}.}.@XeXLXKXKXKXKXKXKXKXKXFXbXyXuXbXBXFXmXMXLXKXFXmXKXKXKXKXKXKXLXKXLXLXKXKXKXKXuX9XbXuXiXoX3.6.6.4.4.4.q.C.C.C.C.C.C.C.F.F.C.C.C.D.D.D.D.A.A.A.C.C.C.C.A.C.K.F.G.b._.%X}.|.|.+X@X=X=X,XrXjXdXeXhX",
"CXnXjXnXCXAXHXHXKXHXHXHXKXGXCXCXFXKXCXCXCXZXHXlX{.X.Q Q Q o.Q +.{.|.@XOXb.G.I.K.L.L.H.n.n.n.n.n.v.n.n.n.m.m.v.v.z.v.n.v.l.l.Z.Z.R.P.L.H.P.J..X7XDXJXKXKXHXHXAXAXZXNXZXHXZXZXAXNXNXjXjXjXjXhXjXNXNXCXHXHXHXHXHXHXCXnXbXCXHXCXbXbXCX=XF E E b c l - ; h m V 3.4.5.5.5.j.j.Z.h.u.y.y.y.y.y.i.y.y.i.i.Z.S.L.W.W.W.L.G.J.7XJXKXLXHXBXFXCXCXGXKXKXFXmXKXLXCXCXFXKXKXKXKXKXKXKXKXKXKXKXGXBXsXtXsXbXhXyX9XwX0XrX].E G J k h N 1.2.4.5.4.C.C.C.V.V.C.C.C.Z.C.H.n.v.v.m.J.J.H.J.J.J.J.J.J.J.J.J.J.J.J.J.J.G.b.7XDXDXKXKXHXGXGXKXKXKXKXKXKXKXKXKXKXKXKXKXKXKXKXKXKXKXKXHXmXyXhXbXFXKXmXyXuXbXbXbXjXkXkX].v v j k e u a a 1.2.3.3.3.j.j.j.2.s p p s p s i.D.S.S.S.A.A.A.A.S.A.A.S.A.A.K.F.b.XX7XMXKXKXHXKXKXKXKXGXPXBXbXIXtXtXsXsXtXwXtXsXhXaXwXqXeXeXqX>X>X0X0XwXaXNXZXjXrX<X>XwX9X'.+ u u V 6.5.4.4.q.q.q.C.C.C.C.j.n.v.c.n.n.n.n.l.l.l.Z.H.H.H.H.H.H.L.L.L.P.P.P.b.oX7X(.}.@X>XtXFXKXKXKXKXKXKXKXFXCXBXBXFXLXKXKXKXLXLXKXKXKXKXLXMXvXmXKXbXBXbXyXyXuXwXtXtXtXyXUXiXoXe O w w y i u a V V 2.2.d p p p p p p p <.p.D.D.D.A.A.A.A.A.E.A.D.A.A.S.F.XXxXPX,X}.}.+XeXFXKXKXKXKXKXKXKXbXuXyXhXvXMXbXmXCXBXKXKXKXLXKXKXKXKXKXKXKXKXKXKXLXMXMXmXvXwXyXuXxX5XA V 1.4.4.4.q.q.C.C.C.C.C.A.A.K.A.C.C.A.A.D.A.A.A.A.C.C.C.C.A.C.K.F.v.b._.}.}.|.|.@X@X*X*X=XrXjXdXeXsX",
"NXBXCXCXAXCXCXCXCXCXCXGXHXHXGXHXHXKXFXCXGXSXAXjX].X.Q Q Q ..Q +.].|.@XOXb.F.I.F.L.L.H.H.H.n.n.v.d.n.v.v.m.m.v.m.v.v.n.H.H.H.Y.R.T.L.P.H.P.J..X7XDXJXKXKXHXHXAXAXZXNXCXAXZXZXZXnXSXnXjXnXjXhXsXsXnXBXCXGXHXHXKXKXCXbXMXFXHXmXvXhXBX=XF W T b z c - + k M V 6.4.q.C.5.5.j.Z.Z.h.:.:.:.y.i.i.i.i.i.k.Z.L.L.W.W.Q.P.G.J.7XJXKXLXHXmXFXLXHXKXKXKXKXFXKXFXBXmXFXKXKXKXKXKXKXKXKXKXKXKXGXnXyXtXsXbXyXqX#XyXjXkX].b G W j h u V 1.4.5.4.C.V.V.V.V.D.C.C.C.C.F.v.v.v.b.J.J.H.H.H.H.J.J.J.J.J.J.J.J.J.J.J.J.J.7XDXDXKXKXmXNXCXGXKXKXKXKXKXKXKXKXKXKXKXKXKXKXKXKXKXKXKXKXGXBXsXtXmXKXmXuXuXmXmXbXjXkXzX].v b j k e u a a 1.2.5.3.3.j.v.F.j.s.p s d r s Z.D.S.S.S.A.A.A.A.S.A.A.S.A.A.K.F.F..X5XMXKXKXKXKXKXKXKXCXbXMXbXIXtXtXsXsXtXwXtXsXbXhXaXeXqX0XwXtXsXwXtXaXhXbXjXtX>X<X>X9X9X'.+ e u V 1.4.4.4.5.q.q.C.A.C.C.F.C.v.v.H.n.j.H.H.H.H.H.H.H.H.H.H.H.L.L.L.L.P.P.b.oX$XJ +X@X,XyXGXKXKXKXKXKXKXLXFXCXCXFXLXFXFXKXKXFXFXKXLXLXLXFXMXuXIXMXvXbXbXvXgXwX9XwXtXtXtXUXiXOXe O w w i i a a V Z 2.2.:.s p r p p p <.>.p.D.D.A.A.A.A.E.A.E.E.D.D.S.L.C..XxXFX>X|.|.+XwXCXKXKXKXKXLXKXKXuX9XtXMXmXPXMXmXFXFXLXKXKXKXKXKXKXLXKXKXKXKXKXKXLXMXmXFXMXwXuXuXDXxX7.u 2.4.4.4.q.q.C.C.C.C.C.C.A.A.A.A.C.A.A.D.A.A.A.A.q.C.C.C.A.C.K.F.G.x._.}.}.}.|.@X@X#X#X*X0XjXkXrXeX",
"jXCXHXHXHXCXBXhXhXhXnXGXKXKXKXKXKXKXHXHXHXAXAXjX].X.Q Q Q ..Q +.+.}.+X%Xb.F.K.A.K.L.H.H.H.H.G.G.n.H.n.m.J.m.v.J.J.J.J.H.H.H.L.R.L.L.P.H.P.J..XiXJXJXLXLXCXSXCXCXAXCXSXZXnXnXjXaXjXhXhXnXnXjXhXsXnXBXCXAXGXHXKXKXHXFXFXKXKXFXnXbXBX=XG W T c l l - + k B C 6.4.q.C.5.5.C.Z.Z.h.u.:.:.y.i.i.y.i.i.Z.L.L.W.W.W.Q.L.P.J.7XJXKXKXKXFXFXFXHXKXKXKXKXKXKXLXmXmXFXKXKXKXKXKXKXKXKXKXKXKXFXbXsXsXnXnXyX9X9XMXZXVX].T E X.j h m V 2.4.5.5.V.C.V.V.V.V.C.C.C.C.F.v.v.v.b.J.J.H.H.H.H.P.J.J.I.J.J.J.J.J.J.J.J.oXxXDXDXKXLXbXbXBXGXKXKXKXKXKXKXKXLXLXKXKXKXKXKXKXKXKXKXKXKXKXKXBXvXbXFXbXuXvXCXmXjXjXdXzX].v b v k e u a a 1.2.5.5.3.5.v.F.j.l.d s a f :.Z.Z.S.A.S.A.A.A.A.A.A.A.A.A.S.K.K.F.b.$XvXHXKXHXKXKXKXLXBXbXbXbXsXtXtXsXhXtX9X9XqXeXsXsXeX0X0XyXhXjXtXsXdXtXeXwX0X>X<X,X,X,X`.5 e u V 1.6.4.4.5.q.q.C.C.A.C.C.C.F.F.H.v.j.H.P.L.L.H.H.H.H.H.J.J.L.L.L.L.P.P.b.oX$XJ @X@X=XyXHXKXKXKXKXKXKXLXFXFXFXLXLXMXvXFXLXPXPXLXFXFXLXKXFXIXuXuXuXuXhXbXvXwX9XwXtXtXsXiXuX$Xe O w y i u a V V 1.2.s.h.:.p r p p >.>.i.D.D.D.A.E.E.E.E.E.E.E.D.D.S.L.j.J.xXLXrX+X+X+XwXCXHXKXKXKXKXKXmXuXwXuXmXFXLXLXLXPXMXFXKXFXKXKXKXKXLXKXKXKXKXFXmXFXFXLXMX9X9XwXuXPXxXv.u 2.2.4.4.4.q.q.q.C.C.C.C.C.A.C.C.C.A.A.A.A.A.A.q.C.C.C.C.C.C.K.F.m.x._.}.}.}.|.@X@X=X=X=X0XjXjXwXrX",
"SXAXHXZXCXCXCXBXvXvXCXKXKXKXKXKXKXKXFXKXHXAXSXkX).O.X.E ..o.Q o.].[.}.`.b.v.K.K.K.K.H.H.L.P.P.P.P.T.J.J.J.v.v.J.J.J.P.H.P.L.L.L.L.L.L.L.P.J..XiXJXJXFXnXhXjXjXNXZXSXAXCXsXeXeXrXrXeXsXnXNXNXnXnXCXCXCXCXCXCXGXGXKXKXKXKXKXKXHXGXBX#XF W b z - : - % j C V 6.4.q.5.j.C.C.Z.Z.Z.h.u.u.u.u.u.u.u.h.S.L.W.W.W.W.W.L.P.J.7XDXKXKXKXKXLXLXGXKXKXKXKXKXKXFXbXbXmXHXKXKXKXKXKXKXKXKXKXLXPXMXvXnXFXBXsXwXuXLXGXVX{.E E X.k h m V 2.1.4.j.j.j.V.V.V.C.C.C.C.F.F.F.b.G.G.J.G.H.H.H.H.L.I.J.I.J.J.J.J.J.J.J.J.oX7XcXDXKXLXmXnXCXGXKXKXKXKXKXKXKXFXFXKXKXKXKXKXKXKXLXKXKXKXKXKXKXFXbXhXuXuXMXnXnXsXkXdXzX].v b v k e u a a 1.2.5.5.5.5.j.v.j.n.s.f f :.h.C.S.S.S.A.A.A.A.A.S.A.A.S.A.A.A.K.F.b.$XgXGXHXHXKXKXLXFXbXbXbXMXsXwX9XtXsXtX9X9X9X9XwXwX0X9XwXtXaXtXeXaXaXeX9X9X9X0XrX>X#X,XOXe e u N 1.6.2.4.5.C.q.V.C.C.C.C.C.F.F.F.F.F.L.L.L.H.H.H.H.H.H.J.I.P.I.L.L.L.J.J.$X$XG +X@X=XsXKXKXKXKXKXKXKXJXLXLXGXLXmXgXgXPXLXMXMXMXLXDXLXJXJXDXMXvXhXbXvXmXnXuX9XwXsXtXIXuXcX$Xe O w y i u a V 2.2.2.2.h.s.s p p p :.i.D.D.V.V.A.E.E.E.E.A.D.D.D.D.A.K.j.J.xXLXrX@X+X@XwXmXLXKXKXKXKXMXuXyXvXvXMXmXPXKXKXMXuXMXKXPXLXFXFXLXKXKXKXKXKXLXFXmXMXvXwX#X,XuXgXcXxXm.u V 1.2.4.4.q.q.q.q.C.C.C.C.C.q.q.C.V.C.C.C.C.C.F.F.C.C.C.A.C.C.F.m.x.'.`.}.|.|.@X,X,X,X,XrXjXjXwX0X",
"ZXAXNXkXhXCXGXGXnXCXLXKXKXGXBXBXHXKXmXHXHXCXBXaX).X.O.O.O.O.E o.].].}.`.b.v.F.K.L.K.H.L.L.P.P.P.P.P.P.P.J.v.v.J.J.J.J.H.L.L.L.L.L.L.L.H.P.J..XxXJXJXPXnXhXhXhXnXSXSXHXCXyXwXeXwXsXhXjXSXSXnXnXNXHXGXCXCXCXCXCXCXKXKXKXKXKXKXKXKXBX@XF X.E l ; ; ; ; j B V 5.5.5.5.C.F.F.H.C.Z.Z.h.h.h.h.s.u.h.Z.L.L.W.W.W.W.W.L.P.G.5XDXJXLXKXKXKXKXGXGXHXKXKXKXKXmXhXsXbXFXKXKXKXKXKXKXKXKXKXFXMXvXvXBXFXBXbXsXmXKXFXZX}.E E X.k e m V 2.2.2.5.j.j.h.h.V.V.C.C.C.F.F.F.G.G.G.J.G.H.H.H.L.H.I.I.I.I.I.J.J.J.H.J.b..X5XiXMXKXFXFXZXGXKXKXKXKXKXKXKXKXLXLXLXKXKXKXKXKXKXLXLXKXKXKXGXKXKXbXuXwXwXMXbXhXsXkXdXlX].v n j k e u a a 1.2.5.5.j.v.j.v.j.d.d.f u s.F.C.K.L.S.S.A.A.A.A.A.A.A.S.A.A.A.K.F.b.$XIXFXGXGXHXKXCXCXBXbXMXbXyX9X=XqXtXtXwXqXwXwX0X9X9X0XeXtXwX0XeXsXbXhXtXtXtXeXaXrX=X,X$Xe e u N V 2.2.4.5.j.j.C.C.C.C.C.C.K.F.K.F.I.P.I.I.I.L.H.H.H.J.J.P.I.P.L.L.L.J.J.$X$XD }.+X>XsXHXKXKXKXKXKXKXKXKXHXGXFXMXgXgXMXDXMXxXuXMXMXMXIXMXJXJXFXbXnXnXmXFXbXuXyXhXtXyXiXxX$Xe w e i i a a V 2.2.2.2.j.h.:.f f p u.V.D.D.V.V.A.E.E.E.E.E.E.D.D.D.A.L.j.G.iXPXrX@X@X@XwXmXLXKXKXLXFXuXiXIXMXvXsXMXMXFXKXMXuXmXKXFXLXFXFXLXKXKXLXLXKXKXKXmXuXuXuXwXwXmXMXuXxXoXu V 2.1.4.4.4.q.q.q.C.C.C.F.F.5.q.C.C.V.V.V.C.C.F.F.C.C.C.A.C.C.F.v.b.x.(.}.|.|.+X@X>X<X>XrXjXjXrX0X",
"AXAXNXsXhXCXLXCXCXCXLXHXFXNXBXBXKXJXmXLXKXCXBXhX).W X.O.O.X.E O.].].}.`.b.v.F.C.L.S.L.L.L.L.Q.P.P.P.P.P.P.G.v.J.J.G.H.H.L.L.L.L.L.L.P.L.P.J.XXxXJXJXFXmXnXnXnXnXCXBXAXZXjXkXhXsXNXSXSXSXNXhXhXnXHXCXCXnXBXCXCXCXKXKXKXKXKXKXKXKXNX@XF o.E z ; % % ; B B V 5.q.q.5.C.F.F.H.H.K.H.C.V.h.h.h.h.l.Y.L.L.W.W.W.W.Q.L.P.G.5XDXJXLXKXHXKXKXCXmXFXHXKXHXKXmXuXyXbXFXKXKXKXKXKXKXKXKXKXPXuXyXIXbXbXbXbXFXJXKXBXAX|.E E X.k e e V 2.1.2.4.5.5.4.h.h.V.C.V.C.C.F.F.G.G.G.G.G.H.H.H.H.L.I.I.I.J.I.J.J.J.H.J.m..X5XiXPXJXmXHXGXHXKXKXKXKXKXKXKXKXKXKXLXFXLXLXKXKXKXJXJXKXKXKXKXKXKXFXbXiX9XhXbXhXsXjXkXlX].v v g k e u V a 2.2.3.3.5.v.v.v.v.d.Z a V 3.F.L.K.K.K.S.A.A.S.A.A.A.A.A.A.A.A.K.F.b.$XIXLXHXGXGXHXBXPXmXbXbXIXtX9X9XwXyXtXtXtXyXtXeXwXwXaXtXqX9X0XaXnXZXNXsXaXaXyXeXeX,X9X$Xe e m m V 1.2.2.4.5.4.j.j.j.C.C.C.K.F.F.F.K.I.P.I.I.I.H.H.H.J.J.P.P.P.P.P.L.J.J.oXOXj (.+X9XsXGXKXKXKXKXKXJXJXKXKXHXGXmXMXMXPXPXMXuX9XiXuXxXiXuXDXKXKXmXCXmXmXLXLXbXhXyXwXwXiXgX$Xe e i i u a a V 1.2.2.2.h.j.s.d f f h.V.D.D.V.D.E.E.E.E.E.E.E.D.D.D.A.K.j.v.7XbX0X+X+X@XwXCXHXKXLXmXIXuXuXIXvXIXIXMXIXuXMXFXPXFXKXKXKXLXFXFXPXMXMXFXKXKXKXFXuXuXFXLXmXFXvXiXcX5XN V 1.1.2.4.4.q.q.q.j.j.C.F.9.9.5.j.C.h.V.C.C.C.F.F.C.C.C.A.C.S.F.v.b.J X.}.+X}.}.@X,X<X<XrXjXjXyXeX",
"AXHXAXBXCXGXCXhXHXLXGXHXGXCXGXKXKXKXmXHXKXCXCXkX).W X.E O.O.E O.+.].}.%Xb.v.F.C.L.L.L.L.L.L.L.P.P.P.P.P.P.G.v.J.J.J.H.H.L.L.L.L.L.L.P.L.P.J.XXxXJXJXLXLXCXCXBXBXBXNXZXGXBXBXCXNXbXNXCXCXnXhXbXCXHXCXNXnXNXCXCXFXKXKXKXKXKXKXKXKXNX+XF o.E z ; % % k D B V F.C.q.C.C.C.F.K.L.H.H.H.C.j.j.h.h.H.R.L.L.W.W.W.W.W.L.P.J.5XDXJXLXHXHXKXCXbXbXmXLXHXHXKXFXIXuXMXLXKXKXKXKXKXKXKXKXLXmXtXtXyXsXuXsXmXKXKXKXBXHX+XE b X.g e e m 1.6.1.4.5.5.5.4.h.V.C.C.C.C.F.F.F.G.G.G.F.H.H.H.H.H.J.J.J.J.J.J.J.J.m.m._.XX5XiXDXJXbXLXFXGXHXKXKXKXKXKXKXKXKXKXFXPXPXFXKXKXKXKXKXKXKXKXKXHXLXKXKXwX9XuXbXbXhXjXjXlX].z z g k e N a a 2.4.2.3.3.v.v.v.v.Z t S A Z v.T.F.K.K.A.A.A.A.A.A.A.A.A.A.A.A.K.F.b.$XcXKXKXGXCXCXmXPXmXvXIXsXyXwXtXyXsXtXtXtXtXeXtXeXtXsXtX>X=X0XsXNXBXhXeXwXwXwX0XwX>X0X#Xk e N m V V 1.2.4.4.4.j.j.j.C.C.C.F.K.C.q.5.K.I.I.I.L.H.H.L.L.P.P.P.P.P.P.P.J.b.oX%Xk X.+X0XsXGXKXKXKXKXKXLXLXJXKXKXKXmXFXLXDXDXMXiX5X#XuXIXiXiXPXKXFXKXKXFXMXFXLXhXwXqX9XwXuXMX5Xe 5 e i u a a V 2.2.3.2.5.j.j.2.:.a 2.h.D.D.V.A.E.A.E.E.E.D.D.D.D.D.D.L.j.v.5XuX>X+X}.+XrXCXHXHXFXvXwXIXMXvXuXuXMXPXvX9XuXKXKXLXJXKXLXLXLXmXvXuXuXMXKXKXLXmXvXmXLXFXFXbXuX9XcX7Xm N 1.2.2.4.4.q.q.q.5.j.C.C.F.5.5.j.j.C.j.j.j.j.C.C.C.C.C.C.C.F.F.v.b.K J }.@X}.}.@X,X<X<XrXkXjXyXyX",
"AXHXHXAXSXSXZXCXZXHXHXGXHXKXGXnXFXmXmXCXKXZXHXjX].X.E O.O.E | T ..+.[.`.'.9.F.F.K.K.K.K.L.L.P.Q.Q.Q.P.P.P.I.F.P.H.H.L.L.L.L.L.L.L.L.L.P.P.J.4XcXJXJXKXHXHXGXZXZXGXKXKXHXCXBXBXGXHXnXbXCXHXGXGXHXZXZXZXBXnXBXCXGXKXKXKXJXKXKXKXKXhX+XF X.E b l % ; k j C 6.5.5.q.A.A.A.C.F.I.I.F.H.j.2.2.j.H.H.P.L.P.Q.W.W.W.W.W.Q.P.4XJXJXLXHXHXGXsXIXBXnXFXKXKXBXmXMXvXMXFXKXKXKXKXKXKXKXKXFXmXtXuXvXvXIXvXPXKXFXKXHXSX+XG X.W j + B e N 3.2.4.4.4.q.C.V.V.V.V.V.C.C.F.F.F.G.J.F.H.H.H.H.H.G.G.G.b.b.m.'.'.'.'.'.`.%XwXLXPXLXKXKXKXLXFXJXKXKXJXKXKXKXKXKXHXLXLXKXKXKXKXKXKXKXKXLXHXLXPXPXFXvXiXuXhXCXhXdXdX[.v v g e t u d Z 2.5.5.3.3.v.v.d.Z e S S A A m.v.v.F.F.S.S.A.A.A.A.S.S.S.A.A.K.F.F.b.oXiXFXKXGXZXCXPXPXMXIXuXuXuXtXwXbXyX9XwXqX9XwX9XsXbXyX9X9X9XqXsXhXsXyXrX>X>X0X@X>X>XeX#Xk k h C V V 2.4.4.4.V.j.j.j.j.C.C.C.C.C.C.C.F.K.L.L.L.P.L.L.L.P.P.L.L.P.G.J.G.m.oX_.e X.+X#XhXKXHXKXKXKXKXKXFXFXKXKXFXKXFXLXLXPXmXIX9X9X9XiXuXuXuXbXFXKXJXJXKXKXCXnXvXyXuXuXgXcX7Xh 5 i i a a V V 2.2.2.5.j.5.5.j.j.2.4.h.4.A.S.V.A.D.A.E.E.E.D.D.D.D.D.A.K.v.oXxXtX[.|.+X<XVXHXCXhXwXyXwXyXvXuXIXMXMXJXIXDXPXKXMXMXKXMXFXmXuXuXuXMXMXKXLXFXmXFXLXLXCXCXbX9X#XPX7Xm m V 1.5.5.4.4.4.q.C.V.C.C.C.C.j.j.C.C.C.C.C.C.C.C.C.K.K.F.F.F.b.b.b.K K ).|.[.}.@X,X=X>X>XjXaXaXaX",
"lXSXSXSXSXSXSXSXZXHXHXZXZXZXBXbXbXbXmXCXKXCXHXkX].O.E O.E E E T ..+.].`.'.0.9.K.K.K.K.L.L.L.P.P.Q.Q.P.P.P.K.F.P.I.L.L.L.L.L.L.L.L.L.L.P.P.J.$XcXJXJXKXHXHXHXHXHXGXKXKXHXGXCXCXGXCXbXbXCXGXGXGXHXGXGXZXZXBXCXCXCXBXKXKXKXKXKXKXKXhX+XF O.E b z l g j B C 3.5.j.q.C.A.A.F.F.I.G.F.1.V Z 3.v.H.H.J.P.P.W.Q.Q.Q.Q.Q.Q.P.4XDXJXKXHXCXsXsXbXCXGXKXKXBXFXPXmXMXmXLXKXKXKXKXKXKXKXLXPXvXuXIXMXMXMXmXFXKXLXKXCXAX*XF W W g + K m V 3.6.2.4.4.q.C.V.V.V.V.C.C.C.F.F.F.G.J.F.H.K.H.H.H.J.G.b.m.b.'.'././.(./.`.OXwXmXMXFXLXLXLXLXDXLXJXJXJXKXKXKXKXKXKXHXHXKXKXKXKXJXJXKXKXKXKXFXbXmXFXPXvXwXwXhXsXlXdX}.F z g k t N Z Z 2.v.v.9.7.v.z.d e t S S S A m.v.v.H.H.Z.Z.A.A.K.A.S.A.A.K.K.K.F.F.m.oXiXPXHXGXZXAXFXFXMXIXuXuXtXwXtXMXsX9X9X9X9XyX9XiXsXyXwXwXwXwXsXsXyXrX>X,X,X,X+X,X,XwX@X; e h m M V 6.4.>.4.V.j.j.j.j.C.C.C.C.C.C.C.C.K.L.L.L.P.L.L.L.L.P.L.H.P.G.J.m.b.%X'.k (.@X,XhXLXFXKXKXKXKXLXFXFXJXKXLXKXLXKXKXFXPXMXuX#X#X9XwXwXtXsXnXFXDXLXKXHXCXCXCXLXvXuXcXcXiXM e i i a V V 1.6.6.3.5.3.2.2.5.j.2.2.j.h.C.A.V.D.V.D.D.E.D.S.S.S.S.D.S.K.j..XiXiX[.|.*XfXlXVXkXyXgXnXIXvXvXuXtXvXMXPXIXPXMXKXPXMXKXMXmXMXvXuXvXmXFXKXKXLXFXFXLXKXFXhXnXtX9XMXiXC m 9.6.1.1.q.C.C.q.V.V.C.C.C.C.V.V.j.j.C.C.C.C.C.F.C.F.F.v.v.b.b.b.x.K G (.}.[.}.@X#X=XwXrXSXjXjXjX",
"jXBXSXNXNXSXSXSXZXAXGXZXCXCXBXbXuXvXBXCXHXnXHXkX).O.E O.E T E T ..+.].`.'.0.9.F.K.K.K.K.L.L.L.L.Q.Q.P.P.P.F.F.J.J.J.H.L.L.L.L.L.W.W.L.P.P.G.4XcXJXLXLXGXHXHXAXZXGXGXGXGXGXGXGXGXBXnXNXGXGXZXGXHXGXGXBXCXGXGXGXCXbXFXKXKXKXKXFXKXhX@XF X.E b c v z v B C 3.5.j.C.C.C.K.K.J.J.F.j.a a Z d.n.n.J.P.P.P.Q.Q.W.Q.Q.Q.Q.P.XXDXKXKXGXnXeXnXBXBXKXKXGXbXFXFXmXMXmXLXKXKXKXKXKXKXKXFXMXuXuXvXMXmXFXFXGXKXKXLXmXHX,Xb G X.g + D m m V 6.6.4.4.5.5.q.V.V.V.V.C.C.F.F.F.G.G.K.H.H.H.H.H.G.G.G.m.b.'.'.'.(./.X.OX#XuXbXuXMXmXPXFXFXPXDXJXKXKXKXKXKXKXKXKXKXKXKXKXKXKXJXJXKXKXKXHXCXnXPXHXKXFXuXwXsXaXjXdX[.b b g k h N S Z 3.5.v.v.v.j.3.f w d S f S A m.v.v.n.l.Z.C.S.K.K.A.A.A.S.K.K.K.F.F.G.oXiXPXGXAXZXAXBXBXbXyXwXwXqX9X0XyXaXwX0X9X=X9X9X9X9XtXyXsXsXeXyXeX0X,X,X,X,X,X=X,X0XyX#Xk * k B m M V 2.4.4.4.5.5.5.j.C.C.C.C.C.C.C.C.K.K.L.L.L.L.L.L.L.L.L.P.P.G.J..Xb.'.x.j (.@X,XhXLXFXKXKXHXKXLXFXFXJXJXLXLXFXKXKXmXMXMXuX9X9X9XwXwXtXsXbXmXmXFXKXHXGXHXKXmXgXuXiXiX5Xh 5 u a V V V 1.3.3.5.3.2.V Z 2.s.2.s.j.h.h.V.V.D.V.D.A.A.A.A.A.A.A.A.S.K.5.J.7X9X[.[.*XpXdXeX0XyXCXNXvXIXuXwXwXvXMXFXFXKXMXFXFXPXJXFXMXMXMXmXmXLXKXKXKXKXLXLXKXKXLXBXGXnXuXPXiX8.e C C 1.5.5.4.5.5.5.q.V.C.C.C.C.j.5.5.j.j.C.C.F.F.j.F.F.v.v.b.b.b.8.J J (.[.}.|.@X@X,XwXeXZXhXhXhX",
"SXAXSXjXjXNXSXSXSXCXCXCXCXCXBXBXsXMXCXmXCXhXZXyX).O.E O.E T T T Q +.].).'.0.9.F.K.K.K.L.K.L.L.L.P.P.P.P.P.F.F.J.J.H.H.L.L.L.L.L.W.W.L.P.I.G.5XcXJXLXFXGXGXZXSXNXCXBXBXGXHXKXHXGXCXCXGXKXKXGXGXKXZXNXbXnXCXHXGXGXnXHXKXKXKXFXMXCXnX@XG X.E E b b F D B C 9.5.5.C.F.F.F.F.J.v.3.a a Z s.j.j.j.n.P.T.P.Q.Q.Q.W.Q.Q.P.I.XXcXJXKXCXnXbXHXFXBXKXKXnXmXGXGXFXmXCXKXKXKXKXKXKXKXKXPXvXuXuXIXMXPXGXKXKXKXKXJXmXGX=XF W W g + D B m N 3.6.5.5.5.5.5.5.V.V.C.C.C.C.F.F.F.G.K.H.H.H.H.H.J.G.J.m.'._.`.`.(.X.(.OX=XvXmXuXuXvXmXmXmXmXDXKXKXKXKXKXKXKXKXKXKXKXKXKXKXKXKXKXKXKXGXHXHXGXKXKXHXPXbXhXhXrXdXdX[.v b z j B A C A 3.3.v.G.v.2.f f f d d f _ Z n.z.n.n.j.h.j.C.K.K.K.K.K.K.K.K.K.F.v.b.oXiXvXCXSXZXZXGXZXbXaXaXaXeX0XtXsXaXdXdXaX0X>X9X9X9XwXsXhXsXtXwX0X,X=X,X,X,X,X=X,X0XrX@X; + * j M N A 3.5.5.4.5.5.5.j.C.C.C.C.C.C.C.C.K.K.L.H.H.L.P.P.H.H.J.J.J.m.J..Xb.x.J D X.}.,XnXKXKXHXHXKXKXKXKXJXJXLXFXmXmXKXKXMXvXMXIXuXwX9X9XwXyXIXbXuXuXvXmXCXGXHXKXbXnXmXcXiX#Xh h u V V V V 6.3.3.3.2.Z d d _ _ d s.f.s.s.h.k.S.S.D.D.A.A.A.A.A.A.A.A.K.v..X7XiXOX+X-XeXeXqXeXbXKXFXvXIXsXuXyXbXMXbXFXKXyXvXCXmXFXLXmXMXFXKXLXLXKXLXKXKXLXLXKXKXLXKXGXmXMXPXiX'.m M V 6.3.3.6.5.5.5.V.C.C.C.j.j.j.j.j.j.j.j.j.C.F.5.v.F.b.b.b.x.x.x./.(.(.).}.|.|.*X,XwXwXnXeXeXyX",
"AXAXCXjXhXjXSXAXnXNXNXBXBXNXNXBXbXmXBXbXbXyXBXrX).O.O.O.O.T T T Q ..).(.r.0.9.F.F.K.K.K.L.L.L.L.L.P.P.P.P.F.v.J.J.H.H.H.L.L.L.L.W.Q.L.L.J.J.5XcXJXLXFXGXHXHXZXSXNXNXNXCXHXKXKXHXHXHXHXKXKXGXHXHXNXhXsXhXBXHXKXHXLXKXGXFXHXFXbXnXSX=XG X.O.E b b G D D C 9.9.C.C.v.v.v.G.H.j.a t d Z d.g.j.d.j.v.T.T.T.!.Q.Q.Q.P.P.XXXXxXDXKXBXBXGXHXmXFXKXmXsXCXGXGXCXBXFXKXKXKXKXKXKXKXKXmXvXtXuXuXbXPXKXKXKXKXKXKXPXCX#XG W G ; + j B C C 3.V 3.5.5.5.5.5.j.j.C.C.C.C.F.F.F.I.F.H.H.H.F.G.G.G.m.m.'.'.`.(.W G ).OX#XvXFXwXwXsXmXMXMXMXPXKXKXJXKXKXKXKXKXKXKXKXKXKXKXKXKXKXKXKXHXHXHXKXKXKXFXnXhXbXbX0XpXlX+XF F b v D K C 3.9.9.v.v.3.a t f s s f f f.s.n.n.g.n.l.h.h.j.C.F.H.F.K.K.K.K.F.F.b.b..X$X9XeXkXVXZXZXVXdXdXaXaXqX,XVXpX0X0XpXkXpXrX9X9XtXsXsXyXwXqX9X>X=X=X,X,X,X,X>X,XrXyX=Xg % k k j B C C A 3.5.5.5.5.j.j.C.C.C.C.C.C.C.K.K.L.H.H.J.P.P.H.H.J.J.J.b.m._.'./././.`.OX9XnXKXKXLXHXKXKXKXKXJXFXFXLXMXMXLXKXPXMXBXPXnXIXtX9XqXyXIXIXuXwXwXyXbXCXFXGXGXHXKXLXMXiXB h m V V V 1.3.3.2.Z Z d d ( ( ( f ( f.( s.s.h.Z.V.D.D.A.A.S.A.A.A.C.C.F.F..X7X9XOXOX#X>X0XwXhXmXPXKXvXuXgXuXvXbXyXhXPXFXyXuXCXnXLXHXmXmXLXKXFXmXFXFXLXLXLXLXKXLXmXCXbXvXMXIX7XOX_.b.7.B C 3.5.9.5.j.C.C.C.C.j.j.5.j.j.j.j.j.j.j.v.v.b.v.z.z.x.x.x.'.`.`.).).[.}.}.+X#X0XrXjXrXwXeX",
"SXSXNXkXkXjXCXAXnXnXnXNXnXbXhXbXHXLXFXbXBXbXZXwX(.X.O.O.E T T T T ..o.(.r.0.9.F.F.F.K.K.K.K.L.L.L.P.P.P.P.F.v.G.H.H.H.H.L.L.L.L.W.W.L.L.L.J.5XDXDXPXMXBXZXAXAXZXNXBXBXZXHXKXKXKXHXHXGXHXHXHXGXGXnXhXyXhXmXFXKXHXFXKXFXBXFXCXmXCXZX,XG O.X.E G G /.J D 7.9.v.F.F.F.v.v.H.H.d.d f d ( g.n.n.j.j.j.H.H.P.T.P.P.P.P.I.XXXXxXDXLXBXGXGXmXmXKXKXbXhXCXGXGXCXCXGXKXKXKXKXKXKXKXLXmXvXuXuXvXMXFXKXKXKXKXJXKXFXLX=XG W F g ; k k j h C C C 3.3.5.5.5.5.j.C.C.C.C.F.F.F.H.K.K.F.H.G.G.G.G.b.b.'.'.(.X.W F `.OX+XsXLXuXuXyXmXmXMXvXmXFXJXFXKXKXKXKXKXKXKXKXKXKXKXKXKXKXKXHXKXHXHXHXHXGXGXCXbXBXZXpXpXdX|.F F v v D K C 3.9.v.6.a a f f s s s s d n.s.g.c.g.n.l.l.f.j.j.j.F.K.K.K.K.F.G.G.b.b._.`.OX@X>XaXlXZXZXVXjXkXdXrX>XjXqX>XqXrXkXzXdX9XtXvXNXbXwX9X9X>X,X,X,X>X0XrXrXrXwXyXrX>XG z v j h k h C 8.7.C 5.5.5.5.j.C.C.C.C.C.C.C.K.H.H.H.J.J.J.J.H.J.J.J.m.m._.'.'.`.OX#X#X#XwXbXKXKXmXHXCXCXFXKXJXFXLXJXvXuXmXKXFXmXFXFXGXCXbXyXuXIXbXbXuXwXwXyXBXFXFXCXKXFXFXLXJXvXK e m V C V 1.2.2.Z d d ( ( u.( / s s f.( f.s.u.h.:.V.V.C.A.A.A.A.C.C.C.C.F.J.5X$X'.'.[.#X9XuXLXJXPXKXvXgXmXFXHXFXbXCXHXFXnXyXnXsXGXFXmXMXmXmXmXMXMXmXFXLXLXKXLXmXhXsXbXvXbXiXOX#X7X7X$Xb.7.C C C 3.5.j.j.j.j.j.5.5.5.5.j.j.v.v.v.v.b.x.7.H H x.'.'.`.`.[.).].[.|.|.}.+X>XwXNXyXrXwX",
"SXCXBXjXjXnXNXSXnXbXnXBXnXhXbXnXKXLXmXbXHXZXHX0X(.E O.o.E G G b R Q o./.8.0.9.G.F.F.F.F.K.L.K.L.L.P.L.P.P.F.C.K.L.L.L.L.L.L.L.L.L.W.L.L.H.J.5XDXDXMXvXjXNXAXAXZXAXGXGXHXKXKXKXKXHXGXZXZXGXKXKXGXBXbXbXnXCXFXFXCXmXLXFXCXFXmXMXFXCX,X` X.G F E X.).J K 7.9.9.F.F.G.v.v.n.l.s.u.( ( u.f.l.Y.Z.l.l.j.j.H.P.P.P.P.P.G.XXXXiXDXKXPXGXGXmXFXKXKXCXmXCXFXGXCXCXGXKXKXHXKXKXKXKXHXCXbXvXMXnXFXHXKXKXKXKXJXJXFXKX0XG F b b v j k j e h B N C C 7.9.5.5.j.j.j.j.v.v.v.F.G.F.F.F.F.G.G.G.b.m.'.'./.(.(.(.(.}.#X=XyXCXbXvXuXMXMXMXvXvXmXFXLXKXKXKXKXKXKXKXKXKXHXGXFXGXHXHXHXKXHXGXGXGXGXGXGXGXZXHXNXdX<X(.b W F D D K C 3.9.5.a i f s d / s s s s.R.d.d.c.n.n.n.n.l.l.l.n.H.H.K.F.F.F.F.G.b.b._._.`.`.}.+X-XfXlXSXlXfXpXpXrXpX<XpXpX2XpXlXSXtXsXbXnXsX0X9X0X>X9X0X0XrXrXaXkX0X,X>X*X#Xo.G W W F g k D 8.8.C 7.5.5.5.j.j.C.C.C.C.C.F.H.H.H.H.J.J.J.G.J.J.J.b.b..X%XOXOX#X,XwXwXwXbXnXFXCXyXCXmXmXFXKXJXFXLXKXPXuXMXLXFXmXBXnXKXKXFXmXMXmXmXMXMXIXvXMXFXFXFXFXKXHXFXFXLXMXH h m V C V 1.2.2.d d s y.u.u.y./ / / u.u.u.u.u.u.s u.i.V.V.C.C.q.q.C.C.F.F.b.XX.Xx./.'.`.OX5XIXDXMXcXiX9XuXuXuXwX9X9X9X,X9X#X,X@XhXBXmXMXvXvXMXPXmXFXLXLXKXKXLXvXwXyXCXuXyXwX#X9XiXiXiXiX$X'.H C 7.3.5.5.5.5.5.5.5.5.5.v.v.v.v.v.7.x.z.H H 8.'.`.OX}.}.}.}.+X-X-X=X=X,XwXeXCXsXyXeX",
"SXAXSXNXnXnXnXjXnXbXnXCXBXbXNXGXFXMXvXsXHXHXHX>X(.W X.o.E G G b T Q Q W J 8.0.9.v.F.F.F.K.K.K.L.L.L.L.P.Q.K.C.K.K.K.K.K.L.L.L.L.L.L.L.L.J.J.5XDXJXPXvXbXSXAXAXAXHXKXKXKXKXKXKXKXHXGXBXCXHXKXKXHXCXCXCXFXGXFXmXbXbXLXHXFXPXbXbXFXmX,X` X.F F G (.`.J B 3.9.9.5.j.F.j.d.s.u.s s / u.u.s.f.l.l.k.l.2.d.l.H.R.T.P.P.G.oX.XiXLXKXFXLXKXFXKXKXPXFXKXFXLXHXLXCXHXKXKXKXKXKXKXKXHXCXnXbXBXFXKXKXKXKXKXKXJXDXPXKXyXG v v G o.X.G ` k * k h M C H 7.7.9.v.9.v.v.v.v.v.b.G.F.F.G.G.G.G.b.b._.'.'.(.).[.|.*X+XtXtXyXBXCXnXiXtXvXMXvXuXvXFXKXKXKXKXKXKXKXKXKXKXHXCXBXCXZXHXHXGXZXGXHXKXKXKXKXHXBXKXHXlX=XW b (.J G K K C A 5.d.d f f f s p p s d l.T.d.d.c.c.g.n.B.B.Y.n.H.R.H.G.G.F.F.F.G.b.m._.`.`.`.(.o.o.].|.=X*X|.[.|.|.*X|.*X*X]. XpXSXNXbXvXsXwX9XqXsX9X0XwXeXeXyXkXjXwX>XqX#X,X}.].}.X.(.X.D j v J '.7.9.9.5.v.j.j.j.F.C.C.F.H.H.G.G.J.J.G.G.G.J.m.b.x.%X$X#X9X9X9XwXyXyXGXGXFXbXwXnXFXFXJXKXKXFXLXKXKXPXmXKXLXBXnXvXFXGXGXPXmXPXmXMXMXvXMXmXPXmXmXPXvXmXPXvXuXiXB h m N V Z Z 2.:.s :.y.y.y.y.y.y.i.u.k.u.u.u.u.i.y.u.u.h.V.C.C.j.j.C.C.F.F.v.G..Xb.C K B j B '.oXOX%Xx.8.x.J K D j v v v X.W X.W *XCXFXMXuXuXmXKXKXLXLXLXKXKXLXuX9XsXCXiX9XbXvXMXuX9XuXMXDXcX$X'.H 3.3.3.3.9.9.9.9.9.v.v.v.v.7.7.7.H J J ` '.%XOXOX+X+X+X=X<XeXfXdXBXbXbXsXZXjXhXhX",
"BXCXZXAXBXjXjXnXCXCXBXFXGXGXBXBXHXLXbXwXhXKXGX#XX.X.X.O.E G b T R E X.W J J 0.0.b.v.v.v.F.K.K.L.L.L.L.L.L.K.K.L.A.S.L.L.L.L.L.L.L.K.L.P.J.J.5XDXJXFXCXCXHXHXAXZXHXGXZXHXKXKXHXHXKXnXZXZXCXHXHXKXHXHXHXKXKXHXFXmXbXPXLXFXmXvXPXDXMX$X` J J G J X./.8.C V V 6.2.2.j.2.d s s s s / / u.k.l.Z.Z.Z.Z.l.j.j.l.H.H.H.J.J.v..XiXDXDXPXJXKXKXJXJXJXKXKXKXJXKXKXHXKXKXKXLXKXKXKXKXKXKXHXFXHXHXHXKXKXHXKXKXJXDXMXHX9XG F X.W ).X.X.(.X.J D k B K H H 7.7.7.z.v.3.7.b.v.b.J.v.J.J.b.v.J..X_.x.'.`.}.}.=X<X=XqXwXwXtXhXBXGXHXBXvXvXMXMXMXmXKXKXKXKXKXKXKXKXKXHXGX9X).=XaXjXtXhXhXsXbXhXyXtXaXsXsXsXsX0X}.o.X.).` K B A 7.3.2.s.f f s / p p ) f s.n.B.M.H ` m.c.c.c.n.n.n.B.J.J.G.G.G.G.m.m.b.oX.X_.OX%X).(.(.o.W G F b b b b b G E G z z <XSXaXyXyXtXtXtXyXaXyXwXwXwXyXyXeXwXyXwX0XrXkXjXrX*X|.].(.(.X.v v r.%Xv.v.b.v.9.v.v.j.j.v.v.v.v.G.J.v.b.J..X.X_..XOX$X$X$X@X#XyXCXnX0XnXKXKXmXbXbXvXmXFXKXKXJXJXKXKXJXDXFXFXKXLXnXsXbXFXKX#X/.`.'._.H J x.'.`.OX$X$X$XOX%X$X%XH h h N N Z d d d :.:.:.y.y.i.y.i.i.i.u.k.k.i.i.i.i.k.i.k.k.Z.Z.Z.Z.Z.H.H.H.F.F.v.v.9.7.C B M m h e e e k k k e e k k j J v W o.o.X.0XFXFXmXMXMXMXFXKXKXKXKXLXMXwX9XiXsXsXtXyXsXuXwXuXiXLXMXvXvXmXmX5Xb.7.9.7.7.7.7.7.7.v.b.7.A C C C J x.`.%XOXOXOX+X+X@X=X=X0XqXpXqXbXGXKXBXsXyXsXhX",
"sXkXnXNXNXnXNXCXCXBXNXBXBXFXFXCXFXHXFXbXBXKXZX,X(.X.G b b G E W E E Q W W J H 0.8.v.v.b.F.F.L.L.L.L.L.L.L.A.A.S.W.L.A.A.S.L.L.L.L.P.P.J.v.b.$XcXJXKXHXGXAXAXAXAXHXHXHXHXHXKXHXHXGXNXHXCXbXBXCXHXAXZXCXSXGXGXCXCXPXFXFXDXPXcXvXcX7X%Xx.` K B B B H H 7.3.3.5.5.j.h.2.d s s ^ / y./ u.k.l.k.Z.Z.k.l.l.l.l.j.d.d.d.v.v..X7XcXJXKXKXJXDXDXDXDXDXDXLXJXLXPXMXIXvXFXKXKXKXKXKXKXKXGXCXHXHXHXHXHXHXHXKXPXJXPXvX>X[.[.].o.).o.o.o.X.).(.J J J K D H 7.7.H 9.9.7.z.b.b.b..Xb.7.b..XoX.Xx.'.%X#X@X+X*X<X>X>X9X0XqXwXaXbXBXGXFXMXsXuXuXMXLXKXKXKXKXKXKXKXKXKXjX`.; g F W G /.X././././.(.).(./.(.`.).X.X.X./.` S S A Z Z d f f p p f ) ) ) Z d.m.%X%Xx.H ` M.M.` c.n.B.n.n.J.J.G.G.v.v.m.m.m.m._.OXOX`./.(.X.W G G F F F b b v b G E E 2XpXqXtXaXtXtXyXyXtXyXyXeXeXeXyXyXyXsXhXjXjXlXSXVXkXfX*X].].[.X.E J /.8.8.x.9.7.z.b.3.7.v.m.J.m.m.m.J.XX5X5X$X%XOX$XOX$X9XwXyXnXCXhXyXnXHXGXCXmXmXnXmXLXKXKXKXKXKXKXJXLXFXPXCXCXCXBXvXvXiXj               o O O + 5 k e m H H N h u N f f f s s s s :.y.y.i.i.i.i.u.h.h.h.u.u.u.i.i.i.i.i.k.k.k.Z.Z.Z.Z.H.F.F.v.v.v.9.3.C V V M M m m m m h h h h j B X.G W X.o.o.<XGXLXLXFXmXFXLXKXKXKXKXFXuX9X9X9XwXsXsXbXnXhXtXyXwXmXhXuXsXvXFXvXPX5X.Xm.7.C 7.b.7.H C M m C 7.x./.).[.}.OXOX+X+X@X=X>X0XqXpXlXVXNXCXCXbXsXtXyXyX",
"hXjXNXNXNXnXBXBXCXBXNXNXBXGXGXKXKXKXKXHXGXKXCX0XX.W F G W X.X.W o.o.o.X./.r.J J 8.8.x.b.v.F.G.H.L.L.L.L.L.A.A.A.A.A.K.L.W.L.L.K.H.G.F.v.z..X7XPXJXKXHXHXAXAXAXHXHXHXHXHXHXHXHXHXHXHXHXHXHXHXnXjXNXlXjXjXjXnXbXbXbXmXDXDXcXiX$X.Xz.H H C B h h B C A 3.j.j.j.j.h.2.:.s / ^ ^ / / ( f.l.g.l.l.N.k.l.l.l.l.g.d.d.d.v.m.J.XX5XxXxX7XxXiX7X7X7X7X7X7X7X#X$XOX%XOXiXKXKXKXKXKXKXHXGXFXKXKXHXHXHXHXGXLXvXmXgXyXrX,XrXrX|.].).].o.o.[.[.).).X.J J J x.x.J '.x.H H x.x.x.8.'.OX7XiX5X$X%XOXOX@X@X@X=XrX<X>X0X0X9X9X9XtXhXnXCXnXwX9XuXMXmXKXJXLXHXKXKXKXKXKXNX[.% ; g k ; k k k k k j j L K K K J J G J ` ` ` S S S Z f f p s s r t ) t t e K /.`./.b l n X.` M.c.n.B.n.n.J.J.n.n.n.n.n.m.v.b.b._._.x.J J J K F D D D v v v g l b E E <X2X0XyXsXwXwXsXsXtXhXyXwX0X0XeXsXhXnXBXCXjXkXjXVXZXjXqX*X@X|.[.(.(./.K j B 8.x.x.x.b.z.z.z.b.b.b.m.x._.$X$XOXOX$X#X,X=XqXyXyXhXnXbXGXGXFXCXCXmXbXhXmXFXKXKXKXJXLXLXLXLXFXFXCXCXGXHXFXLXuXj   O O O O O O 5 5 e e e e e u N N N u t f f f s s s s s :.:.y.u.h.h.s.s.j.d.s.s.s.f.f.u.u.i.u.i.k.k.k.Z.Z.C.Z.F.F.F.v.v.5.6.6.V V V V N N N N N m h j j D (.X.W X.(.).,XHXKXKXKXKXLXKXKXKXKXKXMX9X9X9X9XhXBXnXhXbXyX9X9XyXbXhXbXsXtXnXLXDXcXxX5X8.h h B D B j D H /.`.%X%X}.+X+X+X+X@X@X9XqX0X=X@X=XqXdXsXtXwXqX9X=X#X#X",
"NXCXZXCXBXCXCXCXCXCXBXBXGXGXKXKXKXKXKXKXGXHXCXyX[.].).).).].o.X.o.o.(.).(.(.r.8.x.x.x.x.b.v.G.G.I.K.L.L.L.K.K.K.L.L.K.C.C.H.L.P.v.v.b..X$XiXPXLXFXFXLXGXAXAXHXHXHXHXAXZXSXZXHXHXHXAXHXHXHXNX+XX.).o.o.X.X.X.J J J /.'.'.b.H m e e m N m m m C A 3.3.3.d.j.h.s.:.d s s / / / / ( _ l.n.d.d.l.N.k.f.l.l.l.l.l.n.H.n.J.J.v.J.XXXXb.v.7.7.C C C B B C m h h h h '.uXKXKXKXKXKXKXHXGXKXKXKXKXHXFXCXmXvXwX9XsXyX*X<XlX1X@X}.|.].o.].).).].).(.(./././.`.`.'.8.x.'._.`.$X5XiXgX9XOX`.OXUX@X+X@X-XpXzXfXeXtXtXwX9X>X9XqXsXnXmXsXuXuXMXmXLXFXFXLXKXKXKXHXHXNX+Xg l z g + k e k k h h j j D D D K K D D D ` _ S S S f f f p ) ) t t S t * + - b b c - % : n ` '.M.c.c.n.Y.n.m.n.n.n.n.v.v.v.v.z.x.8.H K H K K B B B D D j j g l v b b <XdXeXhXsX0X9XsXbXhXnXsXwX0XwXhXNXZXBXBXNXjXaXdXlXSXlXdXpX0X=X+X|.[.).W j k K H K H 7.8.z.x.x.H H H x.'.`.%XOXOX#X9XaXqXwXtXeXyXmXCXGXCXBXnXmXmXbXhXmXmXPXPXPXmXPXLXDXLXKXKXKXGXGXGXhXmXiXh   O O O 5 5 4 4 5 e e e e e e e u u N a f f s s s s s s s s u.s.Z A A ` z.` _ _ g.g._ ( ( ( u.u.i.k.k.k.h.j.C.Z.Z.C.C.C.5.5.6.1.V V V m N N N N m m h h D '.(.X.X.).].@XHXKXKXKXLXLXKXKXKXKXMXuXwXuXiX9XyXhXsXtXtX9X@X}.qXsXbXBXvXyXhXMXvXMXMXuX5XOXJ + k k v J (.`.`.}.}.}.}.OX@X#X>XrXjXaX>X[.(.).+X=XqX9X9X9X9X=X#X=X",
"hXNXBXNXCXHXKXKXBXBXGXGXGXKXKXKXKXCXFXKXHXGXNXtXeX0X=X|.[.}.[.].o.].].].).`.(.(.(.'.'.'.x.b.b.G.G.G.J.J.I.L.K.K.C.F.L.L.F.F.F.G.b.oX5XiXcXJXKXLXCXCXBXCXAXGXCXCXCXSXCXSXSXSXHXHXHXHXHXZXAX0XG - l : - ; % + X @ + + 5 e e e e u u N V N N V A A 3.3.s.2.s.:.d s s s s / / / / d _ M.m.z._ g.g.g.N.l.l.l.l.n.l.n.H.H.H.H.H.J.F.v.v.v.9.3.3.C C B C M B C M B oXDXKXKXKXKXKXHXHXHXHXHXKXKXKXCXbXhXjX0X,XaXrX}.@XpX<X-X|.*X*X}.}.).].].|.}.].(.(.(.[.`.(.`.OXOXOX#XtX@X).).[.[.OX#X9X=X*X=X<XfXlXfXdXdXaXeX0X>X=X#XtXhXCXGXmXMXbXmXFXFXFXLXKXKXKXHXKXCX+Xk g z l ; k k h h j j j j j j B K K B B S S S S f f t f s p r t ) x x ; % # # # & > > # % - n ` M.M.c.n.n.n.n.n.n.n.n.v.v.n.v.v.v.z.7.H 7.H A C C C K D D B v v F b G pXlXaXhXsX0X0XsXjXhXNXhXyXsXnXGXHXGXBXbXbXhXjXNXSXZXHXNXlXlXdXpX=X[.[.[.(.F D k k D k j K x.` J D D `.%XOXOX@X=X>X<X<X0XsXNXnXnXLXHXhXbXbXmXCXCXFXHXLXmXMXMXMXMXDXKXJXJXKXKXKXKXHXFXmXDXuXh   O O O w w w e e e i i w e i e i f d d f s s s s s s s s d _ S x g l n F v x x S _ _ _ _ _ ( u.i.i.i.k.h.h.Z.Z.Z.C.C.C.C.V.4.2.1.1.V V V V V V N N N m B /.`.X.(.).].|.HXKXKXLXFXmXLXKXKXKXMXuXuXuXuX9XtXaXqXwXaXaX9X=X#X9XhXnXbXnXbXmXnXBXPXbXbXmXwX`.D D G (.[.`.[.}.).}.}.}.@X>XyXnXNXdX=X[.(.(.[.+X=X=X,X9X9X,X9X9X",
"sXjXbXhXnXGXHXHXNXBXFXGXKXKXKXKXKXHXKXKXCXhXwX#X>X0X>X@X+X@X+X|.].].[.[.[.[.[.).).).(./.x.x.9.7.b.b.G.G.G.J.G.F.5.v.J.J.J.J.J..X7XcXPXxXuXvXHXKXHXCXBXCXCXCXBXhXNXNXNXNXCXAXHXHXHXHXHXHXHX>XG v b b c l g ; + + e e h h u m V 3.V V V V V 1.V V 3.d.s.:.s p s s / / / / / ( ( S ` x./.x.` ` c.g.N.N.l.l.l.N.l.g.n.l.H.H.P.L.H.H.F.v.5.5.3.3.3.C C V C A M M .XcXKXKXKXKXHXHXHXHXGXGXHXHXHXmXhXeXeXaXrXaXrX=X<X<X1X<X*X1X2X-X@X|.{.{. X X{.].].[.).(.(.}.@X}.[.}.).W G (.+X*X=X=X*X*X<XqX<X<XfXfXpXeXtXeX0X=X#X@X=XqXhXCXFXmXCXLXFXFXFXHXKXKXKXHXKXAX@Xg z b v - * e h h M B M M B B K K K H H ` S t t t t f f ) ) r t S x ; X # # # & $ $ $ $ $ > : v ` m.J.H.n.n.c.n.n.n.n.n.v.v.v.v.m.b.v.7.7.9.3.3.3.3.C C K D v v G W O.pXpXeXsXhXsXyXsXaXyXsXsXbXBXHXHXBXbXBXbXvXnXBXSXNXSXHXlXZXHXVXNXsX=X+X*X|.].X.F j v k k j D G J ` /.`.OX+X@X=X,X,X1X>XqXjXCXnXbXCXmXhXbXBXCXCXmXLXKXKXLXmXmXmXMXDXKXKXKXKXKXKXKXHXHXbXMX7Xe   4 4 w w w y y y i i y i i a a a a f f s s s s s s s f d S S x ; % < > > > ; ; ; x ' _ _ _ _ u.i.i.i.k.h.h.j.Z.C.C.C.C.V.V.4.4.2.2.1.1.V V V V V N N B j ` `.X.(.(.[.}.GXKXLXFXmXMXmXLXLXKXLXMXwXiXwXwXNXeX@X+X#X9XtXBX9X9XsXhXvXnXMXmXCXCXKXGXaXwXdXBX=X}.).[.[.].[.+X}.+X@X=X,XrXjXCXBXhX0X@X+X+X+X+X=X9X9X9X,X,X=X=X",
"hXnXnXhXbXZXGXCXBXGXGXKXKXKXKXKXKXKXKXCXyXqX>X+X+X*X=X*X=X,X*X|.|.}.[.[.[.[.[.].).).(.(.'.x.7.C 8.x.b.b.b.J.G.b..XJ.v.z..X5XxXDXJXJXDXuXiXyXFXHXHXHXAXAXAXCXnXhXBXNXNXSXSXHXHXAXjXaXaXjXSX,XG W b c c l l ; + + e k h m m u u u V V V V 1.1.1.2.2.2.d s p p s / / s / / ( ) f S K G J W G D _ _ N.N.N.N.N.B.B.Y.l.l.Z.H.H.H.K.H.F.v.5.5.3.3.6.6.3.6.7.7.B C XXcXKXKXKXHXGXFXGXHXFXCXCXCXmXbXyX0X0XdXaXpXpXpXdX<X-XfX1X*XpX<X1X<X|.{.].{.{.{.{.}.).).(.].|.].X.o.E o.|.*X*X+X+X@X*X@X=X-X-X-X<X<X<XqXwXqX9X=X=X=X#X9XtXyXvXBXHXHXPXFXJXKXKXHXHXHXZXNX@Xg v b b - e e h h m B B B B C K C B S B S t t t t t f s ) ) t t t ; X # # # $ $ $ $ $ $ > > ; ; x z.J.J.n.c.c.c.c.n.n.n.n.j.v.v.v.b.b.v.9.9.5.3.3.3.C C B B B D G X.X.pXpXdXkXjXnXbXsXtXyXsXjXCXGXGXBXhXsXnXbXnXBXBXnXnXNXnXeXbXGXnXBXGXNX-X*X|.|.|.[.(.F v j g v K X.`.+X[.@X>X=X@X@X*X1XqXdXNXNXyXhXbXgXmXCXGXCXnXbXmXKXKXLXFXLXPXMXMXPXJXKXKXKXHXGXGXGXKXFXiXh O w w w w w y y y i i i y y i i f f f f s >.s s s s s f S x x ; # # = = = = = # < ; x ] _ _ _ f.k.i.i.k.k.l.h.h.C.D.D.D.V.V.4.4.4.2.1.1.1.V V V V V N N B J `.X.).(.}.}.FXKXKXLXFXmXmXFXmXFXLXPXuXwXwXyXNX0X}.).).`.#XbXvXwXvXhXuXuXiXbXKXNXkXdXqX>X>X>X>X|.].[.+X}.}.|.=X>XwXyXyXyXsXhXjXaX0X=X@X*X=X=XtXsXtX9X,XqX9X=X",
"bXBXnXbXnXHXKXKXFXGXKXKXKXKXKXKXmXCXCXhX9X9XwX0X0X>X=X@X=X>X=X|.,X+X}.}.+X+X}.].].).].[.`.'.8.K K J 8.x.'._..Xm.7.x._.$XiXDXJXKXJXJXPXmXCXHXHXGXHXHXHXHXGXCXCXBXCXNXNXCXHXHXHXAXSXyX0XjXHX>XG F b c z l l g ; + e e h m m V V V 6.1.V V 1.1.2.j.2.f r r p / y.s / f f ) ) t x x : : l c l g x ' _ g.N.N.N.N.N.Y.l.Y.H.Z.Z.Z.S.Z.F.F.v.5.5.3.3.6.6.6.3.3.B C oXPXJXKXKXHXFXCXFXFXFXCXbXbXhXsXwX9XrXaXrXeXaXaXpX-X1XSX<X@X<X,X,XpX,X|.].]. X{.].).).].].(.].].o.o.{.|.*X|.[.[.*XqX0X@X}.|.-X<X<X=X-X0XeXwX>X,X9XwXwXhXhXwXwXBXGXmXPXLXKXKXKXHXHXKXHXHX@Xg z b F j e e u h m C C C B C H H A S N t t t t t t f s ( f t t * % X # $ $ $ $ ~ ~ $ $ $ $ # ; k S d.n.H.n.n.c.c.c.c.n.n.n.n.n.v.v.v.v.v.v.5.5.6.3.6.C C B K G X.X.X.aXlXSXjXjXSXnXyXyXbXCXHXKXHXBXbXhXbXtXdXNXCXNXjXCXHXHX0X0XbXBXKXKXjXpX-X-X*X|.|.[.X.G F b G ).}.}.}.,XdXlXpX@X|.*X<X>XdXAXHXbXMXMXuXBXNXBXNXbXhXmXKXHXCXFXLXFXIXuXuXMXLXKXKXKXFXCXCXKXDXiXN O e e y y y y y i i i i >.i i f f f f s s s s s / / d S S x ; < = = = = $ = = = < < < ; ' _ _ f.k.k.k.k.k.k.k.h.k.V.D.Z.V.V.h.4.4.4.2.1.1.2.V V A C C B B J `.(.).(.|.+XGXKXKXKXLXFXmXmXFXMXMXFXFXvXuXuXhXaX0X>X#X}.@XsXBXqXsXvXuX9X#XbXNXSXZXdX=X=X=X=X+X].].>XdXqX*X+XqXyXjXjXkXrX9X,X>X,X@XOXOX=X0XeX,X9X=X+X#XqXwX=X",
"bXFXLXLXKXKXKXKXKXKXKXKXMXFXLXuX#XwXgXyXwXeXwX,XwX9X=X@X=X0X0X>XqXrX0X@X}.}.}.+X[.].}.}.`.OX[.J J K K 8.'././.8.H `.iXPXJXJXJXKXKXKXKXLXFXFXHXKXKXKXKXKXKXLXFXPXLXCXnXBXLXHXGXCXNXkXjXBXZX>XW F T b c z v g ; * e e m m V V 1.1.1.6.6.1.6.2.2.d f r r p ^ s s / ) ) ) S x ; : , , < < < , , c n ' ` ` B.Y.N.N.N.N.U.Y.N.k.k.k.Z.H.v.v.v.3.A 3.9.9.3.6.7.C C oXDXKXKXFXmXPXJXKXHXCXnXwX0XhXkXyXjXeX,XkXNXrXdXjX<X0XeXpX0X=X=X>XrXrX,X=X#X}.[.}.|.+X[.].].+.+.]. X-X-X*X+X+X=X-X=X{.|.&XfX2X*X<X1X>X<X=X=XyXhX0X,XyXvXbXuX9XwXsXbXmXLXJXKXJXKXJXCXHXZX,Xg b F G h e u u m M M C C C C A 3.S e e t f f t t t t t f f e O X # $ $ $ $ $ ~ $ $ $ $ $ $ $ # - B Z d.g.n.n.c.c.M.M.M.M.` z.z.v.v.v.v.v.5.5.5.5.5.9.5.3.C H K /.G X.NXVXkXaXhXnXvXuXuXcXJXKXKXGXBXjXNXGXpX-X-XlXHXjXlXAXCXsXwXCXnXhXKXHXkX|.=XkX>X+X@X+X}.).).OX}.[.}.<XjXAXkX>X>X>X=X,X0XhXnXnXnXtXuXBXCXaXwX0X9XyXCXKXKXCXuXyXvXbXsXtXgXMXDXKXKXKXKXKXKXJXiXC O e e i y i i i i i i i a a f f f p p p p s s s s d Z x g - # $ = = = = P P = = P P < < g x S g.f.N.k.k.k.k.k.k.k.k.f.h.h.j.4.4.4.4.4.4.4.2.2.6.3.C C C j J ).).).].|.+XBXFXKXKXFXMXmXLXMXFXKXLXPXMXvXuXsXyXCXKXZXyXqX9XNXyXIXCXmXsXuXtXbXZXGXjXtXqX0X=X=XeXaXwXwXbXBXNXjXyXwXyXwX,X=X,X,X@XOX+X@X#X9XyX=XOX=XOX[.=X9X9X",
"MXLXKXFXLXFXFXKXKXLXFXKXKXFXIXiX9XyXhXwX9XwXhXjXsXyXrX0XqXeXqX0XqXeXeX>X@X+X}.}.+X}.}.[.).).}.).OX(.J D K J K D `.#XIXKXKXKXKXKXKXKXKXLXKXKXKXKXKXKXKXKXKXLXFXmXFXCXnXnXCXLXCXCXNXnXSXAXHX<XW E b b c z b z k e h h m V 1.1.1.1.6.6.6.6.6.2.d f w p / p p / y.p ) ) t x ; ; < < I = = < I U U , : x ` c.Y.U.U.U.U.U.N.Z.l.Z.Z.k.j.v.v.d.z.v.z.C 6.6.6.3.C C .XcXDXKXKXmXvXvXMXCXwXwX,X9XdXeX0XdXdX>XaXlXqX>XqXwX>XqXwXwXqXwXeXaXrX0X#X}.}.}.}.}.).].].].].{.&X-X-X*X*X*X@X|.[.|.E 1X2XfX2X2X2X<X-X>X,X,X>X<X0XyXnXhXuX9X,X9XyXmXnXFXKXLXDXJXJXJXCXSX-Xg b G ` j e u N V C C C A 7.3.C u t t u f f f f f t t f d Z A B - # $ $ $ $ $ $ ~ ~ $ $ $ P = < c K _ _ s.l.l.n.c.M.` ` ` ` z.d.d.d.v.v.v.j.5.5.5.5.5.5.3.7.H D ` X.`.NXlXaXkXyXwXwXgXxXiXiXMXPXFXGXHXSXdX&X{.{.1XdXkXkXNXbXjXbXHXNXhXKXAXsXqXkXlX>X@X#X+X).(.).}.+X+X>XkXSXjXeXrX<X=X,XsXhXnXmXCXmXuXuXGXdXjXNXZXNXyXyXCXKXPXbXvXbXBXbXsXuXxXIXMXCXLXKXKXFXJXiXA 5 e u e i i i i i a a a u f f p p p p p s s s s s d N g ; # $ $ = = = = P P P P P = = , : n S _ _ f.f.f.k.k.k.k.f.f.f.f.g.j.5.5.5.4.4.4.5.2.3.3.3.A C K D /.`.[.).[.}.@XbXKXKXKXMXMXmXLXKXKXKXmXsXtXuXMX9XqXtXsXbXvXyXtXsXtXyXsXsXbXbXaXKXGXNXbXaX0XqXtX0XaXNXZXbXaXjXHXNXjXdXeX>X@X@X=X@X#X@XOXOX9XwX9XwX#X9X#XOXUX9X9X",
"mXKXKXLXFXMXvXmXFXKXFXMXIXwX9X9X9XwXwX>X=X>XsXNXjXdXeX0XqXeXqX0XjXNXZXjXeX>X@X+X@X[.[.}.}.[.[.[.`.OXOXW j j /.9X9XuXPXKXKXKXKXKXKXKXKXKXKXKXKXKXKXKXKXKXLXLXFXFXHXCXnXnXCXCXCXNXkXjXAXHXAX,XW E b b c c b v k k h m V V 1.6.6.1.2.3.6.2.2.1.a r s p p ^ s s :.u.) t t g : , < < I = = = < I U , , n ' _ g.N.U.U.U.U.N.N.Z.U.k.l.d.v.z.z.z.z.z.3.7.9.9.9.7.C oXMXKXLXmXbXmXCXbXsX9X,X=X0XaXwXqXkXdXeXaXjXpX0XeXlXdXaXeXrXaXjXNXlX0XyX,X}.}.+X}.+X|.|.|.[.|.*X-X*X<X*X+X@X[.(.].-X{.2X-X X3X1X1X1X<X-X-X<X,X>XeXhXyXyXhXLXBX0X+XOXsXNXGXFXDXJXKXKXAXZX,Xg v G G h e u N C C C 3.3.7.7.V e w u Z f f s f f f f d Z z.m./.l # = = = P $ $ $ ~ P P P P P Y R D K S Z s.h.n.n.c.` ` ` M.z.d.d.z.v.v.v.v.9.9.5.9.9.9.7.8.J D ` X.).aXaXaXaXyXtXvXFXPXgXiXIXMXBXAXAXzX*X].].-XpXlXAXjXNXhXnXCXGXnXhXZXCXNXjXjXNXkX0X+X).+X@X=X,X<XeXjXNXaX<X<X0X,X,XyXNXsXtXhXmXvXuXmXKXKXAXNXZXKXbXhXKXFXmXbXMXBXCXBXmXIXuXuXuXvXCXHXKXLXKXxXH e u u e a i i i a a a a i f f r r p s p s s s d d S x ; ; = = = = = = = $ P P P P = = , E X.'.z.d.s.l.U.k.k.N.l.k.f.f.f.g.d.d.5.5.5.5.4.5.3.3.3.3.A C C H '.%X}.`.[.+X#XbXKXKXsXwXbXHXHXGXBXbXsXwX9XwXbXtXbXsXwXBXHXBXnXaXaXtXUX#XwXBXBXZXbXaX0X=X#X>XeXsXhXNXZXbXaXhXZXAXyX=X=X>X,X=X#XOX#X#X#X,XwXwX=X=XOX@X#X#XUX=XUX",
"CXHXHXHXHXbXyXsXbXKXBX=X#X9X9X9X0XwXeXeXeXaXkXjXNXdX0X>X>XqXpXeXNXZXHXAXNXjXeXqX=X+X}.OX@X@X}.).}.[.)./.).@XsXKXvXMXFXKXKXKXKXKXKXKXKXKXKXKXKXKXKXKXKXKXLXLXKXKXKXHXFXFXGXFXCXnXrXaXAXHXSX*XG E T T c z n z k h m N C C 6.6.4.6.2.3.3.2.V a f p ( p r s y.s s ( t t * g , , < = = = = = = < I U U , x x _ f.N.U.U.U.U.U.Z.N.l.l.n.d.d.M.z.A A b.7.9.9.7.7.H oXPXKXCXhXhXBXGXjX0X9X>X,X,X>XqXaXkXeXNXdXqXeXeXdXkXjXpX,X+X@X0XaXaX<XhX>X@X=X@X}.@XaXqX=X*X<XfX<X|.-X*X-X=X+X[.*XzXfX2X+.! @.@.&X1XpX@X@XrXrXaXkXhXkXhXkXNXNXaX=X+XeXdXBXFXFXKXKXHXHXAX*Xg v G D e u a V V C C 3.7.3.A f w w f Z f f d d d f d _ _ M.` G : > Y P P P = $ & > Y Y Y P I I > : x S _ 2.h.j.v.z.M.M.M.` z.z.z.z.z.z.z.v.v.9.9.9.9.9.7.C H K X.X.).aXSXdXeXaXGXKXKXKXKXMXmXBXSXAXSX1X{.+.|.lXdXdXHXdXNXbXnXnXnXhXhXnXjXAXNXjXNXjX@X).}.eXNXSXjXkXlXSXNX>X<XaXrX=XrXjXyXwXqXhXbXhXBXKXKXbXaX#X,XCXCXuXhXmXmXmXFXGXKXKXGXmXvXuXuXyXbXFXHXLXKXxXH e N N u a a u a a V Z Z w t f t p s s p >.>.d d _ S x ; < = = P = = = = = = = = P P $ & R W `.b.v.s.k.h.k.k.l.l.f.f.g.g.l.g.j.j.j.5.5.4.5.5.3.3.3.3.C C C x.'.'./.'.`.@XyXbXsXwXtXBXCXhXBXbXhXsX0X#X@X#XaXCXsXqXhXhXtXyXsXbXbXqX#X9XbXGXhXGXNX>X@X9XsXjXBXnXtX0XeXNXNXaXjX<X@X@X>X>X=X@X#X@X#XqXyXuX9X#X#XOX#X9X9X=X=XUX",
"CXCXnXBXHXCXbXNXGXKXtX+X=XaXeX9XwX0XwXaXjXjXdXaXkXaXqX0XqXeXfXdXdXnXNXNXNXNXNXNXhXaX=X}.+X@X+X[.}.).).OXuXKXKXGXKXKXKXKXKXKXKXKXKXKXKXKXLXKXKXKXKXKXKXKXKXKXKXKXKXKXKXKXHXZXnXkXrXaXZXHXAX,XE O.T T c l v g g j B B C 6.6.6.6.2.A A A A a f f f p s s s y.i.:.w S x ; < < < = = P I I I I I I I < # ; ' c.N.l.Z.U.U.U.U.N.l.l.l.n.d.A M.m.z.z.v.C C C C B C %XcXCXZXNXjXeXwX0X,X>X0X<X@X@X<XpXqXrXVXrX,XqX<X0X,XdXpX>X@X@X<XwX0XrXeX>X=X,X+X}.0XZXnXaXeXlXAXkX1X*X-X<XpXeXrXfXzX2X;X+.@.+.+.@.*X<X|.@XrXaXkXjXhXaXaXwX0XaXNXNXdXqXpXaXhXmXLXKXHXAXlX|.g F X.K e N V V V C C 7.7.3.V t w t t d d d d d d Z d.z.M.` v - > Y Y P P Y > > - - c , = P I P = > l D _ 2.4.s.d.d.c.c.c.S A z.z.z.d.` z.v.v.v.9.9.9.9.9.H J J X.X.].2XSXdXaXjXGXKXKXKXKXKXGXSXAXAXzX&X+. X*XzX<XqXHXNXZXnXnXnXhXNXCXjXaXNXHXZXaX*X).[.aXdXSXSXaX<XrXdXkXrXpXVXjXwXyXyX,XwXhXHXCXMXKXKXnXKXhX`.J OXvXFXKXLXLXLXKXKXKXKXKXFXCXbXgXuXsXbXCXmXLXiXH e m N N a a u a V V N f w w t f f s s s >.>.:.s._ x ; < = = = = = I , < = < = = P $ & & & z (._.XXj.h.:.k.l.l.g.s.g.g.l.l.l.j.j.j.j.5.5.5.5.5.3.3.3.3.A C 7.7.7.H H x.'.#X#XqXbXGXCXsX9XyXeXaXhXdXqX=X=XhXAXNXjXNXaX0XhXnXnXZXBXsXsXbXBXZXAXsX>X9XbXHXHXZXjX9X=XeXNXNXsXaXyXeX0X=X+X+X@X#X@X#X9XuXwX9X9X9XwXyXvXyX=X#X=X",
"CXjXtXsXZXGXCXAXbXaX0X0XqX0X0XaXaXqX0XaXjXdXdXdXeXqXqXpXaXaXfXdXNXNXNXjXjXjXnXjXNXHXjX=X@X+X}.}.(.+XwXNXGXKXKXGXKXKXKXKXKXKXKXKXKXKXKXLXmXFXKXKXKXKXKXKXKXKXKXKXKXKXKXKXHXCXbXsXrXyXNXAXAX,XE E E T c l v g j B C C 3.3.3.5.5.5.3._ A S f t f s p s y.y.s s s a ` n , < < = = P = Y U U I < = = = # < n _.B.l.U.D.D.Z.U.Z.N.N.B.d.z.z.z.m.oXm.A V C C C C H OXMXHXZXNXaXqX>X=X@X>XqXrX,X@X<XrX*XaXlX>XeXkX>X0XqXeXdXdXeXpXkXjXeXrX<X@X@X@X}.@XhXBXZXBXNXBXBXhXeX2X<X<X<XdXlXzX2X2X;X$.$.@.$.$.+.|.+X=XrXrXrXaXkXrXaXaX0XaXVXlX<XfX<X<X9XuXmXFXFXAXjX}.v J /.K e V V V V C 3.7.7.d.f w w r r f d d _ s.2.d.z.M.` n : < < Y = P Y Y > % % k g l > P P P P = > g B d.4.2.2.d.d.d.d.S A z.M.c.` ` ` b.v.z.9.9.9.0.7.x.J F G o.[.*XpXNXGXKXGXBXKXKXKXKXAXAXAXSX2X X+. X|.=X=XaXHXZXnXBXnXBXnXHXHXsXsXjXHXkX+X}.|.,XNXjXjXeX#X}.}.,XeXdXrXkXSXNXaXwX9X,XhXFXbXvXHXKXuXtXnXyX9XMXKXKXFXKXKXLXLXLXLXCXBXFXCXCXbXsXyXvXMXLXDXiX8.e N m u u u u u u u t e w w w f f f s >.>.:.h.d.S g < # = = = = = U , , # > > = $ $ & & & % E '.XXH.Z.Z.l.g.f.s.s.g.l.n.l.g.j.j.j.j.j.5.j.j.5.5.5.5.3.3.7.7.7.7.C C C 8./.(.@XsXnXyXtXsX9X0XwXdXlXjXaXqX@X,X=X=X>X=X=XtXHXbXsXsXbXNXBXNXKXeX@X,XhXZXGXGXbXeXwXsXjXsXjXAXjXjXdXwX,X@X+X+X+X#X#X#X,XuXuX9X9XbXbXnXsX=X#X#X",
"AXnXsXjXZXnXeXaX0X>XqXaX>X*X<XjXNXdXaXdXaXqXdXZXeXqXpXdXdXdXdXaXBXZXZXNXjXjXjXdXNXHXjX9X>X=X+X@X=XtXNXKXKXKXKXFXKXKXKXKXKXKXKXKXKXKXKXmXmXLXKXLXLXKXKXKXKXKXKXKXKXKXKXKXKXGXBXbXsXeXhXlXSX,XG b T T n c n v j B K H 3.3.5.5.5.5.A S f f f t f s u.s s s p y :.n.` n , < = = I I = > > > < = = = P = < , ` M.Y.R.S.S.D.Z.Y.n.N.g.Z c.n.z.c.m.x.A 3.7.7.7.7.7.OXgXAXVXdXrXrXrXqX,XaXrXaXaX0XqXrX=XaXNXqXjXNXeXNXkXeXaXeX<XqXdXdXrXrX=X|.|.+X=XeXBXBXGXKXHXBXbXyXeXdXpX,X,XrXkXpX1X2X&X$.+.@.;X+.+.1X<X>X>XrXrXrXaXjXzXeX,X,XrXpX<XpXpX0X0XwXbXmXmXNXyX[.G ` x.B h m m N V C 3.3.3.Z t w w r r t f d _ d.j.v.b.x.G : < < I P = P Y , % . @ 5 5 k c = = P P = = ; g 3.2.4.4.4.2.2.2.d.c.c.c.c.z.` z.x.z.7.7.9.9.7.7.J K F G ). X*X<XdXGXKXGXZXHXKXHXHXAXAXAXSXpX*X X X|.*XrXVXHXjXeXnXbXBXbXCXnXwXNXdXeX@X}.*XaXjXkXVXeX=X+X}.}.=XaXkXeXrXdXNXkXrXwX,XsXbXyXuXbXvXuXuXBXLXMXMXFXLXLXKXFXPXPXFXFXmXMXFXCXmXbXbXnXmXPXFXuX$XC e N u e u u u t e e e w w w r f f f s :.i.V.j._ x ; # $ = = = = > c c l . + % % & & $ $ & & % G b.J.Z.R.l.d.d.d.g.n.n.c.g.g.j.g.j.j.j.5.j.5.5.5.5.5.5.5.v.5.3.9.7.3.C H K D J `.OX+X=XeX9XwXaXdXdXdXqX=X*X@X+X}.@X0XaXaXbXaXwX9X9XsXCXnXbX=X@XtXHXHXBXNXdXaXhXZXNXsXjXHXZXdX9X>X0XwX>X@XOX#X#X#X,XwXwX9X,XbXsXyXyX,X,X,X",
"HXAXCXZXAXeX@X+X=X=X0XqX=X-XpXpXdXaXaXqX*X|.=XkXdXaXdXdXdXdXdXkXdXjXNXnXNXNXNXjXHXjX=X+X9X0X,XqXZXHXKXHXGXKXKXKXKXKXKXKXKXKXKXKXKXKXLXMXmXKXKXLXLXKXKXKXKXKXKXKXKXKXKXKXKXHXGXCXjXeXyXkXSX,XG n T T b b G D B K C H 3.3.3.5.5.3.Z t t t t f f s s :.s p f 2.j.M.n , < = I I I Y > : - ; # < < = = = < < l ` J.H.L.S.Z.Z.Y.n.g._ Z n.m.c.S N A z.7.v.z.7.7.H _.9XwXdXkXeX<X0XdXVXVXrXaXjXpXqXeXqXrXAXdXdXdXaXAXeXSXlX0X@X*XeXdXaX<X*X+X+X=XeXNXCXKXKXKXKXKXFXvXuXrXeXaXyXeXrX0X<X&X&X;X+.;X;X+.1XlXjX0X,XyXdXrX0XrX0X<X<X<XqXrXpX2XpXdXsXgXvXbXbXwX,X).J x.x.C V u u m V A A A Z f t w r r r r t d Z j.v.G.b.J l < < = = = Y Y c l     3 4 3 @ % > $ $ P = $ $ l A 3.j.j.4.4.4.2.n.c.z.z.` ` ` M.z.z.7.3.3.9.7.7._.`.`.).].).].*X<XqXjXHXHXNXjXCXZXHXAXSXSXAXlX<X<XfXkXAXHXAXHXCXhXhXnXtXtXwX>XHX>X+X}.#XaXNXjXkXNX<X@X#X#X@X0XNXSXSXyX>XkXlXeX9XhXGXmXbXMXuXwXMXmXmXFXmXvXMXLXJXKXFXmXFXKXKXKXFXCXCXnXnXCXLXKXKXuXOXJ e e N m N S N N u t t t t t t t s f f f :.V.V.j.H g # # = = = = > : F K B   @ + % - & & $ $ & & Q `..XC.L.n.v.d.d.n.n.c.g.g.g.g.j.j.j.j.h.5.5.5.5.5.5.5.5.5.3.3.5.9.3.6.C K j j K /./.(.).}.=XwXaXkXVXkXqX<X*X[.(.[.qXjXwX@XeXjXwX=XwXjXsX}.+X>XhXZXBXaX0XtXjXNXbXhXbXNXCXNXdX9X,X>XqX0X>X@X@X,XwXwX9X,X,XqXGXhXyXsX9XqX9X",
"KXHXGXhXeX0X+X+X0X>X<XqX-X-XqXpXpXjXpX@X[.[.+X0XdXdXkXVXVXjXdXaXjXdXjXNXNXjXjXjXjX@X+X=X0XjXZXNXGXnXbXBXGXHXKXKXKXKXKXKXKXKXKXKXKXLX9XOXuXKXKXKXKXKXFXLXKXKXKXKXKXKXKXKXFXFXGXKXKXGXyXhXHX@Xb X.E G G W G D j B B B 6.3.6.6.6.2.t t t t t t f u.:.s p :.h.l.z.` , < < = = P U U l % @ + % - > > = = = > : v x.XXT.L.L.L.h.g.g._ n.n.n.c._ S S z.z.z.z.9.7.7.XX7X#XqXjXkXaXdXdXaXdXeX>X<XeXqX0XaXdXeXeX0XpXNXaX0XaXwX=X|.*XaXdX<XpX*X}.@XeXjXBXGXKXKXKXKXKXKXKXKXdXwXqXnXMXhXBXjX-X-X;X..+.&X1XzXZXNXrXwXNXqX+X=X>XrXaX0X<X0XrX<X<XrXdXnXmXuX#XOX'./.J K B B M m V V V V 3.3.Z f r r w w r r r t f d.v.9.G.x.v : < = = = = U R % @ o 1 3 8 8 3 @ - > P P = = = ; j A j.4.4.4.V.h.h.n.n.c.M.M.` ` z.z.z.v.9.9.9.b.$X$X#X@X+X}.[.].).].@X<XkXBXCXCXCXHXKXAXZXHXAXVXSXAXZXVXNXHXKXHXbXwXnXhX0X9X,XwX[.).,XjXwXeXlXeX<X=X@X*X=X=X,XeXeX>X>XpXjXkXsXhXnXbXbXsXuXuXuXvXLXuXuXFXLXMXvXFXnXvXbXBXFXPXFXHXnXNXCXCXBXsX9XOXB h e e h h m N N N N t t w w t r r t f f :.s.h.4.j.3.k % # = = = $ > l q @ 5 9 3 3 3 5 g % & $ ~ & $ ! E x.P.F.G.J.n.v.c.n.n.g.g.g.g.d.d.d.d.5.j.5.5.5.5.5.5.5.j.j.5.5.5.6.6.6.C B B B D K J /.(.).).|.,XpXpXdX<X*X].X.[.=X>X+X+X=X>XwX0X=X>X=X`.>XjXAXAXeX=X0XjXBXAXZXNXNXnXjXNXHXNX>X,XyXsXwX9X,X,X9XwX9X9X9X9XwXtX9X9X9X9X9X",
"bXmXbXuXhXbX=X+XaX0XqXpXqX<X0X0XqXdXdX=X|.[.@XpXNXkXjXNXNXbXjXjXbXjXjXjXCXZXjXyX,X=X>XaXjXAXHXHXZXNXbXBXHXKXKXHXKXKXKXKXKXKXKXKXLXLXwX5XMXKXLXKXKXLXFXFXLXKXKXKXKXKXKXLXLXKXKXKXFXLXhXhXCX,XG F G b F F D j h M m m m V V V V f t t t t t t r s s >.>.4.j.n.` n , = = P I Y U : + @ 0 0 q q g l > = = > > l F x.XXP.L.L.Z.f.g.c.B.n.n.c.c._ A A z.7.7.7.7.7.m.OX$X0XhXtX9X0XaXjXsXaX0X<X0X<X<XeXpX0X>X*X>XkXeX>X>XqX0X,X>XeXaXeX,X@X@XrXNXSXCXBXKXKXKXKXKXKXKXKXHXZXbXmXmXmXHXjX<X2X2X&X*XfXlXAXHXHXsX0XkXeX=X0X>XrXaXrXrXaXeX0XzXaXwX9X$X_.H B B B h h m m u u a V V V 3.3.Z f w r w r r r r f Z v.v.v.b.J l > < = = I U R z @ o 1 1 8 =.7 7 0 q % = = = = = = - B 3.3.4.:.V.V.h.l.n.c.M.M.` ` z.z.z.v.9.9.9.v.b.b.'._.`.`.`.`.).).).).}.,XyXBXKXKXKXGXZXHXKXGXjXVXVXjXnXZXKXHXbXwXtXwXyXjX,X[.+X+XaXZXkXaXjXeX=X@X@X=X,X=X,X<X>X*X*X<XdXjXjXjXHXBXhXuXuXuXuXIXvXuXuXuXvXbXbXbXsXsXbXmXCXFXLXKXHXCXyX,XOXJ k + k e e e h m m N N N u t t t r r r r t f d 2.2.j.j.v.C ; # = = = = > - % @ o 3 0 8 6 1 0 L z & & $ & $ > ; j b.G.b.m.m.n.n.c.g.g.g.g.f.f.d.d.d.j.j.5.5.j.5.5.5.5.j.j.5.5.5.5.4.6.C C C B B B D D J X.X.(.).[.@X=X-X|.[.}.|.].}.=XqX0X,XqX>XOX}.}.>XhXBXBXbXqX9XsXAXAXZXNXNXBXBXNXjXSXnXwX0XaXsXeXtX9X,X9XwX9X9XwXwXtXuXwX9X9X9X,X",
"KXKXmXwXuX9X}.@XtX=X@X=X>X0XpXpXdXjXdXqX=X+X=XdXBXNXbXNXNXNXNXZXZXNXNXNXZXCXeX=X+X0XjXNXAXZXZXHXGXBXjXjXCXKXKXHXKXKXHXKXKXKXKXKXKXKXmXMXKXKXLXKXKXKXLXLXKXKXKXKXKXLXMXMXLXKXKXFXKXKXKXhX9X`.G v j g j D D B B C C 3.3.3.5.j.5.a f t t t f t r r p :.V.j.z.x.K : < = P I Y U : + o 1 3 0 9 5 q z > > > > < > l D _.P.P.L.H.j.j.Y.Y.n.l.c.c._ _ S z.z.7.9.9.7.x.b.'.$XiXuXwXuXsXhXsXeX=X#X0XwX0X>XqX>X>X+X,XjXeX=X=X0XaXeX>X=X>XwX@X@X<XnXHXHXGXFXKXKXKXKXKXKXKXKXKXGXMXuXiXuXMX0XpXpXfX-XfXSXZXHXZXHXaX,XqXwX9X0XjXyX,X,XrXjXhXwX}.)./.x.H B m h e e e e m m a a >.1.1.1.2.d.d t w w r r r r p d j.v.b.b.8.F : > = = = U ! T q o 1 1 1 7 7 7 7 3 0 % - = P = = = ; g B 3.4.,.,.V.h.j.n.c.c.c.c.c.A 3.3.v.9.5.5.v.3.7.7.H ` x.x.x./.X.X.X.X.).OX#XwXbXLXKXKXKXKXBXNXVXVXjXbXCXHXHXKX9XqXhXhX9X}.].>XaXZXAXjXeXqX>X,X=X=X,X>X,X,X0X,X@X+X*X0XkXnXNXGXCXmXhXuXuXuXvXuXyXvXvXbXbXbXbXBXbXhXbXCXHXPXhX@X(.D j k 5 + + 5 e e e m m N N N N f f t r r r r r f d :.2.5.5.v.H j ; # = = = > > % @ o 1 2 2 7 7 2 3 5 L - # $ $ $ # # - H b.b.b.G.m.n.d.d.g.g.g.f.f.f.s.d.d.5.5.j.j.j.j.h.h.j.j.V.5.5.4.4.6.6.C C C B M j j B D J X.X.X.o.(.).X.o.|.}.].|.pXjXkXeXeX#X(.}.,XNXAXCXhXyX0XwXbXHXAXNXjXjXBXZXZXjXjXjXsXaXdXsXyXwX,X#X,X9X9X9X9XwXuXwX9X9X9X9X9X",
"KXJXMXxXiX'.G #XnXqX=X>X>X>XqX0XjXNXlXdXqX=X>XbXBXNXNXNXZXZXZXSXHXZXNXCXjXqX@X+X=XjXAXNXNXjXeXdXGXCXjXaXhXGXKXKXKXKXKXKXKXKXKXKXKXKXKXKXKXKXFXKXKXKXKXKXKXKXKXKXFXMXIXmXKXKXKXJXJXLXgXOXH B B j j g h B B K 3.7.3.9.v.j.v.v.d.a f r r f f f f p >.V.S.v.z.K n > < = P U U : % @ 3 3 7 9 9 0 9 q l > , > = < > l J .XP.L.L.Z.j.Y.Y.l.l.c.c.c._ S z.z.v.b.v.9.7.7.7.'.%X$X9XiX9X#X9XwX9X,X9XrX>X,X=X>X0X*X>XkXrX=X=X>XrXwX=X+X@X0X,X<XkXAXHXKXKXKXKXKXKXKXJXKXKXKXKXKXPXMXuXuXIX9XbXdXfX<XpXSXbXBXjXNXyX>XqXwXqXeXyXyXyXyXgXwXOX/.K B h e e e e e u u u m V V 1.>.>.1.4.1.2.s.d r r r r r r r s h.C.F.b.b.J l > < P I = , T j @ o 1 1 3 2 6 -.6 7 3 0 % > = = $ $ $ ; j A j.>.,.p.h.h.n.c.c.c.c.c.A 3.d.v.v.5.5.j.j.v.7.3.H 7.7.H H ` ` ` ` ` ` /.`.$XwXMXKXKXKXGXZXAXAXNXnXCXHXHXKXyXnXnX,X[.].=XdXAXAXjXkXqX=X=X>X=X=X=X,X,X<XrX,X,X#X@X,XeXjXnXhXCXHXmXyXtXvXmXhXwXyXGXGXsXaXbXsXBXHXZXjX0X}.J v + @ @ + + e h e e u m m m N V Z V f t t r r r r r s d 2.3.5.5.z.B ; # # = = $ > % @ o 1 2 6 6 7 7 7 2 o q z & $ $ $ # # & z 8.G.G.G.J.n.d.d.g.s.g.s.f.f.d.d.d.j.5.C.C.C.j.h.h.V.C.V.5.5.5.4.6.6.3.A C C B B m j B D J X.X.X.G F F T E o.|.<XdXaXdXqX>X+X[.9XCXZXZXnXsXaXtXaXhXNXNXhXsXhXBXZXZXNXjXhXjXNXjXsXyX9X#X#X,X9X9X9X9XiXiXiXiX9X9X9X9X",
"7XiXcXDXDX5X%XvXuX9X9XwX9X=X>X=XdXkXdXdXaX0XqXNXNXZXZXSXAXHXZXCXZXjXjXdX9X+X+X0XjXHXZXjXjXhXwXeXCXSXnXhXhXBXHXKXKXKXKXKXKXKXKXKXKXKXKXKXKXmXMXKXKXKXKXKXKXKXKXKXmXMXPXJXKXJXMXxX$X'.K j k h m h B B B B K C 3.7.3.5.j.j.j.d.Z f p p p f f f s >.V.V.K.v.H v : > I = Y U l % @ o 3 7 8 8 8 9 0 5 q : , > = = > > v '.XXJ.L.L.Z.Z.Z.l.B.n.g.g._ _ A z.v.b.v.v.z.7.z.7.7.7.x.'.'./.`.9XuXyXtXwX0XqX=X>XwX=X=XeX0X=X=X=X>XqX,X+X@X0XyXkXCXHXKXKXKXKXKXKXKXKXKXKXKXKXKXHXHXKXMXiXuXwXNXjXdXqXdXNXsXhXeXwX0X>X0X0X0XaXyXsXyX:X`.J B j h e e e e e e u u u u u V 1.>.>.>.4.4.2.4.2.s w r r r r r p :.Z.H.F.b.x.v : > P P Y > > g 5 o 1 1 o 1 0 9 8 6 7 6 0 5 - > = $ $ = # - K 5.:.,.p.h.h.j.n.c.c.c.n.d.d.d.j.C.C.C.C.j.j.j.j.j.5.5.3.A B B B C C H H J /.`.OX9XhXHXKXZXHXGXCXnXmXFXLXFXFXCX=X).}.>XaXNXAXjXqXwX>X@X,X=X*X@X#X*X=X,X>X,X,X,X#X@X>XyXhXhXBXCXbXuXsXMXmXbXtXtXBXGXhXpXaXpXkXaX@XX.F j g % + @ + e e 5 e e m m m m m N V V a f f r r r r r p s 2.h.5.5.9.H x ; # $ = $ $ - + o o 1 2 2 7 9 7 8 7 1 0 h z # # $ $ $ # % D .XG.G.G.n.n.g.s.g.s.s.f.f.f.d.j.j.C.C.C.C.j.h.h.V.V.V.q.5.5.5.5.3.3.2.6.A C C C B B h j D F G G F E b z b (.|.@X*X@X}.}.+X>XNXCXAXNXjXdXdXhXjXsXtXsXjXbXNXBXZXZXZXjXaXjXZXCXnXhXwX9X=X,X9XwXwXwXiXuXuXiX9X5X#X#X",
"m.oX5X7XcXDXxXKXIXuXuXwX=X#X9XeXaXaXeXeXaXwXeXNXNXZXZXZXHXHXCXNXnXwX>X=X+X+X9XAXHXZXjXaXjXjXjXjXnXjXbXNXNXNXBXCXKXKXKXKXKXKXKXKXKXKXKXKXLXmXFXKXKXKXKXKXKXKXKXKXKXLXDXPXiX$Xx.H h e 5 h m M C B K B C C C 6.3.3.9.v.v.v.j.d.Z f p p p p p s :.h.D.C.F.9.D l > Y I = Y U % @ o 3 3 7 8 8 8 8 9 0 q g l > = = = > - J .XP.P.W.L.Z.l.l.B.N.g.g.g.d.Z d.F.v.9.v.v.v.9.7.7.7.A C K K J '.OX9XbXNXdXeXwXeXaX,X=XqX0XqXqX0XqXaXqX@X@X,XjXCXHXKXKXKXKXKXKXKXKXKXKXKXKXKXHXAXGXKXMXiXuXuXeXeXpXrXdXjXwXwX0X,X>XqXwXqXtXhXyX#XJ h e e h h e e e e i i i i u u u u a >.>.>.1.1.4.4.4.:.f w r r r r p s i.Z.C.F.b.J l > < P = P U : % o 1 2 1 1 o 0.0.1 7 7 7 3 5 k > = $ ~ = = - x 3.4.p.V.i.h.d.c.n.n.l.n.d.d.j.C.C.C.C.C.V.j.j.j.j.j.5.5.3.3.V V C B B B K K K J (.OX9XyXCXAXKXKXCXmXMXbXFXuX,X}.OXwXlXZXHXAXeX,X,X@X}.@X@X#X=X,X,X=X=X*X@X*X=X*X@X*X>XrXBXnXyXwXuXnXmXhXhXbXbXbXBXZXjXqX*X[.E g ; - g k + @ + e k e e e u m m u u N V V 2.a f r r r r r r p :.h.j.5.9.9.D - # # $ $ $ & % @ o 1 2 1 2 9 w.0 3 8 8 1 0 j % & & $ $ # # l b.G.G.v.n.n.g.s.f.f.f.f.f.f.j.j.C.C.C.C.C.C.V.V.V.V.V.C.5.5.5.5.5.4.2.2.1.V V C N B B j h j j v b T E b z z F o.(.].).|.0XjXHXNXAXhXaXtXeXjXNXsXwXsXNXZXZXZXZXZXNXdXaXNXHXHXZXCXbXyX9X9X9XwXuXyXvXgXuX9X5X5X5X9X",
"A 7.b.7..X5X5X7XDXMXMXIX9X#X9XtXaXkXaXeXeXyXdXSXCXZXHXAXGXHXAXBXsX>X@X+X@XqXNXHXZXhXaXdXkXjXjXhXNXyXeXjXNXjXhXnXFXHXKXKXKXKXKXKXKXKXKXKXLXLXKXKXKXKXKXKXKXKXFXmXIXiX$X`.J h 5 + 5 e m B B M C A M B C C 6.7.9.9.9.5.j.v.j.Z f f p p s s s ( u.V.V.C.F.7.v : < P P < , - X o 3 3 2 7 8 8 8 8 9 9 5 k l > = P P = - v b.XXP.W.W.L.k.l.N.l.g.g.g.g.Z j.F.v.9.v.v.9.3.v.b.b.7.7.C K K D D /.#XwXrXwXlXdXdX0X,X0X<XwXeXwXeXpX0X*X=XrXCXHXKXKXKXKXKXKXKXKXKXKXKXKXKXKXHXAXHXKXDXMXFXnX0X<XrX<XrXeX#X9XeXeXkXdXeX0X=XOXJ j + + e e e * e e e e i y y i i u a a >.>.>.>.4.4.4.4.h.:.p r r p r r p y.k.V.C.9.v.K : > P P = P U g @ o 2 2 1 o 5 OXOX9 7 7 7 7 4 5 - $ $ ~ ~ $ > j 3.h.p.p.V.4.s.d.n.n.l.n.n.g.j.C.A.A.V.V.C.V.V.C.V.V.q.4.5.5.5.3.6.V N h B B x v G ` /.).,XwXnXHXHXmXMXbXmXOXOX=XyXNXNXHXHXNXqX=X@X[.).}.@X=X,X,X,X,X=X#X+X+X@X=X=X@X#X,XsXsXuXwXsXBXnXyXhXBXZXBXjXpX*X].z - ; g z g + X + + + + 5 e e u u m m u m N V V 1.>.f r r r r r p s u.h.j.9.9.0.j ; # = = $ $ - % o o 1 1 1 4 w.G.M 4 3 8 3 1 5 L & & $ $ & # % K F.J.H.n.n.l.f.f.f.f.f.f.f.g.j.C.C.C.C.C.C.C.V.V.C.C.q.5.5.5.5.5.4.4.1.2.1.V V N C C B B h k k l z T E z - l E E o.].,XkXCXHXBXNXsXjXaXqXsXNXhXaXjXBXZXZXAXCXNXdXdXjXCXAXAXGXHXBXbXyXwXwXwXwXwXMXuX9X9X5X$XOX`.",
"7.3.v.7.3.9.7..XXXoX7XxXiXiXiXtXnXGXBXsXyXsXjXZXZXHXHXZXAXHXGXBXyX0X+XOX9XZXHXNXBXaXdXNXkXaXdXwXZXrX=XwXhXaXyXjXmXCXHXKXKXKXKXKXKXKXKXKXFXLXKXGXLXLXKXKXKXmXuX9X`.J j e + + e M m B M m M M M M B C C C 6.5.5.5.F.5.j.H.j.d f f p s s s s u.h.D.4.F.b.K l , Y = = U , % o 1 7 7 3 8 8 9 8 8 8 9 5 q g > = = = = > - J oXP.L.W.W.k.l.l.l.g.n.g.g.s.n.v.v.9.F.v.9.G.v.3.3.3.7.3.C C C B B D J }.wXnXyXaXwX0X0X=X>X>X<X0X<X=X#XrXZXHXHXLXLXJXKXKXKXKXKXKXKXKXKXKXHXAXHXCXmXmXFXKXCXhXkXkX<X0XwX,X0X>XeXkX0X+X(.v + + + + O O O e e e e e i i i i a a a a a >.>.>.>.q.>.4.j.h.:.p r r p p r p i.D.V.C.5.z.D ; < P = P > c q o o 2 2 o   W @X+X0.1 7 7 7 3 5 % > $ ~ $ $ = l A h.V.p.V.4.2.j.n.n.n.n.n.v.j.j.C.C.V.V.A.C.V.V.C.C.V.V.4.5.5.6.1.V A A C B B B B D K ` J ).,XbXZXZXCXCX0X@X>XtXnXHXGXAXNXwX,X=X@X).).+X=X=X=X=X#X=X=X#X@X|.+X,X>X#X@X@X=XwXhXvXvXbXbXsXbXbXZXGXqX(.g % % % g g ; X . X O + e e e e m u u m N m N V V V 1.:.f r w r r r p s u.h.j.5.9.0.g ; # = = $ # - @ o o 1 o o u '.}./.h o 3 8 3 0 L - & & $ $ $ # j 9.J.H.l.Z.l.f.g.g.f.f.f.f.f.j.C.C.C.C.V.C.C.C.V.C.V.C.5.5.5.5.4.4.4.2.3.6.1.V 3.C m m B B j j - l b b b z c b E F G @XNXHXAXsXhXjXBXNXtXhXGXNXbXNXBXBXZXZXNXhXeXjXZXAXZXNXCXHXCXBXnXbXhXyX9X#X9XUX9XuXiXXXB 5 ",
"v.9.9.9.5.5.5.5.V 3.b..XoX5XxXDXKXLXMXuXvXbXmXBXmXGXHXHXHXHXAXNX9X@X@XwXNXZXZXZXbXZXNXaXpXpXpXpXpXeXqXqXeXdXjXbXhXbXFXJXKXKXKXKXKXLXKXKXGXHXKXKXGXHXKXnXUX`./.K k e + + e h m M m m m m M V V V V C A 3.3.5.9.9.F.j.F.Z.2.f f f s y.s f d h.V.D.V.v.` n > < P I P U l @ 1 2 6 3 o u 8.e 3 9 =.=.9 9 q % > = = = P # b `.G.K.W.W.Z.l.l.l.l.l.g.n.d.d.n.n.v.v.F.9.v.j.v.v.5.3.3.3.3.C N C B B B J $XiXIXbXbX0X=X0XaX=X=X,X#X>XnXHXKXKXKXKXKXKXKXKXKXKXKXKXBXhXCXKXLXHXKXKXHXLXGXHXSX*XeXkXpX,X<X,X>X,X).b j % @ @ + + 5 5 5 w e i e y i i i i i i a a >.>.:.2.1.4.4.4.4.4.h.>.r p r p p p p i.Z.C.C.F.H - < = P P > U z @ o 1 1 1 o .  X;X&X[.1 7 7 7 1 4 k l & ~ ~ $ = - x d.h.i.V.,.h.j.n.c.c.c.c.z.d.v.F.C.C.A.A.A.C.V.V.V.V.V.q.q.4.4.4.2.Z Z V V V N V V N B J v J ).@XAXAX@X}.0XdXbXKXKXnXMXqX0X9X9X=X=X=X>X>X=X@X=X=X=X#X*X@X@X=X*X+X@X=X@X+X>XeXsXGXGXBXnXBXbXqX].g X % X ; % + + @   @ O O 5 e e e u u u u u N N V V Z Z 3.a f r r r r r s i.p.V.h.v.b.D % # # $ $ = - + o 3 2 2 1 @ D ].+.{.].@ 1 -.2 4 q L % & $ $ $ & % J _.v.Z.U.h.Z.l.g.g.f.f.f.g.g.j.j.C.V.C.V.V.V.C.C.C.C.j.5.5.5.4.4.2.3.6.2.2.1.a 1.V N N B j k l b T T T E E E E X.}.rXCXNXvXFXhXsXsXsXsXZXGXnXsXNXGXBXnXbXbXaXeXtXhXBXHXHXHXHXCXNXnXBXNXyX,X#X9XiXMX5X8.5 o o ",
"v.v.9.5.5.q.5.5.5.3.A V C v.oX5XcXPXLXLXMXIXIXbXmXGXCXjXNXAXNXeX#X#X0XbXGXZXVXVXBXVXVXjXfXpXpXpXqXqXqXeXpXdXNXBXbXbXMXFXJXJXJXJXKXLXKXKXKXHXKXHXKXZXwX[.D k k k 5 5 e k h h h h m m M M N V V V V V 3.3.5.9.9.9.F.j.F.l.d f f s s y.s f :.V.D.D.D.n.J c > P I P Y , % 3 2 7 7 3 O J }.D 5 9 -.=.9 9 5 % - < = = P = : X.J.L.W.E.Z.Z.l.l.l.l.l.n.d.d.v.v.v.v.F.v.v.j.v.j.v.5.3.3.3.6.C C C N B C 7.'.$XiXbXsX0X>XkX=X@X,X0XhXHXKXKXKXKXKXKXKXKXKXKXLXKXHXbXdXNXHXLXFXFXLXHXHXHXHXNXVXaXkXkX-XpX].X.v % X % + . @ @ + 5 5 e w e y y i i i i i i a a >.>.>.1.2.2.2.4.h.4.4.h.d r p p p p p p i.Z.C.C.F.H - < = P P > c z @ o 1 1 o   - $.$.$.|.q 3 3 7 3 3 q k & ~ ~ ~ = ; x A h.:.V.q.V.C.l.g._ ` c.z.d.v.v.F.C.C.C.C.C.C.C.V.V.V.q.q.4.4.4.2.2.2.2.1.1.1.V V V N B j F G o.|.-X-X<XlXSXVXGXKXmXuX0X9X9X9X>X=X9X0X>X=X=X=X@X@X=X>X=X*X=X*X+X@X@X}.#X*X*X0XhXBXnXBX=X(.z % X X % % X X X O O O O 4 5 e e e u u u u u u N N V Z Z Z 3.a f r r r r r s i.p.V.h.j.b.L % $ $ = = < - + 1 6 6 2 o + F +.$.@.@.g 1 7 7 8 5 k q & $ $ $ $ % F _.v.Z.U.V.H.l.g.g.f.f.f.g.j.j.C.C.V.C.V.V.V.V.V.V.C.j.j.5.5.4.4.3.3.6.6.6.1.1.1.1.V V m j v b T T T T E E E o. X,XkXCXbXvXFXsXsXbXbXbXZXGXbXsXNXZXNXsXsXsXtX0XwXaXNXHXHXHXGXZXjXjXCXsX=X=XyX9X$X_.M O o     ",
"v.v.9.9.q.q.5.5.5.3.Z V N V 3.7._.$XiXPXDXPXMXMXbXmXnXnXNXjX>X+X+X9XbXGXZXNXbXjXSXdXNXSXdXpXdXfX0XqXpXaXdXbXZXHXGXmXbXFXLXFXFXJXKXmXmXFXBXBXBXNXdX+XG k + + + @ + e h M M m m m m M M N V V V 1.A A 3.3.5.9.v.F.F.C.F.j.d f f s s y.s f 2.C.D.D.Z.v.G , Y P P P Y c @ 3 7 7 7 o 5 }.1Xo.k 0 -.=.9 9 0 + - < = = P = > F _.P.E.E.S.Z.l.l.B.B.l.n.d.d.d.v.v.v.F.v.v.j.v.j.9.5.5.5.3.6.C 3.C N m B B M K '.OX9XtXpXyX*X+X,XyXHXKXHXKXKXKXKXKXKXKXKXKXKXKXFXsXsXNXBXCXmXmXCXHXKXHXHXHXAXeXkXzX).o.l ; .   . % +     @ 5 e e e e y y i i i i i i i a >.>.:.>.1.2.4.4.4.h.4.h.h.d r r p p p r s h.S.K.C.F.H : < = = P Y z k @ o 1 1 1   E $.@.@. XK 1 3 7 7 3 5 q > ~ ~ ~ $ ; x A s.:.V.V.V.C.l.c._ ` c.z.d.v.v.F.C.C.C.A.C.C.V.C.V.V.V.V.V.4.4.2.2.2.4.2.1.1.V V N N j v v v b l T |.<XrXlXZXZXnXIXiX0X9X9X9X9X9XwXtX9X9X,X=X@X@X=X0X,X*X=X=X@X=X=X+X@X+X+X=XwX9X+X).z +     . . X X         O O 4 4 w e e e u u m m m m N V V Z Z Z 3.a p r r r r r >.V.V.D.j.j.b.j % $ = = = < % @ 1 2 6 2 o 5 X.+.$. .$.).0 2 8 4 0 5 z & $ P $ $ & v b.n.Z.U.Z.Z.l.g.g.f.f.f.g.j.j.C.C.V.C.C.C.V.V.V.V.C.C.j.5.5.4.4.5.3.6.6.2.6.6.1.1.6.C m D J E E E E ....O.o.|.<XjXNXBXbXhXBXsXhXnXbXbXBXGXbXbXNXBXnXsXsXaXtXwXyXbXZXHXKXHXGXnXbXCXGXyX@X#XyXK 5 + o     o o ",
"v.v.F.5.5.q.q.5.5.3.3.3.3.6.V M m C 7.XX7XcXDXLXPXmXFXGXjX=X}.[.0XsXZXZXbXjXbXlXdX0XdXZXdXpXdXdXqXtXdXbXBXGXKXKXKXFXCXHXHXCXFXKXHXnXBXZXbXqX*X}.F - + X X X X   + e h m m m M M M V V V V V 6.3.3.3.3.3.9.9.F.F.F.F.H.h.f f f s s y.d d h.C.A.D.H.z.F , Y I I P U l @ 3 8 7 7 o j  X3X XG 5 9 -.9 9 0 5 - > = = P > > l _.P.S.W.L.Z.l.Z.B.n.l.n.g.d.d.n.v.v.F.v.v.v.v.v.v.9.5.5.3.6.6.3.C C V C C m M B B W @X0X+X@X,XeXnXKXKXLXHXHXKXKXKXKXKXKXKXKXKXBXtXtXjXsXyXvXbXPXLXKXHXHXHXSXHXeX@Xb X . + X   . + k +   @ 5 e e w y i y i i i i a a a a >.>.>.1.2.4.4.4.4.h.C.C.h.s r r p p p p s h.L.K.K.F.K : < = = P Y l q o o 1 1 1 o E $.$.@. XK 3 2 7 7 6 0 q > $ ~ ~ $ ; g A s.:.V.V.V.C.l.n.c.c.c.n.v.j.v.C.C.C.A.A.A.A.A.V.V.V.V.V.V.h.h.2.2.4.4.2.1.1.1.V V N B v v G F g l Q o.o.>XGXBXtXuXuXwX0X9X0XwXwXtXsXtXeXqX>X#X@X@X,X,X=X,X,X*X=X=X@X@X=X>X0X>X[.z X .   . . .             O O 4 4 w w e e e u u m m m N N V V Z Z 2.2.a p r r r r p :.V.V.D.C.v.7.g # $ $ = $ # % @ 1 2 2 2 o q ).+.#.[ $. Xe 1 8 3 0 0 L % $ P $ $ & z x.n.Z.U.Z.Z.l.l.g.f.f.g.g.j.j.C.C.C.V.C.V.V.V.V.C.V.C.V.j.5.4.5.5.3.3.3.6.6.6.1.V C C K J X.X.Q Q ..O.O.+. X<XzXSXNXbXbXbXnXbXbXBXNXbXBXGXnXnXNXBXBXNXnXbXhXhXNXGXHXHXHXHXGXNXZXNXaX9X9X0XqX+             o ",
"v.v.F.C.q.q.q.5.5.5.2.1.1.6.6.6.6.N u m 7.XX7XuXMXLXKXsX*X+X@X=XbXBXGXBXbXNXNXNXeX=XpXSXdXpXdXdXaXaXsXNXGXKXKXKXKXHXHXKXGXmXCXHXGXjXjXjX<X].b % . . % % X . . X + e h m m m M C V V C V V C 6.3.3.3.3.3.5.9.F.F.F.H.F.s.f f d / y.u.d d j.C.A.C.H.z.n , P P P Y , k o 3 7 7 3 @ O.$.$.$.].k 9 -.-.9 0 5 g : = = = Y > : x.P.S.W.L.Z.Z.Z.Y.n.l.l.n.d.d.n.v.v.F.v.v.v.v.j.v.9.5.5.3.3.6.3.6.C C C C m C B k j J X.X.@XsXCXHXKXKXKXFXGXHXKXKXKXKXKXKXKXKXnXeXwXeX0X9XuXmXCXFXHXHXHXnXHXHX}.W b - X ; ; X     % k + o O 5 e y y i i a a a a a >.>.>.>.1.1.4.4.4.4.4.4.5.C.h.:.s p p p p p p :.C.L.I.K.G.K : < = = P Y l + o 1 2 2 2 @ F &X@.@.&Xj 0 6 *.*.7 3 q - $ ~ $ $ % g A h.h.V.V.V.V.l.n.c.c.n.n.n.j.j.C.C.C.A.A.A.A.A.A.A.A.C.V.V.V.h.h.4.4.4.4.2.1.1.6.C B j j G X.E b b b b o.0XZXsXwXuXuXwX0X0XwXeXtXtXsXdXeXwXqX>X=X@X@X,X,X<X,X+X+X=X*X,X>XqX>X+X[.F X     . .           @ O O 4 4 w w w w e i u u a m V V V V Z Z 1.2.2.s p r r r p f :.V.D.D.C.v.7.k # $ = = = # % o 1 2 6 2 1 q `.@.#.{ @. XC 1 3 3 3 0 L % $ = $ $ & - ` n.Z.Y.Z.H.l.g.g.g.g.g.l.l.C.C.C.C.C.C.C.C.V.V.C.V.V.V.V.V.5.5.5.3.3.3.3.3.6.3.C C K /.(.X.X.W ..o.o.o.|.<XzXSXNXdXbXBXnXbXBXNXBXbXsXBXGXNXbXhXsXnXGXGXBXnXhXCXHXHXZXGXHXHXKXnX9X@X=XsXbXsX8.@     o o o o ",
"v.v.F.C.q.q.q.q.5.5.6.1.1.1.1.1.6.6.V m u V 8._.$XuXnX=X}.=XpXpXjXsXsXjXbXNXNXlXdXqXkXSXdXdXjXdXdXsXbXBXKXKXKXHXHXKXKXHXCXnXhXhXjX=X}.].E l % X . . % % X . . X + e m M M M M M V V C C C 6.3.3.3.3.3.5.9.v.F.F.F.H.l.2.f f ( / u.u.d 2.j.C.C.C.F.H c , P P P Y : + 3 2 7 7 3 + @.$.#.%.&XL 0 =.=.9 9 5 g l = = = Y > - J J.L.W.L.Z.Z.Z.H.n.l.n.B.d.d.n.v.v.F.v.v.v.v.v.v.9.9.5.9.5.3.3.6.6.C A C V C C B j j j F #XCXHXKXKXKXKXFXGXHXKXKXKXKXKXKXJXKXCXyXwXqX0X,XuXCXLXLXHXHXZXAXjX[.X.[.].*XE - - % .   + k + O O 4 w y i i i ;.;.>.>.>.>.>.>.1.1.4.4.4.4.4.4.5.5.C.h.>.p p p p p p s h.S.L.I.I.G.K : < = P P > l @ o 1 2 6 2 3 L 3X@.@.&Xk 3 7 *.*.7 2 0 - $ $ $ $ # ; B h.V.q.p.V.V.l.n.c.c.n.n.n.j.j.C.C.A.A.A.A.A.A.A.A.A.A.V.V.V.h.h.h.4.4.4.4.4.3.3.A C D F X.O.b b E E +.<XVXdXqXhXmXtXwX0X0XwXeXeXeXtXeXwXqXwXwX>X*X+X*X,X<X>X*X=XqXrX>X*X@X}.[.=X=X).X               o O 4 4 4 w w y w y i i i u a V V V V V 3.3.3.2.2.s r r r r p s :.V.V.D.C.v.7.k & $ = = = < % o 1 2 6 2 1 5 '.@.#.{ #.@.H 3 2 8 3 3 M - $ = $ $ $ - J n.l.U.Z.H.l.l.l.g.g.l.l.l.C.C.A.C.C.C.A.A.V.V.V.C.C.V.V.V.V.j.5.3.3.3.3.3.C 3.C C J `.[.X.X.o.o.o.].|.<XkXAXHXVXdXNXCXnXbXGXBXnXbXsXBXGXbXdXtXtXbXZXGXBXnXbXCXHXGXZXHXHXGXbX>X+X=XyXNXBXmXiXj     o o o o ",
"j.j.F.C.C.C.C.q.4.5.5.5.6.1.1.1.1.1.6.6.V m m M K '.OX}.+X<XdXdXdXqX0XaXbXjXdXdXbXbXNXlXdXkXlXNXsXvXmXGXKXKXKXHXGXKXHXZXNXjXrX=X+XW l g ; % % % # . X # % # X . + e m M V V V V C 6.6.6.6.6.3.3.3.3.5.5.v.v.F.F.F.F.j.d f d u.s u.u.d 2.C.S.A.C.v.K c Y P P P U - O 3 6 7 7 o + @.%.%.%.$.G 0 =.=.-.8 9 j c > = = = < ; K .XP.W.L.L.H.H.Y.n.n.n.n.d.d.v.v.v.F.F.v.v.v.v.v.5.5.5.5.9.5.3.6.6.6.6.3.C V N B B j D X.qXHXGXKXKXKXKXHXHXKXKXKXKXLXFXKXLXKXKXbXeXqXqX9XbXLXHXHXHXHXBXNX}.F }.pX<XNX>XE z g ; X X + 5 + O 4 e i y i >.;.>.>.>.>.>.>.>.1.4.4.4.4.4.q.q.C.5.C.h.s p p p p p p :.V.K.I.F.I.b.F : < P P P > l @ o 2 2 6 6 1 5  X@.$.[.5 2 7 *.*.*.2 0 % $ $ $ $ # ; B 5.V.q.V.p.V.h.l.n.c.n.n.n.j.j.C.C.A.A.A.A.A.A.A.A.A.A.C.V.C.h.h.h.h.4.4.4.5.3.3.A C J ).).E b G X.].>XlXjX>X9XvXMXtX0X9X9X0XqX0X9X9X9X>X0XwXeX0X=X@X@X*X>X,X*X,XpXkX+X).}.@X=XaXSXaXb X   . +       o 4 5 4 w w w w y y i i i a a V V V V 6.6.3.3.5.:.s r r r p p s u.V.V.V.C.v.8.g > = = = = > %   o 6 6 6 1 5 8. X#.{ #.+.M 3 6 8 3 3 q L = $ $ $ > ; D c.l.Z.L.L.C.l.l.g.l.l.l.Z.F.C.A.C.C.V.A.A.A.A.A.A.A.C.V.V.V.j.5.3.7.H H H A H H H '.}.].X.o.o.].[.|.<XpXlXAXHXZXNXBXBXnXBXGXNXbXsXsXBXBXdXaXaXsXNXZXBXNXBXZXHXHXZXHXHXBXyX=X=X0XjXGXZXnXhXuX'.+   o o o 4 ",
"j.j.F.F.A.C.C.C.5.5.5.5.6.1.4.4.4.1.1.a V V V M M k j X.}.=XfXZXNXeX0XpXjXjXdXlXjXNXkXpXpXdXkXBXsXMXLXKXKXKXKXKXHXKXHXNXVXNX0X}.E g % - : - % % # . X % % # # X 5 e u m N V V V V 6.6.6.6.3.3.3.5.5.5.j.v.F.F.F.F.v.j.d f d u.s u.u.d 2.C.K.C.F.z.F , Y P P P U g o 8 7 *.8 o % @.%.%.#.@.J 0 =.=.-.8 9 L b > = $ = = ; K XX!.L.L.L.Y.Y.Y.n.B.B.n._ Z d.v.v.F.F.v.v.v.v.v.v.9.5.5.5.5.5.6.3.3.6.V 3.V N C B B J OXnXKXFXKXKXKXKXKXKXKXKXKXJXFXPXJXmXLXKXnXwX0X0XyXCXHXHXHXKXGXnX+XX.@XrXjXdXVXSX*XE z v % . + k 5 O 4 e i y i >.;.>.>.>.>.>.>.>.4.4.4.4.q.q.C.C.C.j.C.h.p p p p p p s u.C.L.I.F.I.b.K : = P P P > g @ 1 2 6 7 6 2 3 W |.&XJ 1 6 *.*.*.7 2 0 % $ $ = = # ; h 3.C.q.p.p.p.V.l.n.g.n.n.n.d.d.j.Z.C.A.A.A.A.A.E.E.A.C.C.V.C.h.h.h.h.q.4.5.5.3.7.A K (.+X).F o.o.o.=XfXpX=X@XwXyXwXyX9X9X9X0X0X>X=X=X>X>X9XwXwX9X=X@X,X,X,X*X+X*X<X<X}.X.|.jXNXSXVXwX1Xl . + +     O O 4 4 w w y y w y i i i i a V 1.1.1.1.6.6.3.3.5.:.s r r r r p s h.V.V.V.j.v.8.g > = = = = ; X   o 6 6 2 1 0 K  X@.[ $.].u 2 7 8 7 3 5 F > = $ = = % D M.l.Z.L.L.C.l.l.l.l.l.l.Z.Z.C.A.C.V.V.A.A.A.A.A.A.D.V.V.V.V.j.5.7.7.H H H H K H /.`.}.].o.o.].}.|.1XaXlXlXlXZXAXZXBXbXnXHXZXbXsXsXsXBXNXtXdXsXNXGXGXBXBXZXKXHXZXBXZXCXeX@X+XaXHXGXBXCXNXyXMXiX8.o o o o 5 ",
"v.F.F.C.C.C.C.q.q.5.4.4.4.4.4.4.>.>.1.6.1.V V M M h D W [.<XlXdXdXdXdXeXpXaXdXdXlXkXaXeXeXaXaXsXwXMXLXKXKXKXKXKXHXKXZXZXAXqX}.].}.X.v l : : - ; # # # # % : - % + e u m M V C V 1.6.3.3.3.3.3.9.5.5.j.j.v.F.F.F.v.H.s.d d s s u.u.s d h.C.C.A.K.z.v , P P I P U k 4 7 7 *.7 3 +  .%.{ %.&Xj 4 =.=.=.8 9 M F U $ = = = ; j .XP.Q.L.L.L.L.H.H.Y.B.g.n.Z A J.v.5.G.v.v.v.v.j.j.5.5.5.5.5.5.5.3.3.3.3.3.V C H B J #XnXCXKXKXKXKXKXKXKXHXKXKXJXmXMXPXKXKXKXyX,XqXdXdXGXFXKXKXHXKXhX}.}.wXsXnXNXjXZXHXVX|.G v j % + + h e 5 e y y y >.;.>.>.>.>.1.4.4.>.4.4.q.q.q.q.4.C.j.h.:.r r p p p p s h.S.K.I.I.I.b.D > = P P P > g @ 1 6 6 7 6 2 3 q OXOX5 6 6 *.*.7 7 3 0 q & $ $ = # ; B 3.4.V.,.,.,.D.Z.n.n.n.n.n.j.d.j.C.C.C.A.A.A.A.A.E.A.V.C.C.C.V.h.V.V.4.5.5.5.3.3.7.x.}.[.(.X.W ].1XjX>X>X,X=X,X9X9X9X9X9X9X=X9X9X>X=X=X=X9XqX9X0X>X@X@X,X,X@X+X+X+X}.[.}.rXAXHXNX0X).,X@Xg   + +   O O 5 4 4 y w w y i i i i a a a 1.1.1.1.1.1.5.5.h.:.r r p r r s s V.V.D.D.j.v.H - < = = = = ; X   1 2 6 6 2 1 q (.@.@.&XJ 4 7 7 =.7 7 0 J > = $ = = # n M.l.H.L.K.F.F.l.l.g.f.g.l.j.C.C.C.C.A.A.q.A.A.A.V.V.V.V.V.C.j.5.v.8.H K K K K _.OX`.o.o.].].].|.=XaXSXSXjXjXNXZXZXnXhXbXGXGXbXbXNXNXsXdXbXNXGXGXBXNXGXGXGXGXKXZXBXnX>XOX+XsXnXHXKXBXyXwXwXmXgX9X7.o o o 5 ",
"v.v.C.C.A.C.C.C.q.4.4.4.4.4.4.4.4.4.1.1.1.V V m M j J [.*XqXdXfXdXdXpXpXdXdXaXaXdXaXaXpXaXaXdXbXMXFXKXKXKXKXKXKXKXHXHXGX0Xo.W }.pX>X].G l l : - - % # # - : : - k e e m M V V C 1.6.3.3.3.3.3.9.5.j.j.j.v.F.F.v.F.H.s.s d s s u.u.:.:.h.C.A.A.F.z.v U P P I P R k 3 7 7 *.7 3 + | $.#.%. XB 9 =.=.=.=.9 q L c = = = = > v oXP.W.W.L.L.H.H.H.Y.n.B.n.Z Z v.v.5.J.v.v.v.v.v.j.v.F.5.5.5.5.5.5.6.3.3.V A A A 8.$XuXHXHXKXKXKXKXKXKXKXKXKXKXKXPXFXLXKXKXFXqXOX@XwXhXGXKXFXmXKXyXOXOXyXCXnXNXAXBXZXNXZXqX[.W v g ; + k e e 5 4 y i i >.>.>.>.>.>.4.4.4.4.4.4.q.q.V.V.5.H.4.r r p p p p p >.h.K.K.I.I.G.b.v > = P P P > k @ 1 6 6 *.6 6 1 0 8.0.0 6 *.*.*.7 7 3 0 q & $ $ = # ; B 7.4.q.,.,.,.D.Z.H.n.n.n.n.d.d.j.C.C.C.A.A.A.A.A.A.A.C.C.C.C.C.h.V.V.q.5.5.3.3.7.x.`.}.].(.o.].=XrXeX*X*X@X@X=X9X9X9X9X9X9X9X>X>X=X=X=X=X=X=X=X,X,X@X>X@X}.@X,X#X}.(.+XeXHXHXsXwXqX@X*X<X).+ @ + + o O 5 4 4 y y y y i i a a a a 1.1.V 1.6.6.3.5.5.4.f p p r r p s s C.V.D.C.j.v.H - = = = = = - +   1 2 6 6 2 1 0 D +.+. XB 7 *.*.=.7 7 3 L > = = = = # n M.n.H.L.K.K.F.l.l.g.g.g.l.2.>.C.L.4.V.L.C.A.A.C.C.V.V.V.V.C.5.3.7.H K G J X.}.#X@X).o.].].|.|.@X<XjXAXZXbXBXZXZXBXbXsXbXBXZXbXsXbXbXaXtXsXNXBXBXBXGXGXGXGXCXNXNXbX9X}.@XbXNXNXBXNXhXeXeXyXvXIXcX5XC o 5 4 ",
"v.v.F.F.A.C.C.C.V.h.4.4.4.4.4.4.4.4.4.>.1.1.V m M D `.9XaXpXfXpXjXdXpXdXdXpXqXeXqXeXtXtXaXsXbXBXHXKXKXKXKXKXKXKXKXnXbXeX[.G [.eXAXAXeX].b z l - - - % % - : l z k e e h M V V 6.6.6.3.3.3.3.9.9.5.j.j.j.v.F.F.F.H.l.2.s d s / u.i.u.:.h.A.A.A.F.8.c Y P P I = c 5 3 7 7 *.=.3 @ c $.%.;X+.h 8 =.=.=.=.9 9 j z = = = = > v oXP.W.W.Q.L.H.Z.H.Y.n.B.n.Z V d.v.5.v.v.v.v.v.v.F.F.F.5.5.5.5.5.5.3.3.3.V A A C _.uXmXKXHXGXGXKXKXKXKXKXKXKXKXKXLXJXKXKXKXGXwXOXOXwXZXGXHXKXGX9X+X=XtXBXKXCXZXKXGXGXBXBXZXeX).v z g % k h h 5 5 i i i >.>.>.>.>.>.4.4.4.4.4.4.4.q.V.V.C.Z.f w p p r p p s :.j.K.L.I.I.G.b.v > = P P P > k @ 1 6 6 7 6 6 1 o 5 q 0 7 *.*.*.7 7 3 0 q % $ $ = # ; D 9.4.q.,.p.p.V.V.Z.n.c.n.n.g.d.d.j.C.C.C.C.A.A.A.A.A.C.C.C.C.j.h.V.V.q.q.5.3.7.x.`.}.|.].o.].=XfXpX,X@X@X@X#X,X9X9X9X9X0X0X9X=X=X=X=X=X#X=X=X=X,X,X#X#X@X=X,X#X}.}.#XyXCXHXnX9XwXqX@X@X<X0XX.+ + h 5 O 5 e w w y i y i i a >.>.>.1.1.1.1.1.2.5.5.2.2.y s p r r p s >.C.V.D.C.j.v.H - = = = = = > % o 1 2 6 6 2 1 1 5 W )./.5 7 *.*.*.*.7 3 L - = $ $ = # F M.n.L.L.L.L.H.l.l.g.g.g.l.2.i 4.L.4.C.P.V.A.A.A.V.C.V.V.C.j.5.7.7.J G X.).[.0XrX|.o.(.].].+X*X<XkXZXHXGXNXZXBXNXbXaXeXtXbXZXbXsXbXsXtXaXbXNXnXnXGXGXGXGXZXGXZXhX=X}.#XhXHXnXhXsXsXsXyXyXaXtXmXLXPX5X5 O O ",
"j.v.F.F.K.A.C.C.C.V.5.4.4.4.4.4.4.4.4.1.1.6.6.M M /.UXbXdXpXpXfXVXdXdXkXdXqX0XqX0X0XeXeXaXsXBXHXHXKXHXGXGXKXKXHXGXqX+X[.(.+XnXKXGXHXAX>X).b l : - - ; ; ; : l c g 5 5 k M B V 6.6.6.3.3.3.3.9.9.j.j.j.j.F.v.F.H.H.j.d s d ( ( i.i.u.u.V.A.A.A.F.J c Y P P I < c 5 3 8 7 *.=.8 o ; +.3X&XG 5 8 -.=.=.=.9 9 j z > = = = > v .XP.W.Q.!.Q.Z.Z.H.Y.n.n.n.d.N d.n.v.v.v.v.v.v.v.F.F.F.5.5.5.5.5.5.5.3.3.V V C 7.$XMXmXHXGXGXGXHXKXKXKXKXKXKXKXKXJXKXKXKXKXKXBX9X,XdXHXHXGXKXyXOX,XGXKXbXKXHXKXKXBXGXHXNXHXBX=X(.F j g k j B u e i i i >.>.>.>.>.4.4.4.q.4.4.4.4.4.q.4.C.:.r r y.p r s p s h.C.K.K.K.K.I.b.F > = P P P > - o 1 6 6 7 6 6 2 o + 5 0 7 *.*.*.7 7 3 0 q % = = = = - D 9.5.q.p.p.p.p.V.j.l.n.n.n.n.d.d.d.v.j.C.C.C.C.A.K.K.C.C.C.Z.j.j.V.V.q.C.9.9.z.'.[.}.@X].(.|.<XdX0X@X@X#X#X#X9XqX9X,X9X0XwX9X=X=X=X=X#X#X=X,X=X,X=X+X+X=X0X,X`.(.@XnXCXNXsX9X9XqX9X@X@X+X0X=XD + k D 5 O 4 e w i i y i a a >.>.1.1.1.6.1.1.1.2.5.2.a y s p p p s s :.C.A.A.C.j.v.H - = = = = > > % o 1 2 6 6 6 2 1 o j /.H 0 7 *.*.*.*.7 3 M - = = $ = # F M.H.L.L.L.L.H.l.f.g.g.g.g.d.f a j.j.F.L.5.C.C.C.C.C.C.C.C.j.9.7.8.X.o.].|.|.rX>X).o.].}.|.*X0XjXZXHXKXGXBXCXBXbXsXeX0XwXsXBXNXnXNXbXsXsXbXNXbXnXGXGXZXBXZXKXaX#X}.#XNXKXhXaXyXsXhXhXyXwXwXwXBXmXvXxXXXo 5 ",
"v.v.v.F.K.C.C.C.C.j.5.4.4.4.4.4.4.4.4.1.6.6.V C 7.$XMXNXaXqXpXdXlXkXdXdXdX0X0XqX0X0XwXwXaXbXGXKXHXHXHXGXKXKXKXGXsXOX(.).+XbXKXKXHXKXKXnX*Xo.b b : : : - - - : c g k ; k M B C 3.6.6.3.3.3.3.9.9.j.j.C.C.F.v.F.n.H.s.d d d ( u.u.u.u.h.V.A.A.A.F.J l Y P P I < c 5 3 8 7 *.=.8 3 @ D |.`.M 3 8 -.=.=.=.9 9 L z > P = = < l .XP.Q.W.W.W.S.C.H.Y.B.n.B.g.f Z n.J.j.v.v.v.v.v.v.v.v.5.5.5.5.5.5.3.3.3.3.C C $XcXmXCXCXGXHXHXFXFXLXKXKXKXKXKXKXKXKXKXKXJXKXKXbXsXBXHXKXHX,XOXeXCXCXHXGXKXFXGXGXBXGXGXGXGXHXNX*XW v D g j B B u e e i >.>.>.>.>.:.4.4.4.4.4.4.V.V.V.h.:.y r p p p r p p :.j.H.L.K.K.K.G.b.F : < P P P > - @ 1 6 6 6 6 6 3   j L o 7 7 *.*.7 7 3 0 q % $ $ = = - D 9.5.q.p.p.p.p.h.j.j.n.n.B.n.c.d.d.n.j.j.j.C.C.F.K.F.F.F.C.C.j.j.V.q.C.5.9.9.b.`.+X|.|.].{.>XaXrX,X=X@X@X@X#X,X9X,X#X9XwXeX9X=X=X=X=X=X=X,X,X=X=X=X+X=X+X}.[.}.#X0XsXnXbXyXqX=X#X=XwX#X+X#X0X}.k + J h O O e e y i i i a a >.>.1.1.1.4.1.1.1.2.2.a i i s s p / s s h.C.C.C.C.j.b.J - = = = = > : % o 1 6 6 6 6 2 1 o 5 8.M 0 7 =.*.*.7 7 3 e - < $ $ = & F M.H.L.W.W.L.H.j.f.f.g.g.g.l.2.a 2.F.F.j.C.F.C.C.C.C.C.C.j.v.9.7.J X.]. X|.&X*X}.(.].}.|.*X>XaXZXHXHXHXGXGXFXBXbXsXeXqXeXsXbXbXNXNXbXdXsXbXbXnXBXGXGXZXZXZXsX[.).9XnXCXNXaXtXyXhXbXhXeX9X9XtXaXwX9XuXxXM O ",
"v.v.v.F.F.C.C.C.C.C.5.5.4.4.q.4.4.4.4.1.6.V V 7.oXcXKXbXeXqXpXdXdXkXlXdXpX0XqXeXqXqXqXeXsXBXHXKXHXHXHXKXKXKXCXsX+X(.(.=XbXFXFXGXKXLXFXCXrX[.E G c l : : - - : l g g g h j M C 6.3.3.5.5.5.3.9.9.C.C.C.F.F.v.v.n.j.d f d ( ( u.u.u.i.V.V.A.A.S.F.J , P P P I < n 5 0 8 7 7 =.8 8 3 5 K 0.9 8 =.=.=.=.=.9 9 M z > P = = < g .XP.Q.W.W.W.L.H.H.H.B.n.B.n.a u d.n.v.v.v.v.v.v.v.j.j.j.j.5.5.5.5.3.3.V 7.A m.xXKXFXHXCXHXKXHXBXMXPXKXKXKXKXHXKXKXKXKXKXKXKXKXGXGXHXNXBX9X@X9XBXGXBXCXKXGXwXyXBXCXGXFXKXZXZXHXaX[.G G v j K H N 5 5 i a >.>.>.>.4.4.4.4.4.4.V.C.C.V.h.y r p p p p s r s 2.H.P.L.K.K.L.G.b.F > = P P = > % @ 1 6 6 6 6 6 o @ (.(.@ 1 7 *.*.*.*.7 0 q % $ $ = = - F 9.4.q.p.p.p.p.,.h.j.n.c.c.n.c.c.c.n.j.j.j.j.F.F.F.F.F.v.v.j.j.j.C.C.C.5.5.7._.@X@X@X].].*XdXkX0X=X>X=X#X#X#X9X9X9X=X9XeXtX0X=X=X=X9X=X#X=X=X=X>X0X>X+X)./.}.wXCXBXyXsXyXwXqX9XOX#XwX9X9X#X,X#XG ; g B e + e e e i i a a >.>.>.1.1.1.2.1.1.4.h.2.a w a a s / / s d C.A.C.A.C.v.b.J - = = = = > : % o 1 6 6 6 6 2 1 1 5 K k 3 7 *.*.*.7 7 3 5 - < $ = = > F M.H.L.W.W.L.H.l.g.f.f.g.g.g.n.s.2.n.j.2.J.F.F.F.C.j.j.j.j.v.7.H J X.{. X&X1X Xo.].|.+X@X,XrXjXHXKXHXGXGXGXBXbXIXsXeX0XwXtXsXbXbXbXaXtXtXdXbXBXGXGXGXGXBXhX`.`.,XBXHXnXhXhXeXeXyXsXsXtXtXaXsX=XUX9XuXiX7X5 ",
"m.v.v.F.F.C.C.C.C.C.j.5.4.4.q.q.4.q.4.6.5.V C XXiXPXmXtXtXqX<X0X<XdXlXdXqXqXeXpXaXeXtXsXBXGXKXKXHXHXHXHXHXnX0X+X`.[.=XnXKXFXMXFXKXPXbXmXjX>X].E b z l : : - - - l v F j j M C C 3.3.5.5.5.5.9.v.C.C.C.C.F.F.H.n.2.f f u.( ( u.u.i.V.D.A.A.A.A.F.J , P P P I < n 5 3 8 7 7 =.7 8 2 1 M w.8 8 *.*.=.=.=.-.9 q z > = = = < g .XP.W.Q.W.W.L.H.j.l.H.B.B.n.d.V Z d.v.v.v.v.v.v.v.j.j.j.j.j.j.5.5.5.3.V A m.7XDXKXKXKXHXHXHXGXmXMXFXKXKXHXCXmXFXKXKXKXKXKXKXKXHXKXNXqX9X+XeXKXBXnXHXNXGXbX9XwXmXCXLXBXGXGXZXNXjX>X].G F v D H C e e i i a >.>.>.4.4.4.4.h.V.C.C.V.:.>.y p s p p p s s s.j.H.I.L.L.L.K.G.b.F : < P = = > % o 1 6 6 6 6 6 o j  X Xj 3 7 *.*.*.*.7 0 q % $ $ = = : F 9.5.q.p.p.p.p.V.h.j.d._ c.n.M.c.n.n.n.v.v.v.v.v.F.F.v.v.v.v.j.j.C.C.C.5.9.b.$X0X,X X+.|.<XpXpX<X0X0X,X=X=X,XwXyXyXwX0XeXeX0X=X>X9X9X,X=X=X=X@X,X<X,X(.).OXwXBXBXnXBXsXtX9X=X9X#X$X#X9XuX9X@X,X}.v ; j j h e e e i i a a >.>.1.1.1.1.1.2.2.2.2.:.f y :.a s s s s h.C.C.A.A.Z.v.M.J - = = = = > : % o 1 2 6 6 6 2 2 0 M 8.5 o 7 7 *.7 7 8 3 5 g = $ P = > G '.H.L.W.W.L.H.H.l.g.g.g.g.g.n.l.d.l.j.j.G.F.F.F.v.j.j.j.j.v.z.H J o. X-X1X2X X].|.@X@X=X<XjXNXZXGXGXKXGXFXbXIXdXaXwX9X9XwXbXNXnXdXwX0XeXaXnXGXGXGXGXGXaX#X).wXHXCXjXhXhXjXaXwX0XeXaXsXhXbXbX0X9XwXuXiXcX_.",
"n.n.v.v.j.C.C.C.j.j.j.5.5.4.4.4.4.5.6.6.5.V 7.5XDXPXtX0XaXqX=X*X*XfXlXdXqXqXpXeXdXaXsXbXGXKXKXHXHXHXHXAXBXtXOX/.OXwXNXFXKXGXmXLXPXMXvXCXHXNX#XX.E b z z l : - - l F W D j M C V 3.3.5.5.5.5.v.v.C.C.C.C.F.F.F.n.Z f s s.( ( u.u.i.D.S.A.A.A.S.F.J : Y P I I < c 5 3 7 8 *.7 7 8 3 3 6.w.9 8 =.=.=.=.-.-.0 5 g > = = = > j .XP.Q.!.W.P.Q.L.j.d.n.H.n.R.R.d.a Z z.v.v.v.v.v.v.j.j.j.j.j.j.5.5.3.3.7.H $XDXJXLXKXKXKXHXGXCXmXCXJXKXHXCXbXuXbXJXKXKXKXLXHXHXHXHXaX+XOXwXbXBXKXFXsXsXbXnXtXbXGXnXBXBXGXKXGXjXNXSX,XX.F v D J H N e u i i >.>.>.4.4.4.V.V.V.C.h.2.a y y s p p s p r f.n.J.J.G.J.P.H.H.G.'.F : < P = = > - o 1 6 6 6 2 1 @ ).@.@.+.+ 3 7 *.*.*.7 0 q % $ $ $ $ > F 8.3.5.q.q.q.4.5.5.3.` ` ` c.m.n.n.n.n.n.v.v.v.v.v.v.v.v.v.j.j.j.C.C.C.v.b.oXiXkX,Xo.{.1XpX<X1X<XrX0X,X=X=X9XyXbXjXsXqXwXwX9X9X9X9X9X9X=X=X=X+X+X}.).(.}.wXHXCX9X9XbXuXuX9X#X9X9X#X#X9XwX9X#X>X<X).g g K B e e e i i a a >.1.1.1.1.1.2.2.2.2.a f s d a s s s p ( l.j.C.C.C.Z.v.M.H - = = = = = : % o 1 2 6 6 6 2 3 5 `.).k @ 3 7 *.*.7 8 2 5 k # $ P > > E '.m.H.L.L.H.J.H.n.g.g.g.c.n.g.l.n.n.H.J.d.v.v.v.v.v.v.v.v.v.x.x.` ).*X2XzX<X{.].*X*X#X<XrXCXSXNXCXHXKXGXBXbXvXsXdXtX0X9X0XZXGXBXsXqX0XtXsXBXHXGXBXGXBX9X(.wXZXHXnXsX0XwXBXBXsXwXwXsXsXsXsXbXsXqX9XuXvX$XDX",
"n.n.g.g.j.j.j.j.j.j.j.5.5.5.5.4.q.1.6.5.M C OXvXGXjXpXpXqX-X*X=X*XrXlXlXpX0XeXaXsXhXbXmXLXKXKXKXHXAXHXjX>X+X(.+XbXnXCXHXKXKXHXHXPXFXLXFXHXCX9X].o.E b z - l l % - b E F v B B N 3.3.5.5.5.5.v.F.j.j.F.H.H.C.j.s.d ( ( s.s.s.s.h.V.A.E.E.E.A.K.m.D c , Y Y P Y R q 3 7 =.7 7 8 o   g |.(.+ 4 -.7 7 =.=.8 9 q g , = < < - F _.XXI.P.P.P.P.T.H.v.d.J.m.J..Xm.n.c.d.n.z.v.v.v.v.v.j.v.j.d.d.3.5.7.7.B '.gXKXPXFXKXKXKXKXHXKXKXKXLXLXCXHXwX,XbXKXFXJXKXKXPXHXKXmX@X`.>XKXHXjXKXCX9X9XhXvXbX,XtXKXBXbXKXKXsXnXCXjXyX+XJ K D D K J B e i i >.>.1.4.4.>.4.4.4.4.:.a a f p p r s _ f _ z.x.x.x.x.'.'.M.M.'.X.n , = = = = : j 0 2 6 6 2 1   v ;X$. .$.| X 1 7 *.=.7 3 h - > $ > Y > c b D K C C H K D D D K j B z.z.d.Y.n.J.m.m.m.v.v.H.C.C.C.C.j.5.4.j.v.v.v.oXiXuX9X+X|.=XrXrX=X,XeXaXdX0X0X,X>XaXBXnXeXsXwXqX9X0XwXwXwXqX>X@X+X=X@X[.(.*XaXHXZXhXbXbXwXiXiXMXvX,X9XtX=X@X9X#X@X=X=X@XX.k g K K e e u u u N V V 1.1.1.1.V a a d d f s s s :.s s _ s.d.v.j.v.v.v.m.m.H g > = = = = < - @ 1 6 6 6 6 o @ j &X@.o.+ o 7 *.*.*.*.7 0 j - = P > z E X.'._.m.m.b..XJ.m.m.m.M.M.M.n.n.n.n.n.n.n.b.v.b.b.b.v.v.b.b.x.` ).+.1XAXzX1X|.|.#X,X,XeXBXHXBXhXyXbXHXHXGXhXyXbXZXeX+X#XhXaXdXNXbXaXdXhXyXhXKXFXFXKX#X`.tXZXGXNXqX,XqXyXtXbXhXsXuXwX9XtXnXhXyXuXhXuX9XuXPX",
"B.n.n.d.d.d.j.j.j.5.5.5.5.5.5.5.6.5.5.6.A .XiXnXdXrX<XrX<X-X@X+X*XrXlXjXpXqXsXbXMXLXKXKXLXLXKXKXAXHXHXyX(.X.=XsXHXHXKXKXKXHXHXGXKXLXMXvXbXuX,X+X}.X.F b v z l - - c E G D B B V C 6.5.5.5.5.5.5.v.v.F.F.j.4.2.d d ( ( ( _ s.3.5.C.A.A.A.A.A.v.x.G , < < Y Y Y R 5 7 *.=.7 7 4 o + O.3X@.l + 8 =.=.-.=.=.9 5 - , = < > : v /..X.XJ.J.J.P.J.J.J.m.z.7.b.J.J.m.n.g.z.v.m.b.v.v.v.j.d.j.v.d.3.3.3.H J #XPXKXLXKXKXKXLXKXKXKXKXKXLXvXyXnXyXiXmXKXFXKXFXFXKXKXbX@X+XwXbXKXHXCXKXCX9X9XgXbXhX0XtXBXbXVXZXKXbXbXNXNXBX0X`.K K J D J J h i i i i ;.>.>.>.4.4.V.h.a a d d p s t S _ x x K F v F b F n n n G n , < = = = = c L 0 2 6 6 1 o + | $.#.[ #. ., @ 2 *.*.=.3 D c > = > > > > > ; - - - - - - - - - - j M.m.c.Y.j.n.v.b.v.v.v.H.C.C.C.C.C.C.C.F.v.v..X7XPXbX=X}.|.,XaXdX,X@X@X>XdXeX>X*X=XeXbXbXaXsXyXwX0X9X>X>X>X@XqX*X+X*Xo.F @XlXVXZXCXbXwXwXgXuXuXuXiX9X9XyX9X9X#X}.OX@X+X+X}.v g K ` h e e u m V V V >.:.1.a V a f f f f s :.s s s d _ z.` M.M.M.c.z.x.M.H v > = = = = < ; o 1 6 6 6 1 o q O.@.$.@.l @ 1 7 *.*.*.6 3 j - $ $ > z R E O.o./._.x._._.b.m.M.M._.m.b.v.c.n.c.c.z.c.x.b.b.b.b.b.b.x.x.X.).}.2XSX2X@X|.@X,X9XqXhXGXKXGXnXhXCXHXGXCXhXwXyXnXaX#X=XaX9XqXsXdX0XwXnXCXHXGXyXKX#XD #X=XCXZXbXqX9XqXtXwXqXwXIXmXMXhXvXMXvXgXgXMXvXuXuXbX",
"m.m.n.z.z.d.d.d.3.3.5.5.5.5.5.5.1.j.3.V b.iXMXhXeX<XqXfXfXqX>X-X-XfXlXdXqX0XaXbXKXKXKXKXKXKXKXCXjXHX=Xo.[.#XCXKXKXKXKXKXKXKXHXHXCXwX9XhXBXbXhXNX>X}.W E E v l c - : b E G B M C 3.3.5.F.F.C.C.j.5.j.j.j.4.2.:.:.:.( ( _ _ d.z.v.F.F.H.K.K.G.b./.G , < Y Y Y U R 5 0 7 =.8 3 o   b  X3X$.+.k o 8 8 =.=.=.9 5 ; > = = = > b (.[.`._._._._._.%X_._.x.H H v.n.H.R.R.J.v.v.v.b.v.3.u 3.v.j.3.v.7.H H OXmXKXFXKXKXLXKXKXKXKXKXKXKXMX9X9XvXMXvXLXKXLXKXLXHXKXbX#X}.0XKXKXHXBXCXKXnX9X9XuXnXbXhXsXeXtXsXbXGXnXhXkXBXHXnX,XX.J J D J '.C u i i a >.1.4.4.q.C.C.j.a u a d d 2.Z d.` v v c l l : , : , , , c , , , I I = = : L 0 1 6 2 o @ O.@.$.#.{ #.#.@.e 3 7 *.8 1 K b = $ = = $ $ = # # # % % % & & & # % g _.m.n.n.l.n.z.v.v.v.F.H.C.C.C.C.C.C.C.v.v.v.oXxXPX9X}.+XqXdXpX,X+X+X@X,XeXwX,X#X=X0XtXtXtXyXyXyXwX>X=X,X>X+X<X-X+X).; - *XAXZXbXNXmXwX9XMXmXIXuXiXwXwXwXwX$XOX#X@X+X+X|.*X].v D x.H e e u m V V V a >.>.a 2.a f f f a s d d Z Z S H G G ` ` ` J G E O.E R Y Y Y Y = , l @ 1 2 6 2 o @ b @.@.%.@.+.j o 7 *.*.*.7 0 L z Y Y ! R R R c n v v v v j j D x v ` b.b.z.z.c.d.d.d.M.b.m.m.b.b.b.b.b.J '.}.1XzXfX*X|.@X,X0XwXyXBXKXHXHXCXnXnXCXCXNXZXsXaXNXhX9X,XqX9XqXdXsXeXtXBXKXKXNXHXwXv v ,XbXBXnXsXqX9XwXwXqX9XwXvXFXFXmXMXmXvXuXuXbXmXmXCXLX",
"M.M.m.M.M.z.z.7.7.7.9.9.9.9.3.3.5.9.V 3.$XMXvXwX>X<X<XfXfXfXpXpXfXlXlXdXqXwXtXsXFXFXCXPXHXKXKXNXHXeXX.X.qXNXCXBXGXKXKXKXHXCXCXnXwX#X#X9XwX0X9XeXhX,X(.E W b l b l - : E X.K B B 3.3.5.5.5.5.q.5.j.j.v.5.1.>.>.:.d d ( _ _ ` ` z.z.z.v.v.b.x./.o., , Y Y Y P U T 5 0 7 7 8 3 O + +.&X$.$.&XO.5 3 7 8 =.=.9 q z , Y = $ = R +.(.X.X.` ` ` ` ` X.X.J B B A 3.Z d.d.H.3.3.v.J.b.3.u 4 5 4 e C 7.K '.uXKXKXKXKXKXKXKXKXKXKXKXKXKXMX9XuXFXLXLXKXKXLXKXHXKXBX#X).>XGXGXKXbXsXnXnXhXyX9XwXFXCXHXBX9X0X9XbXGXCXhXhXCXHXAXjX}.X.J D J '.x.M V V 6.6.4.5.q.C.C.C.j.a a V Z j.j.5.b./.n l , > U U U U , , , , , I P P P = = - L 0 1 0 o @ % @.$.#.{ { { #.$.G 5 3 7 7 1 L c $ $ $ = $ = = $ # # # # & & & & & # k '._.z.B.B.J.v.z.v.v.F.C.C.A.D.D.C.C.C.v.b.9.5XcXuX+X}.,XzX0X=X|.@X0XrX>X>X0X=X=XqXeX0X9XwXwXwXeXwX9X>X,X>X,X=X>X|.l X - o.<XdXaXaXCXhXwXvXMXvXuXuXvXwX#X#XOX#XvX,XOX*X*X0XrXX.j J x.A h e u u u a a :.:.1.2.V f f f a s d Z A B D F b c R c R R c R R R U U U Y U Y R F 5 o 1 2 1   ; | $.#.#.@.&X).+ o 7 7 7 7 0 L - = = $ $ $ $ # # % % % % X % % + ; v '.m.b.v.c.c.c.z.b.m.m.b.b.G.G.m.m.x.OX@X2XSX2X X|.,X0XwXyXnXGXHXZXGXCXhXyXhXnXCXHXbXsXNXnXeX9X0XeXqXdXBXbXbXBXZXNXKXBXF + G @XKXbXsXtXeXsXhXhXyXwXuXbXbXbXMXmXLXbXuXuXbXFXKXKXKX",
"` M.'._._.M.x.x.z.z.7.7.7.7.7.7.9.6.V .XcXFXyXqXdXpXpXpXfXfXdXVXSXSXSXlXdXsXsXyXyXCXKXFXmXGXHXHXrXg W dXjXNXKXKXKXKXKXKXCXbXyXwX#X$XOXOX@X=X>X9XCXdX}.W E F v b b - ; v X.J K B C V 1.6.4.4.5.5.v.H.H.5.>.a >.>.d d _ _ ` D v v x x v v v v c R < = Y Y P = = l 0 3 7 8 3 o + n &X$.$.%.%.$.b O 8 -.-.7 0 M Q ! Y P = = U R R : : : ; ; ; ; : : z j H b.j.V a a a e V b.G.7.v.G.J.v.C A x.K K OXKXPXKXKXKXKXKXKXKXmXMXFXKXKXPXmXFXJXKXJXKXKXHXHXHXHXtX/.F +XVXjXNXsXsXhXyXyXhXuXwXKXKXKXBXqX9X=XnXGXHXBXnXHXHXGXZX0X`.J J J J _.C V V 6.5.5.5.q.q.q.C.j.5.3.j.v.H.P.b._.(.n , , Y I I I I I I Y I I I P P P = = - L 0 0 0 o q ..$.#.{ { { { { #.@.B 3 3 3 0 L z $ $ $ = $ $ = # = = $ $ $ $ $ $ & # g (._.z.J.J.J.z.d.v.j.C.C.V.D.D.D.C.C.F.v.v..XiXDXiXOX@X<X2X+X@X*XwXNXjXqXwX0X0XwXaXtX=X=XqX0X9X9X9X0X9X,X=X<X=X|.E X X - l ).rXeX>XjXCXbXuXuXvXMXmXPXuX=X$XuXuXvX#X}.,XqXNXVX+XG D J J D h h u u a :.1.4.4.2.Z a a a d d d A H K b R U U U Y Y Y Y Y Y Y I Y Y I Y Y R b 5 o 3 3 o @ n $.#.#.#.#.$. Xv o 1 6 7 7 1 q X . # & & & # # # # # # # # # % # # l '.m.m.m.m.n.n.v.v.b.m.b.m.G.G.v.m.'.#X0XpXzX1X|.@X,X0XwXhXGXKXHXGXHXGXhX9X0XhXHXNXhXsXjXhXeX0X9XqXqXjXBXbXbXBXZXZXAXG X + g ].0XhXhXyXhXNXHXGXnXyXbXbXuXuXgXFXKXmXbXMXmXFXLXHXHX",
"J J ` x.x.x.x.x.x.x.x.8.9.7.7.7.9.C 7.5XJXFXaXdXVXlXlXfXqXqXfXlXZXZXVXjXhXbXbXhXbXFXHXGXHXHXCXaXX.g +XSXBXKXKXKXKXKXKXKXFXnXhXyX,X#XOX`.OXwXBXCXAXSX0X(.G G F v T : ; l G X.J B C C 6.6.5.C.K.K.v.n.n.5.:.:.1.2.2.j.d.z.K v : : : : : : : > > > P P P P P = = % o 3 8 8 1 o l &X$.$.%.#.#.$.+.g 3 8 -.9 0 q E U P P P Y Y > > > , , , , , U U R : v x..XG.C.C.j.a u V m.G.7.9.G.v.v.7.9.8.H OXPXKXMXFXKXKXKXKXKXKXMXuXFXKXFXFXJXKXJXJXJXKXKXHXGXKXjX[.- . g +XZXsXsXnXbXyXyXbXbXyXHXHXFXnXyXwX9XsXsXZXCXBXCXnXCXGXBX@XX.W K K _.7.C V 6.6.5.5.5.F.q.C.C.j.j.v.j.L.P.F._./.c , < I I I I I I P I I I I I I Y , > z L o 1 o   b &X#.{ { { &.{ { #.$.O.+ o o 0 M z $ $ $ = $ = = = = $ $ $ $ $ $ $ & # l (._.M.m.n.n.3.3.v.C.C.A.S.D.D.D.C.C.5.9.8.7XMXMX#XOX<XkXrXaX>X@X,XjXbXaXaXeXwXqXeXwX=X9XeX9X=X=X,X>X>X=X*X*X*XG X X ; ; ; G ,XrX,XwXGXFXuXvXmXFXFXFXmXIXiXPXiX#X#X#X>XrXNXNXrX}.J K J J H B N V V 2.4.4.j.2.Z a a d :.:.2.A H G n R U Y I I I I I I I I P I I I I I U c q o 3 1 o + | %.{ #.#.%.#.@.+.* o 3 7 7 3 q X . # $ $ $ $ $ $ $ $ $ $ & $ $ # # : /.m.m.m.m.n.z.z.z.m.J.m.v.G.H.v.x.`.9XyXpX<X&X*X@X,X0XuXbXKXKXHXHXHXHXhX9X9XhXHXCXBXNXbXsXeX9X=X=XaXBXBXaXsXGXKXHXW . . % - v {.eXjXNXjXhXnXnXyXyXbXbXuXuXbXLXLXyXuXMXPXLXHXFXFX",
"` J K K J x.x.x.x.x.x.b.b.z.9.9.7.7.oXcXFXIXaXdXpXdXdX<X*X*X<XpXNXVXlXdXaXhXNXBXKXHXZXZXHXHX,XX.).dXVXaXHXKXBXNXKXKXKXKXKXHXFXCXyXwX=X@X#XhXCXCXAXHXjX@XX.W W b b c : - v X.` K C 3.5.v.F.K.L.P.j.n.H.j.4.j.C.C.Z.H.m.z.D : , , , , , , > < = P P P P P P < < - 0 0 9 3 o + +.%.$.#.&.{ { %.$...5 7 9 9 0 q z > = P P Y P P P Y = = = P P P P > : v J b.v.H.L.L.j.Z V v.b.b.9.7.v.b.b.x.8./.UXKXKXLXLXKXKXKXKXKXKXLXFXLXKXLXFXFXKXJXJXKXLXKXKXGXbX+Xz .   . G aXdXsXbXBXhXwXtXnXmXBXFXCXCXhX0XwX0X9XnXBXnXhXeXnXGXGXtXOX/.J K x.b.3.V 1.3.5.5.5.F.5.C.C.j.h.d.2.C.L.F.m.` l < < < I I = I I < < = < < > Y U , : v L o o o X +.%.{ { { { { { { { #.@.j @ o 3 M L & # $ = $ = = = = $ $ $ $ $ $ $ & # : o.'.M.m.d.v.3.v.J.H.C.S.S.D.D.D.C.j.F.XX$XPXMX9X+X@XkXSXkXAXeX+X}.,XeX9X>XeX9X,X>X>X>X>X9X=X=X=X=X=X=X=X=X+XX.+   X ; ; ; v ].,X,X>XhXBXMXFXFXLXPXIXPXLXuXiX5X$X5X9X9XeXdXdXlX>X(.F G X./.H C V 1.2.4.4.4.2.2.V Z Z :.:.2.A H K n , U I I I I I I I I I I I I I I I , b k o 1 o @ b @.#.{ { #.#.{ #.@.O.5 1 2 2 1 q X # # # & $ $ $ $ $ $ $ $ $ $ $ # # ; X.b.b.m.n.z.d.3.v.G.J.G.F.H.H.v.7.OX9XjXpX*X&X*X*X,XwXhXCXHXKXHXHXKXHXhXwXyXnXHXHXKXHXZXNXsXwX>X0XsXGXBXaXbXGXNX}..   . % z - Q +XaXSXhXwXeXhXhXvXnXbXyXhXFXPXgX9XwXwXhXmXHXHXFX",
"`./.K B K H x.x.x.b.b.b.b.b.b.b.H '.9XPXuXqXeXqXeXdXlXpX-X-XpXlXlXNXNXsXtXsXCXKXHXKXKXHXZXyX(.- eXHXHXHXKXHXKXKXKXKXKXKXKXKXKXKXCXmXbXbXFXKXKXHXHXHXHXrX).X.X.b c T b : l W X.J K H 9.v.C.A.K.K.H.J.H.j.j.C.K.S.L.H.m.` n : < Y P P P P P P P P = P P P = = < c 5 9 0 o   n $.$.%.%.&.} &.&.#.@.K 9 9 9 0 q v R Y P P P P P P P I P P P I I P = c E '.m.F.H.S.h.2.Z d.d.v.m.J.b.v.v.b.7.x.$XIXKXFXKXKXLXKXKXFXKXKXKXKXKXKXKXKXLXKXJXKXKXKXHXGXBX+XG X . X X g (.aXtXsXBXbX9X9XBXHXhXCXLXHXnX,XwX9X>XnXGXnXyX9XbXFXGXFX9X(.J J K _.7.M V 6.3.5.5.C.q.C.C.j.j.h.s.V.S.F.m.` x < < < = = = < U , , U U R R R T b v L C 0 @ @ ; &X%.{ { &.{ } { { { [ $.O.+ 5 0 0.0.% # % % % % - # # # $ $ $ $ $ $ # # : X._.m.B.d.n.j.J.oXP.K.A.A.D.D.V.j.F.4XxXJXLXIX=X@X0XlXlXrXrXwX>X@X@X+X[.[.9X=X@X@X=X>X=X@X=X=X9X9X>X,X>X0X+X;     . ; l ; - G |.,X,XwXbXmXLXmXPXgX9XIXMX5XOX9X9X9X9X9XBXNXrXjX>X(.F G W J H C V 1.2.2.4.4.4.2.2.2.2.d :.:.Z A D n , , = I I I I I I I I I I I I I I , T L o o o k +.$.#.{ { { { &.{ #.@.J @ 3 2 1 q % # # # $ $ & & & $ $ $ $ $ $ $ $ # > /.b.m.m.m.n.d.3.j.G.J.F.F.L.H.v.7.$XwXBXaX|.*X1X=X<XsXCXHXGXZXZXCXCXCXnXhXnXCXGXZXHXHXZXZXZXjXtXaXIXBXbXbXGXbX=X. . .   X - z z X.>XSXkX0XsXHXHXHXGXvXyXvXLXvX9XuXwX9X9XyXCXGXFX",
"%X'.b._.b.z.z.z.v.v.b.z.J.7.v.b.K OXFXMXtXaXeXdXdXVXVXdXfXdXdXdXeXaXaXeXyXCXKXHXHXZXHXHXpXo.v v [.HXjXBXKXbXKXKXKXKXKXFXmXBXCXCXmXnXFXKXHXCXGXKXGXKXBXyX,X/.F W l T l l z b X./.K H 7.3.5.K.K.C.H.n.v.j.j.C.Z.L.L.F.m.M.n < = P P P P P P P P P P P P = = < < : M 0 0 o + +.$.%.&.&.&.&.&.&.%.$.(.5 3 9 5 k E : > = P P P P P P P P I P P I P Y > G ` 7.j.L.S.:.s.d d d.n.v.v.v.7.b.z.7.oXcXKXKXKXLXLXKXKXKXKXKXKXKXLXLXKXKXKXLXKXKXKXKXGXKXBX0XW g . X k % X k OXaXsXwXIXyXwXNXHXBXGXHXnXnXnXwXqXtXbXGXnXtXwXsXhXbXGXhXOX/.J K J x.C M 3.3.6.5.q.V.C.V.h.h.h.h.h.V.H.B.` n < < < = = < , > : l z z z z L j k M M M 0 o @ b 3X#.{ { { { { { } { { $.+.k 5 0 M w.L L L L L L g g % . # & $ $ $ & # # - X._.c.Z s.d.3.T.4XP.F.L.C.Z.Z.j.j.4XcXJXKXPX9XOX*XkXSXkXwXeXwX9X9X9X,XOX(.OXOX+X@X=X9X>X=X9X#X=X9X=X=X>X@X; + X X X + % v - n ].,X#X,XyXyXuXtXMXPXiXUXuXIXvXiXiXuX9XwXCXHXjXkXpX*Xo.b E (./.H V 1.2.1.4.j.5.2.2.2.2.2.:.:.2.A S n , U I I I I I I I I I I [ I I I , R E L 0 o @ F  X$.{ { { { } { &.#.@. XM o 0 3 0.@ # # # # # # & & & & $ $ $ $ $ # # ; J b.m.m.z.Z Z d.j.F.H.G.F.H.H.F.z.7XmXBX,X|.*X*X*XwXBXHXKXHXCXNXNXCXHXHXGXCXZXGXHXKXKXGXCXBXNXbXBXBXNXGXKXFXKXg   . .   . % l b W [.rXlXkXNXHXAXCXCXBXLXHXnXyXyXyXhXhXhXjXnXnXnX",
"%X_..X.Xm.m.m.v.v.v.n.v.v.v.G.7.'.9XFXIXaXbXdXdXNXVXSXSXSXSXVXdXeXqXeXaXbXHXKXFXGXHXAXaX|.G l l ).HXNXGXnXKXGXKXKXKXKXGXFXmXmXnXKXHXHXFXhX9X9XqXCXZXCXnXyXOXJ G b T c c b v W X.K H 7.3.5.C.K.K.H.H.j.j.j.Z.Z.S.H.F.m.` n < = P P P P P = = = = = P = = = < < l 5 1 0 @ v &X%.&.&.&.&.&.&.&.&.%. Xj 0 5 5 q D : > > > Y Y Y Y Y Y P I P P P P I > c ` m.H.h.:.u.s.s f d.n.v.v.v.v.b.z.b.7XDXKXLXLXmXmXLXKXKXKXKXKXKXKXLXLXKXKXKXKXJXKXKXKXGXqX[.z + X % % % % k D #XbXsX9XwXsXvXGXBXGXHXnXnXnXeXqXsXnXbXtXeXtXsXyXtXnXBX9X`.J G J x.H N A 6.2.5.V.V.V.V.h.h.h.h.u.h.j.n.` n , < < = = , > % X @ @ @ @ o 0 0 o 0 0 0 o o + O.3X#.{ { { { #.{ } } { @.@.G k 0 0 0 0 0 0 0 0 o @ @ @   . % & & $ # # # ; G M.d.s.g.j.3.J.4XJ.F.H.C.Z.j.j.v.7XDXKXFXsX=X@X0XNXAXjXsXtXwX9X9X0XwX9X#X#X=X=X=X,X>X,X#X=XUXUXUX0XwX+XJ + X + X   X + ; - x o.=X0X0XuXsXyXiXIXPXuX#XUXuXMX9X#XUXuXCXLXhXCXnXkXaX+XW E X.'.z.A 1.2.4.4.j.4.2.2.2.2.2.2.:.2.A S n , I I I I I I I Y U U U I I U U R T G L 0 o + E $.#.} } { { } } { { #.@.G o 1 9 b.+ X % % % % % % % % & & $ $ # $ # # ; J _.m.z.d.s.2.d.j.F.J.H.F.F.K.H.z.iXMXyX=X*X<X=X>XaXFXKXGXGXZXCXZXGXHXCXnXnXCXHXHXHXHXCXNXNXnXjXNXHXNXKXKXLX`.@   @ .   . X - b b X.+XaXjXlXNXjXSXAXZXHXAXhXwXyXhXBXBXyX>X=X9XtX",
".X.X.X.Xb.n.n.d.j.v.G.G.3.J.G.3.OXbXnXaXbXZXZXjXVXVXVXSXZXZXlXeXwX9XqXsXCXKXKXCXZXHXjX|.G z l : g @XHXHXNXKXKXFXKXLXLXKXKXFXmXCXKXHXHXGXbX9X,X9XyXsXhXBXBX9X(.F E E b G b l b X.F K H 9.9.C.A.K.H.F.j.j.j.l.Z.Z.L.H.m.J : < P P P P P P , , , , > , < = < < , v M 0 0 @ ..3X%.{ &.&.&.&.&.&.&.#.&XG + 5 5 h K v c c c z c : : , U < I P P P P P , l ` J.H.:.s u.u.f f 2.n.G.v.v.v.v.z.oXcXKXLXFXLXmXmXLXKXKXKXKXKXKXKXFXmXFXKXKXKXKXKXKXGXaX|.b % X % g % + k k + J 9XvX9X9XyXeXbXNXGXGXjXkXyX9X0XsXnXaXwXtXaXtXyX9XyXCXhX@XX.F J x.z.C V 1.2.5.V.V.V.h.h.u.h.h.h.2.d.z.H n , , < = < U : %   o o 3 1 1 2 3 1 1 o 1 o o + O.%.#.{ { { { #.{ } { {  .@.F 5 o o o 1 1 1 2 1 1 3 0 o o   + % & $ $ # % ; S _ _ s.f.l.s.n.J.G.F.F.j.d.z.v.oXxXKXKXvX>X#X=XdXHXSXjXhX#X=X9XwXyXsXtX9X,X9X9X9X9X9X9X,X=X9X9XUXtXwX(.+ . X + X     X * g g G +XwXwX0XyXsXtXuXBXMX9X5XuXMXvX9X#X9XhXCXmXhXyXkXlXqX].Q W '.x.z.3.1.4.4.4.4.4.2.2.s.s.2.2.2.A D c , I I I I I Y Y U ! R Q T E T c b F L 0.5 + k +.$.{ } } { { } } } { #.@. X@ o 0.XX0.L j L L L k q q % X & & $ # # # # - H m.c._ _ s.s.2.j.H.P.H.F.F.H.H..XcXmX>X@X*X<X-XqXbXGXGXCXBXCXZXHXGXCXhXyXyXnXHXZXZXCXNXNXNXNXhXjXZXBXKXKXiXe   O @ @ . . . % l b E ).=XdXdXrXeXkXjXNXSXSXsXrXhXhXhXyXwX9X9X9X9X",
".X.X.Xm.z.v.n.d.3.H.v.G.v.G.v.b.=XVXpXqXNXVXZXNXZXBXNXbXNXbXdXeXtX9XtXnXFXKXKXCXZXSX0Xo.v z : ; . v bXKXKXBXKXGXLXmXmXKXKXGXFXHXHXHXKXKXHXmXbXBXwXwXwXbXHXgX}.G W X.G G b l v W J K H 7.9.5.C.K.L.H.C.j.l.l.Z.Z.Z.H.m.J : < I P P P P > : l z z z c : : : l l D M 0 o   ..%.%.&.&.&.&.&.&.&.&.#.&XO.+ + 5 9 m h q q q q % % + + ; < P P P P P P < n ` d.:.:.u.u.u.s f 2.n.v.v.v.b.z.z.5XJXKXDXKXKXKXLXKXKXKXKXKXFXKXLXmXMXmXLXLXKXKXKXKXjX=XX.g X + k j % + k 5 e k J 9XvXtX9X9XwXdXZXGXNXdXeXqXwXdXbXbXbXbXIXyXIX0XtXNXnX0X`.K K x.x.H V V 2.4.V.V.V.h.i.u.i.h.h.h.s.d.H D , , < = < U l + @ 1 2 7 6 6 6 6 1 1 o o o O + n @.%.{ { { #.#.{ { { #. ...z q q M 0 3 2 2 2 6 6 6 7 1 o o + % % & # # ; x _ _ f.s.u.k.d.z.J.b.v.G.v.x._.$XiXmXKXCXsX@X@X0XNXZXhXwXuX$X#X9XtXsXhXyXwXqXqX9X9X9X0X9X,X=X9X9X9XwXOXg     + k + O O O + g x v X.#X,X,XwXbXIXsXMXFXtX9XuXuXPXvX9X9X9XyXHXeX0XeXjXdX*Xo.E /.'.x.A 1.4.4.4.h.4.2.2.s.h.s.2.2.A D c , I I I I P = # & - q L q q +   @ o o 0 @ @ ; +.%.{ } } } { } } } { #.$.+.+ @ M 5 0 5 @ o o o o 1 o o   # & $ $ # # % ; ` c._ Z d _ s.s.Z.H.L.H.K.F.K.H.5XJXvX#X@X*X1X,XaXNXKXLXmXnXCXZXHXCXhXyXwXyXnXZXNXnXhXhXbXNXNXjXNXbXKXLXDXx.O   O O @ @ . . X - F E W ].qXpXqXpXeXaXaXjXjXaXwXdX9X9X0XtXhXbXsXwX",
"XX.XJ.n.d.v.n.j.2.J.v.G.G.v.9.oXtXjX<XeXdXqXdXjXBXNXNXNXbXjXjXhXbXyXbXLXCXLXKXHXHXaX|.E b l - % X + F KXZXCXKXGXFXvXvXLXKXLXLXKXKXKXKXKXKXHXHXKXnXyXgXCXKXFX,X(.G X.E b b v z b X.J K 7.9.9.F.K.L.K.C.l.l.l.k.k.h.l.m.H : < P P P P = > % q k k k k k q k k q M 1.9 0 + +.%.&.&.&.&.&.&.&.&.&.%.3XO.% 5 9 0 4 4 5 5 0 0 0 0 O @ + % > Y P P P P < n ` d f s.s.u.u.:.2.d.v.v.v.b.b.7.b.7XJXKXFXKXKXKXKXKXKXKXKXLXuXMXFXFXLXKXLXMXvXBXKXZX>X].b % X - k q k k + + h e k /.vXnX0XwXeXbXZXBXNXkXkXlXdXdXsXZXGXCXbXIXyXtXsXnXCXjX@XG F J /.8.C A 6.2.j.h.V.h.h.h.h.i.k.h.s.d.z.K v , , < > , g @ o 1 2 7 6 6 6 2 1 3 9 M C K D n  .%.#.#.#.#.#.{ { { #.U T (.$X5X5X0.9 0 1 2 6 6 6 6 2 2 0 5 k % # # ; x ` _ _ u.i.u.f.d.v.m.b.b.J..X$X,XwXjXAXAXnXyX@X,XyXCXnXwX9XwX9X9X9XwXtXsXhXhXhXyXqX9X0XwX>X#X,X9X9X9X@XD @ @ O + k + O + + + ; x v G [.#X=X9XIXbXaXtXMXbXwXwXsXsXwXwXyXwX,XuXwXwXrXeXpX<X{.E X.'.x.3.1.4.5.4.h.4.2.:.2.h.s.2.2.A D n , I I I Y Y > X   o 1 0 1 3 1 o 3 o o o o   + | #.{ } } } } } } } { #.$.@.X   O o o 0 o o 1 2 2 2 3 3 @ X % ; # # % ; g ` _ _ ( ( ( u.l.H.H.F.G.L.H.F.v.7XPXiX@X=X*X=XqXdXBXKXKXFXCXZXHXHXCXhXyXhXnXCXGXjXsXyXdXjXNXNXnXHXBXKXKX#X+ O O O O O O X + + ; l E E X.*XpXpXdXdXdXpXdXjXaXqXaX@X9XaXhXhXhXhXjX",
".Xm.m.b.z.z.n.d.2.H.v.v.G.b.G.iXaX<X>XpXpX<XpXjXdXjXNXNXnXhXhXbXbXbXFXFXbXbXLXGXZX=XX.b c : % % %   . +XGXGXKXIXPXMXmXLXKXKXKXKXKXKXKXKXHXHXKXKXKXCXCXFXHXHXuXOXJ J W n b b z b W J K H 9.9.F.F.L.L.C.l.k.k.k.k.h.j.z.B - < P P P Y > ; + 5 4 4 3 4 4 0 0 0 0 0 9 0 5 D @.%.&.&.&.&.&.&.&.&.%.%.3X+.% @ 3 3 8 8 9 9 9 9 8 8 8 4 O + z U P P = < < x S _ ( u.u.u.u.s.j.v.b.v.b.b.8.x.oXxXDXFXKXKXKXKXKXKXKXKXLXmXuXmXKXKXKXKXMXuXiXbXGXdX}.E l % X g % + k k 5 5 e B k j #XMXyXsXNXGXZXdXaXpXpXlXbXaXtXbXCXbXIXIX9XtXhXNXSXAXrX(.J J /./.H C 6.6.5.h.V.V.h.h.h.i.i.i.u.h.d.` K n , < < l g @ o 1 6 7 7 6 6 2 0 M XXXX5X$X[...U @.#.#.#.#.#.{ { { #.| +.-XIXiXiX5X9.M 3 1 6 6 6 6 6 2 3 5 k % # % x ' ` _ ( i.i.i.s.g.n.b.x.b._.%XtXqX>X<XdXkXrX,X@XwXnXCXMXuXwXuXiXwXwXyXIXsXyXyXbXyX0X9XwXyXwX>XwXwXwX,X/.+   + O + e + O * O + + g D K (.@X,X=XsXbXIXtXhXmXvXsXHXhX9X9X9X:X:X9X,X9X,X,X<XqX+XX.W /.x.3.1.4.4.4.h.4.2.:.:.s.h.:.s._ ' n , < I I Y U c + o 1 2 6 2 6 2 1 1 o o 3 5 5 g | @.#.{ } } } } } } { #.$.|     o 3 o 1 o 6 7 6 6 6 2 1 o + ; % # # ; : n _ _ ) ( ( s ( l.R.H.F.G.L.L.K.v.cXgX#X@X=X+X-XqXnXGXKXKXKXGXHXHXKXGXCXnXCXGXHXHXjXsXsXbXNXCXZXZXGXHXFXMXB   O O O O O O + + ; ; - b E E ].-XqXqXdXaXpXaXlXdXpXdX0XwXeXyXhXNXCXBX",
"m.z.z.m.v.z.v.3.d.z.m.v.b.b.5XMXpX*X<XfXqXpXdXdXaXaXsXhXsXyXsXnXbXmXLXmXuXhXCXnX9X).b z l ; # # .     k qXGXKXuXIXMXPXLXKXKXKXKXHXKXKXKXHXKXKXKXKXHXKXKXFXKXmX,X(.J G F G b l v b G J H 7.9.F.F.K.K.Z.l.k.k.k.k.Z.l.d.x ; = P P P Y , ; + 4 3 8 8 8 7 8 9 8 7 9 1 1 0 J +.$.&.&.&.&.&.&.&.&.%.%.$.| k 5 9 8 8 8 8 8 8 *.*.*.8 8 3 5 z , P P = < , x _ f.s.( ( _ d s.j.m.b.b.b.b.8.'.7XDXPXFXKXKXLXKXKXKXKXKXFXMXFXKXKXmXMXMXvXuXyXnXnX*XW b g X % % % % k h e e e B j k x.9XyXtXVXKXSXdXpX0X0XaXaXtXaXsXbXIXsXtXtXtXhXnXBXSXkX@X(.G J /.7.C 6.6.5.5.V.C.V.h.h.i.y.t.i.i.f.f._ ' , ; ; x k O o 2 6 6 6 6 6 1 9 0.5X5XUX#X@X+., U #.#.#.#.#.{ } { [ @.&X*X9X5X7X7XoXM o o 1 6 6 6 6 2 1 0 k g : c ' _ _ _ y.i.i.i.s.g.n.x.x.x._.OXpX<X-X-X1X<X,X+X=XaXCXCXvXIXuXiX9X9XwXvXnXvXyXwXsXyX0X9XeXhXsXtXwXwXwX}.j @ @ + + + e e O * O * * k x K ` OX=X#XwXaXbXbXyXhXBXnXHXBXyX,XOXOX:XiX#X@XOX+X,X<X*X{.W /.b.7.6.2.4.4.4.h.2.:.:.s.s.:.( _ ' n , < < I < , l @ o 6 6 6 *.6 6 2 1 3 M w.G.x.X.O.@.#.#.{ } } } } { { #.#.R n J 0.M 1 1 7 6 6 7 7 7 7 2 o + ; % # ; > c G S ) ) ) ( / ( l.R.H.F.H.L.H.F.G.DXuX#X#X=X*X>X0XZXGXKXKXHXHXHXZXKXHXGXCXCXCXCXCXNXbXNXZXAXZXZXHXNXZXbX_.  O O e O O O + * * k j l b E E Q  X-X<XqXqX<XpXdXpXpXkXdXwX>X9XsXZXZXnX",
"z.A z.m.m.n.d.2.n.3.J.b.7..XcXmXkX*XfXdX<XkXdXwXNXhXaXyXtXtXsXBXmXKXKXCXuXbXCXnX].W v z l % X X         D GXPXmX9XyXMXPXFXKXKXHXHXKXKXKXHXHXHXFXKXLXKXKXFXKXKXuX%XJ J G E b - b l F J H 7.9.F.F.K.K.Z.j.h.f.k.N.l.l.c.` v : > = = U c k 5 3 8 8 7 7 7 7 8 7 7 9 w.M M [.| #.{ &.&.&.&.&.&.&.%.%. ...(.$X6Xq.;.8 8 8 =.=.=.=.=.8 3 5 j l > < < , n ' _ s.( ( ( ( d 3.v.b.b.b.8.8.x._.iXKXPXKXKXCXKXKXKXKXKXKXmXuXKXKXFXwX9XuXmXFXGXAXaX].b z l + % + k h k h M e e h h h B `.9X9XtXBXVXdXjXaXeXdX>XaXnXnXBXBXbXtXbXsXsXhXjXjXlXkX].G J /.8.C 6.6.5.5.C.V.V.V.h.u.y.t.i.i.i.f._ _ ' x ; x e O o 1 6 6 6 6 6 1 9 XXUX5X5XOX>X1X| U #.#.#.#.#.{ { { @.&X1X[.9XuXiX%XoXM 3 1 2 6 6 6 2 2 1 4 h v n O.` _ _ _ i.i.i.i.h.l.n.v.b.b._.`.<X<X<X<X<X1X,X@X,XjXKXCXvXIXxX9XtX9X9XuXvXbXbXbXhXyXwX0XwXyXyXtX9XwX9XJ + @ + O + + e e e e O e e e j D K ).#X#X9X9XsXnXwXwXvXCXnXhXhXqX@X,XuXwX:X$X}.@X,X>X@X[.W /./.x.3.6.2.4.4.j.h.2.:.s.s.:.( _ _ ' , , , , , n j @ 1 6 7 *.*.6 6 7 2 9 G.5XoXOX[.O. .$.#.{ { } } } { { #. .+. X$X5X5XXX9 2 6 6 6 7 7 6 2 1 O * ; ; - v n ` t ) ) ) ( ( s.k.Y.H.K.L.L.K.F.J.cXiX@X#X=X>XaXpXGXHXKXLXFXCXCXCXZXHXHXCXbXhXhXjXnXjXnXCXCXNXNXCXZXCXvX+   O O O e O O e e + k K F v b E E ].<XpX<X<X<X0X0X,X,XpXwXeXwX0X0XtXhXhX",
"c.c.c.n.n.n.d.d.H.n.v.b.J $XKX0X-XpX*X-XfX<XrXrXjXaXeXsXhXbXnXCXPXKXKXKXGXKXVX+XE b b l % % % X         @ OXKXMXwXtXyXmXKXKXHXKXKXKXKXKXKXHXLXFXLXmXMXFXKXKXLXbX`.W X.W W E g l b b W J 7.7.j.C.L.K.F.v.j.j.f.f.f.N.N.g.` ' n : > , l k 5 0 8 7 =.7 7 8 3 3 5.8X8XxX7X}.+.@.#.%.&.&.&.&.&.&.%.#.| 1XqX,XiX7X4X1.8 8 *.=.=.=.=.8 0 @ k F : ; : x ' _ s.u.u./ ) _ d c.M.x.x.x.8.'.%X7XMXDXLXKXKXKXKXCXCXHXKXFXFXLXFXPXFXmXvXmXJXCXAXSX|.b b v % % + e e e m m h e h m m m B H OXIX9XtXsXdXAXZXpXNXNXpX0XqXdXsXeX>X9X9XeXjXbXbXbXNX*XX.G K 8.b.C 6.6.5.C.C.C.D.V.u.u.i.i.i.i.i.f.f._ _ S S e 3 o 2 6 6 6 7 7 2 9 I.UXUX#X@X*X*X&X@.< #.#.#.{ { #.[ @.&X,X9XiXiX,X+XoXM 3 2 6 6 6 6 6 o o 4 S ` ` _ _ _ _ f.k.k.k.k.k.Z.Z.F.G.G..X_.OXaXCXnXjXrX,X,XhXnXGXKXPXuXiXIXuX9XiXuXMXPXPXCXLXsXbXhX9X0XtX9X9XiX/.+ O O   + O e N e e e e e e e h B J /.[.9X=X*XaXbXwX,X9XKXFXhX9X9XwXwX9X#X#X,X,X#XOXOX+X@X(.o././.8.6.6.5.4.4.h.h.:.:.u.u.u.u.f._ _ ' x x n x B 5 1 6 6 *.*.6 6 6 3 w.6X$X%X}. X@. . .@.#.{ } } } } { #.@.@X:X:X7X7X5X9.3 2 6 6 6 6 2 2 3 4 + e e x S S f ) ) ) ) ( s.h.Z.L.L.L.L.L.F.F.XXPX$X#X#X,XwXwXCXGXKXHXMXhXhXbXbXHXBXBXNXsX9X9XsXbXGXsXsXnXnXCXBXBXKXD       O O w w e e e e h j G F b E X.O.[.pXfX>XqXdXpX<XpX<XdX=X>X0X=X0XNXNX",
"c.c.c.n.l.l.j.j.H.v.b.b.'.=XqX+X|.pX1X<XpXqXeX>XdXaXyXbXnXmXFXKXKXKXKXKXGXVX-XQ b b c - % % %       o @   D 9XPXvXbXhXbXHXHXFXLXKXKXKXKXHXFXCXCXmXmXmXFXHXHXmXbX}.X.J G W G z l b b G ` H 3.j.C.F.F.H.F.j.j.f.f.f.f.f.g._ ` ` v : : v h 5 0 7 7 7 *.7 8 3 i 5XcXxXxXiX,X X@.@.#.&.&.&.&.&.%.#. .{.0XrXrXwXuX8XP.8 8 =.=.=.*.7 8 0 5 k v g ; x _ _ s.u.u.u.( ) _ g.c.M.z.x./.`.$X9XvXJXKXKXKXKXGXbXvXnXFXKXKXKXKXKXLXJXKXFXLXKXCXSX2Xo.v b z % + 5 e e u m m h e m m m N B B '.9XuX9XsXCXZXNXeXaXNXjXeXrXeXeXqX>X,X,X0XaXjXbXBXZX0X).J J x.b.3.V 6.5.C.C.V.C.V.h.u.u.i.i.p.p.i.u.f.s._ s.a 9 3 1 6 6 6 6 6 2 9 0.5XUX=X*X|.*X*X X| [ #.#.{ { #.@.&X,XiXiXiXwX<X,X_.9 1 2 6 6 6 6 1 1 4 f f.g._ _ _ f.f.f.k.k.k.k.D.Z.Z.K.K.G..X.X%X7XMXLXCXwX#X#XnXBXBXmXMXIXxXiXIXuXtXuXvXMXBXFXKXFXGXsX9X9XtX9X9X$XB O O O O O + e x h e e e e e u m B H 8.`.#X9X=XeXyXwX9X9XvXFXhXwXwXwX9X9X#X9X9XwX,XOXOXOXOX].o.X./.8.C 6.5.5.4.h.h.u.:.u.u.y.u.u.f.g._ ' ' x x m 4 1 7 6 6 *.6 6 6 0 0.5XOX%X X X@.@. .@.#.&.} } &.} { $. X@X:X:X7X$X5XXX0 6 6 6 6 6 6 2 3 3 5 u Z _ _ ( f ) ^ ) s d s.j.L.S.L.L.L.L.F.F.XXcX@X#X#X9XuXhXHXKXmXyXwXwXwXyXBXKXGXBXBXhXwXwXyXhXnXuXsXBXCXGXnXGX0X;       O O e e e e e e h j K F v G O.O.].-XaXqXqXpXaXpXpXpXeX,X0X0X=X0XbXZX",
"c.c.B.n.l.l.j.j.J.v.m.'.#XyX+X|.*XfXfXrXpXpXpX0XqXeXsXbXBXBXFXKXKXKXLXKXKXdX[.F b E c ; % % X       O +   + '.MXFXBXvXvXFXLXCXCXLXKXKXHXCXMXmXCXMXmXLXHXFXCXmXbX#X}.J G W G b l b l b X.H 3.v.C.C.K.L.L.F.j.f.k.k.f.f.f.g.c.M.` n x x h 5 3 7 7 *.*.=.7 3 F.DXcXcXxXgXyX1X@.@.#.#.&.{ &.%.%.#. .*X9X0XyXuXxXcX6X8 =.=.=.*.*.=.8 9 5 h j x x _ _ ( u.u.y.i.( ( _ c.M.x.x./.`.OX9XuXPXKXKXKXKXLXPXyXyXbXCXKXKXLXPXKXFXKXKXKXKXKXCXzX Xn c c - + + e e e u N M h e N m m C C m K %XMX#XtXnXaXpXpXeXjXjXdXrXqXeXeXqX>X,X>XwXdXbXBXZXkX@XJ J x.b.9.V 6.5.C.q.q.V.V.V.h.h.i.i.p.p.i.i.f.f.f.f.j.>.8 3 6 6 6 6 6 2 3 9 XX#X<X-X@X*X=X&X$.[ #.#.{ #.@.$.rXwXiXiXuXyXrX=XL 0 o 3 6 6 6 6 3 8 >.k.N.f._ f._ f.f.g.h.h.h.Z.Z.Z.Z.S.F.I.I..X'.%XwXCXhX#X@X#XnXGXCXvXuXIXuX9XvXuXuXuXuXIXMXFXmXLXFXIXwXwXtX9X9X/.5 @ O O O O * * e e e e e u u m M M K J /.OXeX9XeXwXwXeX9XwXuXwXwXwXuX9X#X@X9XwXuX9X=X#X@X+X|.].X./.8.K C 5.5.5.j.h.h.:.:.:.:.i.k.f.f._ _ _ ' S N 4 1 7 6 6 7 6 6 6 7 0.5XXXOX}.|. X@.@.@. .&.} } &.{ #.$.*X#X:X7X7XoX5XXX0 6 6 6 6 6 6 2 3 4 i Z _ _ ( ) f ) ) ( ( s.j.Z.L.A.L.K.L.L.F.G.XXiX#X=X=X9XvXBXHXCXtX9X9X9X9XyXBXKXGXGXBXNXnXhXyXsXhXtXhXCXGXHXnXCXJ         O O e e e e e e h j J J F b E O.o.}.pXaXpXqXpXaXpXpX<X9X>X>X=X,XeXjX",
"c.c.B.l.g.j.j.F.H.v.9._.uXbX=X<XqXfXpXqXqX0XpXdXeXaXhXNXBXCXHXKXKXKXLXKXHX=XW E b T l % ; % .     o O 5 @ + D #XBXFXnXhXCXHXFXLXLXHXLXmXMXMXmXFXFXHXKXKXLXFXFXCXbX0X(.W W G E l T l v ` H 3.v.j.C.A.L.L.H.Z.l.k.k.k.f.f.g.g.c.M.` S x e 4 8 8 7 =.*.*.7 3 XXJXxXxXxXgXhXrX1X$.@.#.%.#.#.%.#.$.;X<X9X9XwXiXxXcX6X8 =.=.=.=.=.=.8 3 9 N S _ _ _ ( y.i.i.y.u.( _ d.M._._.%X@X#X#X,XhXPXJXJXJXKXFXmXhXyXbXHXKXFXvXuXPXmXLXKXKXLXHXCX<XO.z c l % % % k h h N B B m h N N N C C m B x.iX#XyXbXeXeXqXeXpXkXdX0X0XaXjXaXeX0X9X0XtXsXBXZXlXrXX.G 8.x.b.C 6.5.5.q.q.V.V.D.k.h.h.p.p.i.i.i.i.f.f.k.l.C.>.y 7 6 6 6 6 1 o 0 J [.-X-X*X,X,X*X3X@. .$. .$.@.3XrXwXiXuXhXyX*Xo.+   o 3 3 2 6 7 y >.h.N.k.f.f.N.f.f.f.g.j.j.Z.Z.Z.Z.S.K.F.F.G.G.x./.#XvX9XOX@X9XsXCXGXnXuXiXiXiXuXuXtXuXuXuXvXmXtXmXnXbXbXtXwXiX#XB @ O O O O O * O * e e e e u u V N m B H /.).0XwXsXwXwXyX9X,X#X9XwXwXwXwX9X#X9X9XwX9X9X,X#X@X*X{.(./.8.H C 5.5.5.5.h.h.h.2.:.:.h.k.s._ f._ _ _ _ A e 1 2 6 7 7 7 6 2 7 w.6X5XOXOX}.|. X X+.@.{ } { &.{ #.&X1X#X7X7X5X5X5X0.0 6 6 7 7 6 2 7 8 i d _ ( ) f ) ) ) ( _ f.l.n.H.H.K.L.L.K.L.F.G.oX5X#X9X9XqXbXGXFXtX9X,X9XwXwXhXCXHXHXGXCXGXKXCXsXsXvXsXnXBXBXKXBX,X+       O O O w w e t e e h B 8./.J F E O.o.).>XdXdX<XpXpX<X<X<X0X,X=X=X*X=X>X",
"c.B.l.g.j.j.j.H.F.G.0.$XMXsXdXdXpX<XqXpX<X>XeXVXbXNXCXCXCXGXKXKXKXKXLXbX0X(.b T T c - % - X       O O 5 + 5 h J vXGXGXBXGXKXKXKXHXLXCXbXhXbXFXKXKXKXKXKXKXKXHXHXHXbX}.X.W G X.v Q z v J x.7.v.j.C.C.L.L.L.L.Z.k.i.k.k.k.k.g.l.c.B.` A a 4 8 7 *.*.7 7 7 3 I.LXcXuXgXuXuXsXpX*X@.@.%.%.%.%.$.$.2XwXiX9XiXiXxX8Xw.8 8 =.=.=.=.=.8 8 i 2.f._ _ ) ) y.i.i.i.s.2.3.x.%X%X%X@X0X0X,X>XCXHXKXKXKXKXLXmXmXyXhXKXKXMXuXuXMXmXLXKXLXLXLXnX].b c l % X % k k k m N C C m e m C C N B C B K `.9XFXCXZXbX>X0XwXaXaX0XeXjXNXjXaXwX0X>XqXaXnXNXkXyX).J K 8..X7.1.6.4.q.V.V.A.D.C.C.V.V.i.i.i.k.i.f.f.f.k.Z.D.4.;.7 2 2 1 o o + b .. X X&X1X>X*X X3X .@.$.@.$.2XrXyXgXyXrX1X+.T g + @ o o 1 8 8 q.D.k.k.f.f.f.k.l.f.f.f.j.H.H.K.S.S.K.F.F.F.G.G.x._.9XIX#XOX,XhXeXsXnXBXhXiXiXuXuXuXuXvXvXIXIXvXuXMXuXnXPXuXuXiX'.5   O O O * O O O O * u N m u u N N m B K J /.@X9XnXeX9XwX9X9X#XuXsX9X9XhXhX9X9X9X9X9X9X9X#XOX=X}.(./.x.7.3.3.5.5.5.j.j.j.h.s.d s.h.s.s.f.g.g._ g.d.2.i 3 2 7 6 6 6 6 2 9 I.5X5X$XOX}.|. X X@.[ { #.#.#.$.1X,X$X7X5X$XiX$XM 3 2 7 7 7 6 6 8 ;.:.u.( s f ) ) ) d d _ f.n.H.H.F.K.L.K.K.I.F.b.oX$X=X9XqXwXbXGXbX=X9X9X9X9XsXNXCXCXGXBXBXGXKXGXhXsXbXbXBXhXmXKXnXJ         O O O O w e u u u h m J /.X.F G E O.o.|.pXdXqXeXrX<X<X0X0X,X=X>X>X=X=X",
"N.N.l.l.j.j.F.H.v..X.XiXMXeXdXfXpX-XpXdXpXaXkXAXZXGXGXCXCXGXHXKXKXKXFXwX[.E z E T l % - % .       O 5 e + k k j =XnXKXKXKXKXKXKXKXLXmXbXbXmXHXKXKXKXHXHXKXKXHXGXBXbX#X/.G W o.G O.G b G x.x.z.F.C.A.C.L.L.L.Z.Z.k.k.k.k.k.k.k.l.g.g.Y.j.i 4 7 7 *.*.8 8 3 M UXFXhXhXgXuXIXbX1X+.| @.%.%.$.$.&XpXwXiX9X9X9X9XXX9 8 7 =.=.=.=.8 8 <.4.h.f.f.( / / t.i.i.i.h.5.v._.OX}.[.+X=X>X<XaXnXCXFXJXKXKXKXLXbXyXhXKXKXmXvXPXFXLXKXKXHXKXCXrXE b b - X X ; k k h m N N N h e u A A N C C K K J 9XFXbXNXjX=X0XpXdXaXaXdXlXNXdXtXeX0X=X9XeXsXbXkXaX@XX.D H _.J.6.1.4.q.C.V.A.C.C.C.D.V.h.i.i.k.i.k.f.i.i.k.Z.D.,.-.8 3 o o q v T |  .@.@.&X=X=X X1X X| 3X+.1XpXrXaXaX2X&X@.+.+.+.b k @ o 1 i >.S.U.k.k.k.k.f.u.l.f.s.j.F.H.F.C.F.K.K.C.F.F.F.G.b.$XuXuX#X#XwXhXwXqXyXBXCXbXyXhXuXuXvXMXnXvXuXuXuXsX9XMXPXIXMXiXh @   O O + * * O O O * e N N N u N m m B B K 8.'.#XnXyX9XwX9X0XwXhXuX,X,XuXbXbX9X9X9X9X9XwX9X#X*X|.).(./.8.7.3.3.5.5.j.j.j.j.j.s.h.h.h.s.s.f.f.f.f.s.Z.C.i 8 3 6 6 6 2 1 1 M '.$X+X+X+X+X|. X@. .#.#.#.@.&X<X=X5XiX#XOX#X'.+ o 1 2 2 2 2 8 <.:.u./ / ) ) ( ) ) ( Z Z s.n.H.H.F.L.L.K.I.J.G.b.oX#X9X0XtXaXbXGXhX=XqXwX=X>XsXZXGXnXmXmXnXCXGXBXsXyXbXBXBXhXCXHX9X+     O   O O O O w e u u u u m K /./.G G E O.o.].=XpXdXpXaXpXpXrXqXqXwXaXjXaXqX",
"n.l.l.l.l.F.H.G.G.G.5XMXIXtXdXeXpX0XNXkXaXSXZXZXGXGXGXBXBXGXGXCXKXKXnX=XX.T E Q c - - - X       O 5 5 h 5 h j j /.iXKXKXKXKXKXKXKXKXFXmXPXFXKXKXKXKXKXKXKXKXLXFXmXmXwX`.J X.X.E E E b v /.x.7.v.C.C.C.L.L.L.L.Z.Z.k.k.k.N.k.k.k.f.f.Y.Z.:.y 8 7 7 =.7 8 0 @ J 0XpXkXhXsXIXIX0X X|  .@.$.$.&X1XrX9XiX,X,X=X[.K 5 4 8 8 8 8 8 <.<.p.D.i.i.i.( / i.y.i.y.u.j.v.b.`.OX}.}.}.*X-X0XlXkXhXPXJXKXKXKXKXbXvXCXKXKXJXLXKXKXKXKXHXHXHXkX|.b b z % X + k k k h N N N m e e e N V V C A C C K %XuXwXqXeX0XpXjXjXjXlXlXjXjXdXaXaXeX>X=X0XaXdXkXaXrX).G J x..X7.6.6.5.C.C.A.A.A.C.C.C.C.h.u.:.i.k.k.k.i.i.k.U.S.,.y 4 o + F .. . . . . .+.&X*X@X1X1X+. X X2XpXpX2X1X X@.@.@.$.$.+.E k O 4 4.Z.k.N.N.k.k.k.k.s.f.h.j.n.H.H.F.5.F.K.F.F.C.F.F.G.b.iXMX9X#X9XwXtXwXeXhXBXCXCXbXbXvXsXuXvXbXvXuXuXuXvXiXvXMXMXPXOXO     O O * e * O O * * e N S S u N m N B B B J ` @XbXhXwXtX0XwXhXwX,X,X#X,XyXCXwXwX9X9X9XwXwX0X*X*X+X`./.x.7.C 3.5.5.5.j.j.j.j.j.2.:.s.h.h.u.i.u.k.u.k.Z.h.>.8 7 6 2 1 3 @ q F [.[.|.+X|.}.}. X@.@.@.@.@.&X0X9X9X5X#X}.).X.g q 0 1 1 3 8 y >.i./ / / / / ( ( ( s.d.g.n.v.v.v.j.L.L.K.I.J.b.m.OX=X9X9XtXdXnXKXNXdXsXaXwXeXsXZXGXmXPXCXCXCXBXbXhXhXNXNXNXnXGXhX`     O O O O O w O w w u u N m m B J /.` ` X.O.o.).|.qXdXdXdXkXaXdXeXjXNXNXAXHXjX",
"B.l.l.l.F.H.H.G.I.0.iXPXwXsXdXpXdXaXAXaXqXHXHXNXGXHXGXCXGXKXHXCXKXJXbX+XE T Q R z - l g X       5 5 5 m 5 M B j B #XFXKXKXKXKXKXKXKXLXFXHXKXHXLXFXHXKXKXKXKXLXFXGXHXCX}.J /.W W T Q v z /.x.A v.j.C.H.H.L.L.L.T.R.Z.h.k.N.N.k.k.U.k.k.U.Z.V.;.8 7 8 3 3 5   % +.2X2XdXsXIXuXeX2X X@.$.$.&X&XrXeX,X<X,X1X&Xo.z q 0 4 8 8 8 y >.D.p.a.i.y.i.i.( f.k.u.:.2.v.G.b._.%X}.+X*X-X-XpXZXNXCXLXJXKXFXFXFXbXHXKXHXLXKXKXKXKXKXKXCXHXHXrXX.F b z % + % k k h m B N N u e w e u N V 3.C C C B 8.9XsX0XeXaXpXjXjXVXZXVXjXjXjXhXjXaX0X=X9XeXeXkXaXkX}.J J J .Xb.3.6.5.C.C.A.A.K.C.C.C.S.C.:.f u.u.k.k.k.i.i.k.Z.A.4.e O g +. . .{ #.#. . .+.&X1X@X1X1XT 1X2XfXzX&X@. . .#.#.#.@.$.+.D e a l.Z.k.k.N.f.f.k.l.l.k.l.H.T.T.P.I.F.F.F.F.C.C.F.F.G..XvXPX#XOXiXuXwX9XbXHXCXbXnXCXmXhXtXwXtXuXsXsXuXMXLXvXmXvXMXgXK O O O O O * e * O * * * * t Z _ V N u N N m B J J OXbXbXsXhXwXwXhX#X#X9X9X#X9XCXuXyXwX9X,X,X9X9X=X>X#X[.'.'.x.A 7.3.5.5.5.5.C.j.2.f y :.D.D.p.i.u.N.i.u.k.l.Z.>.8 3 1 o 5 j F Q ! +.{. X|. X}. X&X@.@.@. X1X9X9XUXOX1X@.| +.{.X.k O o 3 y >.u.i./ / / / / / u.u.j.n.T.T.J.j.3.1.K.L.K.I.J.b._.OX9X0X9XaXbXBXKXGXGXBXnXnXNXNXBXGXFXFXLXHXCXnXbXbXBXBXNXNXBXKX9Xk   O O O O O O w w w w i a V V V h K ` ` X.E E X.].[.=XdXaXkXjXeXjXdXZXHXNXHXHXjX",
"l.l.l.H.H.F.G.J.9.XXcXIXtXdXqX0XVXNXjXwXdXGXHXZXGXKXHXNXKXKXGXKXKXKX9X(.E E T T - l l % @   @ @ 5 e e e e B M B j 8.IXKXKXKXKXKXKXKXKXKXKXHXLXFXCXMXLXKXKXHXKXKXHXHXKXwX/.F W W E b E l D x.b.7.v.v.F.H.H.L.P.L.R.H.Z.h.k.k.k.N.k.k.k.k.U.U.V.,.8 8 3 o + v ..+.$.3XzXZXnXwXqXdX1X&X@. X&X2XpX<X1X*X&X&X;X@.+.{.J 5 O 4 4 >.S.i.i.i.i.i.u.s.s.s.f s.n.v.v.b.b.x.'.(.@X0X-X-XlXAXAXGXKXKXLXPXPXFXFXFXHXKXKXKXKXKXKXKXHXHXHXHX].E b T - X % k k h h h B N u e w e e w u 3.3.A 3.7.7.D $XuX0XaXaXdXkXjXVXZXNXdXaXjXjXaXtXqX0X=X0XwXaXkXjX0X/.D J _.XX9.6.5.5.q.C.A.K.I.I.F.C.5.4.2.u.:.i.k.k.i.i.N.s.l.n.S x |  . .[ } [ [ {  . .$.1X|.-X*Xo.|.SX2X;X@. .#.#.{ { {  .$.@.O.` g.g.f.f.N.N.g.f.f.f.l.Z.H.H.H.P.P.P.P.Q.K.K.K.F.H.H.v.oXMXiX#X#X#XyX9X9XtXnXCXFXCXFXKXCXsXsXtXuXyXuXMXPXFXFXIXIXuX7X+ O O O O * w * * * * * w w e f c.Z V V V N N B H './.#XnXnXhXjXhX,X9X9X9X9X#X9XwXuXbXwX9XwXuX9X,X>X<X,XOX`.'.x.7.3.3.9.5.5.5.5.5.a a :.h.V.i.i.p.i.i.i.k.k.l.k.j.w.9 o @ v +.+. . . . .@. X&X+X`. X&X@.|  X1X0X,X@X|.@. . .@.$. X}.e   e s.u./ / / ^ ^ y.y.s :.h.F.H.P.P.P.H.F.5.K.C.Q.F.J..XoX$X0X9X0XsXZXGXGXKXGXKXKXGXNXbXbXBXCXPXCXCXCXBXnXbXbXGXGXBXFXmX(.  O O O O O O w w w w w w f a V V N B K J G G E o.o.o.@XdXwX0XyXaXNXhXjXNXCXHXHXNX",
"H.H.H.H.H.G.G.G.b.$XMXIXtXdX0XqXlXNXjXsXbXHXKXHXGXKXGXBXKXKXGXKXKXbX+XW E E R c - l l +     @ O 5 e u e e C B K j H #XFXKXKXFXKXKXKXKXKXKXKXHXLXmXMXFXLXmXFXKXKXKXHXKXvX`.G G W E b E v F /.x.7.z.v.v.F.H.P.P.L.T.L.C.h.s.f.k.N.k.N.N.N.U.Y.S.A.y 4 o O G {.$.$.$.$.3X2XfXjXdXrX2X1X X@.*X2XrX<X1X&X$.$.$.$.$.&X}.B O O i h.k.i.i.i.i.f.f.g._ A Z z.m.m.m.m.b.x./.(.@X>X-X0XVXHXHXGXKXJXLXPXFXLXKXHXHXLXLXLXLXLXKXKXKXCXAXrXo.b b b - + % k k h h m N N e w w w t w u Z 2.3.3.3.7.C '.9XuXeXsXdXkXjXlXVXjXaXaXaXaXeXeXqX0X=X9X0XrXyXjXyX}.G G /..Xb.3.6.5.q.q.q.q.9.q.9.5.q.C.V.V.4.:.u.k.Z.k.f.g.g._ _ ' |  .[ [ } } [ { [ [  .;X&X1X|.o.2XzX3X@. .[ [ { { { #.#.@.+.` _ _ f.f.N.g.g.g.g.g.l.Z.Z.H.H.L.P.P.P.I.Q.L.L.L.L.L.H.v.7XDXiX#X#X9XhXtXeXyXhXhXbXbXFXHXHXnXhXtXuXuX9XvXvXgXPXPXIXuX8.@ O O O * w * * O * * w w w w t _ 3.Z N V S N B K x./.OXuXnXjXdXaX9X9X9X9X9X9X,X@XwXhXyX9XwXuXyXsX0X0X,XOX`./.J H C 3.3.3.5.5.q.5.2.4.h.A.D.p.p.p.i.i.i.k.k.k.f.l.F.1.5 + b +. . .[ [ [  .@. X|.|.&X&X+.O.|.1X0X,X|.@.@.@.#.#.@.@. XG e t _ ( ( ( / ^ / y.y.y.p.D.L.J.J.H.G.F.K.K.L.K.P.F.G..XOX#X9X9XqXhXZXGXKXKXGXHXKXGXNXbXNXBXFXCXCXmXnXnXbXhXbXBXGXnXbXwXk   O O O O O O w w w w w w f a V V N N K ` ` G E X.X.X.+XqXaXeXyXyXSXjXNXZXCXCXNXyX",
"H.H.H.H.J.J.G.G._.5XxXuXuXaX0XfXbXnXBXCXGXHXHXKXGXHXBXBXHXGXCXKXKX9X(.G b E b : - z g +     O 5 5 i u e e C B K B D /.iXKXLXLXKXKXKXKXKXKXKXKXKXCXFXLXmXbXFXKXKXKXGXKXLX#XJ G E E T E b v /.x.x.z.v.v.v.F.H.H.H.L.K.F.j.j.h.k.k.i.k.N.N.k.N.Y.R.C.i o O  X3X$.#.#.$.$.$.3XfXzX2XpX2X X+.*X2X<X1X3X$.$.$.%.%.%.3X*X(.* O d.n.s.f.i.i.i.f.d.d.7.7.z.m..X.XJ.J.m.b.x.'.OX=X=XeXZXHXHXHXLXJXJXFXLXKXKXKXHXLXHXKXKXKXKXKXKXCXVX[.W b b z % + k k k B h N N u e w w w t w t a Z s.d.3.7.K B $XsXwXhXaXjXkXkXjXkXaXaXaXwXwXeXeXqX9X9X0X>XwXjXnX,XX.D J '._.7.6.5.5.q.q.5.5.5.q.q.C.F.K.A.C.:.>.h.Z.N.g.g._ _ ` ` | |  .{ { } [ } { [  . .;X-X+.Q zX2X$. .#.#.{ { { { #.@. .| ' _ _ u.u.N.g.g.g.g.l.H.H.H.H.H.L.P.P.P.P.P.L.L.P.P.P.J.J.xXPX7X#X9X9XBXBXhXjXhXwXwXyXMXbXHXZXnXtXyXuX9XuXIXiXMXDXMXiX+ @ O O * e w * * O * w w w w w t d d.Z V V A A C B H x.`.=XnXNXdXeXwXyXyXwX9XwX9X@XwXuXhXuXwXuXbXbX>X>X=X+X`.'./.x.C C 6.6.5.5.q.C.j.j.C.A.D.D.p.i.i.i.k.k.k.k.l.Z.P.9.m g |  .[ [ { [ [ [  . . X-X*X*X].O.@X,X,X*X@. .[ #.#.#.@.@. XO.' S _ ( ) ) / / y./ y.V.S.S.L.L.K.F.F.K.L.L.L.L.L.H.G.oX$X9X9X9XtXbXGXHXGXHXHXKXKXHXGXGXGXGXLXFXPXnXbXhXsXsXNXCXKXCXhX$X    O O O w O w w w w w w w f a 1.1.V N C x.X.X.E E X.o.].*XaXjXhXjXCXNXAXHXZXNXjXwX",
"H.H.J.H.J.J.G.b.XXiXxXiXsXaXeXNXZXCXGXKXHXZXGXKXHXZXNXBXGXGXGXKXBXOXJ G T T b - : l - +   O 5 5 w i u e 4 N N C B K K #XKXJXKXKXKXKXKXKXKXKXKXKXHXKXKXMXyXCXKXKXKXCXKXKXuX(.G W E E b E v X.x.x.8.9.9.v.F.C.C.C.C.C.F.K.H.Z.Z.k.k.k.N.k.f.l.Y.R.R.2.e +  X$.#.#.#.#.#.$.$.3X2X2XpXpX@X].1X2X1X3X$.$.#.#.%.$.%.$.&X].B t d.g._ f.i.f.f.f.Z A x..X.X.X.Xm.J.J.J.m.x.'.%XOX=XIXKXKXKXLXFXJXJXKXKXKXKXHXKXKXKXKXJXFXLXKXHXAXpXW E b b - + ; k h h N B B N e e w w w t r r f a d.v.3.z.H B `.uXyXsXrXdXkXjXjXlXkXdXaXwXeXaXaXtXqX0XwX0XqXdXNXrX).F G /.%Xx.C 5.5.4.q.q.q.q.5.q.C.A.A.A.A.A.q.:.s.h.g._ _ _ ` ` ' |  .[ { } [ [ } { { ! @.;X+...2X$. .[ #.#.{ [ { #.#.@.O.' _ _ ( y.i.f.f.g.g.c.H.H.H.H.H.L.L.L.L.L.L.L.L.L.P.P.H.J.oXDXxX#X7XwXwXnXnXbXCXBXyXwXuXuXyXCXHXCXhXbXbX9XuXgX9XuXMXMXOX  O O O * e e * * O w w w r w w t t d.s.Z Z A A A B H x./.OXhXBXdXdXwXbXmXyXwXwXwXwX9X9XyXhXwXuXhXwX>X,X#X+X}.`.'.'.H C C 6.5.q.q.C.5.j.V.V.V.A.D.i.i.h.k.k.f.l.l.Z.F.v.A G O.@.[ [ [ } { { [  .@.&X-X*X XO.@X@X@X X@. .{ { { { #.@.@.` ' x _ _ ( ) ( y.u.y.i.D.S.E.K.K.K.K.L.K.K.L.L.K.K.P.J.7X9XyX,X0XsXBXGXHXGXGXKXHXKXKXKXHXHXGXFXFXCXCXnXhXdXsXbXCXHXCXvXJ   O O O O w w w w w w w w w i a a 1.V V C x./.X.X.E o.(.X.[.wXNXNXAXCXCXHXHXZXCXNXkX",
"F.H.G.G.G.G.G.b.5XxXuXwXaXeXpXNXHXGXHXKXKXCXCXKXKXCXBXCXGXHXKXKXwX(.F E E T c - - - + @ O 4 e w w i i w 4 N N A B H B _.cXKXKXJXKXKXKXKXKXKXKXKXKXKXKXMXuXMXKXFXCXbXFXKXvX`.F F E E b E z G ` x.0.0.9.5.j.C.V.C.C.A.K.L.L.L.Z.Z.k.k.k.l.N.B.B.Y.n.v.C ; @.@.#.{ { { #.#.#.@.&X2X2XkX,X|.1X2X&X&X$.$.$.#.#.#.$.$.@.O.` _ d.f.f.g.f.f.f._ A 7.b.XX.X.Xm.m.J.J.J.J.m._._.`.9XFXKXLXKXLXFXLXJXKXKXKXKXKXKXKXLXMXuXiXLXKXZXHX*XE b T b ; + k h h h N B B N e w t r r f r r r f 2.j.3.v.3.H J #XmXsXwXdXkXjXlXNXjXaXeXqXwXeXaXtXeXtXsXbXhXhXCXjX}.G J J %Xb.C 3.5.4.q.q.q.q.C.C.C.C.C.A.A.A.A.4.s d _ _ _ c.c.` ` ` |  .[ { { [ [ [ [ [  .$.$.+.3X . .#.#.{ { #.#.@.@.| ' ' _ i.y.y.i.f.f.g.c.n.H.K.K.L.L.L.L.L.L.L.L.L.L.L.L.L.F.J.5XDXiX#XiXuX9XwXeXsXBXGXnXuXuXuXuXhXNXGXnXCXCXwXwXuXiXiXuXuXB   O O O * e e * * * w w w r r r r t _ d.d.Z Z A A C C x.'.`.wXbXkXjXwXuXhXbXyXwXwXwX9X,X9XuXwXhXbXqX0X,X#X}.`.(./.x.8.7.6.6.5.q.q.C.4.V.C.V.A.S.A.V.h.h.f.f.l.l.l.l.d.z.` ` O. . .{ [ [ { { [ [  .$.&X*X X+.@X X X+.@.#.{ { { #.@.@.@.' x S _ _ ( ( i.( u.k.Z.S.E.E.A.K.K.L.L.L.S.A.L.S.K.P.XXiX9XsX=X9XsXCXHXKXHXGXGXGXGXGXGXFXBXbXCXCXGXGXBXbXdXsXsXCXCXhXiX+   O O O w w w w w w w w w w y f a 1.1.V C H ` X.X.E o.).X.).0XCXAXHXSXNXAXHXNXNXCXNX",
"v.v.v.b.v.b.b.'.iXMXuXwXwX<XrXkXCXCXGXKXKXGXHXKXKXCXZXGXCXKXKXBXOXX.F E E c l - - % + O O e w w i y y e w u u A C H B 8.5XDXKXLXKXKXKXKXKXKXKXHXKXKXKXFXMXPXHXmXbXbXmXFXmX#XG v E E b E v v J x.H 6.3.5.V.C.A.A.L.K.K.K.L.L.L.S.D.h.h.l.B.B.n.l.j.m.M.v @.$.#.{ { } { { #.#.$.3X2XkXrX1X2X3X$.$.$.$.#.#.#.%.%.$.| ' ` c.d.s.g._ g._ Z d.b..XXXJ.J.G.J.J.J.J.I.G..X.Xb..XiXJXKXKXKXLXDXLXKXKXKXKXGXKXKXKXLXbXuX9XKXKXZXlX].E b b b % + k j h N N C N e e w t r r r r r r f :.j.3.j.3.z.K `.MXhXyXdXjXlXlXjXkXaXwXqXqXeXaXtXtXdXbXKXGXBXCXNX+XG G G `._.A 6.3.4.q.q.q.V.C.C.C.C.A.E.q.A.A.D.:.s d _ g.g.g.c.m.` n | |  .#.[ [ [ [ [ [  .@. .@. .#.#.{ { #.$.@.| ; x ' _ ( y.t.t.i.i.k.l.n.H.H.L.K.L.L.L.L.L.L.L.L.L.L.S.L.P.F.XXxXPX9X,XuXgXuXwXwXwXhXCXGXmXvXIXIXtXsXCXnXnXCXyX9XuXuXiXiX$XO @ O O O * e e * * * w w w r t t t t d d.d.3.Z A 3.A C 8./.).@XaXlXjXsXwXwXbXCXbXwX9XwX9X#X9XwXbXmXhXrX,X@X+X}.`./.'.b.7.6.3.5.q.q.q.V.V.C.V.A.A.A.C.C.j.d.g.l.l.l.g.d.c.` ` ' |  .#.#.[ [ [ { { [  .;X&X|.+.@X{.+.@.@.#.{ } { #.$.@.O.' S S Z d ( f.( s u.Z.L.L.W.W.W.E.K.S.K.S.S.S.E.S.L.L.XX7X9XqX#X9XhXCXKXKXKXKXGXGXGXFXCXmXbXbXmXmXGXKXGXbXdXsXhXFXmXgX%X    O O w w w w w w w w w w w w f a 2.2.V V C J X.X.E W (.(.).,XBXGXCXnXnXCXCXhXkXnXnX",
"G.v.v.G.v.0.b..XxXPXuXyXqX>XdXkXbXnXFXKXKXKXKXKXGXGXKXKXGXKXHXtX(.W F F E c : : - + X O O w w y i w w i e u e N A C H H _.xXJXJXKXKXKXKXKXKXHXLXKXHXKXKXHXKXKXmXnXFXmXPXFXwX(.v E E T E b g J J H 6.3.5.C.D.A.A.W.W.W.K.K.L.L.L.S.V.h.l.B.c.g.d.n.m.m.` @. .{ } } } } } { #.$.$.1XrXwXrX1X&X$.$.%.%.#.#.%.%.$.@.' ' ` c.g.f.k.f.d._ z.b..XXXJ.G.H.H.H.J.P.P.I.I.J.J.b.XXxXJXKXKXKXDXPXLXKXKXKXKXGXHXKXKXKXLXPXvXKXHXZX=XE b b b z % % k h h S N S u e e t r r r r r p p p d 2.j.j.3.7.H x.#XnXhXaXjXlXjXkXjXjXdXaXaXaXsXaXaXaXbXFXKXCXZXAX,XW G F /.'.7.V 6.5.q.q.q.V.V.V.V.A.A.E.E.E.E.S.V.s._ f.f.g.l.n.J.b.` n < , [ [ [ [ [ [ [ [  .|  . . .#.{ #.#. ., + O S _ ( y.t.t.a.i.i.k.H.H.H.K.S.L.L.K.L.L.K.L.S.S.S.W.S.L.P.F.oXcXcX#X,XhXhXgXhXhXyXtXsXmXPXvXIXvXtX0XbXsX9XnXbX9XuXuXiXiX8.  O O O O e e e * * * w w w r t t t t t Z d.3.Z 3.3.A C 8././.[.qXNXdXbXyXuXhXCXFXbXwXyXwX9X9XuXhXnXCXrX,X@X+X}.}.`.%X_.z.A 6.5.4.q.V.V.V.V.V.C.C.C.C.H.v.j.j.j.j.f.l.g.g._ ' ' ' | |  . .[ [ [ { [ [ +.&X&X+. X+.+.@.@.#.{ { #.#.@.O.' S N Z d d d u.s u.l.Z.L.L.W.W.E.E.S.A.S.S.E.E.E.S.L.K.oX7X9XUX#X9XbXFXKXKXKXKXKXHXFXCXbXbXbXnXBXNXCXKXZXsXaXsXNXLXCXgXS     O O w w w w w w w w r w w w i a 2.2.6.C C J X.X.W E X.).).+XsXCXnXyXhXBXSXsXyXhXsX",
"P.F.F.J.G.7.8.XXMXPXsXsXwX0XlXjXhXMXFXHXKXKXKXGXCXGXKXKXGXKXCX,XX.W F b E c : z - + @ O 5 w e i i w w f u f w u A N 8.H x.iXDXKXKXKXKXKXKXHXFXFXKXPXLXKXKXKXFXMXCXKXLXmXKXbX}.F E E Q W E g J J 7.3.5.q.D.A.E.E.E.E.E.W.W.W.W.L.W.L.Z.H.B.n.g.d.n.n.M.` | | [ #.{ &.&.{ { { #.$.3X-X<X2X&X$.$.%.%.%.$.$.%.$.@.' ' ` c.g.l.f.l.Y.d.x.b.m.J.J.P.P.P.L.H.H.H.I.I.P.G.J.J.oXcXJXJXKXKXFXPXLXKXKXKXGXKXKXKXKXKXKXKXJXKXnXZX].b b T c l % % g h x S N N e w w t t r r r r p p r f 2.d.j.v.3.7.H `.bXyXaXjXNXkXjXbXNXZXNXNXNXnXsXtXtXsXsXCXNXZXHX0XX.G F ` '.8.V 1.5.q.q.,.,.p.V.V.V.A.q.E.E.E.A.S.Z.l.f.k.l.l.j.j.v.M.k X X , |  . .[ { } [ [ [ [ $.#.#.#. .R ;   @ 4 ( ( i.t.t.a.p.y.D.Z.H.H.K.A.S.W.S.L.L.L.K.S.S.S.S.E.S.L.P.b.XXDXIX#X9XhXgXgXhXnXbXwXwXIXMXIXuXvXyX>XsXwX#XyXbX9XiXiX7X7Xe   O O O * e e e * * w w w w r r t t t t Z d.3.A 3.7.A H 7././.`.0XVXdXbXbXhXwXyXFXLXMXhXbXyXwXyXtXwXnXyX<X*X+X|.).).`.`.8.C 1.4.q.q.V.V.V.C.A.C.C.C.K.F.H.n.n.d.d.j.g.s._ _ _ ` ' x : R  .$. .[ [ } [  .@.;X@.$. .@.$.$.#.#.#.$. .n g _ d f f :.s.:.s f h.R.L.C.K.W.K.A.E.E.W.W.E.E.E.E.A.Q.F.4X9X9X=X#XwXnXAXHXKXKXFXHXGXBXbXsXhXbXBXBXBXCXGXBXdXaXsXCXBXCXgX*   O * O w w w w w w w w w r w w i d 2.3.3.C H ` X.o.X.E X.).(.).0XCXnXwXsXCXCXhXyXyXyX",
"A.L.L.L.J.b._.5XPXtXdXVXjXjXNXbXbXmXFXKXKXKXKXFXKXKXKXHXZXKXhX[.W E E E T z z v k O O 4 4 w i i w r r t f f f u a v.A H 7.$XPXKXLXKXKXLXFXFXLXKXKXKXKXKXKXKXJXJXKXKXKXmXKXAX+Xv v E X.W G v F /.C 6.5.q.V.E.E.E.E.E.E.W.W.W.W.W.L.L.L.H.H.n.c.c.z.m.M.M.` D + n +.$.#.{ { { { #.$.$.;X$.$.$.#.%.#.%.%.$. X' x _ c.g._ g.g.g.g.j.b._..X.X.XG.I.P.P.P.P.P.P.P.P.P.J.G.J.5XDXKXJXKXKXCXCXHXKXKXKXKXKXKXKXKXKXKXKXKXHXHX0XG T b R c ; ; k j j N S S e e w t r r r r r p r p p r f f.d.j.3.v.7.x.9XmXhXaXdXbXbXBXHXGXGXGXGXCXbXwXwXsXsXaXsXBXBXaX}.D G J `.8.C 6.>.V.q.,.p.p.V.V.D.E.E.E.E.E.E.D.S.D.V.D.Z.Z.l.j.v.m.C O   . % n +.| #.{ [ [ I [ #.#.@. XE + o o 4 f i.y.t.t.t.t.i.p.Z.Z.H.K.K.S.S.S.S.S.S.S.S.S.E.E.A.A.!.L.J.G.iXLXwX,XwXnXhXhXbXhXuXgXbXMXvXIXIXvXsXsXwX=X9XuXMXMXuXiX:X#X    O O e O e t w O w w w w r r t t t t t f _ d.3.3.3.3.7.7.x.'./.+XSXkXnXmXwXbXmXhXFXCXCXbXbXvXyXyXbXFXsXaX0X+X[.].].(.`.x.C C 4.q.q.q.V.V.V.V.A.A.A.A.C.Z.F.F.v.j.d.d.s.f.f._ _ z.N O + l .. . .[ } [  . . . . .@.@.$.#.$.@.;XO.;   e ( s s y.y.:.:.:.h.C.K.L.L.L.K.K.K.L.W.W.E.E.E.E.W.K.P.G.$X#X9X=X<XrXkXSXHXHXGXBXBXGXFXnXvXbXBXCXCXCXCXCXNXhXaXaXbXKXLXOX    * O w w w w w w w w w w w w r w f 2.7.C K x././.(.o.O.O.o.o.[.@XyXCXyXeXhXBXbXyXtXeX",
"S.S.L.H.J.b..XiXBXsXjXSXbXbXbXaXwXbXmXFXKXKXKXKXKXKXKXGXZXNX,X(.W G E E T c z v k O O 4 w i u e w r r r r f f t y 2.A 7.7.XXxXKXFXLXLXLXFXFXGXGXKXKXKXKXKXKXKXKXJXKXKXCXHXSX@XF v E X.W E F v D B 6.4.q.A.E.E.E.E.E.W.W.W.W.W.W.W.L.L.L.R.Y.n.c.c.c.` M.m.z.O O X | $.#.#.#.#.#.#. .! ! $.%.%.#.$.3X$.| g O w g.l.g.f.g.g.g.j.n.m..X.X.X.X.XJ..XP.I.I.P.P.P.P.P.J.G.XX7XJXKXFXFXHXCXBXGXKXKXKXKXGXHXHXKXKXKXKXKXHXSX@Xb b c R l ; ; k j j B B S e w w r r r r p r p p p t r f s.d.v.3.v.7.8.$XIXsXaXjXNXBXGXHXGXHXGXKXKXFXuXuXwXdXaXbXZXBXsX@XE F G ).'.A V >.4.q.q.V.q.V.D.D.E.E.E.E.E.E.E.D.S.D.D.Z.l.l.l.n.F.5.5 O o   . l +. .#.[ [ [ [ #. ...E q 1 1 1 8 <.i.t.t.t.t.t.i.k.Z.K.K.K.L.S.S.S.S.S.S.S.S.S.E.E.E.E.W.K.G.oXxXKXwX,XqXhXyXyXhXhXhXvXmXCXmXbXgXyXFXLXmXwX9XyXMXMXcXuX7XK   O O O e e t t w w w w w r r r t t t t r f f.n.v.v.v.9.9.b.8.'./.`.yXjXsXbXhXbXbXmXHXCXCXbXbXmXCXbXyXuXtXwX0X>X*X{.).).[./.C 6.4.q.q.q.V.V.V.V.A.A.A.A.C.C.F.H.F.v.j.d.s.f.g.s.s.g.Z 5     % R @. .[ [ [  .[ [ [ #.$.@.$.;X{.E +   O d / ^ ^ y.y.:.:.h.Z.S.L.L.L.K.K.K.L.L.W.W.E.E.E.E.W.K.P..X#X#X>X-X<XrXaXlXSXSXBXnXCXHXKXKXGXGXGXFXCXCXCXNXjXjXjXjXnXLXcXx.  O O O w w w w w w w w w r r r r r f s.A C H '.(.(.(.o.W X.o.o.].+XeXAXCXbXnXBXbXhXnXBX",
"E.S.A.K.F.b.$XMXBXbXBXZXBXNXBXaXwXmXFXFXKXLXFXKXKXKXGXGXGXyX}.G W G T T b c z l k + O 4 e a u w w r r r p f f f w a 3.7.7.8.iXLXLXJXLXFXFXLXLXFXHXKXKXKXKXKXKXKXFXFXKXHXCXSX0XX.v G W E W G z k B C 3.5.C.A.E.E.E.E.E.K.W.W.W.W.W.W.L.L.T.T.H.c.c.c._ c..XJ.N     X : | $.$.#.#.%.[ Y [ #.%.%.$.$.+.c +   O u l.g.f.f.f.g.g.l.n..X.X.X.X.X.X.XI.P.I.I.P.P.P.J.J.J.J.oXxXJXJXFXGXHXGXGXHXKXKXKXKXFXFXLXHXKXKXKXKXHXBX].G b b R : ; k g j j B B N e w w r r r r r p p p p p r f s.j.F.3.9.b.7.%XiXyXdXbXBXGXGXHXGXKXKXKXKXKXmXyXwXeXaXbXNXNXbX=XX.F G /.%X7.a 2.4.q.q.q.V.q.q.D.D.D.E.A.A.E.A.A.A.D.V.h.j.l.l.n.v.v.i o o o   @ g |  . .[ U  .$.| g 5 o 1 3 3 8 >.i.t.t.t.t.i.i.D.S.K.K.K.K.S.S.S.S.S.S.S.S.S.E.E.E.E.S.K.F.5XDXKXqX,X0XyXwXwXuXyXvXmXLXKXKXFXMXyXPXLXBXuX9XuXvXvXuXuX$XO   * O * e e t e * w w w r r r t t r t t t f _ g.m.J.G.b.v.b.7.x.'.(.=XlXyXbXmXyXyXHXHXFXmXbXsXbXCXmXyX9XwXwXqX>X|.].].].[./.7.6.6.q.q.q.V.V.V.A.C.A.A.A.C.C.F.F.F.v.j.d._ _ f.f.s.l.d.u o     X :  . . . . .[ [  .#.$.$.;X+.c X     w d s ^ ^ ^ y.:.u.V.L.L.L.K.K.K.L.L.L.L.W.E.E.E.E.E.W.K.P.oX5X#X,X,X<XrXpXkXjXjXjXhXBXGXKXGXGXGXGXFXGXLXCXnXjXhXbXNXCXMX7Xh O O O O w w w w w w w w w r r w r r f s.A H x.`.).(.(.o.W O.o.o.).}.0XZXCXnXBXBXhXbXCXGX",
"E.S.C.F.b.b.5XJXnXNXBXBXBXZXBXbXbXHXHXLXKXLXmXKXKXKXFXHXHX>XX.G W G F b c z l g e + O w i a u w r p f p p s s f w f v.z.x.K $XMXJXJXJXPXFXKXGXnXGXHXKXKXKXKXJXJXFXMXFXKXCXCXaX[.b F E W E G l + D C 3.5.q.A.A.A.A.S.K.K.L.W.W.W.W.W.L.L.L.R.n.d.z.B.c.c.c.m.m.u @     % Q +.$.$.$.#.[ [ #.$.3X;X..g @   o e 2.l.f.f.f.g.f.g.n.m..X_..X.X.X.XJ.G.J.J.J.J.J.J.J.J.XXG.$XcXJXLXLXKXGXHXKXKXKXLXFXPXFXFXLXHXKXKXKXKXKXkXE E b b c : ; k j j j B B u e w w t r r r p p p p r p t f Z j.H.3.9.b.7.x.7XyXhXbXNXZXBXBXCXKXHXHXKXKXFXmXbXqXaXjXbXNXBX0X].G G J %Xz.u 4.4.4.q.q.V.q.D.D.D.D.D.D.A.A.A.D.D.D.k.h.f.g.l.l.n.G.V 3 3 5 o o @ : R @.| , @.+.g @ o 1 7 7 7 y p.i.t.t.t.i.i.p.D.S.K.K.K.K.S.E.S.S.S.S.S.S.S.S.S.E.S.A.P.J.xXJXGX9X,X9XwXeXwXwXwXwXyXbXLXKXKXFXmXuXvXsXtXtXIXvXuXMXMX_.  O +   + * e t e * w t w r r r r t t t t t f f Z 3.v.v.v.v.b.7.x._./.}.VXnXbXCXwXwXCXmXGXCXyX9X9XyXbXhXyX9XwX>X[.W W o.).[.'.7.6.6.q.q.q.V.C.C.A.C.A.A.A.C.F.F.F.F.v.v.d.Z _ _ f.s.g.j.6.5 O     . : Q @.@. . . . .@.$.;X+.% .     o i :.p ^ ^ ^ s y.h.Z.L.L.S.S.S.K.W.W.L.W.W.E.E.E.E.E.L.F.I.$X5X#X=X,X<XrXkXkXjXjXbXbXGXGXGXBXNXFXHXHXHXLXCXbXjXjXNXZXHXgXOXO O O O O w w w w w w w w w r w w r w f 2.3.H x.`.'.(.(.o.W X.o.o.(.].=XdXtXyXbXnXsXsXbXhX",
"S.A.K.H.G.XXiXKXBXBXbXbXnXnXBXBXCXHXFXFXKXLXBXKXKXKXGXHXCX@XW G W G F b c z g k + 5 e e u a i w t f f p p p s f f t d.z.b.C XXiXJXKXLXmXmXFXBXhXGXGXGXKXLXLXLXDXFXuXmXKXGXZXjX+XF F E W G F z % D K 3.3.5.C.A.A.S.K.K.L.L.W.W.W.W.W.W.W.T.L.l.2.d.Y.B.n.A d.R.A O       @ z +.;X$.#.[ #.$.3X&XW q 0 0 3 3 i C.k.f.f.f.g.g.c.n.m..X_._.m..X.XJ.J.J.J.J.J.J.J.G.G.J.J.5XDXDXDXKXKXhXBXHXKXKXLXPXmXKXHXKXKXKXKXKXHXHX>Xb G b b l ; ; k j B B B B t e t t r p r p p p p p p f t f d v.v.9.9.b.7.8.$XsXNXbXbXbXsXtXhXCXCXGXHXHXFXmXbXaXaXaXsXnXZXeX}.F G G `.x.N 2.>.,.,.,.q.q.D.q.D.A.A.D.D.D.A.D.D.Z.h.s.f.g.g.g.g.v.5.9 1 3 3 1 0 @ % ].+.O.o.k @ o 2 7 7 7 8 <.p.y.t.t.i.i.p.D.S.S.K.K.K.E.E.E.E.S.S.S.A.A.A.A.A.A.S.C.P.XXxXPXnX9X>X,X0XsXsXwXwX9X9XuXMXHXKXKXLXMXvXuXuXbXBXIX9XIXPXB   O O O e * t t w * t t w r r r p p p f t f t t a Z v.v.v.v.v.7.x.`./.[.kXZXhXCXhXyXbXwXbXHXbX9X#X9XwXhXbXtXaXwX@X(.Q o.[.).'.8.3.6.q.q.q.q.q.q.C.C.A.A.A.K.K.K.F.F.F.F.v.Z _ _ f.s.g.l.5.i o o o @   q o.+. . .|  .$. X+.%     o o 3 >.:./ ^ / / s y.k.Z.Z.S.S.S.S.S.S.W.S.E.E.E.E.E.E.E.L.F.G.oX#X#X=X<XrXaXlXSXSXBXCXGXKXKXKXGXGXKXKXKXHXLXCXbXjXNXBXGXHXuXx.  O O O w w w w w w w w w r r r r r r f 2.z.H 8.x././.(.X.X.W X.o.).].+X0XqXtXbXbXyXyXsXwX",
"S.A.K.I.J.5XcXKXBXNXdXaXhXsXsXBXCXhXhXCXKXKXKXKXKXKXHXHXhX}.G G E G F b c l g ; + e e i a u e w t p p p p p p p s w Z d.b.7.'.5XJXKXKXFXCXHXGXnXFXFXGXLXLXLXFXPXKXvXvXFXCXCXnX9XW F E W F F b g D K A 3.5.C.A.A.A.A.K.L.L.W.W.W.W.W.W.W.Q.T.Z.h.d d.Y.n.d.g.B.A O o 3 3 o o L +.$.$.[  .3X&XX.5 0 0 8 8 8 >.Z.D.k.f.f.g.g.n.J.J..X_.m.m.J.J.J.J.J.J.J.J.J.G.J.G.b.b.7XDXJXLXJXmX9XaXBXHXKXKXJXLXKXKXKXKXKXKXKXHXZX}.b F b b : - g k j B B B S t e t t p p p p p p p p p f f f d v.v.v.9.b.8.8.OXsXZXbXdXbXtX9XtXbXCXGXHXHXCXhXtXpXqXqXtXyXhXqX|.G F G `.%X7.V a ,.,.,.q.q.q.A.D.E.A.D.D.D.D.D.D.Z.h.h.f.g.g.g.d.j.F.i 1 3 7 2 3 @   F /./.j o o 0 6 7 7 7 =.<.p.y.i.i.i.i.p.D.S.S.K.K.W.E.E.E.E.E.S.A.A.A.A.A.A.A.K.C.F.oXxXbXhX,X9X,X9XsXsXwXqXhXbXbXmXmXCXmXMXCXMXvXvXnXbXuX9XiXIXk @   O + * + t t * * t r w r r p t p f f f t t f Z d.v.v.v.9.v.z.8._.`.).rXCXbXmXmXmXhX9XwXHXCXyX9X9X9XwXuXvXyXdXdX-X).o.[.(.'.x.3.6.5.q.q.q.q.q.C.A.A.A.A.K.K.K.F.F.F.F.H.d._ g.g.f.f.l.j.1.0 o 3 0 o o q T @.@.| +.&Xo.k     o o o 4 >.>.^ ^ / ^ / u.k.Z.Z.S.S.S.S.S.S.E.E.E.E.E.E.E.E.K.L.G.G.oX$X#X,X<XrXaXNXSXSXCXCXHXGXKXKXKXKXKXKXHXKXFXnXnXNXZXZXCXCXiXB   e w O w w w w w w r r r r r r r r r f 2.3.A H H H ` /.X.X.E W o.).].+X>XbXnXBXbXtXsXhXwX",
"S.K.L.F.J.7XDXLXBXbXeXaXbXtXtXFXCXwXyXCXmXLXKXKXKXHXKXHX0X(.G G G G b v z l - + + e e u a t w t r f p p p p s s d r f d.z.b.7.OXPXJXKXCXCXKXKXZXCXFXGXKXKXKXLXLXKXMXIXbXBXnXjXjX(.F G X.G b F z D K C C 4.C.A.A.A.A.L.L.W.W.W.E.W.W.W.W.W.W.L.H.a d n.l.B.n.B.v.i o 1 0 2 o @ g +.@.| @.&XX.k 3 8 8 8 8 y q.S.k.k.f.f.g.g.m.J..X.Xm.m.m.J.J.J.J.J.J.J.J.J.G.G.J.b._.7XDXDXLXKXbXqXhXGXKXKXKXKXKXKXKXKXKXKXKXKXHXNXX.G b E b - - g h B B B A S t e t t p p p p p p p p p f f f a v.j.G.v.9.b.8.'.wXbXIXsXnXsXqXsXCXGXGXHXHXGXjXrXpX0XqXwX0X9X,X@XE G F J %Xm.N 1.,.,.,.q.D.D.E.D.E.E.E.D.D.D.D.S.D.Z.h.f.g.g.g.l.j.F.;.3 7 8 7 2 0 o + B 8.5 o 0 9 6 6 7 7 =.,.p.t.t.i.i.i.D.D.S.S.K.E.E.E.E.E.E.E.A.A.A.K.C.F.F.F.I.v.b.iXPXbXdX=X0X>X,XeXwX9XqXCXCXCXMXvXuXuXuXhXbXMXbXIXuXuXtXuX$Xe e O + O O * t e * w w w r r r p p p p f f t f d s.v.v.F.v.v.v.b.7.'.`.(.+XnXmXbXmXmXhXuX9XnXCXCXbXyXuXwXwXtXtXeX0X=X|.).X.(.(.x.7.6.5.q.q.q.V.q.C.A.A.A.A.A.A.K.K.K.K.K.F.j.d.d.g.f.s.j.j.6.i 3 1 1 2 2 o ; O.+...].).k o o o 1 1 o y >.>.t./ y./ y.i.Z.Z.S.S.S.S.S.E.E.E.E.E.S.S.S.K.K.K.I.J.G.oXOX,X,XrX<XaXNXSXCXBXCXKXGXKXKXKXKXKXKXGXKXCXmXBXGXHXCXnXbX9Xe O e w w w w w w r r r r r r r r r r r f 2.5.3.7.H H J /.(.X.W X.o.(.(.}.>XGXGXCXsXtXbXnXtX",
"L.K.H.F.J.iXKXFXNXsXqXaXNXtXtXKXFXwXgXHXbXCXKXFXKXCXKXAX=XX.G G F F b z l g % + + e e u a w w t r p p p p s s s u.f f j.z.b.A .XuXMXCXbXnXHXHXZXCXCXGXKXKXKXKXKXKXPXIXIXbXhXhXAX].F G o.E b E b K K H A 6.4.V.A.A.A.S.E.W.E.E.E.W.W.W.W.W.W.!.T.:.a Y.g.n.g.g.Y.i 3 1 2 2 2 1   l +.| +.`.5 3 9 8 =.8 8 y :.U.k.k.f.f.g.c.J..X.X.X_..XJ.J.J.J.J.J.J.J.J.J.J.J.J..X.XiXPXMXFXKXbXhXFXKXKXKXKXKXKXKXKXKXKXKXKXKXHXhXb G v G b ; - g j j B B C S t w t t p p p p p p p p p f f f a v.3.G.9.7.b.8.x.#XyXyXsXFXnXtXBXKXKXGXCXHXKXCXsXdXeXeXyX0X,X,X,XX.F z g /.'.u 1.4.,.,.q.D.D.E.E.E.E.D.E.D.E.D.D.S.A.V.h.l.g.g.g.l.H.>.3 2 6 7 7 o o   5 0.O 0 3 7 6 7 *.7 8 >.p.t.i.i.i.i.D.S.S.S.S.S.E.E.E.E.E.S.A.A.C.F.F.F.F.F.G.b..XJXKXNXdX@X0X9X=X9X>X=XwXtXyXyXyXuXwXwXwX9XuXMXvXuXuXMXLX5Xj + B h h e N e S t * w r r t r r p p p p s f f f d 2.j.F.F.F.F.v.b.H /.%Xo.).nXFXyXsXbXbXCX9XyXmXFXFXBXmXhXuXsXCXhX@X@XqX-Xo.X.(./.7.6.5.5.q.q.V.V.C.A.A.A.A.C.A.A.K.K.K.K.C.j.2.d.g.f.f.g.j.5.9 1 1 2 6 2 1   l o.).}.L   o 1 1 1 3 1 y >.i.^ t.y.y.y.k.Z.S.L.L.L.S.S.S.E.E.S.S.S.K.K.K.K.K.G..X.XOXOX>X>XrXrXjXAXHXGXGXKXKXKXKXKXGXGXKXKXKXHXCXmXCXKXKXCXbXuX#XO O e w w w w w r r r r r r r p r r p p a d.5.3.z.7.H J '.).(.o.o.(.o.o.}.0XGXCXBXsXtXnXBXyX",
"K.K.L.v.XXxXJXLXbXqX0XaXbXnXGXHXHXHXCXyXyXmXKXKXKXHXKXjX}.G G G G b b b z l % + + e u i f i w f r p s p p s / s :.u.d 2.v.v.7.x.iXKXPXmXFXhXbXCXNXBXKXKXFXFXKXLXFXKXMXuXIXbXbXeX}.X.F (.G E G F F J H 6.5.q.V.A.A.A.A.E.E.E.E.E.E.W.W.W.W.W.Q.!.Z.f l.l.B.g.g.H.;.7 2 6 2 2 3 o @ k G K h 0 7 8 =.=.8 8 y p.U.i.k.f.g.n.n.J.oXJ.m..X.X.XJ.J.J.J.J.J.J.J.J.J.J.J._.$XuXDXMXIXFXKXKXKXKXKXKXKXKXKXKXJXKXKXKXFXZXZX@XG F b v z ; ; k j B B A A N t t t t p p p p p p p p s f t t d d.v.b.G.b.b.b.8.`.sXnX9XwXyXhXGXCXHXHXCXCXCXjXeXjXdXeXrXtXwX>X*XE G v g v `.B N 4.q.,.,.q.q.q.A.D.D.D.D.D.E.E.E.S.S.A.V.h.l.g.g.g.j.4.3 8 7 6 7 3 0 o 0.5XM o 2 7 7 7 7 8 <.i.i.t.t.i.i.i.k.S.Z.A.W.S.A.A.E.E.E.A.A.K.H.F.v.v.b.J.v.z.5XMXbXqX-X=X>X9X0X9X0XqXwXwXwXwXtXuXuXbXLXCXbXLXMXvXMXuXmXiXk   O 5 e N h t _ t * t t w t r r p p p p p f f d _ n.H.F.F.F.F.v.v.x.8.`.}.(.9XFXmXhXhXbXCXbXhXyXCXKXmXyXuXuXtXbXsX=X|.@X|.].(.(._.H V 6.6.4.q.V.V.V.V.A.A.A.A.A.A.A.C.C.K.F.F.j.d.g.g.f.f.f.5.i 3 3 2 2 6 1 o @ j `.8.@ o 3 1 1 2 1 1 i s y.^ t.y.y.i.V.Z.L.L.L.L.S.W.W.W.S.W.A.A.K.L.L.F.G.v.XX$XOX@X>X,XrXrXdXZXKXKXKXKXKXFXGXFXBXBXGXGXBXLXHXKXKXKXKXGXLXMX/.O O 4 w 4 f r r r r r r r r r r r p p f d 2.3.3.3.7.7.x./.`.).).X.W W o.[.=XNXHXsX=XqXtXhXKX",
"L.F.H.F.oXxXPXMXsX0X0XaXbXCXKXKXHXCXnXyXyXCXKXHXKXHXHXeX).G G G G b b b b l % + O e e t i i t f r p s p p s ^ s y.u.d 2.n.v.z.x.$XPXmXbXCXhXbXBXAXZXHXGXNXFXKXGXLXKXmXmXFXnXyX+X>XX.F X.E E E G G J H 6.4.4.q.A.A.A.A.E.E.E.E.E.W.W.W.W.W.W.Q.Q.L.:.l.l.l.g.g.H.q.8 2 7 6 2 1 o o @ q M 0 3 =.*.8 8 8 8 <.k.N.i.N.f.f.l.n.J.XX.X.X.X.XJ.b.G.G.J.J.J.J.G.G.G.J..X$X7XvXLXPXmXLXKXKXKXKXKXKXKXKXKXKXJXKXKXHXHXHXAX}.G F b v v ; k k h M B B A S u t t f p p p p p p p p s f t t N z.v.9.3.7.8.x.x.J #XyXwXtXsXbXCXBXHXHXCXNXjXsXwXjXdXyXyXyXyX0X,X].E F v v /.K V 1.4.4.4.V.V.V.E.A.A.A.D.D.D.V.V.A.A.C.V.h.l.l.l.l.l.h.4 3 7 6 6 3 o 0.xXiX6Xw.1 6 2 6 7 8 <.i.i.t.t.i.i.k.R.!.S.C.S.S.S.S.S.S.A.K.K.F.F.G.b.b.x.b.7.x.#XCXNX=X+X>X0X0X0X>X>X9X9X0XwXyXtXwXwXMXKXCXmXKXHXPXMXuXuX9X5   O + O e e e _ t * t t r t r p p p p p s s ( d d.n.H.F.F.F.F.v.b.b.x.`.[.X.@XMXMXuX9X9XbXCXyXyXbXmXhXwXuXwXqX9X9XeXrX,X+X+X(./.'.H V 3.6.5.4.4.4.V.C.C.A.A.A.A.A.A.A.A.C.K.H.v.d.g.g.f.f.g.j.a 1 1 2 2 7 2 1 o 5 .XL   o 1 1 2 2 1 3 s / / ^ y.y.u.h.Z.L.K.K.L.L.A.A.A.A.A.L.K.K.I.G.F.b.b.b.oX#XOX+X=X*X<XwXjXGXKXGXGXGXFXFXKXGXBXbXNXBXBXKXHXLXHXKXKXHXFXuXH O 4 w w w r r r r r r r r r p p p p p r f a a 1.1.3.7.x.'.`.).(.W W X.o.].=X0XnXbXbXGXBXtXhX",
"L.F.G.G.5XcXvXtXaX0XwXhXnXGXKXKXHXHXCXnXnXHXKXHXHXKXGX,XX.G W X.F b b b b l % + 5 e u i w t f f p p s p p ^ ^ ^ y.y.d 2.j.v.z.x.%XvXFXmXmXbXBXZXGXZXGXAXBXGXKXGXFXmXmXKXKXCXsX[.,XG F o.O.E E v G J C V 5.q.V.A.A.A.A.S.E.W.E.W.W.W.W.W.W.Q.W.L.T.j.j.n.g.g.g.B.Q.-.2 2 2 2 3 3 o o 9 ;.3 7 -.7 7 8 8 8 >.k.k.f.f.k.f.l.J..X.X.X.X_._._._.b._..XG.G.J.G.b.b..XXX$X9XIXFXLXJXKXKXKXKXKXKXKXKXKXKXKXJXKXKXFXKXHXCX(.b F F v g k k e h h h m N u t t t f p p p p p p p p s f t t f 3.3.V M C 7.7.8.J OXuXvXuXyXbXhXnXCXZXNXjXjXjXjXjXjXjXjXhXyXrX>X|.b b - g F K C a 1.1.4.q.q.4.q.q.V.A.A.A.A.D.A.A.K.A.V.h.h.l.l.g.l.d.y 1 3 6 2 1 M 5X5X5XiX6X;.8 6 7 7 4 i k.y.t.t.t.i.k.!.8XR.C.C.C.A.S.S.S.A.K.F.F.G.XX$X%X/.'.'.OXOX=XaX*X*X>X0XwX0X=X=X=X9X9XqXtXtXwXwXsXFXyXuXmXmXmXMXuXiX$Xo   O O O e e e _ S * t t t t p p p p p p p s f d d.H.H.C.5.F.F.F.G.b.'.`.[.X.OXyXbXyXtXuXCXHXhXbXbXbXwXwXyXtX=X,X,X=X@X@X@X+X).X.x.H B 3.3.5.5.4.j.C.V.C.C.C.A.C.C.C.C.C.C.F.L.F.j.g.g.f.f.g.j.1.3 1 2 2 2 2 3 3 0.5XC o o o 1 2 2 1 4 :.( / / y.y.:.h.H.P.F.F.I.P.K.K.L.P.P.F.F.G.G.v.b._.XX`.OX@XOX+X*X*X<XyXCXKXKXGXGXFXPXBXFXFXBXbXbXNXBXHXPXnXmXHXKXHXPXiXm O e w w w w r r r r r r r r p p p p p f :.4.2.5.5.v.v.x./.).`.(.W X.o.X.].=X@XbXGXnXsX9X9XsX",
"L.F.F.J.7XDXgX9XtX0XtXNXCXHXKXKXKXHXHXGXHXKXKXHXHXKXNX+XG F W X.G b b b v g ; + e e a f w t s t p p s p p ^ ^ ^ ^ y.:.d d.v.z.z.'.iXJXFXmXBXBXZXNXNXZXGXAXHXHXBXBXuXvXKXFXPXFX9X=XF W o.O.b E b G J K V 6.q.C.A.A.A.A.K.K.W.W.W.K.K.K.L.W.W.L.L.T.H.j.n.d.c._ n.F.;.3 1 2 2 1 1 3 ;.6XXX-.7 7 8 7 8 4 8 i.U.f.f.f.l.f.c..X.X'.`._._._._._._..X.Xb.b.'._._._..XoXOX9XsXnXLXKXKXKXKXKXKXKXKXKXKXKXKXJXKXKXCXKXHXkXW v F G v g g j j B B B C A Z f t f p p p p p p p p p f t t f u A v.7.3.b.b.8.x./.OXvXFXuXwXbXhXBXZXNXkXdXNXSXSXVXNXNXmXbXhXwX>X>XE b ; % g J x.7.v.3.1.6.4.5.C.q.4.q.C.V.V.V.C.C.K.C.C.h.j.l.g.f.g.d.a o 3 7 2 9 8X5X5X5XoX5X8X9 2 7 8 8 s i.^ i.t.y.i.h.4XxX4XF.j.C.C.C.Z.L.H.F.G.b..X$X9X+X/.).OX#X(.}.dX1X-X>XwXeXwX9X>X9XwX0X9X9XsXbXbXsXuXvXvXMXvXMXFXMXcXb.  O O e 5 e e e _ S w t t t p p p p p p p s s ( _ n.4X4XP.K.P.F.F.b.b.'.`.[.(.[.9XiXyXmXFXKXCXCXCXCXhXwXuXbXsX9XtXwX=X@X*X,X,X`.J x.H C C 6.3.5.5.j.j.j.j.C.C.C.C.C.C.F.F.F.F.I.F.j.d.f.f.f.g.j.5.9 1 3 1 1 2 3 6X5X5X5XC o o 1 2 2 1 4 :.( / y.y.:.:.s.Z.H.J.G.G.G.G.F.v.C.v.G.b.b.b.b._.OX#X+X+X+X[.}.=X*X<XeXZXKXKXGXGXGXbXCXGXKXKXGXGXHXHXmXbXvXmXFXHXLXPX7Xe O u i y r w r r r r r r r p r p p p p d h.C.C.F.F.F.b.x.x./.OX).X.(.).o.].>X9XbXBXtX=X@X=XsX",
"I.F.F..XiXDXuXwXwXwXjXZXGXKXKXFXHXHXHXKXKXHXHXGXHXHXhX}.G G G G G b b b z - ; k e e a f w f d f p p s ^ ^ ^ ^ ^ ^ y.:.d d.v.v.v.x.7XJXLXmXBXnXNXjXkXVXVXNXZXHXZXFXvXuXMXuXIXKXBXaXX.G E E n O.E E W K B 6.5.5.5.C.F.F.F.K.K.K.K.K.K.K.I.P.P.L.K.L.H.d.n.g.n.g.n.j.;.3 1 2 1 o 1 ;.6XxX8XI.9 7 8 8 8 4 y k.N.u.f.f.l.g.n.oX`./.'.'.'.'.'.'.'.'.'.'.x./.'._.'.'.'.#XhXGXCXGXHXLXKXKXKXKXKXKXKXKXKXKXJXKXKXBXKXZX,XG F F G v k g j B C H A 3.d.Z f t f p p p p s p p s s p f f f N A m.b.b.XX.Xb.'.'.%XvXKXuXwXbXbXHXHXZXNXjXNXSXVXjXjXnXmXbXyXwX9XqXE E % X + j J _.b.7.M C 3.9.J.G.F.v.v.v.5.5.j.5.C.F.C.j.h.g.g.g.g.s.d o 3 8 2 9 6XxX8X5X5X8X9.3 1 2 7 8 >.k.y.t.^ i.f.s.4XcX8Xv.v.J.J.v.v.F.F.v.b._.OX9X0X}.W W (.=X+X<XlX-X*X>XqXeXeX0X0XwXtXeX0XwXsXBXBXbXyXCXmXyXuXIXmXMXiXK   O O e w e e t _ S w t f t r p p p p p ) s f ( _ g.T.!.P.K.K.C.F.9.7.'.`.[.].(.@X#X9XbXCXGXbXFXFXFXhXwXyXnXbXhX9X=XrXyX>X>XrX).F J 8.C C C 6.V 6.3.5.5.j.v.F.F.F.F.F.F.F.G.G.G.F.j.d.s.f.f.f.h.j.i 1 1 1 1 7 w.5X5X5X5X5XC o 1 2 2 1 y u./ / / s d s.d.j.v.J.b.b.b.b.J.J.b.b.z.x.b.'.'.`.[.OX+X[.[.].|.-X@X=XrXBXKXGXCXFXGXmXmXBXCXGXFXBXbXhXbXmXCXLXFXPXmXPX$X+ O u i i f r r r r r r r r p p p p r r s :.j.C.C.C.v.v.8.'.'.OX`.o.o.].(.[.<XtXsXsXyXsXyXqX9X",
"G.F.F.XXxXDXuXtXqXeXNXHXHXKXKXFXHXAXHXHXHXKXHXHXGXHX0XX.G G G G G v z z l ; + e h u a f y f f f s p s ^ ^ ^ ^ t.^ y.y.d s.v.v.v.x.$XDXJXPXFXbXNXlXjXlXdXeXkXZXHXFXmXIXuX9XtXKXGXhX).v G O...E c b E K B C 9.9.5.9.v.F.F.F.F.F.F.F.F.F.K.I.I.L.L.H.H.s.d.n.c.g.c.n.V 3 o 3 1 3 w.6XxXxX8XxXI.8 8 8 8 8 a Z.l.u.k.k.l.j.m..X_./.(.).(././././././.'././.(.'./.J G @XNXKXAXHXKXGXKXKXKXKXKXKXKXKXKXKXJXKXKXmXKXNX}.G G F G j k j j M B C C A d.Z f f f s p p s s p p s s s f f f N A b.b.b.b.b.9.'.8.'.uXKXvXiXtXwXbXCXHXAXZXZXSXjXaXjXbXbXvXuXwX0X=XE b %   . + j J J J J 8.8.8.b.oXoXXXoXoXXXoXoXJ.J.P.H.j.j.f.f.g.g.s.2.4 1 8 2 2 ;.6X5X8X8X9.3 3 2 2 7 y ,.p.i.t./ f.f.d.oX8X7Xm.m.oXoXJ.v.b.v.7.b._.OX=X-X}.o.E o.<XaXpX*X].*X>X0X0X0X9X>X0X0XwXwXwXtXtXtXvXmXyXhX9XwXgXMXxX$X5   O O w w e e t N f w t t t r p p p p p ) ) ) d Z _ d.5.4.5.q.5.5.6.3.'.`.[.[.(.#X,X9XtXyXFXKXCXnXmXhXwXuXbXbXbX9XOX+X>XrX<X=X(.j K 8.C C 7.7.7.v.b.v.v.9.9.9.9.9.v.F.F.F.F.F.F.v.j.s.f.f.f.s.h.j.1.3 1 2 7 -.8X6X5X5X`.$X5X9 1 1 2 2 ;.:.s / / ( _ g.n.m.m._.'.'._..XoXoX.X_.%XOX$X#X#X@X|.[.o.Q o.(.|.1X*X-XaXCXKXGXFXKXKXFXMXvXbXbXbXtX9X,XyXmXHXHXmXuXuXxX%XO 4 e e i f r r r r r r r r p p p p p r s 2.j.C.C.C.v.v.z.'.`.OX[.X.X.).(.[.>X0XtXhXnXBXNXhXtX",
"F.F.G.XXxXPXiXyXaXdXZXKXHXKXKXLXHXSXhXjXCXHXKXKXCXnX+XG G G F G b z l l - % + + e u i y f f t f s p s ^ ^ ^ ^ t.^ y.y.s s.j.v.v.x.XXcXJXFXGXnXNXNXNXlXpX,X<XlXZXnXLXvXuXuXMXGXnXtX}.F E O...c : z T G L C 7.9.9.9.9.9.v.b.G.G.G.F.G.G.F.F.F.I.I.F.H.s.s.n.g.c.c.m.Z o o 3 2 9 I.xXiX7X7X8XG.9 3 8 8 y >.Z.k.k.k.l.s.j.m._.`.}.}.+X}.[.).).).`.`.(.X.(.).(.W F b +XNXHXZXKXKXHXKXKXKXKXKXKXKXKXKXKXLXKXKXmXKXjXX.G G F G j ; j j B K H A 3.v.d.Z f f s p p s s s p s s s f d S S b.m..Xb.b.b._._.x./.9XKXPXwX9X=X9XhXAXAXVXSXSXVXjXnXBXMXvXuXwX0X>X).T % . X + v l F G /.)./.J J '.'.`.$X$X$X$X7XoXoXoXH.j.s.f.f.g.f.g.s.y o 7 7 7 2 9 XXxX3.o 4 3 7 6 7 <.p.p.i.t.i.f.s.d..X5X5X$XoX7X7XoXXXoX_._.'.`.#X=X*X{.{.o.|.1X<X@Xo.+.1X-X=X>X>X>X>X9X9XeXwX9X9X9X0XsXBXuXmXuXgXFXFXcX$X    O O w w t t t t t t t t f p p p ) ) ) ) ) ) ( g.n.d.1.4.q.q.4.4.1.C '.`.[.}.(.#X9XwX9XwXmXKXCXbXnXbXuXyXhXbXmXnX9X}.+XeXaX=X}.j D 8.H 8.b.8..X.XXX.XG.b.b.9.9.9.b.b.9.9.9.9.v.v.j.s.s.f.f.s.h.C.q.8 1 2 7 9 w.6X5X$X#XOX'.0.1 1 2 2 >.4.s ( ( ( _ _ m.$X$XOXOX%X`.`.`.x.J J '.`.}.}.[.].o.Q E E Q o.|.-X*X1XNXGXKXKXGXLXKXKXFXFXFXGXCXbXaXyXuXmXKXHXMXuXuXuXx.O e e i f i y r r r r r r r p p p p p p s h.Z.A.C.K.F.v.v.x.'.$X}.(.X.(.).[.*X>XtXNXNXsXtXsXsX",
"9.b.b.XXxXMXiXyXbXNXHXKXFXHXKXLXHXhX0XwXhXGXHXHXCXyX`.v F G n G b c c b l % + e O 4 4 w f f r s s p s ^ ^ ^ ^ t.^ y.y.d s.j.v.v.7.'.iXPXmXGXjXNXlXVXSXpX=X,XpXlXyXFXMXMXLXKXGXsXtX>XX.E F E l n b Q W D L B C C 7.0.8.8.8.b.b.b.b.b.b.b.G.F.G.I.H.P.h.Z B.g.B.c.c.z.5 o 3 2 1 9 6X5XxXxXG.4 1 8 8 8 y 4.Z.k.k.l.l.s.l.J._.%X@X,XrX1X@X|. X X|.|.(.o.o.).o.E G G *XHXKXGXKXKXFXKXKXKXKXKXKXKXKXKXKXDXKXKXmXKXhXG F G F G j k B j B C C C 3.d.s.d f f s p p s s s p s s s f d S S b.b.b.b.b.b.G.b.x.x.$XDXKXuX9X9X9XjXAXVXkXdXlXVXZXZXHXCXMXuXwX0XpX|.b X   . . j - g g g z v v D j j D /.`.`.`.OXoXoX.Xv.d.s.l.l.s.s.g.d.i o 8 7 2 9 o 9 9.4 o o 1 3 3 3 >.p.i.i.i.i.f.s.d..X7XxXiX#XiXiX$X$X5X$X5X$X#X=X*X{.{.|. X|.{.].{.}.|.|.>X9X9X0XwXeXeXeXsXwX>X9XtXsXvXbXbXFXuXuXmXmXiX_.  O O 4 w w t t u t t t t t f p p ) ) ) ) ) ) ) d l.R.j.4.4.q.q.4.4.1.3._.OX[.}.(.#X,X9X9X9XyXbXKXCXCXFXhXeXaXjXwXtXwX>X=X*X,X0X=Xv D /.8.'.'.x._._..X.X_.'._._._._.'.'.b.b.b.b.z.v.v.d.g.g.g.s.l.C.C.9 1 2 2 2 3 M $XiXOX'.0.o 1 1 2 3 4.:.s u.( s.( f m.7XcX9X`.[.[.[.).X.X./.`.}.}.[.].{.].].+.o.+.o.{.|.|.-XNXGXKXHXCXmXBXFXbXBXGXHXGXnXnXFXhXCXKXKXFXMXvXvX7.O e e i a i y w r r r r r r p r p p p r s 2.j.C.C.C.F.F.b.b._.$XOX).o.).).[.+XwXtXbXnXsXtXtX9X",
"'.x./.$XuXyXuXnXKXHXGXHXKXKXLXmXmXPXyX@XyXHXKXhXNXjX).F G b E b R b c l - k g j h N u t f s p s s p p p t.t.t.t.t.i.i.s y i a Z C b.iXKXGXnXdXpXkXzXkX<X|.|.=XrXnXnXBXHXBXFXKXBXKXwX(.F E E O.G b b F W G D D F J /.(./.X.).`.`.}.`.`.`._.b.9.F.F.j.4.2.j.n.c.z.n.v.u 1 1 2 2 2 9 XX8XXX9 3 3 8 3 4 y h.Z.k.u.f.k.f.n.oXoXOX=XpX|.O.]. Xo.+.o.o.E E W E W X.G X.9XFXKXHXHXKXKXKXKXKXKXKXKXKXLXKXKXmXPXKXKXKXeXW F E G v g h m m C C 6.3.3.d.d.2.a f f s s p p s s p s s f Z d.A m.m.m.b.G.G.F.G.b..XoXcXKXmXhXrX0XkXHXjX).(.0XHXHXHXHXCXhXwXqXeX<X|.E %   % % z z z z v F G E W E W X.X.X.).).W /.M.z.d.s.h.h.h.l.s.g.n.1.4 o 4 1 1 1 3 0.o o o o o O y i.i.i.i.k.u.u.l.H.J.4XcXPXuXyX0X#X#X@X#X@X@X@X#X@X+X*X*X+X+X}.}.}.}.|.*X0X>X0XwXuXuXyXjXkXkXaXeXaXsXvXFXbXuXtXsXsXtXIXx.  O 4 4 e i i a N S S f t t p p p p ^ ) s s d ( _ s.h.2.4.q.,.,.q.q.4.3.m.#X}.[.[.).#X9X#X#X#XqXbXNXAXlXVXlXpXpXjXrX>X0X9X=X9XjX,X`.K X.X./.J /.'.(.'.).`.`.`.`.`.`.`.`.`.`.`.'.x.3.3.d.g.l.l.f.l.H.C.i 3 1 2 2 1 0 9 XX6XM 0 o o 1 o 4 :.u.y./ / s.s.s.v.5XcXiXOX|.|.}.}.|.|.}.+X@X+X|.|.@X+X|.|.|.|. X].{.|.*XNXNXZXZXhXtXaXBXBXBXFXFXnXhXbXCXmXFXHXKXBXmXLXiXC O e e e a u a r r r r r r p p p r p p p :.C.C.C.A.A.C.C.F.b.b.$X#X(.X.[.].[.OX9XbXhX9XKXwXvXyX",
").(.`.#XgXyXuXmXKXHXHXKXKXKXGXCXmXvXuX9XnXCXGXjXNXdX).F E b E b R R c l g g g j B N N f f s p / s p p p t.t.t.t.y.y.i.u.:.h.j.n.z._.iXKXKXZXpX=X<XaXpX@X}.@XpXjXjXBXNXZXCXCXKXFXKXtX(.G W E E b ; ; l F W E W X.X.(.).).).].[.}.|.}.+XOX`.'.b.F.H.Z.h.h.j.n.c.c.n.J.1.3 1 2 2 2 2 9 w.i 8 8 8 3 3 8 >.k.U.k.f.k.l.l.B..X_.%X=XaX|.o.{.{.+.{.{.{.].].].o.].].).}.wXLXKXKXKXKXKXKXKXKXHXKXKXmXbXCXCXmXPXLXKXLX>XG G E G v g h M N 6.6.3.3.j.j.d.s.a f f s s p p p s p s s f Z A H m.m.b.b.G.F.F.F.v.b.XXcXKXLXCXjXyXaXNXaX`.X.#XBXAXAXAXAXjXyXrXeXeX+XE - % b E Q W W X.(.).].].).).).].].].[.].W X.x.z.v.j.h.h.h.Z.f.d.g.3.i 4 1 1 3 3 3 0.o 3 5 O O w d i.i.y.y.h.h.h.Z.Z.C.oXxXDXbXbXpX0XwX9X9X>X=X@X@X=X,X>X0X>XeXaXqX=X+X+X0X0X0X9X9XwXgXhXjXAXAXzX2XeXsXuXIXyXwXqXwXwX9XiXK   O 4 w e u i u m C C N t t p p p ^ / / ) d ( _ s.h.h.4.,.,.,.,.,.q.4.3.m.$XOX[.[.`.=X0X=X#X@X#XwXBXAXrX-X<XfXSXVXyX>X<X9X=X9XtXtX}.G X.X.).o.].(.).).`.}.}.}.}.).).`.`.`.`.).'.x.z.3.d.d.h.k.f.s.l.Z.1.4 1 1 3 o o 3 w.9.0 3 o 1 o o i h.u./ / y.u.h.Z.v.oX7X$X}.|.|.|.|.|.+X|.+X@X+X|.+X@X*X@X+X+X+X|.|.|.+X*XjXNXNXjXwX0XtXnXBXCXGXFXnXhXbXHXnXCXGXKXBXmXPX7XN O e u i V a a i r r r r r r p p p p p s 4.C.C.C.A.A.A.A.C.F.b.$X#X(.X.].[.[.OX=XbXBXtXGXtXyXtX",
"}.}.OX0XnXhXhXFXHXHXKXKXKXKXHXLXFXMXvXvXKXCXnXNXBXrX(.G E E E b c R c l g g g j B A V f d s s s s s p t.t.t.t.t.y.y.i.i.k.H.H.H.m._.5XPXKXZX0X[.@XpXaX@X[.@XeXaXsXAXCXHXKXCXCXnXBXeX).G W W G v g g z E o.o.o.(.(.).].{.[.].].}.|.+X+X[.`.'.b.G.L.L.S.V.h.j.c.c.d.J.5.4 1 2 2 2 2 3 9 4 3 8 8 8 3 y :.Z.k.k.k.k.l.l.B..X'.`.@X0X|.o.].].o.{.{.{.{.{.|.[.}.|.}.=XhXLXKXKXKXKXHXKXKXKXLXLXLXMXuXbXgXFXFXFXKXLX@XG G E G v j j B N 6.6.3.3.v.v.j.d.a f f s s p p p s ^ s s d a S z.m.b.b.G.G.F.F.F.b.b..XcXKXKXHXAXjXrXaXeX@X[.9XGXCXCXZXHXBXkXeXwXeX=XW g F W W W X.(.).].[.].].).[.].[.[.[.[.).J G J z.v.j.j.h.h.l.g.g.d.j.2.y 3 o o o o w.5 u C e e d u.i.y.y.i.i.h.Z.Z.S.C.P.7XcXuXdX0X>XhXyXwXwX>X=X,X0XqXwXyXeXdXdXdXdXqX,X0X>X0X,X#X9XgXhX0X2XpX*X].|.0XtXiXuX9X9X0XqX9X9XM   O w w i i u u N C C V f f f p s ^ / / / ( _ s.s.h.h.4.,.,.p.p.,.,.4.2._.$X}.[.[.`.=XqX9X#XOXOX=XsXlX@X].|.<XAXSXaX<X0XqX0XeXsXbX@XG W X.).).[.(.).[.).`.}.}.).[.}.}.}.[.[.[.%Xb.z.3.d.2.s.h.h.s.f.l.j.i 3 1 1 1 1 3 9 w.1 1 1 1 o 3 >.h.s / / s u.h.H.F.z..X%X`.+X-X1X*X@X@X@X+X+X+X@X@X@X*X=X=X+X@X=X=X*X*X*XeXjXnXaX0XrXjXGXsXbXnXnXbXbXCXKXCXCXGXKXCXFXDX7Xu O u u i V a V f r r r r r r p p s p s :.j.C.C.C.K.A.A.A.C.F.b.$X#X).(.[.[.[.OX@XsXBXtXyXtX,X9X",
"OX+X#XwXCXCXCXKXHXKXKXKXKXHXHXKXKXLXFXHXKXCXbXNXZX,XX.G W E E b R c z l g g j j B A V f d s s p / ^ ^ t.t.t.t.t.y.y.i.i.k.Z.H.v.J.b.$XcXLXNX0X+X,XkXSXrX#X,X>X=XyXHXAXHXKXbXtXwXhXtX`.G W W E b E E W o.).(.).].[.].].}.}.].[.|.+X+X[.X.J x.G.G.L.L.L.Z.h.d.d.c.d.m.5.9 1 1 2 3 3 3 3 3 3 3 3 8 4 i h.Z.k.k.k.k.f.l.R.oX_.`.OX@X].].[.[.].{.{.].].].}.}.|.|.}.,XnXFXHXKXKXKXFXKXKXKXLXFXHXMXvXMXwXHXJXFXKXHX}.G E E G v j j B V 6.6.3.5.v.v.j.j.d f f s s s s p p / p s d f N v.b.b.b.G.G.H.H.H.G.b.J.xXKXJXKXHXAXdXrXrXwXqXhXKXnXnXCXHXZXjXwX>XqX0XX.z W F (.(.(.(.).(.(.(.).).[.].[.[.[.}.`.J D K 7.j.j.h.h.h.s.f.l.l.n.j.>.i 4 o o o 0.C 7.7.N Z s.u.y.y.i.i.p.D.S.L.L.F.XX7XvXhXNXrX0XnXhXwXeXeXsXhXdXeXyXdXhXdXeXhXCXjXwX0X>X9X,X#X9XuX>X|.].|.+.b o.=XtXuXuXwXwXwX9X9XUXh   O w w i u i u N C S S f f f p s s s / ( ( _ s.s.h.h.4.,.,.p.p.,.,.4.2.J.$XOX[.[.).@X9X,X#XOX+X=X0X<X}.]. X*XpXlXdXwXqXwXqXeXtXNX=X/.(.(.[.).[.}.OX+X}.}.+X|.}.}.}.OXOXOXOX}.%Xx.3.3.d.2.2.h.f.l.s.s.j.4.i 3 o o o o 9 w.o 1 1 o o 4 4.h.s u./ y.u.h.H.v.7..XOX[.+X1X<X<X,X=X=X*X*X*X=X=X@X@X=X>X*X*X>XqX<X>X>X0XaXjXeXwXdXBXZXtXsXhXhXyXyXmXKXFXGXGXKXFXLXDX5Xe O u u u V V V a i r r r r r p s s p s h.C.C.C.K.K.A.A.C.C.F.b.$X9X[.(.[.[.OX+X@XtXbXqX,XyX#X=X",
"+XOX@X9XnXGXFXHXHXKXKXKXKXHXKXKXKXKXKXKXKXHXNXNXZX+XW G W E G b R c l : - g j B m A Z f s s s s ^ t.t.t.t.t.t.t.t.y.i.u.h.H.H.J.J.b.oXxXFXPXbXaXkXSXHXZXkXwX>X=XaXHXZXCXCXyXqX9XbXNX+XE G G E E W X.(.).).).[.}.|.}.}.+X+X+X+X=X@X|.(.G G x.b.G.L.L.L.S.j.s.d.c.c.n.v.V 4 1 1 2 3 3 3 3 8 4 8 8 y >.Z.k.k.k.k.f.l.H.oXoX.X%X+X+X}.|.|.*X|.|.|.[.|.}.|.}.|.|.}.0XFXHXLXKXKXKXFXKXHXKXHXHXKXLXmXLX9XHXKXLXLXFX).G E E b z j B C V 6.6.3.5.v.v.v.l.d s f s s s s s ^ / s s d f Z m.m.b.G.G.G.H.H.H.J.b.m.7XDXLXKXAXAXjX0X0XdXBXBXnXhXjXNXHXHXjXwX,XeXqX).G [.(.}.[.[.}.}.}.[.[.}.}.+X}.}.}.}.+X}./.D B A 3.j.h.h.h.s.s.d.g.g.j.j.j.1.e 4 5 b.b.x.7.N _ s.f.u.i.i.u.V.D.S.S.L.K.P.7XMXnXZXeX>XhXyX,XsXNXHXHXNXaXdXNXjXjXjXNXNXjXeXsXaXqX>X9XwXwX=X}.{.*X|.+.|.eXvXuXuXuXwXwX9X9X#X+ o 4 e w i u a V V C C Z d f f s ^ s s s ( ( _ s.2.4.V.q.,.,.,.,.,.,.q.2..X$XOX}.[.(.OX#X#X#X@X,X>X#X@X}. X X{.1XlXlXkXeX0X=X=X=XhX9X[.OX}.@X}.}.}.+X+X}.|.#X,X@X}.}.}.+X#X@XOX`.z.3.3.d.2.s.s.s.l.g.s.d.j.6.i 3 o o o 9 1.o o o 1 4 a j.:.s i./ u.k.V.Z.F.v.XXOX[.+X=X2XpXeXrX0X0X0X0XrX0X,X*X=XeX<X>XwXaXaXeXeXqXeXyXeXdXNXNXhXnXBXmXhXuXuXbXmXFXFXBXGXBXFXMX$X+ 5 u u u V V 1.1.f y r r r p s p s p s C.C.q.C.K.A.K.A.A.F.F.b.$X9X}.).[.[.OX+X#XwXbXsX0XBX=X=X",
"@X@X@X,XnXCXCXCXHXKXKXKXKXKXKXKXFXKXKXLXFXKXCXCXZX}.W E W E b T R c : - ; k j B m A A f s s s / ^ y.t.t.t.t.t.t.y.i.i.u.h.Z.H.J.G.b.oXxXPXFXGXHXBXjXBXHXCXyXtXsXNXHXHXCXbXtXsXsXBXHX@XG G G W X.(.).[.}.}.}.|.+X+X|.+X@X=X=X=X=X].o.W F G J v.v.K.L.L.S.Z.d.d.c.c.d.v.v.a 4 3 1 1 1 3 4 4 3 8 y 4.j.Z.k.k.k.k.f.Y.R.oX.X_.%X$X+X+X*X*X-X-X*X*X+X-X@X@X|.+X+X@XyXHXKXKXKXKXKXHXKXKXKXKXKXKXKXLXKXuXLXKXFXbXbXX.G G E b z j B C C 6.3.3.5.v.v.v.n.2.d s s s s s ^ ^ / / / d d d.J.m.J.G.G.G.H.H.H.J.b.b.5XPXLXKXSXkXdX<X>XjXHXCXnXnXnXNXHXHXnXeX0XhX0X[.(.@X@X@X+X+X@X=X=X#X@X+XOX+XOXOX}.OXOX[.J B B C 3.4.V.V.h.h.s.Z _ d.j.F.H.H.d.A N _.m.H B S _ _ ( ( u.i.i.S.E.S.E.L.C.P.5XcXMXZXeX>XsXyX0XhXNXZXNXdXwXaXjXeXeXwXyXjXjXaXdXjXeX9X9X0X9X=X|. X-X-X-XqXhXIXuXuXgXhXyXtX9X#XO O 5 e w e u a V C C C A Z f f s / / ) ) ( ( d d :.4.V.q.,.,.,.,.p.p.V.3..X#XOX}.}.(.}.@X@X@X#X>X,X|.|. X].+.+.1XlXVXNXdXwX>X=X=X0X9X@X,X,XqX=X*X,X=X#X#X=X,X>X0X=X#X=X>X9X,XOX`.x.3.3.3.2.s.s.s.s.g.g.d.j.v.6.i 3 o o i 1.o o o 9 >.j.h.:.s u.( u.Z.Z.C.F.G.XXoX`.}.+X0XkXlXjXsXsXhXjXdXaXeX0X,XaXyXaXsXhXjXbXjXrX0X0XrXNXHXZXbXCXGXCXbXbXbXCXCXGXGXBXCXBXFXIX%XO e u u u a V V 2.a f r r r p s p s s :.C.C.q.A.C.A.K.K.A.F.F.b.OX#X}.).[.[.[.OX@XqXhXCXbXKXwX#X",
"wXwX9XwXnXCXCXCXKXKXKXKXKXKXKXKXLXKXLXHXFXKXBXZXZX].W E E E b T R c : - ; g j B B H A f f s / / s y.y.t.t.t.t.t.i.i.i.i.h.Z.H.F.G.v.XXxXDXJXKXKXCXhXnXCXCXyXvXGXCXHXHXGXhXyXNXbXNXHX@XG X.(.).[.+X*X,X,X,X=X*X@X@X@X*X*X=X,X*X|.o...E F F K 7.v.K.S.S.S.Z.j.j.c.c._ c.n.3.1.i 4 1 3 3 3 3 3 y >.C.Z.Z.l.f.k.l.l.Y.R.T.J._.oX$X+X}.*X+X>X<X+X*X*X*X+X*X=X>X>X=XsXFXKXKXLXHXHXHXKXKXKXKXKXKXKXHXKXCXHXLXFXuXyXG G G E b l j B C C 6.3.5.v.v.v.v.l.s.d s s s / / ^ ^ ^ / / d s.n.J.G.G.J.G.G.H.H.H.G.G.b.$XxXLXKXjX<XrX<XqXNXCXBXGXGXCXCXZXZXNXhXsXbX0X@X@X=XeX=X=X=X9XqXqX9X#X#X#X#XOX+X+X+X+X`.G j M V 1.4.V.V.V.j.s.Z Z Z d.j.j.n.g.n.A _._.H C _ Z d d u.u.k.U.E.E.E.E.W.K.P.5XcXMXGXjXwXnXCXCXyXtXeXeXwX0XwXeX9X9X,X9XsXhXyXaXjXjXaX0X0XqX,X|.{. X&X<XdXbXsXuXvXbXmXbXIXtX$XO O 5 e e i a a V C C A 3.Z d f s / / ) ( ( ( d d :.V.V.,.,.,.e.p.p.p.V.5..X#X+X|.}.).@X,X#X@X@X,X@X|.@X|. X X&XfXlXSXVXkXyXeXwX9X=X9X9XaXwXkXrXrXNXjXhXjXkXaXkXjXaXyXaXsXsXwX#XOXb.3.6.3.2.s.s.d s.s.g.d.j.j.5.5.i i 4 i 1.o 3 4 >.j.h.h.s.d u.u.u.S.C.C.F.v..XOXOX}.+X0XjXNXBXBXnXCXNXhXhXnXsX9XwXhXbXhXhXnXBXnXdX0X,XqXNXHXGXBXnXnXbXbXmXFXKXKXHXKXGXFXmXPXIX%XO e u u a V V V 1.2.d f r p s s s p :.V.C.C.A.C.A.A.K.L.K.F.F.b._.#X}.).].[.[.[.@X9XyXGXGXGXbX,X",
"nXCXvXhXCXHXHXHXKXKXKXKXKXKXKXKXKXKXFXKXGXKXnXHXBX).W E E E b E c c : : - g j B B H A f f s s / y.y.y.t.t.t.t.t.i.i.i.h.Z.H.H.H.J.v.XXxXJXKXKXFXGXCXCXHXmXgXMXKXnXCXGXHXyXwXjXeXnXHX@XW [.+X*X,X<XrXaXdXdXeX<X=X>X<X<X>X,X,X+X].O.E E F D B 7.G.K.A.A.L.Z.j.j.d.c._ c.n.v.G.9.;.9 8 3 4 8 ;.q.A.C.h.h.k.f.k.l.R.Y.R.oXXX.X$X#XOX).|.|.qXpX*X*X+X[.[.=XqXdXaX9XsXmXKXKXmXCXFXHXKXHXKXKXKXKXKXHXKXKXKXLXPX9XwXG G G G b g j B C C 6.3.5.9.v.j.j.n.f.u.s s s / / / ^ ^ / / s s.H.J.G.G.G.G.H.H.H.H.G.G.b.oXiXmXCXrX,X0X0XyXNXsXtXFXKXZXCXCXZXCXBXZXsXeXaXdXqXBXaXNXhXbXbXsXwX9X9X0X9X#X=X9X,X=X}.J k m N 1.4.q.V.V.s.g.g.Z a Z 3.j.g._ c.A oX$XM.` S d _ f.k.k.U.U.S.E.E.E.A.A.P.5XcXMXCXyX>XyXhXCXeX9X=X>XeXeX0X>X9XsXjXhXyX0XeXNXjXAXAXsXeXaX<X X{.{. X<XlXbXIXMXvXmXFXnXbXuX#Xo O 5 e e u a a V C C A 3.2.d f f ) ) / ( ( ( d d 4.V.V.,.,.,.e.e.p.V.V.h..X#X+X|.}.`.,XwX,X@X+X@X@X*X1X*X1X2X2XlXSXSXNXdXaXaXwX=X=XtXaXNXhXNXjXjXNXsXaXjXjXkXkXSXNXNXNXnXhXwX#X$X.X3.2.2.2.s.s.d f._ _ g.v.d.5.v.F.5.1.F.G.e V 5.5.j.:.:.s.( u.k.h.L.C.C.F.v.XX5XOXOX@X0XjXNXBXCXBXGXnXyXhXCXnXwX9XsXnXsXyXnXnXhXZXwX=X>XaXjXhXhXbXbXhXhXbXFXHXFXFXGXCXBXbXMXuX_.O u u u a V 1.V 1.s.2.f r p s p s s i.Z.C.C.K.C.A.A.K.L.K.F.F.b._.#X}.).[.[.[.[.=XwXtXGXHXBXGXtX"
};
