/* XPM */
static char *ce06e563777245e69f436bd81991aa87nucBDVFFiGNxFwte[] = {
/* columns rows colors chars-per-pixel */
"600 600 256 2 ",
"   c #393639",
".  c #372D32",
"X  c #37241D",
"o  c #52291A",
"O  c #4A2928",
"+  c #552C29",
"@  c #5B332C",
"#  c #573329",
"$  c #482C36",
"%  c #562D34",
"&  c #483639",
"*  c #5B3433",
"=  c #5B3B3B",
"-  c #563737",
";  c #4A332B",
":  c #65372A",
">  c #663A37",
",  c #773A37",
"<  c #70332C",
"1  c #5B2A19",
"2  c #384B3C",
"3  c #275A3C",
"4  c #50463B",
"5  c #69433A",
"6  c #77463A",
"7  c #734A31",
"8  c #715524",
"9  c #393846",
"0  c #333D5D",
"q  c #483946",
"w  c #583B45",
"e  c #4F3751",
"r  c #653C44",
"t  c #713B49",
"y  c #583D65",
"u  c #385848",
"i  c #33514D",
"p  c #166F57",
"a  c #386858",
"s  c #2E6E56",
"d  c #15756A",
"f  c #387767",
"g  c #30726B",
"h  c #255B5A",
"j  c #484747",
"k  c #594548",
"l  c #47564A",
"z  c #57564B",
"x  c #494756",
"c  c #594A56",
"v  c #495956",
"b  c #595758",
"n  c #674648",
"m  c #774946",
"M  c #795449",
"N  c #664B55",
"B  c #675659",
"V  c #775758",
"C  c #6F504F",
"Z  c #486858",
"A  c #586759",
"S  c #49755A",
"D  c #58755A",
"F  c #4E674C",
"G  c #66675A",
"H  c #77665A",
"J  c #67765B",
"K  c #737153",
"L  c #5A5867",
"P  c #5A5C75",
"I  c #504F66",
"U  c #675A67",
"Y  c #755C66",
"T  c #665D74",
"R  c #6D536C",
"E  c #496966",
"W  c #596866",
"Q  c #487767",
"!  c #587767",
"~  c #5A6678",
"^  c #587876",
"/  c #497376",
"(  c #686768",
")  c #776669",
"_  c #677668",
"`  c #777769",
"'  c #696777",
"]  c #776977",
"[  c #687777",
"{  c #787678",
"}  c #863B37",
"|  c #8D3A30",
" . c #A53C34",
".. c #88463A",
"X. c #974839",
"o. c #8F5137",
"O. c #A94F38",
"+. c #A56A34",
"@. c #CF7529",
"#. c #874946",
"$. c #964A45",
"%. c #875748",
"&. c #975647",
"*. c #865957",
"=. c #925655",
"-. c #A85547",
";. c #896559",
":. c #976758",
">. c #926B50",
",. c #AA6F53",
"<. c #875C64",
"1. c #876868",
"2. c #966A66",
"3. c #87766A",
"4. c #987569",
"5. c #856B75",
"6. c #877779",
"7. c #967877",
"8. c #956C75",
"9. c #A67868",
"0. c #A97870",
"q. c #A35B6D",
"w. c #C7784D",
"e. c #883D43",
"r. c #108672",
"t. c #338771",
"y. c #23835A",
"u. c #588677",
"i. c #4F876F",
"p. c #688569",
"a. c #778669",
"s. c #688677",
"d. c #788677",
"f. c #729475",
"g. c #66855C",
"h. c #D58E32",
"j. c #E8942E",
"k. c #E69B22",
"l. c #878678",
"z. c #978679",
"x. c #8D8F71",
"c. c #A88678",
"v. c #B78977",
"b. c #B28D70",
"n. c #AA905F",
"m. c #D08F50",
"M. c #C89679",
"N. c #D69B77",
"B. c #CD926B",
"V. c #DAA47A",
"C. c #D3A672",
"Z. c #E6A97A",
"A. c #ECB075",
"S. c #E3A154",
"D. c #BA8E3F",
"F. c #307B86",
"G. c #5A6985",
"H. c #597788",
"J. c #50748D",
"K. c #686A85",
"L. c #766C84",
"P. c #697587",
"I. c #787687",
"U. c #697794",
"Y. c #787994",
"T. c #6A6E92",
"R. c #666E94",
"E. c #867987",
"W. c #957B86",
"Q. c #857C94",
"!. c #8B738B",
"~. c #A47B88",
"^. c #2A8D86",
"/. c #538C88",
"(. c #798587",
"). c #798496",
"_. c #6D8C8A",
"`. c #70929B",
"'. c #888589",
"]. c #968689",
"[. c #898696",
"{. c #968997",
"}. c #989498",
"|. c #8E958B",
" X c #A68987",
".X c #B99687",
"XX c #AC9491",
"oX c #B4A78F",
"OX c #9490A3",
"+X c #A796A5",
"@X c #9EA597",
"#X c #C79A86",
"$X c #CF9C8B",
"%X c #CAA489",
"&X c #D9A888",
"*X c #C9A797",
"=X c #D8AB96",
"-X c #DBB498",
";X c #D5B48E",
":X c #E5AC88",
">X c #E4B38C",
",X c #EBB48C",
"<X c #EAB889",
"1X c #F3B98B",
"2X c #E5AD94",
"3X c #E4B493",
"4X c #EBB594",
"5X c #E5BA94",
"6X c #EBBC94",
"7X c #E4B59B",
"8X c #E5BB9B",
"9X c #EBBC9B",
"0X c #EBB59A",
"qX c #F2BD94",
"wX c #F2BD9B",
"eX c #F6B995",
"rX c #F2AD89",
"tX c #DAB7A6",
"yX c #CFB0A7",
"uX c #EBBDA3",
"iX c #E5BAA5",
"pX c #F3BDA3",
"aX c #E5BAB1",
"sX c #DC9D8C",
"dX c #EDC295",
"fX c #EDC39C",
"gX c #EAC69B",
"hX c #F3C395",
"jX c #F3C49C",
"kX c #FAC49C",
"lX c #F4CA9D",
"zX c #FACB9C",
"xX c #F8C695",
"cX c #FAD29D",
"vX c #F2C38D",
"bX c #DAC4AC",
"nX c #EDC3A2",
"mX c #EBC6A8",
"MX c #F3C5A2",
"NX c #F4CBA3",
"BX c #FACCA3",
"VX c #F4CBAB",
"CX c #F8C8A9",
"ZX c #FCD3A4",
"AX c #FCD4AB",
"SX c #FDDAAC",
"DX c #F7D4A6",
"FX c #E9C7B5",
"GX c #F6CBB3",
"HX c #FEDBB2",
"JX c #FBD5B6",
"KX c #ECD2AF",
"LX c #FEE1B4",
"PX c #D9C398",
"IX c #F7D7C4",
"UX c #C8BEB1",
/* pixels */
"kXxXjXjXfXjXjXNXBXMXiX.XY T Y.K.L.{ ' ( _ ` _ G K K ;.*.=.=.&.&.#.> > > = w c w w n r > M M M K ! f p d F.F.g t.! J K ;.M n = w $ k w w t t r w r n n m %.$.X.-.=.;.` d.u.t.g g f E v ' |.}.}.|.;XgXNXDXSXHXHXAXSXSXSXJXJXJXSXSXLXDXSXHXAXJXVXb.:.:.;.6 : @ @ @ * * * * = n w - - - - - - - - % > : > m M ;..XmXFXVXmXMXwX6X6XqXhX<X:X:X1XvXhXdXlX-X-XmXtX.X X X(.^ / g ^.^.^.t.t.S D K >.-.-.,.q.#.t r w e e e e c w V 4.v.&XM.b.x.|.u.g t.t.t.i.f.x.b.M.;X-X5X2Xv.V 4 i i 9 0 q e r t t m 5 4 A E f g p p d d h g J.H.U.).).).[.6.XXbXKXSXSXSXZXdX5X5XfXJXJXmXNXlXlXDXSXSXSXHXJXuXM.,.:.=., @ * % % * * - - - ; - - = > > > * * * @ * > m ;.c.iXIXJXnXAXZXjXSXzXzXzXcXcXcXcXzXxXxXlXNXBXCX-X%X.Xc.XXXXXX].6.( ( [ s.d.p.p.p.f.a.g.F l j i 9 9 9 q . w ; 4 yXKXmXnXfXdXvX;XC.n.x.x.x.x.x.;XDXhXMXeXCXKXXXz 4 & w t r e e x W / /./.^.^.^.^.^.^.^.^.`.U.Y.Q.Q.Q.K.U.T.T.T.L.] & O ;.=XAXkXxXxX1XvXvXhXhXqXqX,X:XvXxX1X<XzXkXwXCXiX#.+ > @ + * - - - - - % # # # % + + + + @ : : , m m *.2. XyXIXJXDXZXzXlXhXxXzXqXqX4X,X4X6XwXNXfXnXmX8X.X4.H G b Z Z A D J K K 8 %.>.%.C - w r e w w w $ % n 1.c.v.v.v.n.x.a.i.t.t.t./.f.d.x.9.>.o.%.%.5 - & & q & $ O O + > ..O.O.-.%.M K D g.i.i.i.i.Q Q ^ (.[.E.E.!.5.8.7.*.= # C z.%XKXLXZXSXSXAXDXBXBXDXDX",
"xXxXxXjXfXjXjXjXMXMXaX*X5.' T.T.L.{ ' ( _ { ` J K K M %.%.=.&.&.6 : * - % & w & w w % + @ 5 M 3.! f g g F.d g t.s.a.K K 6 5 - ; & w w % w w % w % = > m %.&.X.&.%.V ( _ Q g g g f E L { }.}.}. XPXgXDXDXSXHXJXDXSXSXSXJXJXJXSXSXDXDXHXHXHXJX8X9.:.>.%.> @ @ * * > > > > n n n w = = - - - - - * @ @ : 6 6 %.0.=XJXGXCXCXMX6X,X6X1X,X<X1XhXxXhXdXdX-X-XFXaX*XXXXX'.P./ f g r.r.t.t.i.J K ;.:.-.-.:.*.t r w e e e e w n  XtX-X8X;X;XoX@X_.t.t.t.i.i.f.oX;XPXgXdX8XGXtX4.k u i 9 9 q q w r C C C z A E f g p p d p g g H.U.Y.).).).Q.6.oXFXKXSXSXcXzX>X&X;XfXJXHXKXDXDXSXSXSXSXSXJXJX&X9.,.:.#.> @ * > > * * - - - $ ; - - * * * * > * @ : > m *.:.*XJXJXBXHXHXlXZXzXzXzXzXcXcXcXzXZXZXBXBXBXBXnX-XoXXX XXXXX].{.'.{ { d.s.s.p.p.p.g.g.J D v i 9 9 9 e . q ; 4 oXFXmXnXfXdXvX;XC.b.x.x.x.x.oXPXdXhXBXwXnX*X3.4 4 N w r r e b ~ ^ / /.^.^.^.^.^.^.^.^./.`.U.Y.Q.Q.Y.K.Y.R.K.K.L.R O = 9.8XBXkXxXhX1XvXvXxXeXqX6X,X:X1XvX1X1XzXkXkXCXv.> + > @ % = = - - - - * % * * * % + + + @ : : > m m #.2.0.*XGXAXDXDXBXlXlXlXkXkXhXqX6X6XwXjXNXMXnXNXnX%Xc.` ) b A Z A D J K K M %.;.M n = w w e e e w w N 8..XyX-X7X;X%Xb.x.p.i.i.t.i.u.f.c.v.N.&X#Xv.;.5 $ $ & $ $ O O O > #.X.X.X.%.M G D i.i.i.i.i.! ! [ [.[.E.!.W.5.8.8.V - 5 H c.-XJXHXAXSXSXAXDXDXBXDXDX",
"xXxXxXjXjXjXjXjXkXMXGXyXW.] L.Y.L.L.[ ( _ { d.` G K H M %.%.%.%.> % + - $ $ q $ $ % > V ;.4.4.x._ Q f g g d g f g.J K >.4.4.1.V w w $ q w q & w $ % > m %.%...%.M G A E f s g g g v ~ '.}.}.XXoXKXDXDXDXSXHXJXDXSXSXSXSXJXJXHXHXDXLXLXHXHXJX%X:.:.;.m > @ @ @ # > > n n n C n k k k w - - - = = @ @ : > > 6 :.v.GXVXCXCXNX6X>X6X,X1XhXkXzXxXhXdX<X3X8XuXaXtX*XXX'.P.^ / g g g t.i.i.p.` ;.;.;.=.*.m r w w e e c e w B oXFXnXnXfXgXPXUX|.u.i.i.i.f.@XPXgXgXgXgXnXGXtX4.k j j i q q q w k B V G A Z f a p p d g g g H.U.Y.Y.Y.Y.Y.I.'.yXKXHXSXSXcXlX>XV.&X8XJXLXDXSXSXLXLXHXSXSXJXGXv.:.:.%., : @ * > > > r w = = & - - - * * * * > @ + * 5 m M %.v.mXJXAXHXSXBXzXzXzXzXcXcXcXcXcXZXZXcXBXBXAXNXuX*XXX X X].}.}.}.I.{ [ [ p.p.f.p.p.p.p.s.[ W v x 9 q . & ; - c.*XbXKXNXdXdXdX;XM.x.x.x.c.bXmX>XlXBX5X%Xn.M 4 k k w w c b ~ H./.t.^.^.^.^.^.^./././._.U.Y.Y.Y.U.T.T.Y.K.K.K.L.U X V %XCXjXzXkXhXhX1XvXhXeXqX,X,X<XvX<X<XhXhXkXMX2X%.+ + > @ * r r w = = - - - * * % * % @ @ @ : : > 6 m m *.2..XtXAXDXDXZXZXBXkXxXkXkXkXjXjXjXMXNXMXnXnXVX-Xv.3.6.W W W A A G J K K M %.M n 4 q e e q q w w Y XXaXiX8X0X7X-X%Xx.p.u.u.i.i.p.x.oX;X&X0X0X=X.X1.> - $ $ $ O O O > M ..o.%.M K J D i.S Q Q ! ^ [ I.}.Q.Q.Q.E.5.8.1.n # C 4..XmXHXHXSXAXAXAXDXDXBXDXDX",
"xXxXjXjXjXjXjXjXkXMXGXaXXX] ' Y.L.L.{ ' [ [ d.a.J K K H H ;.%.%.5 * % - & & & $ - = V .XyXiX%Xb.x.! a a g g f Q D K >.b.-XtX*XXXY w $ q j q   q $ - > m %.M 6 M G F Z a g g g g g E [ {.{.].XXyXHXSXDXDXSXHXSXDXSXSXSXSXJXHXHXHXHXLXHXJXJXnXv.:.:.*.6 : @ * * * > n C C V V C k k k k w - - - = * # @ > > 5 %.9.=XuXGXCXMX6X6X1X>XqXlXZXZXzXlXlX<X5X8XuXaXaXtX*X6.{ P./.J.f f t.i.i.p.a.` K H 3.C n w q q x c c e k V *XFX-X8XdXgXPXbX@X_.f.i.s.|.oXPXgXgXdXgXnXGXyX1.& & q     q q j c b A A Z a a s h p g g / /.).).[.Q.Q.Y.Y.E.}.tXIXHXSXZXZXZX>X&X3XfXJXLXJXSXSXLXSXSXHXHXJXMX9.:.:.6 : : : * > r n n n k = - = - - - * * > * + + * > 5 m M 9.-XGXBXAXAXBXZXzXzXzXcXcXcXcXcXzXzXZXZXAXAXNXuX*XXX XXX X{.}.'.I.I.[ [ s.s.f.f.f.p.p.f.(.(.[ b j q . & - 5 4.c.*XbXKXgXdXgX-X%Xb.x.x.oXbXmXdXlXlX%Xb.3.H H C & q x b W / /.^.t.r.r.^.^.^./.`.`.[.[.Y.Y.Y.U.U.H.U.T.K.K.L.] c $ 4.iXAX6XzXzXqXxX1XvXxXeX,X:X>X,X1X<XvXhXqXBX4X9., + @ > = = n w w w w = = - - - - * * * * @ : : : 6 m m %.*.0.*XJXAXAXDXDXZXBXkXzXzXkXkXkXkXjXjXMX9XfXVXiX.Xz.l.` [ W W A G G K M K K H z k q q e q q q w V XXFXiX0X0X4X8X;XoXx.p.f.f.f.x.oXPX;X>XjX4X7X7X9.* % % % % % ; O * 5 M H K K J J ! ! ! Q E ! [ [ E.{.Q.Q.!.6.8.8.V * - ;.c.oXKXLXSXAXAXAXAXDXDXBXDXDX",
"xXxXjXjXlXjXjXxXkXMXGXFXoX] T Y.L.I.L.' ( [ [ p._ _ K K K H M M n & & & & $ & $ w n 1.tXiXmX7X-XoXx.D Z f Q ! ! J x.b.;XiXmXtXyX~.n $ q 9 9 9   & - - r C C C G D Z s s g g g g E ~ E.{.].7.oXFXHXDXNXDXSXHXSXDXSXSXHXSXHXHXHXHXHXAXVXJXAX%X9.:.=.M > : > > 5 5 n C V Y 1.) B k k k k k w = = - = @ * > > > M :.b.7XJXAXjXjXjX<X6XjXzXZXcXcXcXcXdXfX9X8XuXuXiXyX3.{ { _././././.u.s.s.s.p._ p.p.G b j j j x c x q k B XXbXbXmX;XdXdXbXoX@Xl.p.x.oX;XPXgXdXfXgXmXtXXXV O ; & & . 9 j v Z Z a a a f f g s s g J./.).).[.Q.Q.!.!.E.6.XXbXIXLXSXZXZXAXqX6XjXNXAXHXSXSXSXSXSXSXHXHXJX&X9.:.%.: @ > % > r n n n n k k k - - - - - = = * * * * * > 5 M :.$XGXJXAXBXZXSXzXzXzXcXcXcXcXcXzXcXZXBXBXBXVXmX*X.X X X].{.{.E.'.(.(.[ [ p.s.f.f.p.p.s._.(.d._ ( z . & C V 3.7. XoXPXPXgXgXgX;Xb.>.z.-XPXPXlXPXPXM.n.x.z.c.) & c W ^ i.t.t.t.r.r.r.t.^./.`.OXOX+X{.!.!.Y._./.H.U.K.K.L.L.U w n .XVXAX6XkXzXqXxX1XvXxXqX,X:X,X<X1X1XxXqXwXAX&X#.> @ * > r n n k k k w w w w w - - * * * * * : : : 6 m m *.*.2..XHXHXSXDXDXZXZXzXzXzXBXBXBXMXjXjXjX6X9XMXnX*X Xl.'.I.[ ! W D G G G K K G z z j q q e k k w N ].tXiX9X9X6X6X>X%XoXa.a.f.f.x.PXPX;XdXwX7X7X7X2.+ > % $ $ ; O ; 4 G J J J J ! i.! ! ! ! W ' I.E.W.{.Q.E.5.5.8.2.C + n 8. X*XJXLXAXDXZXAXAXDXBXBXDXDX",
"xXxXjXjXlXjXjXjXkXCXCXFXyX6.T I.I.I.L.[ ' [ _ _ p._ _ J K K K G 4 . . &   $ & & - n 7.FX-X8X5XmXPXoXa.F Z D J J K b.PXgX-XtXFXFX.XV & &     i     & & k B B A _ S a s s g g g g H.I.{.{.W. XyXIXHXAXNXDXSXSXSXSXHXHXHXHXHXHXHXHXHXDXJXJXCXM.,.:.%.6 > * > > > n n C V ) 1.) B k k k N N n k w = - * * > > > 6 %.:.%XJXGXMXNXjX5XdXlXBXZXZXcXZXZXzXBXjX9X9XuXiXtX3.` ` { P._._._._._.f.s.p.i.i.i.s._ W v x x x q j k - H oXbXKXPXdXdXgX;XoX|.x.c.*X-XmXNXmXgXgXbXXX3.k ; & - & 4 j v E E a h h s s a a g f /._.).).[.[.Q.Q.!.!.!.] oXFXIXLXHXZXZXAXqX4XMXNXAXJXDXSXSXSXSXHXLXJXMXb.:.*.6 + @ > * r n N N N N k k k k - - - - - = = = = * % @ 5 M *.v.uXJXJXAXZXAXzXzXzXcXcXcXcXzXcXcXzXdXdXjXBXGXtX.Xz.7.6.W.[.Q.{.[.'.(.[ [ p.s.s.f.f.f.f.d.|.|.l.G 4 4 G 1.3.z.l.x.oX;XPXnXmXgXb.>.b.KXPXPXDX;XM.b.b.n.c.XXl.b ( u././.^.t.t.r.r.t.t./.`.OX+X+X+X+XW.Q.Y.P./.H.P.' ' L.] e $ 1.*XVXBXdXxXkXhXxXvXvXqXqX,X,X,X1X1XhXxXhXMXCXM.> > > * = n n n n n k k k k k k k = = - * * * * : : , 6 m %.*.2.c.JXHXHXAXBXAXZXBXzXBXBXBXBXkXjXjXjXjXjXMXnXtX.X7.'.(.P.[ ( _ G G A G J G A b j j 9 q q q & k )  XtXiXuX8X3X;X%XoXx.x.a.x.oXPXPXPX5X6X3X-X#Xm + , % O O ; ; 4 z J D D S i.i.i.! ! ^ ! ( ] E.{.{.{.E.E.] 5.8.<.r * *.7..XyXJXHXAXZXDXZXAXDXDXBXBXDX",
"hXxXjXjXlXjXjXxXwXMXMXmXaX X] L.I.L.L.{ [ [ [ _ _ _ _ _ a.J J J z     & & & w - & = 3.FX-XmX5XgXPX;Xx.a.A A K x.b.;XmXmXnXmXbXtX0.n = q     l i i j j v W W Z Q S a f f g g / H.Y.[.{.W.~.XXtXIXHXAXDXSXSXDXAXHXHXHXHXHXHXHXHXHXHXAXHXJX&Xb.,.%.%.6 > > > > n n C V V ) ) ) B N N z N B B N k k = = = > > 5 5 6 %.v.iXCXCXMXjXdXfXlXBXDXZXZXZXZXZXZXBXNXjX9X9XmX7.3.) { { P.I.(.(.(.d.s.p.i.i.i.u.u.! W W b c j z B k K x.oXbXPX;XdXgX;XPXoXx.oX-XnXnXnXgXPX%XoX|.d.G z k & ; 4 b Z a a s g g g a Q / u._.`.OXOX[.{.{.Q.!.!.!.E.].yXIXJXHXSXZXSXBX:XV.3XMXAXHXDXSXSXSXSXHXHXMX&X,.>.6 > > > n r N N C B B N z z k k k w w w w w = = = = * * 5 M *.:.#XCXJXAXZXZXZXcXcXcXcXcXzXzXzXzXlX6X5XdXCXGXFXoXz.6.5.E.[.[.}.[.[.'.(.(.d.s.d.d.(.f.d.d.l.x.l.` A B ` 6.` '.d.d.x.oXoX;X-XPX%Xb.;XKXPX;X;XM.x.x.x.c.x.@X|.[ s./././.^.^.^.^./././.`.OX@X+X+X+X+XOX{.[.Q.I.I.L.' L.T N $ $  XiXnXlXxXxXxXhXhXvXvXqX1XeX4XqXqXqXhXhXkXCX&X:.> > r = n C N n B B N k k n N k k w w = = > * > : : , , 6 M %.*.9.iXVXHXAXBXZXZXBXZXZXBXBXBXNXMXMXjXBXNXjXMXFXoX6.E.I.[ [ [ [ _ _ A J D A A A A v j & & 4 4 j B ` oX*X-XtXiXiX-X;Xb.n.n.M.;XPXPXPXdX5X;XM.4.6 + + # ; ; 4 l A D p.a s f S i.i.! ! [ [ [ { E.!.!.!.!.5.) 1.8.C > m 2.7..XFXJXAXDXZXBXZXZXZXBXBXBXDX",
"hXxXjXNXNXjXjXxXqXkXwXVXFXXX5.5.I.L.L.L.I.[ [ [ _ _ p.p.a.a.a.a.[ A z j & & & . 4 X 4 yX;XKXgXgX;XPX;Xn.K K 3.n.PXgXgXgXmXtX.X3.m + - k   i v i v v Z E Q Q a f S Q Q Q Q / H.).Y.Q.W.W. X*XFXIXLXJXSXJXSXDXAXHXHXHXHXHXHXHXHXHXJXAXJX8Xb.,.:.6 6 > > > n C V 1.1.1.1.1.1.3.) V B B N B B B N N k n n n n n 5 6 6 :.#XmXGXMXdXBXfXgXlXDXDXZXZXcXSXZXZXAXNX6X6XMXc.z.) ) { { I.E.I.{ { s.s.u.i.f Q Q u.^ ^ _ ( b j H l.|.x.x.oXoX%X;XPX;XPX%Xn.;XnXnX8X;X%XoXb.x.d.s.[ { ` z z ( A Z a s g g g g /._.`.OXOXOX+X+XOXOX{.{.E.E.E.6.yXIXIXGXAXAXZXLXkXN.b.%X9XSXHXDXSXSXSXSXSXAX&Xb.,.%.6 > n m n n B B B B B B b z k c k k k k k w - - - = = > n M :.%.9.-XCXBXAXZXZXZXZXcXcXzXxXlXzXcXZXlXjXlXBXAXIXyXXX XW.].{.{.{.[.[.[.[.[.'.d.d.[ _ _ d.l.a.a.a.a.a.d.|.l._ '.f.p.p.l.x.c.oX;X;X%X;XPX;XM.b.x.x.x.x.x.@X@X|.s./././.t././././.`.`.`.OX@X@X@XOX+X+X+X+X{.{.Q.E.] ] L.U e $ - *XmX9XxXzXxXvXhXqXhXqX1X1XeXeXqXqXxXhX<XNXCXv.6 > n n n N B N k B B B c c N B N k k k k w = > > > : , , , m M *.:.=XmXHXJXAXAXZXzXZXZXZXBXBXBXCXNXNXAXBXjXMXGX*X6.{ { [ [ [ [ [ _ ! ! ! A A ( W A A z j z z B G J G ` x.oXyXtX-X;X%Xb.b.;XlXgX;X;XC.b.b.9.>.:.%.@ ; ; 4 A _ p.! S s s s f i.u.u.s.[ { I.I.] ] L.L.] 5.1.1.1.5 * V 8.4.*XIXJXNXDXZXBXDXZXZXBXBXBXBX",
"xXjXjXjXjXlXjXjX6X,XNXnXFXtX3.Y L.I.I.L.I.I.[ [ _ [ s.s.p.p.p.d.s.[ _ ( k & & & j z G x.oXbXbXmXPXPXPXM.>.K n.%X;XgXgXPX-X%Xz.;.V n % = w j l Z E f f f a g g Q Q E E ^ ^ P.P.I.Q.{.W.5.XXbXIXIXHXHXJXSXSXSXSXSXHXHXHXHXHXHXHXHXJXJXAX%X,.,.:.6 6 > > 5 C V V 1.1.5.3.3.1.) ) ) ` H B N B U B N k k n n n n n , #.%.v.%XIXAXfXAXBXgXgXgXDXZXZXZXSXZXzXBXBXkXqX5X.X3.) 6.6.6.!.W.E.6.{ { s.u.i.i.Q i.Q Q ! d.{ ( ) 6.].|.x.x.x.b.M.M.;X;XmX%X>.gXmX-X;XoXb.x.x.x.p.i.p.d._ _ J A S Z a a g g / /.`.|.OX@X+X+X+X+X+X{.+X+XE.{ ] 6.yXIXIXJXDXlXSXSXxXV.N.3XMXAXSXSXSXLXDXSXHX5XM.9.&.6 > > n n n C Y Y Y B b B B G b z b k k k k w - = = - * > m M *.:.:.M.MXAXNXAXAXZXZXzXzXzXlXxXzXlXkXlXlXBXBXAXGXaX.X7.W.{.{.[.{.[.[.{.{.[.[.{.'.E.{ ` J G K K x.x.x.|.f._ s.(.s.s.f.(.x.x.x.b.oX;X;XoXb.b.x.x.x.x.@Xx.f.|.f./.i.i.t././._.`.[.OXOX+X+X+X+XOXOX+XOXOXOXOX{.{.~.E.T {.Y $ O m =XCXlXxXxXxXxXhXhXhXqX<X<X,X,XeXhX1XkXhXNXnX9.> m n N N N N B B B B B b b B B c k k k k w = = > > > > > , m m =.%.#XnXIXHXAXAXZXzXcXzXzXBXBXBXNXjXZXBXBXkXMXGX=X7.) L.I.P.[ { { [ _ ^ ! ! _ W A A A G G G G G G z F D _ a.|.UXbXtX-Xb.M.MXfXdXgX%Xn.x.n.n.n.c.4.M 4 4 J a.! Z s f s f f i.i.u._.(.(.'.E.I.L.L.L.T ] Y 8.8.m @ m ;.2.4.yXJXJXHXBXZXBXNXBXBXDXBXBXBX",
"hXhXjXjXjXjXfXdX1X,XjX9XFXtX7.V ] L.L.L.] L.[ [ [ [ ! ! _ p.s.s.s.s.{ ` ( z &   G a.d.x.@XoX;XbXPXgXgX%Xn.>.b.;XPXPXPX;XoXoXx.3.3.) C = = k b E a g g g p s g / ! ^ [ [ P.P.I.L.L.!.5.5.XXFXIXIXHXHXJXSXSXSXSXSXHXHXHXHXHXHXLXHXJXJXnXM.,.,.:.6 6 > > m V V 1.1.5.3.3.3.3.` ` ` 3.) B B B U U B N N n n n n r 5 M #.9.M.JXAXfXSXBXlXgXlXDXDXZXZXSXZXZXZXBXzXhX6X%X3.H 1.5.5.!.!.W.W.W.'.(._.^ ^ Q i.i.^ _ s.d._ ` l.|.|.x.x.x.x.x.b.oXoXPX;Xn.gXgX*XoXoXoX@Xx.f.f.i.u.s.s.p.p.! S S E a E H.`.`.[.}.OX+X+X+X+X+X+X{.+X}.'.'.'.].FXIXiXmXSXZXcXxXxXV.V.6XBXAXSXDXDXLXAXHXAX&Xb.,.%.6 > > n n N B Y Y U B z B G G A b b z k k k k w k w = - > m M *.:.:.b.8XAXBXSXAXZXZXBXzXzXxXlXzXlXkXkXlXNXBXAXJXFX*X X].].}.{.{.{.{.}.{.{.{.{.XX].7.3.` K a.x.x.x.x.|.f.p.! p.s._._._.f.d.x.x.c.b.b.b.x.x.x.x.|.x.x.p.p._.u.i.t.t.t./._.).{.OX+X+X+X+X+X+X+XOX+XOXOXOX+X{.~.~.E.6.{.B O = *.iXMXxXxXxXvXvXhXhX1X1X1X1XqX1X1X<X<XhXlXCX-X:.> n N N B B B B B B B B b b B B B B c c k k k > > > > , , , m m *.%..XtXJXJXAXSXZXzXzXzXZXZXBXBXBXZXBXBXBXMXCXGXtXz.U ] L.L.[ [ { [ [ _ _ W A A A A G ` ` ` _ G G A Z Z Z ! d.@XUXtXtX#X&XpX-X;X%Xb.x.x.x.x.x.c.z.K K G J _ S a s f t.i.i.u./._.(.(.(.'.Q.I.I.I.I.] ' ) 8.8.m > M 2.2.4.tXIXJXJXBXZXZXBXBXBXDXBXBXBX",
"1X6XdXjXNXNXfXdX1X1XqX4XmXFXc.C R ] ] ] ] L.[ ' P.[ ! ! _ s.s.s.s.s.d.{ ` B z j d.|._.f.f.x.@XPXPXPXmX;Xn.n.C.PXgX-X%XoXoXx.x.x.z.z.1.C n B ( E a s p d p s g / [ { I.I.I.I.I.I.] ] ) 3.oXKXIXHXHXHXJXJXSXSXSXJXHXHXHXHXHXHXHXHXHXJX7Xb.9.:.%.6 6 5 m V *.1.1.1.3.3.3.3.3.3.3.l.6.` G B B U U U B B N n n n n m m 6 :.b.uXAXNXSXDXDXNXlXNXlXZXZXAXAXZXBXzXxX6X5X=Xz.H ) ) 5.!.W.W.{.{.}.|.(.(.[ ^ i.u.u.p.p.a.a.l.x.x.|.|.x.|.x.x.x.oXb.oX;XM.PX;XoXXX|.|.|.x.f._.u.i.u.u.u.i.i.Q Q Q E ^ ).OXOX}.}.+X+X+X+X+X+X+X}.+X}.|.}.|.XXbXtX%XnXLXSXcXcXjX>X>XNXAXAXAXDXAXLXSXHXjXM.9.>...6 > n C C B Y ) ( U B B G G A A A z z z k j k k k k = = > n m %.=.:.9.&XAXJXJXAXZXZXZXcXcXzXzXzXzXkXkXlXzXBXAXJXFX*X X7.].{.{.{.{.{.{.{.{.{.{.XX X Xz.3.3.x.x.x.x.x.|.x.s.D Z ^ u._._._.d.d.x.x.x.x.x.x.x.|.|.|.` D Z i.u.t.t.t.t././.).{.+X+X+X+X+X+X+X+X+X+X+XOXOXOXOX{.~.W.!.W.W.- O m 2.uXjXxXxXvXvX1X1XqX<X<X1X1XqX1X<X,X1XqXNXnXv.M n C V B B B B B B ( B B G G B B B B B B N n n n 5 > 6 6 , , m #.#.%.c.*XGXJXJXSXAXZXcXcXZXZXBXBXZXAXBXzXBXBXCXGXiXXX) ] I.I.I.I.E.{ { { [ _ ( G J K ` x.l.a._ G G A Z a h a Q s.|.oX-X=X7XuX%X.X.Xx.x.x.x.x.x.x.x.x.a.` _ D S a f i.i.u./._._._.).[.I.Y.Q.I.Y.Q.Y.I.Y 1.8.1., > *.2.2.0.tXIXJXAXBXZXAXBXBXZXBXlXlXlX",
"qXqXdXfXNXNXlXjXqXqXqX4XMXGX#XV B R ] ] ] ] L.[ I.[ [ [ [ [ d.s.s.s.d.{ ` ( ( _ f._.f.i.u._.@X@XoXPXmXPXM.b.%XPX;XoXoXXXx.l.d.|.|.|.l.` ) ) W Z a s p p g g f ^ I.I.I.Q.Q.Q.!.I.] ] ) 6.yXIXIXHXHXHXJXSXSXSXSXJXHXJXJXJXHXHXHXHXJXJX%X9.9.:.6 6 6 6 M *.1.5.5.1.3.3.3.3.3.3.l.l.l.` ) B B U U ) U B B N n n n m m 6 %.,.&XVXNXDXDXNXlXlXlXDXBXlXAXAXZXlX6X<X>X>X-Xc.;.) 3.6.W.].{.{.XX+X}.[.).(.s.^ ! s.p.p.a.a.a.a.l.x.|.|.|.|.|.x.@Xx.b.C.C.;Xb.XX|.|.x.f.|.|.s.Q i.i.i.i.t.f f Q ! [ (.OXOX+XOX+X+X+X+X+X+X+X+X}.+X}.|.|.].XXyXtX-XDXLXcXcXSXlX>X5XAXSXAXZXDXSXSXSXHX6Xb.,.&.6 6 5 n C Y ) ) ] ( U G G G G A A A A z z k k k k k k w w > n m M =.;.:.M.MXJXAXAXDXZXZXZXcXcXzXxXxXkXkXkXzXBXBXVXGXtX.X7.z.].{.{.{.{.}.}.{. XXX X X X Xz.z.x.x.x.x.x.|.|.f.F 2 Z E ^ _.`._.f.x.x.x.x.x.x.|.(.|.` z l S i./.t.t.t././._.[.OX+X+X+XOXOX+X+X+X+X+X+X+XOX}.}.{.].W.7.7.Y O O M 9.pXjXvXvXvX1X1X1X1XqX1X1X<X,X1X1X1XeX,XjX;X>.5 C V B U U U U B G G G G G G b b b B B B N n n n 5 > m m m m m #.#.%.0.*XFXJXJXSXSXZXZXZXZXZXZXBXDXDXBXzXBXNXBXJXaX.X) ] ] I.I.I.6.{ { { { ` G K K ` x.x.x.a._ J G W E a h a a E s.|.oX*X8X=Xv..XXXx.x.x.x.x.x.x.x.` J J J _ g.! i.i.u._._.`.).[.[.[.I.Q.Q.Q.Q.Q.I.I.) 5.8.M > , *.=.2.c.aXIXKXAXBXZXZXBXZXZXjX<X<XjX",
"hXqX6X6XfXfXjXxXhXqX1X,XjXGX=X*.N R ] ] ] ] L.L.I.I.I.{ [ [ [ s.f.f.d.a.` ` _ s.f._.u.i.i.u._.|.@XoXPXPX%XM.;X;X%X.Xx.x.x.f.|.@X@X|.'.l.d.d.! Z a a a f Q / ^ P.I.I.Y.I.Q.Y.Q.Q.I.] ) z.tXIXJXHXHXHXSXSXSXSXSXJXHXHXHXHXHXHXHXHXJXCXM.,.,.:.6 6 6 m V 1.2.8.8.5.3.3.3.3.3.l.l.x.l.3.` G B U U ( ( U U N N n n m m , %.:.v.VXNXfXBXlXfXfXNXDXlX5XNXZXBXdX>X>X>X>XnXv.4.3.6.].{.{.{.}.XXXX}.}.{.[.(.[ _ p.a.a.a.a.a.a.` ` a.d.'.'.|.(.|.x.x.b.b.b.z.z.|.|.|.(.f.f.A Z S i.t.t.y.p f f ^ [.}.}.}.+X@X+X+X+X+X+X+X+X}.}.@X}.}.].6.XXyXJXJXLXSXlXcXZXZX5X6XAXSXAXSXDXSXAXAXHX3Xb.,.o.6 6 m C V ) ] ] ] ( G G ( _ J A G A A A b z c k j k k w w r m m m %.:.:.b.7XJXNXAXDXZXZXZXZXcXcXzXxXxXkXkXlXBXBXAXJXmX%Xc.z.].}.}.{.}.XXXXXXXXXXXXXXXXXX X Xz.x.x.x.x.|.@Xx.A 2 i i E ~ _.(.(.x.x.x.x.x.|.(.[ ~ c j i ^ /./.t.t././._.).}.+X+X+XOXOXOXOX+X+X+X+X+X+X}.}.}.{.].W.7.1.r O > %.b.AXhXvXvX1X1X1X1X1XvXqXqX1X1X1X1X1XeX:X6X&X%.5 V V U U ) ) ( G G A G G G G A b b b B B B N n n r > m m m m m #.#.%.4..XFXJXJXHXAXZXZXcXcXZXZXAXAXBXZXzXZXBXMXGXaX*X8.6.E.E.E.E.6.6.6.6.6.3.3.;.3.x.x.x.x.x.a.` _ A W E a a a a W a.c.%X;XM.c.x.x.d.l.x.x.x.a.` a.J J J J _ p.p.p.s._._.).[.[.[.[.Q.'.[.[.Q.Q.Q.I.] 5.8.8.M : 6 =.=.2.c.FXIXVXDXlXZXBXBXAXBX>XN.V.>X",
"hX6X<X>X5XfXfXxXhXqX<X1X6XMX7X;.n R ] ] T ] L.L.L.I.I.I.I.[ [ [ p.p.p.a.` ` _ _ u././.t.t.i.u._.|.|.oX-X;X%X;X%XoXz.x.l.f._.|.@X@X|.f.f._.f.u.u.Q E E ! ^ [ P.(.I.Y.Y.I.Y.Y.Y.Y.Y.] ] XXFXJXJXHXHXSXSXSXSXSXSXJXHXHXHXSXHXHXHXHXJX0Xv.,.:.%.6 6 m M *.1.8.8.7.3.3.3.3.3.3.l.l.x.l.l.` ) G B U ( ( U U B N N n m m 6 %.>.9.nXmXfXNXlXdX5XjXBX5X%X5XNXAXjX6X6XdX9XVX#Xc.z.].].{.[.{.}.}.}.}.}.OX}.'.d._ _ a.a.a.g.a.a.J F z A [ (.`.`.|.x.x.n.n.x.x.x.'.|.|.d.! l j l Z i.t.r.r.d g / _.OX+X+XXX+X+X@X+X+X+X+X+X+X}.}.}.|. X7.2.#XmXIXJXHXLXZXZXcXSXdX5XDXSXSXSXDXSXDXDXHX&X,.,...6 m M V Y ] ] ] ] ( G ( _ J D D D D G A b b b z k k k k r n m m m #.=.:.9.%XVXnXNXBXDXZXZXcXcXcXzXxXkXxXkXlXBXBXNXAXmX*Xc.z. XXX{.{.{.}.XXXXXXXXXXXX X X XXXz.z.x.x.x.x.@Xz.K 4 j i i I W [ d.x.x.x.x.x.'.[ I i x x v /./.^.^./.i./._.}.}.+X+X+X+X@X}.}.+X+X+XXX}.}.|.|.].].E.6.6.C O O m ;.b.BXqX1X1X1X1X1X1XqX1X<XqXhXqXeX1X<X1X:X6X&X;.C Y B U U ) ) ( G G A G G G G G A A b U U B B N n n n n m m m m #.#.%.4..XtXJXJXHXAXcXZXcXcXcXZXAXAXZXZXZXZXBXNXAXmX*X7.6.6.E.6.6.6.6.7.7.7.7.3.3.z.x.x.x.x.x.x.d.G l v v v a a a E _ x.b.M.b.x.x.|._.|.l.l.a.G G J J a.a.J J J _ p.d.).[.}.OXOX[.[.Q.[.[.[.Q.E.E.I.] ) 1.*.5 : m :.=.2.v.FXJXVXAXBXZXBXBXAXlXV.n.B.&X",
"hXqX6X5X9XdXjXjXxXvX1XhX6XMXuX4.n R ] ] ] ] L.L.L.I.Q.Q.I.I.I.[ ! D J ` ` ` _ ! u.i.t.t.t.t.t./.(.l.|.oXoXM.oXb.z.x.|.|.|.`.`._.f._.f.u.u.u._.f.! _ [ [ I.I.(.).Y.Y.Y.Y.Y.Y.Y.I.I.] { oXIXJXAXHXHXSXSXSXSXSXSXJXLXHXHXSXSXSXSXHXJX&X9.9.:.%.#.m %.*.1.1.8.7.W.7.3.3.3.` 3.x.x.x.l.l.l.` ( B U U ( ( U U B N n m M m m %.:.nXVXmXlXlXdX5X6X9X&XM.&XjXSXBXfXfXjXMXCX%Xc.z.].[.}.[.}.}.}.}.}.}.OX}.|.|.d.` ` a.a.g.a.a.J A l l L ' _._.(.x.x.x.x.x.x.l.(.d.[ Z u 2 & j D i.t.r.r.r.g /.OX@X+X+X+XXX@X@X+X+X+X+X+X+X}.|.}.|. X2.2.=XGXJXmXSXLXZXZXSXSX5X;XDXSXSXSXDXSXNXDXHXV.,.,.....%.*.V ) 5.] ] ] ( G ( _ J D D D D G A A b b b c k k k k n n m m m =.:.:.M.nXNXBXBXDXZXZXcXcXcXcXzXkXxXkXzXzXBXjXAXVX;Xc.z.].}.{.].{.XXXXXXXXXXXXXXXXXXXXXXXXz.K x.z.c..Xc.3.z k e x i i v _ a.x.x.x.l.) L x 0 x I E `./.^./././._.[.}.+X@X@X@X@X@X}.+X+X+X+X+X}.|.|.|.|.].7.7.1.n O @ M :.M.jX1X1XA.1X1X1X1XqXqX<XqXqXeX1X1X1X1X,X6X#X;.V Y Y Y ) ) ) ( G G G G G G G G G A b ( U U B B C C m > m m #.m m #.%.1. XyXGXJXJXZXcXcXcXcXxXdXdXlXDXSXDXZXZXNXAXGXtX X7.6.E.E.6.6.W.W.~.7.7.7.z.n.n.b.n.x.x.l.d.G l j x v v a E ! J K n.n.n.x.x._._.d._ G A 4 F J g.a.a.a._ _ a.d.'.}.OXOXOX{.{.{.{.}.+XOX{.{.{.W.E.5.1.M > > #.:.=.4.v.FXJXVXAXBXBXBXBXBXNX>XM.V.6X",
"kXxXjXdXfXjXjXxXzXxXqXzXqXwXCXb.C Y 5.5.] ] L.L.I.I.I.Q.[.[.E.{ p.D A ` l.|.(.s.i.f p t././././._.d.x.x.c.b.c.x.l.|.|.@X@X`.s.Q Q f._.i.i./._.f.s.{ { E.E.E.[.[.Y.Y.Y.Y.Y.Y.I.L.[ ] 6.yXIXJXAXHXHXSXSXSXSXSXSXSXLXLXHXSXSXSXSXJXGXM.9.9.&.#.#.m *.1.2.2.8.7.W.7.7.3.3.3.3.x.x.a.a.x.l.6.) B U U ( U U U N N n n V m m %.%.uXJXVXfXNXjX6X<X>XV.b.V.dXJXAXjXjXdX9XMX$Xv.c.z.].}.{.{.{.}.}.}.}.OX}.}.XXz.` ` a.a.a.a.a.a._ z j x L E [ [ d.x.x.x.x.l.l.'._ i   2 u 4 l ! i.r.r.r.r.g `.@X}.].XXoXXX@X@X+X+X+X+X+X+X@X}.|.]. X;.:.iXIXJXnXHXSXdXhXSXZX;X>XNXHXHXSXDXSXNXAXHXM.&.&...#.*.*.) ) 5.{ ] ) ( G ( J D D J D D D G G A b b b c k k k n r r m 6 %.;.>.b.nXAXNXBXBXZXZXcXcXcXcXzXkXxXkXlXlXBXBXHXJX-Xv.c.c. X X XXXXXXX.X.X.XXXoXoXoXoXoX.Xz.K z.c.c.XXXXx.C w x x x i i l G l.x.x.G j 9 x x 0 P / `.`.^./././._.}.}.+XOXOX}.}.}.}.+XoXoXoXoXoXoXoXoXXXXX Xc.;.> + > %.9.2XkX<X1X1X1X1XvXvXhXxXhX1X<XrXrX1X1X1XqX3Xv.*.C Y ) ] ) ) ( G G G G _ J G G G G A b ( U U B B N C C > 5 m m m m #.%.*.c.yXGXJXJXAXZXcXcXcXvXV.V.>XjXZXcXZXZXBXAXGXiXyX*XXXXXoXoXoX*XyXyX*X*X%X%X;X;X;XoXb.x.x.d._ ( q x v v v E ! G K x.n.x.x.l.s.s.( b j j 4 F J a.g.a.a.a.d.d.|.}.OXOXOX}.}.+X+X+X+XyXyX*X+X+XXX X7.2.*.6 6 %.:.;.9.v.FXJXVXJXBXBXZXlXBXZXjX>X5XZX",
"lXlXlXlXjXjXjXjXjXxXlX6X<XlXdX%XM m 2.8.) ] ] I.Y.Y.Y.Y.Y.Y.I.I.s.[ ` { }.@X@X_./.f h i E / /.`.f.f.x.f.a.a.d.l.|.}.@X|.(.s.i a /././.u./._.`.`.|.l.{ W.{.W.E.Q.Q.Y.Y.Y.Y.I.I.L.6.) ].bXJXJXSXSXLXlXSXLXgXDXLXSXHXSXSXSXSXAXDXAXwXM.9.:.&.%.6 %.*.2.7.7.7.7.W.7.` ` l.l.a.a.a.x.x.x.l.3.` ( U U ( ( ( U U B n n m n M %.%.iXCXMXNXjXjX>XN.N.&XV.>XxXAXAXlXhXqXwXCX=Xv.0.0. X XW.]. X{.{.}.+X+XXXXX.X X3.` ` a.a.a.a.d.d.( x x b x v b ( l.|.].z.].` z 4         i E f t.r.r.r.t.u.|.+XXXXX0.0..X XoXoXXXXXXXXXoXXXXX.X.X4.;.c.iXJXHXDXfXZXSXAXZXAX>X>XZXHXSXAXAXLXSXHXAXN.&.#.&.%.*.1.1.] ] I.{ ` J G J J J J D D D D A ( ( A b b b c c k n n 5 5 6 %.%.:.b.-XHXBXBXlXzXzXzXzXzXzXxXkXzXzXxXlXAXAXJXAX8X%X%X%X=X*X*X=X=X=X=X-X-X-XiXiXuXnXnX=X.Xc.x.z.oX@Xx.x.K b e x x j l j j D ` ( c x e 0 0 x I `.`.t././././.`.OX+X+X+X+X+X+X+XXX*XtXmX-XtX-X-XtXtXiXiXiX7X=X$XM.M.M.:X6XqX<X<X1X1X1X1X1XvXhXkX1XN.B.Z.rX1X:X,XuXv.M V 1.Y ) ) ( ( ( G J A A D D D G G A b b ( ( B B B B n n 5 5 6 6 , e.#.*.4..XFXIXJXAXZXzXZXzXZ.B.n.V.xXZXcXcXzXBXBXNXMX9XuXuXiXiXiXiXiXiXiXuXuX9XfXjXmXgX-X%Xx.a.x.a.` b k x c v v F _ G l.x.z.z.` B c w w q 4 l _ p.g.p.p.a.d.d.|.OX[.OX[.OXOX[.}.yXtXtXbXmXtXtXiXtX-X=X&X#XM.M.M.v.b.v.%XuXAXAXCXCXBXZXBXBXBXBXBXZXAX",
"BXBXBXBXNXlXjXjXjXjXlXjXdXNXjX&X>.%.2.8.1.5.] E.I.Y.Y.[.[.[.'.(.{ [ { 6.}.@X@X`.i.f a i i v / ^ f.x.x.f.p.f.(.|.|.|.|.[ W v i Q /././././._._.(.d.l.3.6.].W.!.!.!.Q.!.!.L.L.] ] 5.1. XFXJXJXDXDXSXDXSXAX;X;XAXAXHXSXSXSXSXAXDXBX3XB.,.&.%.%.6 *.;.2.8.8.7.7.6.6.` ` l.x.a.a.a.a.x.x.x.` ` ( ( U ' ' ' ( U B B N C m M M %.=XCXCXNXjXBXjX>X>X>XV.qXlXAXZXzXxXhXjXCXiX$X.X.X X X X X X X X X X X X.X.X X7.3.` ` a.a.a.a.d._ c x x I b b L ) '.]. X3.B k & &     9 i g t.r.r.r.r.t._.@XyX*Xc.:.4.*X.X*XtXtXaXmXaXtXtX-XtXtX*X.X-XJXJXSXjXfXAXAX6X&XV.N.>XZXSXAXAXDXSXDXHXAXB.&.#.#.*.<.1.5.] I.E.{ ` J K J J J J J D D D A _ W W L L L b c k k n 5 5 6 %.%.;.9.=XJXBXBXlXzXzXzXzXxXZ.Z.<XxXBXzXBXAXCXGXCX9X-X=X7X7X7X7X8X9X8X8XuXuXuXuXwXjXNXNX8X;Xc.3.z.@XXX|.x.a.c q c j 2 j 2 2 v W L x e e y I x I `./.t./.^././.`.OX+X+X+X+X+X+XXXXX*XmXnX8XfX9X9XuXpXpXpXuX9XCXBXBXMXBXBXAXBX1XqX1XqX1X1XvXvXhXeX:XB.m.C.A.1X1X4X0Xc.C 1.5.) ) ) ( ( ( J D D D D D D G G A b b G U B U U B N n 5 5 6 m m #.#.*.2..XmXJXJXBXZXZXZXcXvXV.V.:XhXcXcXcXcXZXzXlXdX6X6X9X9X9XfXnXnXMXnXfXfXjXjXjXjXgXPX;Xn.x.x.a.a.B k j c b z b A G l.z.l.) B c r w w q j F p.p.g.g.p.p.p.'.}.OXOXOX[.OX{.E.XXyXbX-XgXfX9X9XfX9X8XMXNXMX6X3X3X;X&X&X3XCXAXJXAXCXCXBXBXBXDXDXZXZXAX",
"ZXZXBXBXNXjXxXjXjXdXjXNXjXNXjX&X:.#.=.2.1.1.) 6.] I.E.E.'.'.E.E.d.d.6.6.'.|.`./.f f a i 9 9 i v _ f.x.f.a.d.|.|.'.{ ' v i i i /./././././._._.d.` z.z.z.].].W.{.W.W.W.W.!.5.5.1.1.1..XKXHXSXSXZXSXSXLXNXC.C.gXSXHXSXSXSXSXAXZXBXV.9.,.&.o.#.6 *.2.8.7.7.W.W.7.6.` ` a.a.a.g.a.a.a.a.a.` ` ( ( ( ' ' ' T U U B V C n M M M $XmXGXCXNXBXCXjXjXjX>XNXZXAXBXkXxXxXjXCXCXuX-X=X%X#X#X.X.X.X.XXXXXXX.X#X#X.X Xz.3.` ` x.a.a.d.` b j x L x b b c ( '.l.z 4 &   &     9 h g g r.r.r.r.t._.@XyXtX#Xb.v.KXiXFXGXJXIXIXJXKXGXKXKXKXVXKXJXHXDXNX5X5XBXNXV.b.n.b.>XZXAXDXAXDXSXlXHXAX0.o.$.#.*.1.8.6.6.E.E.] ` ` ` J J J J J D D D W ( ( ( ( L U U c c k n 5 5 6 m %.=.9.=XVXCXlXlXzXzXzXxXxXm.m.B.:XlXzXBXBXCXCXCX9X9X9XuX9X8X9XnXMXnX9XuXpXpXpXpXjXMXNXmX-Xb.4.z.XX|.x.x.x.b q c j   j 2 j A ( W x e e y I i ~ `./././.t././.`.OX+X+X+X+X+X+X XXXyXmXnXdXfXfXnXMXCXCXMXMXMXwXBXAXAXBXBXBXkXkXxXhXvX1X1XvXhXhXhXrXN.B.Z.1X1XeX4X=X4.C 1.5.] ] ) ( G G J J D D D D A G G G G b G ( U U U B C n 5 6 m #.#.#.#.*.2..XiXJXJXBXDXZXcXcXzXxXhXqX1XhXxXcXZXZXlXjXdXdXdXfXjXMXMXMXCXMXNXMXjXjXjXjXjXNXgX;Xn.x.x.x.x.G c j c b j l b G l.x.H k k w w r w q z A J g.g.g.p.J _ |.}.OXOXOXOXOX[.{  XtXmX-XfXfXfXfXMXMXfX9XjXMXdX5X5X>X&X3XdXCXAXBXNXNXjXlXBXDXZXAXAXZXDX",
"NXBXNXNXlXjXjXhXlXhXjXBXlXlXjX3X,.#.=.2.2.1.1.5.5.6.E.W.].W.7.7.l.l.6.{ { _./.f g t.f i 9 9 9 i 4 A a.a.l.|.|.d.( b x j i i v _././././._._.d.` ].oXyX*X*X*XyXyX*X*X*XoXoXXXXXXX.X.X;XJXSXDXDXDXSXSXLXDX;X;XDXLXHXHXSXSXSXSXDXlXN.,.,.&.o.%.m ;.4.7.7.7.].].7.3.` ` a.a.g.g.g.a.a.a.a.` ` ( ( ( ( ' ( T U U U V C C M M %.M.pXCXMXMXCXCXjXNXAXNXBXAXBXlXxXlXlXjXNXCXBXCXnXuXiXtX-X-X-X-XtX-X-X=X=X=X*X*X Xl.` ` x.a.a.d.a.( x x I e b b 9 c ` ( 4           & 9 a g g d r.r.t./.`.@XtXIXGX8XgXHXJXJXVXmXJXHXHXAXJXJXJXDXAXDXDXNXNXfX>X6XAXNXV.b.b.N.6XZXBXDXAXDXSXlXHXBX,.o.&.#.=.2.8.E.E.E.E.] ` ` ` ` _ J _ _ J D D J ( ( W ( U U U B N n n n n 6 m %.%.,.#XuXMXlXlXzXcXzXxXhXn.D.B.:XxXBXBXBXCXCXMX9X9X9X9X8X9X9XfXfX9X9X9X9XuXpXpXjXMXNXnX-Xb.x.z.XXx.x.x.x.B q j j   j v L _ { ' L I x e x i /.`./././.t./._.`.@X+X+X+X+X+X+X7. XtXKXgX5XdXdXfXMXMXMXMXMXjXjXjXlXjXNXBXBXBXlXlXxXxXhXvXvXvXqXhXqX<XrX1X1X1XeX4X%X:.C 1.5.] { ) ( G G J _ _ D D D D G G G ( G G ( ( ( U B N n 5 6 m #.#.#.#.*.;.v.tXJXJXBXDXZXzXcXcXZXzXhX1X<XvXxXzXzXlXjXjXjXjXjXMXMXMXCXCXCXNXNXjXjXxXxXjXlXgX-Xb.x.x.x.x.) N j x b x j l A ` ` k & & q w w q j A _ D g.p.D p.A G }.@X{.+XOXOXOXE.)  XbXFXnXnXnXdXdXMXfX9XdXNXNXjX6X6X6X5X5X6XdXjXNXNXNXlXlXBXDXZXAXAXAXAX",
"jXjXkXlXkXjXjXhXkX6XjXkXjXjXjX4XB.:.9.v.v. X0. X X X XXXXX.X.X Xc.z.z.6.[ H./.t.g ^.g h 9 9 q   . 4 G _ l.}.'.( c q   j i i ~ `./.^././._._.d.6.yXFXIXFXFXFXIXIXIXKXIXKXFXFXFXFXKXKXJXLXDXcXcXcXSXSXSXSXNXDXSXLXHXHXSXAXSXSXDXjXB.,.,.&.o.%.%.2.4.7.7.7.z.].6.) ` ` ` a.g.g.a.a.a.a.a.` ` _ ( ( ( ' ' ( T U U Y V C M M ;.v.uXuX5X9XCXCX9XMXAXBXBXDXNXfXdXlXNXlXzXlXBXBXBXBXCXnXnXnXnXnXnXfXfX9X7X7XtX=X.Xz.3.K x.a.a.x.d._ b j x e I I 9 v ( A j 2         q i g F.g d r.t.t./.@X@XtXIXLXDXgXcXDXmX5X;XdXDXSXSXSXHXSXDXDXDXcXlXDXBXfXlXSXZX<X&X>X:X6XlXBXAXSXAXSXlXAX4X,.o.=.%.=.2.7.E.E.E.6.] ` ` ` ` _ p._ _ _ _ _ _ _ _ A A U U U B B N n n C m m %.*.:.v.7XjXjXlXBXcXzXzXxXC.C.V.qXzXBXZXAXMXMXfX6X9X9X9X3X9X9XMXjX9X6X9X9X9XpXMXMXCXNXnXPX.Xz.z.XXc.x.x.x.H j j j q c W { ( I.K.' L I e x i _.`./././.i./._.|.@X+X+X+X+X+XXX4.c.tXKXgXdXdX6XdXMXMXMXMXjXdXxXjXdXhXBXSXSXZXlXlXkXkXxXhXdX<X,XqXqXeX1X1X1XrXeX4X#X:.V 8.1.] { ) ( G G _ _ _ D D D D D J _ ( ( ( ( ( ( U B N n 5 5 m m m #.#.*.;.c.=XGXJXAXAXZXcXcXcXcXzXxXhX<XhXlXzXlXlXlXlXNXlXNXNXMXMXMXMXMXjXjXjXxXxXxXhXgXgX;Xn.x.x.x.x.{ B k c c j j j z G G 4 & & w w w q j A _ D D p.D J A G }.+X{.OXOXOX{.] V  XbXmXnXnXjXdXdXjXjX9XNXBXBXjXdXjXjXjX6X6XdXjXNXZXAXZXBXBXDXDXDXAXAXAX",
"jXxXkXlXkXxXjXhXjX6X6X6X,XqXkX4X:XM.sX2X7XtX*X*X*XyXyXyXyX=X=X=X*X*XXX].I.H./.F.^.^.F.h 0 9 q $ .   4 z ` l.( j j   . 9 9 i H.`./.^././._._.l.z.tXIXIXJXJXIXIXIXJXHXHXJXJXJXJXJXLXHXLXSXcXcXZXcXSXSXSXSXLXLXSXSXSXHXSXAXAXSXDX6XB.,.,.&.o.#.%.4.0.7.7.z.].z.6.) ` ` ` J g.g.a.a.a.a.a.` ` _ ( ( ' ' ' ' ' ( Y Y V C C *.:.0.iX2X&X3XCXAXnXjXCXjXNXCXNXfXdXlXBXlXcXzXhXlXBXBXNXdXjXjXjXjXjXdXdX6X9XpXiX=X.Xz.3.K x.a.a.a.a.` A j x e x I x W { [ A v j     & q x g F.g d g g i._.}.oXFXIXAXlXcXZXlXgX5X5XdXZXSXDXZXSXSXDXcXcXcXcXZXAXBXDXSXBX6X6XlX<X<XjXNXAXLXSXZXlX6XB.&.o.#.%.*.2.6.E.E.E.6.] ` ` ` ` _ _ _ p._ _ _ _ _ _ G G U U U B B N n n C m m %.*.:.v.=XMXlXNXBXZXzXxXxX<X<X,XxXBXlXBXAX9XdXfX6X9XjXfX6X9X9XfXdX9X6X5X5X0X9XfXjXjXNXgX-X.Xz.x.XXx.x.b.x.` k j q j b ( I.] Y.I.' T x q i i `./././.i././.`.}.+X+X+X}.}.}.].3. XFXVXgXlXdXdXdXjXMXMXMXjXjXdX5X<XdXBXAXzXdXhXhXjXlXNXlXdX6XhXqXqX1X1X1X1X1XeX0X%X:.;.6.1.] ) ) ( G _ _ _ ! D D D D J _ _ _ ( ( ( ( ( U B N C n 5 6 m m t #.*.*.0.=XGXJXAXAXZXZXZXcXzXzXzXzXzXzXzXzXlXlXlXlXNXNXNXNXMXMXMXMXjXjXjXxXxXxXhXhXdXPX;Xb.x.x.x.x.6.U k k x j x c B H B 4 k k q q q q l _ _ D D p.J J A ) }.}.{.{.OXQ.!.) V  XmXmX8XfXfX6X6XjXjXjXjXjXdX6X5X6XdXdXjXjXjXjXjXNXBXDXDXDXDXDXZXZXAXAX",
"wXjXkXkXkXjXqX6X,X,X>X&XV.6XBXqXMX2XwXwXuXGXuXiXiXiXiXuXuXuXMXMXVXFXyXXX(.H.F.F.^.F.F.g i 9 $ $ ; .   j G ( b q j q   9 9 i _././.^././._.[ 6. XFXJXJXBXJXJXJXJXDXDXDXDXDXAXJXJXHXDXSXSXcXSXSXDXDXSXSXSXLXLXSXSXSXHXSXDXAXSXBX<XB.,.,.&...%.%.4.7.z.z.z.z.z.6.` ` ` g.g.g.g.a.a.a.a.a.` ` _ _ ( ' ' ' ' ' ' T U B N V V ;.:.iX-X&X-XMXBXMXMXCX9XMXNXNXjXdXjXNXlXcXlXlXhXzXlXlXhXhXhXhXhXhXvXvXqXqXMXuX%X.Xc.x.K a.a.a.a.a.a.G l x y x I P [ (.I.{ ( x 9   & w x / t.g g g f u.`.|.oXGXIXBXcXSXSXlXcXZXzXzXcXcXcXZXZXZXZXZXcXcXSXZXAXZXDXAXlXhXkXBX>X>XlXZXAXSXSXcXZX&X,.&.#.#.%.*.1.5.6.6.6.6.) ` ` ` ` _ J J J J J _ _ _ _ ( ( ( U U U B N n n C 5 m %.%.:.b.&XBXBXBXBXBXzXxXhX1X:X<XhXBXlXjXjX6XdXjXdXdXjXjXdX5X6X9X6X6X5X5X5X0X9X9X6XdXfXdX-X%Xz.x.XXx.x.x.x.3.k j j j c L ' I.Y.L.T L x 9 i h `././.i.i./._.`.}.+X+X}.{.|.'.7.1..XmXmXgXlXdXdXjXjXNXNXMXjXjXlXhXdXlXZXZXBXdXdXdXdXfXlXNXjXdXjXjXqXqX1X1X1XvXqX9X#X;.H 8.) ] ) ) ( G _ _ ! D D D D D J _ _ ( ( G B ( ) ( U B C n 5 6 m t #.#.*.*.9.*XGXJXAXDXZXZXcXcXZXcXBXBXzXzXlXlXBXBXNXlXNXNXNXNXjXjXMXMXlXlXjXxXxXhXqXqX5X-X-Xb.x.x.x.x.6.U k k c j c b ( ) G B B k q q & j b _ p.p.D p._ J G 6.{.XX{.{.{.!.] Y H .XmXmXnXjXjXqXqXxXjXjXxXjXjXdXdXjXjXdXdXdXdXdX6XdXjXlXDXDXZXAXAXAXZXDX",
"qXqXwXwXqX6X,X>X:X:X:XN.N.4XBXwXkX4XjX4X3XCXuX7XuXuXuX9X9XMXMXMXCXmXyXXX(./.J.F.F.F.F.g i 9 q w &     z ( ( b j q j 9 i 9 i _././.^././.H.[ 6.XXGXJXAXZXHXHXAXHXSXSXSXSXSXHXLXLXLXHXLXLXSXLXSXDXDXSXHXSXHXSXSXLXSXHXSXDXZXSXBX>Xn.,.&.o...M %.7.7.7.z.z.z.6.3.) a.a.g.g.g.g.a.a.a.a.a._ _ _ _ ( ' ' ' ' ' T U U B N V V *.;.-X-X7X7XfXMXfXCXNXfXfXNXBXNXfXjXlXlXzXcXzXzXlXlXlXkXxXxXxXxXxXxXvXvX1XMX9X#Xv..Xz.a.a.a.a.a.a.a.G z e x x I ] I.I.{ [.[ c q & & w c / t.f f f Q s.|.XX*XGXIXAXSXSXdXlXZXSXZXcXZXSXSXSXZXZXSXSXZXZXSXSXSXZXSXHXZXlXZXBX>X>XZXSXZXZXZXZXZXM.&.&.%.m *.*.1.5.6.6.6.5.) ) ` ` ` _ J J J D D D J _ _ _ ( ( ( ( U B B n n n > 5 M %.>.b.&XAXZXBXBXBXzXxXhX1XZ.:XhXAXDXjXdX6XjXjXjXdXdXdX6X6XdXdXdXdX6X6X6X9XMXjX6XdXjXmXmX*Xc.x.c.x.x.x.x.l.z 4 4 q x x I ' ' L x x 9 9 v h /././.i.i.`._.|.}.+X}.].].'.6.5.;.v.mXfXgXlX5XdXdXjXjXjXjXjXdXlXhXdXdXdXlXlXlX6X5X5XfXjXCXNXMXjXhXqXhXqX1X1X1X6X0X#X%.V 1.) ] ) ( ( ( _ _ ! D D D D D D _ J G G b b ( ' ( U Y C C 5 m m t #.#.*.*.4.%XmXGXAXBXzXzXzXZXZXZXBXzXhXdXdXlXBXZXBXlXlXjXNXNXNXNXCXNXNXNXlXkXxXhXqX<X>X-XPXb.x.x.x.x.l.) k k c k c U ) ) ) G B k & q   j A _ p.p.p.p.a.G ` l.{.}.{.W.W.) Y Y 1..XFXVXMXNXkXjXqXhXjXdXdXhXdXdXjXlXdX<XdXdXdXdX6XdXjXlXBXDXAXSXSXAXDXBX",
"wXqXqXwXjXwX,X&X&X:X4XwXjXjXjXjXjXdX6XdXfXfXdX5XfXfXjXjXjXjXjXjXCXCX*Xz.I._.J.F.F.^.F.g i 9 $ w & & j ( { '.( x j . i i . a `./././.`./.^ ' 3.*XJXJXAXZXAXSXSXSXSXSXSXSXSXSXSXSXHXHXHXHXHXSXSXSXSXSXSXSXSXHXHXHXHXLXAXAXZXZXAX&Xn.,.&.&.#.m *.1.1.3.6.6.6.6.3.` ` a.a.a.g.a.a.a.a.a.a.` _ _ ( ( ' ' ' ' ' T U U U B C C m :.$XGXnXfXfXfXMXNXCXVXCXNXBXBXlXlXBXBXcXcXlXlXzXBXlXxXBXzXxXhXvXvXvXvXxXkX9X-Xv..XXX` G a.x.a.a.a.K z q x x I U P.(.(.[ b j j & & k b i.i.t.f f ! (.|.XX*XIXGXMXSXSXDXcXcXZXZXZXZXZXZXZXZXZXAXSXSXSXSXLXSXSXSXAXlXxXxXAXhX<XlXSXSXSXSXZXdXN.&...#.M 2.1.1.) ] 3.3.) ) ` J _ ` _ J g.p.J p.p._ _ _ _ G ( ( U B b N N C C n n 6 %.:.9.=XJXZXBXBXBXlXqX<X1XqXxXkXjXjXdXdXjXjXjXjXjXjXjXjX6X6XdXdXdX6X6X6X9XjXNXjXfXdXfXmX;Xz.3.x.x.x.x.x.z.H 4 & & j x b x T x 9 j 9   l / /./.u.i.u._.(.|.}.}.{.}.].6.3.) ;.c.tXNXgXdXdXdXdXdXdXdXdXfXdXhXzXhXdXdXZXZXfXdXdXfXfXMXNXMXMXdXjXjXhXhXqX1XqX6X9Xv.;.V ) ] ] ) ( G G _ ! D D D S S D _ _ _ _ ( b b L U U U B n n n 5 6 m #.m V *.2.#XGXGXCXBXBXZXZXZXZXZXBXlXlXlXlXlXjXjXjXjXNXlXlXjXjXjXNXNXBXNXlXxXhXhXhXhX<X>XgXM.x.x.x.l.6.) b q q j c U ) ` ` ) B j & . . j W [ p.p.p._ _ G ) ].XXXX{.].5.Y Y V ;. XiXGXCXCXMXjXhX6XdXhXlXlXlXlXjXjXhXdX6XdXdXdXdXjXlXlXNXBXZXAXAXAXAXDX",
"MXjXwXwXwX6X:X&X:X>X6XwXjXjXwXjXdXdXdXdXdXdXdXdXfXfXlXjXjXjXhXjXMXMX%Xz.6.(.H.F.F.F.F.g h 9 $ w . j ( d.'.'.{ ( x 9 i i i a /./././.`./.P.] 3.*XJXHXAXZXSXSXSXSXSXSXSXSXSXSXSXSXHXHXHXJXJXJXJXSXSXSXSXSXSXSXSXSXSXHXDXAXDXAXAX&X,.,.&.&.%.%.1.7.7.7.].].].z.6.` ` a.a.a.a.a.a.a.a.a.a.` _ _ _ ( ' ' ' ' ' ' T T R U V C m ;.#XuXnXfXfXfXjXjXNXNXNXBXDXBXBXlXBXZXcXcXlXlXlXNXlXjXkXkXkXxXxXxXxXxXxXzXdX%Xc. XXXl.` a.x.a.a.a.K G k x e e x ( ' [ b j       j b ( ! i.i.Q Q s.(.|. X.XIXiX8XNXNXDXZXZXZXZXZXZXZXZXAXAXAXSXSXSXSXSXSXSXSXSXAXBXlXlXZXhXdXBXSXAXDXSXzXlX&X,...#.%.2.6.5.6.6.6.7.6.3.` _ _ _ _ J J p.J p.p.J _ _ _ G ( ) ) ) U B B B V n m m %.:.9.&XAXBXBXBXBXzXhXqXhXhXxXxXjXdXdXdXjXjXjXjXjXjXjXjXjXjXjXjXjXdXdXdXjXjXfX6XdXdXgXnX*Xz.4.x.l.x.x.x.l.H z k 4 & & q c L x   j i i W /././././._.(.[.}.}.{.{.].5.B B H ;.c.iXNXgXdXdXlXlXlXjXdXfXgXfXzXzXhXlXdXdXdXdXjXfXfXfXMXMXnX9XfXjXjXxXhXqXqXqXqX9X.X;.V ) ] ] { ( ( _ _ ! D D D D D D _ _ _ _ ( A b L ( T U B B C C n m m m m *.*.2.#XFXGXCXBXBXZXZXZXZXZXBXlXlXlXlXlXlXlXlXlXNXNXNXlXjXlXlXNXNXlXxXxXhXhXhXhXhXdXgXM.z.z.x.l.l.` B k q q c N B B B z k &     4 b _ _ p.! ! A A b ) 6.1.Y Y 5.Y Y Y V *. XiXGXCXCXNXjXjXhXhXjXzXlXlXlXjXjXjXdXdXdXdXdXjXjXjXlXlXBXDXAXAXAXZXDX",
"BXMXwXwXwX6X3X&X>X3X4X6XwXjXjXjXdXdXdXdXdXdXgXgXlXlXNXlXlXjXlXlXBXpX#X4.6.I.U.J.F.F.F.F.g i q % & j b ( (.'.[ L j 9 9 i a / /././.`.`./.P.{ 6.yXJXHXSXZXSXSXSXSXSXSXSXHXHXHXHXHXHXHXHXJXJXJXJXSXSXSXSXSXSXSXSXSXAXAXlXDXZXAXZXV.,.-.&.%.%.*.8. X].].].].XX Xz.` a.a.a.a.a.a.a.a.a.a.a.a.` _ ( ' ' ' ' ' K.K.' ' T Y Y V M *.v.iXMXjXfXfXjXjXjXlXBXBXBXBXBXzXZXZXlXcXBXBXjXjXxXjXkXkXkXkXzXzXxXxXxXzXjX#Xc. XXX].d.l.l.a.a.x.x.` B c j & q j c b &   . .   j G _ D g.i.p.s.d.'.]. X XIXuXnXCXNXSXZXZXZXZXZXZXZXZXAXAXAXSXJXHXHXSXSXZXSXSXAXZXlXlXzXxXhXzXZXZXcXZXlXBXwX9...%.*.8.7.7.W.].].].7.6.` _ J _ _ J J g.g.p.p._ _ _ _ _ ` { 6.6.] ) Y U V C C n M ;.9.&XBXCXNXBXBXZXzXkXkXkXjXhX6X6XdXjXdXdXjXjXdXdXjXjXNXjXjXjXjXdXdXdXMXjXdX6X5X5XfXmX=Xc.z.z.7.z.l.x.XX Xz.6.H k & k q c q   x b W (._./.u._._.[.}.}.}.}.{.XX].V = n ;.;.c.mXVXgXhXhXlXBXBXNXjXfXgXlXzXlXlXDXgX;X>XfXfXdXfXfXnXnX9X9XMXjXjXxXhXhXqXqXjXfX#X2.) 5.6.{ { _ _ _ _ ! D D D D D _ p.p._ _ G A b ( ( ( U U B C C m m m m m *.*.2..XaXGXMXBXZXZXZXZXZXBXBXzXlXlXlXlXlXlXlXlXNXNXlXlXlXlXlXlXNXlXxXxXhXhXhXhXlXfXnXv.4.z.z.z.l.3.) N w q w w k k 4 & . .   q A G _ _ ! ! D A l.l.}.].N O $ w V V V *.*.v.iXGXCXCXCXNXjXjXlXlXBXBXNXjXjXjXjXjXjXjXjXjXjXjXlXlXjXlXBXDXZXZXDXDX",
"jXwXwXwXwXwX9X6X&X&X&X>X6XjXMXjXdXdXdXdX5XdXdXlXjXlXlXNXlXlXlXNXBXpX#X4.6.E.Y.H.F.F.d ^.g i q $ q &   j W ( b i 9 9   i ^ /./././.`.`.P.I.{ 6.yXJXHXSXSXSXSXSXSXSXSXHXHXHXHXHXHXHXHXHXHXHXHXHXHXSXSXSXSXSXSXAXAXAXAXlXDXAXAXBXN.,.&.&.%.*.;.7.XXXXXX}.}.XXXXz.` a.a.a.a.a.a.a.a.a.a.a.a.` _ ( ' ' K.K.K.K.K.K.' T R Y V M *.v.iXMXfXjXfXjXlXjXlXlXlXlXlXzXcXZXcXzXzXBXBXjXjXjXjXjXkXkXzXzXzXzXxXxXxXNXv.7.7.}.}.l.l.l.a.x.x.x.l.) U z w & & q j . &     j A ( _ p.p._ _ d.(.|.]. X XIXIXJXAXlXSXZXZXBXlXlXlXlXlXAXSXSXSXJXHXHXSXSXSXSXSXZXZXlXlXxXhXhXzXZXzXlXzXhXZXAXb...%.2.8.7.W.].].].].z.z.` ` _ _ _ J g.p.p.p.p.p._ _ _ _ { 6.6.6.6.] ) Y Y C C 5 m *.9.=XBXCXNXBXBXBXBXzXhXhXhX6X6X6XdXjXdXdXdXdXdXdXdXdXjXjXdXdX6X6X6XdXjXjXdX6X6XdXnXmXtX X X].z.l.3.l.@XXXoXXXz.H C C 4 z b b _ [ { (._._.s._.[.[.}.}.+X{.]. X7.C * m *.1..XnXDXlXlXzXjXlXNXNXgXgXNXNXdXfXlXDXlX5X5XfX6X6X9XfXnXnXnXnXNXNXjXxXhXhXhXhXjXnX#X3.1.5.6.E.{ _ _ _ _ D D D D D g.p.p.p._ J G A A ( ' ' U U B B C C m m m m *.*.:.v.iXCXMXBXAXZXZXZXBXlXlXlXNXNXNXNXNXNXNXNXNXNXNXlXjXjXjXlXlXjXxXhXhXhXqXjXjX5X-Xv.3.x.z.z.3.3.) B k w q & - & ; . .   j c G _ _ ! ! ! _ _ l.].+X XN O ; n n N V *.*.0.tXGXCXCXCXCXlXlXNXBXZXBXNXjXjXjXjXjXNXjXjXjXlXlXlXlXfXjXlXBXZXZXZXDX",
"wX9X9X9XjXjXNXjX3X&X&X>X6XjXjXjXdXdXdXdX5X6XdXxXdXjXjXlXjXjXNXCXCXpXv.2.1.6.E.U.J.g d ^.^.g 9 q $ $ q q j 9 9 9 9 i   i _._./././._.).P.I.{ 6.tXLXHXLXSXSXSXSXHXHXHXHXHXHXHXHXHXHXHXHXHXHXHXHXHXSXSXSXSXSXSXSXAXSXSXBXZXAXAXlXM.,.&.&.%.*.1.7.XXXX+X}.}.@XXX].3.a.a.a.a.a.a.x.x.a.a.a.a.` _ ( ' ' K.K.K.K.K.K.K.' R Y Y C *.v.iXfXdXjXjXlXlXlXzXlXlXxXlXzXzXzXcXlXzXcXzXxXjXjXjXjXjXNXzXzXkXxXxXvXxXBXc.;.H 6.].l.d.d.a.a.x.x.l.3.) V N k k = - . & j j b _ ` _ _ _ _ d.'.|.}.{.W. XIXIXHXZXlXcXcXDXcXlXzXlXlXgXAXAXSXSXHXHXHXSXSXSXSXSXZXcXzXxXxXxXlXcXcXzXlXzXhXBXAXB...*.2.7.7.].'.'.].].z.z.l.` ` ` p.p.p.p.p.p.p.p.p._ _ ` { 6.6.6.6.] ) Y Y C C n m %.9.=XBXBXCXBXBXBXzXkX1X1XqX6X6X9X9XdXdXdXdXdXdXjXjXjXjXjXdX9X6X9X9XdXjXjXjXjXdXfXnXmXtX X X].].].6.` x.z.XXXXXX Xz.z.H 3.3.{ '.(.(.(._._.(.[.}.[.{.}.+X].].].8.n @ m *.1..XiXVXlXlXlXdXfXnXfXgXgXgXgXdXlXBXNXjXNXNX9X6X6X9XfXfXfXjXjXNXNXjXxXhXhXhXhXdXnX%X3.1.6.E.E.{ ` _ _ ! D D S D D p.p.p._ _ A G A W ' ' ' T U B C C m m m m m *.*.:..XiXVXMXBXAXZXZXlXlXlXBXBXNXNXNXNXNXNXNXNXBXNXlXjXjXjXjXjXjXjXjXjXqXqXqXwX9X-X-X.X4.3.3.6.3.` ` ) B k w - - & ; ; & 4 b ( G _ _ W D ! _ d.'.]. XW.n O ; w n N V *.*.0.tXGXVXCXCXCXNXNXNXBXBXNXNXjXjXNXNXCXNXNXNXNXNXNXNXlXjXlXlXBXDXZXZXZX",
"jXjXjXjXjXjXjXjXjX6X>X3X9XjX9X6XdXdXdXdXdXdXhXjXhXjXjXjXjXMXMXCXCXuXv.;.;.5.E.I.H.F.r.^.^.g I e $ $ $ q j q       j i v _._././.P.P.Y.I.{ { 6.bXLXLXSXSXSXLXHXLXHXHXHXHXHXHXHXSXSXSXSXSXHXHXHXHXSXSXSXSXSXSXSXSXSXSXDXAXAXDXfXB.,.-.&.=.*.2.W.{.}.}.}.}.@X@X].l.a.a.a.a.a.a.x.x.x.a.a.a.` _ ( ( ' K.K.K.K.K.K.K.L.] Y Y C M 0.7XjXjXxXlXzXzXBXzXkXxXxXxXkXzXzXxXxXlXzXzXlXlXjXlXlXlXkXlXxXxXhXhXxXxXAX>.n k c { { { ` a.l.x.x.3.3.3.H H V C n n = k B B G _ _ _ _ _ { '.}.}.}.{.].XXIXGXDXcXcXcXcXZXcXcXcXcXlXlXZXAXSXSXSXSXSXSXSXSXSXSXZXcXzXxXxXlXzXcXZXZXcXcXxXxXBXB.#.*.4.7.W.].].].].].].].l.a.` a.a.p.p.p.p.p.p.p.p.J _ _ 6.6.6.{ { ] ) Y Y C C n m %.,.&XCXCXCXBXNXkXkXhX<X<XqXhXjXdX9XfX9X9XdXdXdXfXjXjXjXjXjXdXdXdXdXjX6XjXlXlXlXjXNXmXtX XW.].].{.6.6.l.l.z. XXXoX.Xb.3.3.3.l.d.d.(.(.(.(.|.}.}.{.{.}.}.].7.7.1.> @ m *.1..XiXnXfXjXjXfXfXfXfX8X5XgXdXjXBXCXjXlXAXNX5XdXdXjXjXfX9X9XfXMXjXjXjXhXhXhXhXfXnX%X4.1.6.E.E.{ ` _ _ W D D D D i.p.p.p._ W A G A ( ] ] ' T U U B C C M M m m *.*.2..XiXGXCXBXDXBXBXlXlXlXBXBXNXNXNXNXNXNXNXNXNXlXlXjXjXjXjXjXjXjXjXwXwXwXwXwXwX-XiX.X4.3.1.3.K K ` ) ) V N n = = - 4 k z ( ` G _ _ ! ! _ s.'.}.}. X7.n O O & n N V V V 0.tXGXmXCXCXCXNXmXlXNXNXNXMXjXMXNXCXNXNXNXNXNXNXNXNXjXjXlXlXBXBXDXDXDX",
"MXMXNXMXMXMXjXfXCXdX3X5X9XfX9X>XhXdX6XhXhXjXjXjXkXkXMXNXMXnXMXMXMXuXv.;.M 1.5.E.H.J.^.^.^./.~ L w $ O & k k q . q x b [ `._./._.[ L.Y.I.{ ` l.bXIXLXLXLXLXLXLXLXHXHXHXLXLXHXHXSXSXSXSXSXSXSXSXSXSXSXSXSXSXSXSXSXDXSXAXSXAXBXdXB.,.-.&.=.<.8.W.].{.}.}.}.}.@XXX|.a.a.a.a.a.a.x.x.x.a.a.a.` _ ( ' ' K.K.K.K.K.K.K.L.] ) Y C M 0.7XjXxXkXlXzXzXzXzXzXkXxXxXxXzXzXxXxXxXxXxXzXzXlXlXlXlXjXxXxXhXxXhXxXzXJXM - . q ] E.{ ` ` l.3.3.3.3.3.;.3.1.;.*.V V V ) ( _ _ _ _ { I.'.{.OXOX{.].7..XIXVXcXcXcXcXcXcXDXDXcXcXcXcXDXSXSXSXSXSXSXSXZXSXSXZXZXZXcXxXxXxXlXzXZXSXSXZXzXqXkXM.%.=.8.7.W.'.].].].].].].l.a.` a.a.p.p.p.p.p.g.p._ J J _ l.6.6.6.6.] ) U Y V C m m %.:.$XMXNXCXNXNXxXqXqX,X6XqXjXjXdXfXfX9X9X9X9XfXfXjXMXfXjXjXMXMXMXMXjX6XhXlXlXlXjXMXGXyX XW.W.W.].].].l.3.3.3.x.x.x.3.;.K ` ` { (.).).(.[.}.}.{.}.}.{.{.].7.8.*.@ + #.*.1..XiXnXfXjXdXfXfXnXfX8X5XgXdXjXjXjXjXNXMXjX6XjXjXNXjXjX9XjXfXfXfXfXdXhXxXxXxXjXnX%X4.1.6.E.E.'.` _ _ ! D D D D g.p.p.p.! ! A D A ( [ ] ' ' T Y B C C M M m m #.*.2.#XaXGXCXCXBXBXlXlXBXBXBXBXNXNXNXNXNXNXNXNXlXlXjXjXhXdXhXjXjXjXjXqXqXqXwXwXpX7XiX#X7.4.3.3.K K ` 3.5.5.Y V C C N B G H _ _ G _ _ _ _ d.(.'.'.].].7.N $ - n n N V V V 0.=XFXmXVXCXNXnXfXgXgXMXNXNXMXMXMXMXMXMXMXMXNXMXMXMXMXjXlXlXlXBXBXBXBX",
"fXjXNXNXNXNXjXjXNX6X>X>X9XfX6X>X6X6X6X6XkXkXkXjXBXBXCXMXMX9XuXnXMX9Xv.;.M V 5.E.[ /.^.t.t./.H.W k - - & & & q k b U [ ).)._.u.^ K.I.Q.I.{ ) l.FXIXLXLXLXLXLXLXLXHXLXLXLXLXHXHXSXSXSXSXSXSXSXSXSXDXSXSXSXSXSXAXSXDXSXAXSXDXlXdXB.-.&.#.%.<.7.W.].{.}.+X+X+X@X}.|.d.a.a.a.a.a.x.x.a.a.a.` _ _ ' [ L.T.K.K.K.K.K.K.K.' Y Y C M 0.uXMXlXBXzXBXzXzXzXzXkXxXxXzXzXzXxXzXxXxXxXzXcXzXkXlXlXxXxXxXxXlXlXzXBXJX6 ; X q E.E.I.{ { 3.3.3.3.3.3.3.4.4.2.2.2.;.H ) ` ` ` s.(.[.{.}.OX{.{.{.W.1. XIXJXDXSXcXcXcXSXZXDXDXcXZXZXZXSXSXSXSXSXSXSXZXSXSXZXZXZXZXlXdXdXdXhXzXZXZXcXzX<XwXM.%.;.7.7.6.].'.'.].].].].l.a.` ` a.p.p.p.a.g.J _ J J J _ l.6.6.E.E.{ ) U ) B V n m #.:.$XMXjXNXNXkXjXqX6XqXhXjXjXjXjXfXMX9X9X9X9XfXfXjXjX9XdXjXMXMXMXMXfXdXdXxXjXjXjXnXmXtX X].7.E.].].}.].'.6.3.3.z.z.3.3.3.3.l.d.'.|.).[.}.{.[.{.}.}.{.W.].7.8.*.: < #.*.2..XiXVXNXNXjXdXdXfXfXfXdXgXfXjX5X5XjXNX9X6XjX6X9XMXNXjXMXMXMXnXfXfXdXhXxXxXjXNXVX*X4.3.6.E.E.'.{ _ _ _ ! D S p.p.p.p.u.! ! D D G ( [ { ] ' ' ) V C C C M m m m *.2.#XGXJXCXCXlXlXBXBXBXNXBXBXNXNXNXNXNXNXlXlXlXjXxXjXhXdXdXdXjXjXjXqXqXqXwXwXMX7XiX*Xc.7.3.6.3.` ` 3.7.7.5.1.3.1.H H ` ` ( G G ( _ _ s.(.}.}.{.].].6.w X O - r N V V *.0.*XaXmXMXNXNXfXgXgXgXMXMXNXNXMXNXjXjXwXjXMXNXMXMXMXMXfXfXjXNXNXNXNXNX",
"jXjXjXjXhXhXqXhXqXhXkXlXjXjXjXNXlXdX6X6XdXdXdX9XNXjXjXMXNXNX9X6XNX9Xv.;.C C Y I.)._././ / / ^ ! _ G z j k N U ( { { (.[.).(.[ [ U.).I.L.{ ) 7.bXIXHXHXSXSXHXLXLXLXLXLXLXLXLXLXSXSXDXlXlXSXSXSXcXDXSXSXSXSXSXSXSXZXZXAXSXAXZX6XB.&.&.%.%.;.6.].'.{.{.}.+X+X+X+X}.l.d.a.x.x.x.x.x.a.x.a._ _ [ [ I.K.K.K.K.K.K.K.K.K.' T U C m 9.0XCXBXBXlXzXzXBXZXZXkXxXxXzXlXkXxXkXzXzXzXBXZXBXxXkXjX6XqXhXxXxXjXwXJXJX%.% X N ] Q.I.I.{ { { ` 3.3.` 3.3.3.3.;.2.3.3.3.6.l.'.|.}.OXOXOXOX{.{.[.W.) oXIXJXHXlXSXSXSXSXSXSXZXZXcXcXcXZXSXSXSXSXSXAXcXSXZXZXSXAXDXlX6X>X>XlXZXZXzXzXeXeXN.9.>.;.7.].].'.].'.].].].].].d.` ` a.` J g.a.p._ a._ _ ` { '.l.6.6.{ { ] ) U ) C M M 6 :.$XCXBXNXjX6X6X6X6X6XqXjXxXxXjXjXfXnXCXuXGXCX9XAX6XjXjXjXjXMXmXNXCXNXjXjXjXjXjXMXmX-Xc.c.7.6.].{.{.{.[.Q.E.W.W.W.W.6.6.].].'.[.OX[.{.[.[.[.[.{.{.{.{.W.W.8.V @ : #.%.2.#XuXGXNXfXfXlXgXlXlXdXfXBXlXfXMXfX9XfXNXdX>X5XCXfX9XMXuXMXMXuXnXNXMXfXdXjXCX9XKX*X4.3.3.{ 6.{ { { _ _ ! ! ! ! g.g.p.p._ ! _ A ( [ { I.{ [ ' T U B C C 5 6 6 #.m 2.$XFXGXmXMXBXNXNXNXNXNXmXmXAXnXCXAXBXBXBXjXBXkXqX<X<X6X6X6XjXjXhXqXhXqXqX6X6XMXiX#Xc.7.7.5.3.3.3.6.6.3.3.1.1.1.H H G G G ) ` { d.'.[.[.[.[.Q.Q.!.] n O + > r C <.<.*.:.#XCXCXjXfXfXlXlXjXdXCXCXjXjXjXhXqXwXBX6XqXCXpXpXCXCXMXnXMXVXVXVXVXVX",
"6XdXjXhXkXkXkXzXkXzXkXzXxXjXdXdXNXjXjXfXjXjXMXjXCXNXjXjXjXjX6X3XNX6Xb.%.C V ] E.[.Y.P.P.^ ^ Q ! p._ G G ) ) 5.6.E.(.(.(.(.{ [ ' K.U.T.I.E.) 7.bXIXHXHXSXSXSXSXLXLXLXLXLXLXLXLXLXSXDXDXDXSXSXSXDXDXDXDXDXDXDXDXZXSXAXSXAXZXAX6XB.&.&.%.*.1.z.|.{.{.{.}.+X+X+X+X}.].l.` l.x.x.x.x.x.x.a._ _ [ P.P.K.K.K.K.K.K.' ' ' ' T U C M 0.CXAXAXBXBXBXBXBXZXZXBXZXZXAXZXNXjXzXBXBXBXBXBXzXjXhXqXqXqXjXkXzXBXCXJXGXm + O U L.!.I.I.I.{ { { { ` ` 3.3.3.3.3.4.z.z.]. X].}.}.OXOXOXOXOXOX{.!.5.V oXIXGXHXDXSXSXSXSXSXSXSXZXZXZXcXcXZXSXSXSXHXSXSXLXAXSXHXHXAXCX&X&X&XfXZXzXhXxXeXeX&X9.:.;.7.z.'.'.'.].].].].].|.l.` ` ` _ J g.a.a.` ` ` _ ` l.].6.6.6.{ { ] ] ( ) C C m 6 :.$XMXMXjXdX6X3X6X6X9X6X6X6X6X6X6X9XmXmXiXCXMX9XBX6XjXjXjXjXjXnXmXNXMXMXNXNXNXMXnXnXiXc.4.4.6.{.{.Q.Y.[.OXOXOX{.W.W.W.W.[.{.[.[.OXOXOXOXOXOXOX{.[.Q.W.!.8.1.m + : %.6 :.#XuXVXnXnXNXgXgXlXDXfXgXBXgXnXnXfX5X9XfX6X>X6XfX7X8XuX7X2X7X-X8XuX9X8X9XnXCXFXGX*X7.3.6.{ 6.6.{ { ` _ ! ! ! p.p.p.p._ ! D A A ( [ { I.[ [ ' ' U B C C 5 6 6 *.*.2..X=X7XuXCXfXfXfXgXnXnXnXnXnX8X8X8X5XjXBXkXkXkX6X1X6X6XqXhXqXqXqXqXqXhXqX6X6XfX-Xv.4.7.7.8.6.6.3.) 1.3.3.7.) ) ` ` ` ` ` ` l.'.|.}.{.[.[.[.Q.!.E.) n O o + m C M M %.4.%XAXNXlXlXlXlXlXlXjXNXMXjXjXjXhXhXhXkXwXMXMX2X7XpXmXuXuXuXuXmXFXVXGX",
"jXjXjXkXkXkXBXBXBXBXBXBXNXNXjXdXjXMXNXNXjXjXNXNXNXNXjXjXjXdX6X6XBX4Xb.%.M Y 5.!.Q.[.).(._.s.u.! p.` ` { 6.6.E.E.'.'.(.I.[ [ [ [ P.T.' ] ] Y 7.FXJXJXJXSXSXSXSXSXLXLXLXLXLXLXLXLXSXSXSXSXSXDXDXSXHXHXHXHXSXSXSXSXZXAXAXZXZXSXdXB.&.&.#.M 1.z.}.}.{.{.}.+X+X+X+X+X}.l.3.l.x.x.x.x.x.a._ _ _ [ P.P.K.K.K.K.K.K.K.K.~ ' ' U C *.M.JXCXBXCXNXNXjXNXlXNXBXZXZXBXNXjXjXkXBXZXBXzXzXxXqXqXqXqXqXkXzXBXBXAXGXuX5 + $ U L.I.I.I.I.L.{ { { { { 6.6.3.3.3.z.c.XXXXXX}.}.}.}.OX[.[.Q.Q.W.W.5.H *XIXJXLXSXSXDXSXSXSXSXDXDXZXZXZXZXcXZXDXSXHXHXLXHXVXVXJXJXGXmX#XM.&X5XMXdX5X6X:X:XM.9.:.3.7.l.l.'.'.].].].].].|.l.{ ` ` _ ` a.a.a.` ` ` ` { l.].6.6.6.6.{ { ] ) ) V C 6 6 :.$XmXMXmXnXuXuXuXuXCXCXMXuXuXuXuXuXiXiXiXCXMXjXAXjXhXhXjXjXjXnXmXNXMXMXNXCXNXMXnXnX8Xb.0.4.7.].E.E.[.[.OXOX{.W.W.].{.Q.{.{.[.{.OXOXOX[.[.[.[.[.E.E.5.5.8.2.m o 1 6 %.4.#XuXMXnXmXDXfXgXBXDXlXlXBXgXfXfXfX5X6XfX5X;X&XM.v.v.M.v.b.v.v.v.v.v.v.M.#X=X-XyXXX3.] 6.{ I.E.E.6.{ _ _ ! ! p.u.p.p.! ! D A _ ( { { I.{ [ ] ' U B C C 5 6 6 *.<.2.2.9.0.v.M.v.b.b.b.v.b.c.b.b.b.b.n.v.3XAXBX6X,X,X>X,X,X6X6XqXqXqXqXqXqXqX6X6X9X;X.Xc.c.7.7.5.3.5.3.6.6.3.3.1.3.3.6.6.6.l.'.|.|.[.}.[.[.[.[.{.I.] Y n + o > n C m M :.v.-XNXNXlXlXlXlXlXjXNXjXjXjXjXjXxXhXkXwXkXpX&Xb.9.v.b.v.b.b.b.b.v.#X%X",
"CXNXNXjXwXqX4X4X4XwXMXNXCXBXCXNX9XjXjXjXdXdXjXMXjXjXjXjXjXdXjXwXBX2X9.%.*.<.5.!.Q.[.[.).)._._.[ _ ` { 6.6.6.6.6.E.I.{ [ [ [ { I.Y.T.L.] ) V c.JXJXJXJXSXSXSXSXSXLXLXLXLXLXLXLXLXLXSXSXSXSXSXSXSXSXHXHXHXSXAXAXAXCXAXSXBXBXHXNXM.&.$.#.M 1.l.].}.{.{.}.}.+X+X+X+X}.z.3.3.l.x.x.x.x.a._ ( [ K.P.P.K.T.K.K.K.K.K.K.G.K.' U C *.M.JXCXCXCXCXAXAXAXBXCXAXAXNXjXjXMXNXxXBXBXzXkXhXqX6X6X6XqXhXkXBXBXAXAXCX7X: + & U ] L.I.I.I.L.I.I.I.'.'.E.6.6.3.l.].]. X}.XX}.}.{.{.{.[.Q.E.E.W.6.1.C oXIXJXHXSXLXDXSXSXSXSXSXSXSXSXSXDXDXlXDXAXHXLX-Xv.v.b.v..Xv.b.:.:.,.b.b.b.b.9.9.9.9.:.;.3.6.6.'.'.'.].].{.].].|.'.{ ` ` ` a.a.a.` ` ` ` { d.'.6.6.6.6.6.{ { ] ) ) V M 6 ..:.M.%X=X=X=X=X%X%X%X#X#X#Xv.v.v.v.v.v.%XiXGXMXNXBXjXjXjXjXjXNXmXNXNXMXMXNXCXNXjXfXnX-X%X*X.Xc.7.3.6.{.[.{.[.Q.W.{.{.W.E.[.{.{.OXOXOX[.[.[.[.[.Q.E.6.6.8.8.*.> 1 < &.b.M.-XVXVXNXmXNXlXfXBXDXfXNXNXNXjXfXfXfXdXdX6X5XM.%.7 6 6 6 6 *.%.%.%.%.%.;.:.2.4.0.6.) ) I.E.I.E.E.'.{ _ _ ! _ p.p.p._ ! W A A ` { { { { ] ' ] ' U U C C 5 , 6 m <.2.*.M m #.m 6 6 6 6 6 6 6 5 5 7 7 7 >.&XAXCX,X,X>X,X,X,X,X,XqXqXqXqXqXqX<X1X6X6X7X=X%X#X.Xc.5.3.8.6.7.6.5.1.3.6.6.W.'.'.'.'.[.[.[.{.[.[.[.Q.[.] ] 1.C o o > > *.2.c.#X7XnXfXlXlXzXlXlXjXjXNXMXMXjXxXxXxXhXkX6XkX0Xb.7 < 6 : 7 7 5 5 7 6 %.%.",
"CXMXuX9X3X&X&XN.&X4XwXMXNXCXCXjX6XdXjXdX9X6XdXjXjXjXjXfXdXdXdXjXqX&X9.%.*.<.<.!.Q.Q.[.[.[.).(.(.d.{ 6.6.6.6.6.{ I.{ I.{ { { { L.L.L.E.W.5.1..XJXJXJXJXSXSXSXSXLXLXLXLXLXLXLXLXLXLXSXSXLXLXSXAXAXJXHXHXHXHXJXJXJXJXJXHXJXGXHXCXN.-.=.%.*.3.6.].{.{.}.}.}.+X+X+X+X}. Xz.3.` 3.x.x.l.` _ ( [ P.T.T.P.T.T.K.K.K.G.G.K.K.' U N V 0.pXGXGXGXJXJXJXJXJXCXJXJXAXCXAXAXBXjXBXBXzXhXhXqX6XqXhXhXkXkXBXBXZXSXBX&X1 + - U ] L.I.I.L.L.I.I.(.{.[.I.E.'.'.].].XX}.}.}.{.[.{.{.[.'.'.].].6.) C n .XJXVXHXSXLXSXSXSXSXSXSXSXSXSXSXSXDXcXDXDXSXHXb.6 6 6 6 %.m m m m m %.%.%.#.%.%.&.=.%.V 1.6.6.].'.'.'.].].].].}.'.l.` ` a.a.a.a.` ` a.{ { 6.].6.6.6.6.6.6.{ ] ) Y V m 6 ..:.9.:.:.:.:.:.:.:.;.%.%.%.%.M m m 6 M 9.7XGXnXjXjXjXxXxXjXNXNXNXCXNXCXCXNXMXjXjXMXNXfXnXGXtX*X.X7.6.W.].].{.}.}.{.'.E.{ Q.OXOXOXOX[.[.[.[.Q.Q.Q.E.6.7.7.1.M 5 6 ,.$X8X8XnXVXAXNXBXBXBXjXNXNXdXMXBXNXNXjXdXdXdX6X5X5Xn.: 1 1 : : : 6 > > > , > 6 m m M V Y ) ] I.Q.I.E.'.'.(.[ _ _ _ _ _ _ ! ! W W _ { { { { L.] ] ] ] Y Y V C 5 , , m <.<.C m m 5 > > : > > * * * @ # @ : : %.%XCXMXwXqXqXqXqXqXqXqX6XqXhXhXhXhXqX1X6X6X9X8X7X=X*X#XoXXXz.8.5.5.5.3.5.6.W.'.[.[.[.[.[.[.{.[.[.[.[.[.E.] 1.1.5 X o 5 2. X*XiXGXJXAXlXlXlXzXlXjXdXjXlXNXNXNXjXjXjXhXhX>XwX4X,.: 1 : + # # # # # @ : : ",
"=X=X=X&X$X#XM.M.M.&X3X3X9XMXCXfXjXjXjX9X9X6XdXjXjXjXjXdX9X6X6X9X4XN.,.%.*.<.<.!.Q.Q.OXOXOX[.[.).'.'.6.6.6.5.5.E.I.I.I.I.L.] ] ] ] ] 5.1.1.4.*XIXJXJXAXDXDXSXSXLXLXLXLXLXLXLXLXLXLXSXSXLXHXNX5X-XMXCXGXGXGXAXGXGXGXCXGXCXpXCX7XM.&.&.%.*.1.6.'.[.{.}.}.}.+X+X+X+X}.XX].l.3.3.l.l.l.` _ [ P.P.T.R.U.T.T.K.K.G.G.G.K.K.T U N M 2.#X=X&X=X-X-X-X7X7X=X7X9XMXCXJXAXjXNXBXBXkXhXjXjXhXhXxXkXlXzXzXBXBXAXjX&Xo o ; Y { ] I.L.L.L.I.I.).OX[.Y.Y.[.'.'.'.}.}.}.{.'.'.[.[.E.6.5.3.3.3.3.4.4.*XJXmXHXAXSXSXSXSXSXSXSXSXSXSXSXSXDXDXDXDXSXJX4.: > > : m > m M M M m m m m m 6 #.#.m V 1.6.W.].].].].].].].].].|.'.l.l.l.a.a.` ` a.l.l.6.6.].W.6.6.6.6.6.{ ] ) V V M 6 #.=.=.m m m n m n 5 5 > 5 5 5 > > > @ + ;.iXJXMXNXjXlXxXjXlXNXBXNXCXCXCXNXMXjXjXlXNXBXNXNXVXmXKXtXc.7. X].].].].|.].'.I.[ E.OXOXOXOX[.[.[.Q.Q.I.E.6.6.7.z.c.b.b.M.4XAXAXCXNXNXDXDXBXBXDXlXNXNXfXMXAXAXBXlXfXdX6X>X;X3X,.1 1 : : > @ > > > > > > > , n n C ) 5.] I.Q.I.E.E.E.E.{ [ [ _ [ _ _ ! _ _ _ _ { { E.{ I.] ] ] ] Y R V C n > , *.*.m r > > > @ > > * * * * * * # # # : %.$XVXMXMXjXqXqXqXqXqXqX6XjXjXjXxXhXqX1XhXqX6X4X7X7X7XtXtXyXoX.X X7.7.3.5.6.W.[.[.[.OX[.[.[.[.[.[.[.E.E.E.] V V 5 5 %.v.iXFXGXGXVXAXAXDXlXlXlXlXlXjXjXjXNXNXNXlXkXjXhXqX&X,X&X,.: o 1 + + + + # # # @ + ",
"9.9.9.9.9.9.9.9.9.b.b.M.&XMXCXMXCXjX9X6X6X6XwXwXjXjXjXdX6X6X6XwX4XN.:.#.%.*.<.!.!.Q.OXOXOXOX[.[.[.'.'.E.] ] L.I.I.I.I.I.L.L.] ] 5.5.5.5.4..XiXJXJXAXNXNXNXDXSXLXHXLXLXLXLXLXHXHXHXJXHXHXmXM.n.9.b.b.v.v.v.M.M.M.$X#X$X$X#XM.v.,.&.#.m V 1.6.'.{.{.}.}.}.}.+X+X}.XXXXXX].z.l.l.3.` ` ' [ P.T.T.R.U.H.T.P.K.G.G.G.G.K.T U Y M %.:.:.:.,.,.,.9.,.,.9.9.b.M.-XAXJXMXlXlXxXqXqXxXxXhXjXxXlXlXlXlXBXBXBXxX&X1 o ; H 5.] L.I.L.P.I.I.Y.[.Y.Y.Q.Q.Q.Q.'.{.{.{.'.'.'.'.'.].6.3.3.3.c.oX*X-XnXAXgXSXDXSXZXSXSXSXSXSXSXSXSXSXSXSXDXDXDXDXJX>.o @ * + > % > > n m m , , 6 m m #.M m V 1.W.].].].].].].].].].].].].'.l.l.6.` ` ` 6.l.].6.W.].W.7.6.6.6.6.5.] ) V V M 6 %.=.#.m m n 5 5 5 > > * * * @ % + + + + ;.mXJXMXCXjXNXxXxXlXNXBXNXCXNXNXmXNXNXNXBXBXNXCXNXnXnXJXGX%X.XyXoXXX].z.l.'.].'.] I.[.[.[.[.[.Q.Q.Q.E.E.6.].]. X.X=X8XnXCXBXBXBXlXlXBXlXlXlXlXDXlXBXBXMXCXJXAXBXjXdXdXdX>X>X8X>.o : : + > @ % > > > > > > > > n N 5.E.] I.[.I.E.E.E.E.'.(.{ [ [ _ _ _ _ _ _ _ { 6.E.E.I.L.L.L.] Y Y V C r > > *.C r * % % + + @ @ + + % % % % O O ; = ;.%XGXCXMXwXqXqXqXqXqXqX6XdXjXjXkXhXqXqXhXqXqX6X0X9X8XuXtXtXtXtX*X.Xc.4.7.7.W.[.[.{.OXOX{.[.[.[.[.E.E.6.].) V ;.4.v.-XJXJXGXGXVXNXgXNXDXZXcXlXzXlXlXjXjXNXNXNXlXkXxXjXhX:X:X$X,.: o o o + + + + + + + + ",
"6 6 6 m M m m 6 #...o.>.M.9XCXjXCXjX6X3X4X6X6X6X9XjXjXdX9X9XdXNXwX$X,.#.m M Y 8.!.Q.OXOXOXOXOX[.[.[.'.E.I.L.I.Y.I.I.I.L.L.L.L.] 1.4.c..X*XiXmXuXJXDXmXgXgXDXSXHXHXLXLXLXLXLXHXHXJXJXHXJX-X9.7 7 6 %.%.=.;.;.:.:.:.=.:.9.:.=.%.#.#.#.m V 5.6.].}.{.}.}.}.}.}.}.@X}.+X+XXX|.].l.` ` ( ' K.L.K.K.R.U.H.T.H.G.G.G.G.G.G.P U Y M m %.6 6 6 ..6 6 6 6 6 6 6 &.M.CXHXAXjXhX6X,X1XhXjXqXhXxXlXBXzXzXBXZXkXlXdX7 7 5 H 6.] ] { { L.L.I.Y.Y.Y.Y.Q.Q.Q.Q.[.{.{.].'.'.'.'.].]. X.XoX*XyXtXFXmXnX8X;XAXBXAXAXSXSXSXSXSXSXSXSXSXSXSXSXSXSXSXJX%.X @ > + > + > % > t m , , m m m #.M m V 5.W.].].].].].].].].W.].{.].].l.l.6.` ` ` 6.'.].7.6.W.W.W.6.6.6.6.5.` 5.V V M 6 %.=.6 5 > > * * * * # * @ + + % + + # @ ;.mXGXnXCX9XjXhXxXlXNXBXCXCXNXgXgXNXBXDXBXBXNXjXDXAXnXAXJXiXGXaXaXtXyXoX].l.6.l.` [ Q.Q.Q.Q.Q.Q.E.Q.E.W.].XXoXtXiXnXfXjXlXxXhXjXjXlXlXzXhXlXlXZXlXAXSXCXBXJXAXlXdXdXjXjXdXfXMX>.o # o o > % % > > : > > > > = w n ) E.] { [.Y.Q.E.I.E.'.'.d.{ [ _ _ _ _ _ [ { { E.E.E.I.L.L.] ] Y Y V C t > r m n > > : @ + # + + % % % % % O % O ; = ;.#XGXGXCXMXwXqXqXkXkXkXjXfXjXjXjXxXqXqXqXqXkXkXjXqX9X9XnXmXiX-X-X%X.X.X7.z.].].W.Q.{.[.OX{.{.{.[.'.'.6.3.) 3..XmXJXJXAXJXnXnXVXAXDXDXDXZXcXlXlXBXBXlXjXjXNXjXlXlXkXkXkX,X>X&X,.: o + + + O + O + + + % ",
": : > > > > > > > : : 7 ,.0XAX6XMXBXkX6X,X4X6X6XjXjXdXdXdX9X6X9XMX3Xv.>.5 > V 8.!.!.{.OXOXOXOXOX[.[.'.I.L.I.I.Y.I.Y.Y.I.' ' L.W..X*XtXiXuXmXVXCXJXNXNXNXfXlXSXSXJXJXHXHXHXSXHXHXHXHXHXIX-X%.: @ : : 6 m #.%.%.%.%.%.%.%.=.=.%.#.6 , m V 5.6.'.{.}.}.{.}.}.+X}.}.@X+X@X@X}.z.6.` _ { ' ' I.T.K.R.G.H.T.U.P.P.H.G.G.G.~ L B V %.#.6 6 6 6 6 6 6 6 : : 7 : b.JXJXAXjXhXhXhXhXjXxXlXlXlXlXBXZXAXZXlXBXBXdX&X#X.X X X].5.] ] { I.I.E.Y.L.Q.Q.Q.Q.] E.'.{.].E.'.'.'.].oX*XyXtXFXFXFXnXnXfX5X5XdXNXlXjXNXAXHXHXSXDXSXSXDXSXLXHXLXLXHXJX>.o # # @ + + % % : > > > > 6 m 6 m m C V 8.W.W.W.'.].].].].].].].{.}.|.'.6.` ( ` 6.].].].].].].W.W.6.6.6.6.6.5.) V V C > %.:., 5 5 = * * # # + + + + O + + + + @ :.iXJXVXCXjXjXlXkXxXjXlXlXjXfXNXNXlXlXlXZXZXZXBXBXNXNXCXNXVXVXGXFXFXFXbXyXXXz.` ( ] '.Q.E.Q.!.E.E.E.W.XX*XtXFXFXmXNXMXjXhXhXhXhXlXlXlXzXzXzXzXBXBXBXBXBXAXJXJXNXdX6XhXBXBXAXVXb.o o @ O % > % : : @ @ * > = - w B 5.6.{ I.I.'.Q.Q.[.'.'.'.(.d.{ _ _ _ { { { { E.E.E.E.I.I.I.L.] Y Y Y C t r m M > + + + + + + + + + + ; O O O $ $ % = ;.*XJXCXCXMXwXwXwXkXkXjXdXdXNXjXBXBX:X,X1XhXkXjXjXjXjXjXfXnXnXnXdX-X-X-X*X.XXX].W.W.{.[.{.[.[.].].W.3.H  X.XtXFXJXDXNXNXfXfXNXNXDXDXBXlXZXZXlXlXjXlXNXBXAXNXjXjXNXzXkXjXjX4X7X9.: o o o O O O O + % % % ",
"+ @ * > > > > : : : # : >.=XAXjXkXBXkXqX4X6X6X6XwXjXjXjXjXfXdXdXMXfX-X#Xc.2.1.1.W.W.{.OXOXOXOX[.OX[.Y.L.] L.I.L.Y.Y.L.' ] E.+XyXtXuXVXVXMXCXCXCXBXjXNXAXBXBXAXDXSXHXHXHXSXSXHXSXHXHXHXIX-X%.: # : : , 6 m m #.#.#.#.#.%.=.=.=.#.#.m m V 5.E.].{.[.[.{.}.+X+X}.}.}.@X@X@X|.d.` ( ` { [ ' I.P.K.K.T.H.H.G.G.G.H.H.G.G.~ U B V M 6 < > > > > , > > : : : : v.JXAXBXjXxXxXxXxXlXlXBXBXBXlXlXBXBXBXlXjXlXlXfX8XmXmXaXoXXX].7.6.{ 6.E.[.Y.Q.Q.!.E.] 6.W.].].7.].XXXX*XbXmXmXmXmXmXmXnXfXfX5X>X5XjXNXNXBXAXAXAXSXSXSXSXSXSXSXSXHXLXLXJX>.o # + # + @ @ @ * : > : > > , 6 m m C V 5.W.W.{.{.{.{.{.{.{.}.{.}.|.'.6.{ ` ( { 6.'.].].].].].].].W.6.W.6.6.5.3.V H C > %.=.> > = * # # # # + # # + O O + + # @ :.iXJXCXCXjXNXlXkXxXxXlXNXNXjXgXlXBXBXBXBXkXxXxXlXBXZXDXBXNXVXVXVXGXKXFXFXbXyX X6.3.W.W.W.W.W.W.6.7.XXyXFXFXmXmXNXNXlXjXhXhXhXhXhXhXlXlXzXzXzXzXzXBXBXBXAXAXAXAXBXjXjXNXBXCXVX9.o o @ + + * % @ @ @ @ > > > n k B ) { { { { I.Q.Q.'.'.'.'.'.'.'.{ _ ` [ { { { 6.E.E.E.E.I.I.] ] Y R Y V n t m m : + + # # + # + + + O O O O O ; $ - > ;.*XGXmXpXqX4X4XqXwXkXkXjXnXCXjXNXjXN.N.1XqXkXkXjXjXjXdXfXfXfXdXdX5X5X8XKX=X.X X7.W.W.W.[.{.].E.5.6. XoX*XtXFXVXAXNXNXlXfXgXNXNXDXDXlXlXZXZXBXlXBXBXBXBXBXCXNXBXBXBXzXkX6X9XMXb.# o + @ O O O O O % % % ",
"+ + + % % % % + + @ 1 1 %.&XCXMXwXMXMXwXqXqXwX6XjXjXjXjXjXjXjXjXdXfXnXnXtX*X.X X X].].{.}.+XOX{.}.[.I.] ] E.I.] I.{ { { ].+XaXIXVXCXCXMXfXMXNXNXjX6XjXBXBXBXSXSXJXHXHXHXLXSXLXHXHXHXJXIX=X%.: + + @ : > , 6 m m m m #.%.=.=.%.#.%.m m <.6.W.].{.{.{.{.}.}.}.}.}.}.@X@X|.d._ _ _ d.d.[ ' K.P.K.P.U.T.K.G.G.G.H.P.G.G.~ U B C m > : : : : : : : : : : 1 7 v.JXBXBXjXlXlXlXlXlXBXBXZXZXzXlXlXzXlXlXhXlXBXNXVXJXJXGXmXtX*XoX X7.3.6.!.L.E.E.E.E.5.6.6.]. X XXX*XtXFXKXVXmXnXnXnXfX5XfXfX6X5X6XjXNXNXCXMXjXNXAXSXSXDXSXSXDXDXHXLXLXJX>.o o o # o @ + @ @ @ @ @ @ : > > m m C V 5.W.W.Q.Q.Q.'.E.'.'.].}.}.'.{ [ [ [ ( _ { { '.'.'.].].].W.6.6.6.6.3.) 5.) 1.C > M *.> > @ # # # # # O # # + O O + # # : :.iXJXCXCXNXZXlXxXxXxXlXNXNXlXlXlXlXzXBXzXzXlXxXlXBXBXBXlXNXNXVXVXVXVXKXKXKXKXyX Xz.7.6.6.W.7.7.c..XyXFXGXVXnXMXjXjXlXlXhXhXhXxXxXxXxXxXlXlXlXzXlXlXNXCXCXBXBXAXZXBXZXAXAXAXVX9.o o @ + + % % @ @ # @ * = = 5 n B ) { { { E.E.[.[.[.'.'.[.|.|.'.{ _ _ ` { { '.6.E.E.'.E.E.E.E.6.] Y Y V n t m > # + + # # # # O o O O O O O O O O % n 1.*XGXGXCXpXqX4XqXqXwXhXMXNXBXjXjX6XM.B.6XjXkXkXjXxXjXdXfXdXdXdXvXdXdXfXVX;Xv.c.0.7.W.W.W.W.].7.7..XyXFXGXJXJXAXDXNXlXlXNXNXNXDXDXDXBXlXBXBXBXBXBXBXBXBXBXBXBXZXBXBXNXkXjXMXVXb.# o O + O O O O O O ; ; ",
"+ + + + % + % % O @ o 1 &.N.4X>XeXeXeXwXeXwXwXwXjXjXjXMXjXjXfXfXdX9X8XfXnXmXmXtX*XXX X].].}.}.{.{.'.E.] 5.6.6.] ) { l.XX*XtXFXGXwXjXjX6X6XjXMXNXBX6XjXNXjXNXSXHXSXHXHXSXLXSXSXSXHXHXJXJX%X6 # + + @ @ : > > 6 m m m #.%.*.%.%.#.%.m m V 6.].].{.}.}.{.{.}.}.}.@X@X@X|.d._ _ _ d.(.(.[ W ' ' P.Y.U.K.K.K.K.K.G.G.G.G.' U B C 5 : # : : : : : : : : # 1 6 %XJXAXBXjXjXlXlXlXlXzXBXZXBXlXBXzXlXlXlXjXBXDXBXNXNXNXnXmXmXmXtX*X.Xc.z.3.) 6.6.6.7.1.8.7.XX*X*XtXtXmXGXmXnXfX9X9X9X6X6X6X6X6X6X9XNXNX9X9X9X6X9XNXAXAXDXDXDXAXDXSXLXHXJX>.o o o # o # + + + % + + @ > > > 6 m C V 5.W.].].{.{.{.{.].].|.|.|.(.[ _ [ [ [ [ [ [ { I.'.'.'.'.'.].].].6.3.) 3.1.1.C 5 m M > * @ # # # # + O # + O O O O O + @ :.mXJXmXNXjXNXkXxXxXkXzXBXBXNXlXlXlXlXlXkXkXzXlXBXBXlXjXjXlXBXBXNXCXVXNXNXVXmXiX#Xc.c.7.4.7.4.4..XtXFXmX8X9XNXjXhXhXhXhXhXlXlXlXlXlXxXxXxXxXxXlXlXlXlXjXNXNXCXBXAXAXJXJXJXAXmX4.1 o @ + % % % @ # # # # - - = n B ) { { 6.E.E.'.[.'.'.'.'.'.'.{ ` ( ( _ ` { { 6.6.E.E.E.E.E.E.E.] ] ) V n r r > @ + + # # + # o o O O O O O O O O % n ;.*XGXCXCXpX0X6X6XqXjXjXjXjXBXjXNXjXV.V.6XjXkXxXjXjXjXfXfXdXdXdXvXvXhXxX6XM.v.v.0.7.8.8.8.6.7.XXyXmXFXKXJXJXDXNXNXNXlXgXNXBXDXDXNXBXNXlXBXlXlXlXlXlXBXBXBXAXZXBXzXkXjXjXNX9XuXc.: o o O O O O O O O O O ",
"% + % % % % % % O + o : ,.$XN.B.:X4XwXwXwXkXkXjXjXNXNXMXjXfXfXdXlXxX6X5X5X8XnXmXFXtXyXXX X].].].XX].5.1.1.7.7.3.z. XoX-XnXmXpX4X1XvXhXqXhXkXzXxXBXjXjXNXkXNXAXAXSXSXSXSXSXSXSXSXSXHXJXJX%X6 + + + + + @ : > > , m m #.%.*.*.%.*.*.m m Y 6.].{.{.{.{.{.}.}.}.@X@X|._.s.p._ p.p.s.f.(.s._ [ [ [ I.K.K.' ' K.K.~ ~ G.G.' T B C > + + # @ : @ @ * @ @ + o %.-XJXAXAXlXlXlXlXzXzXzXzXlXlXlXBXlX6X<X<XdXlXBXBXNXBXBXNXNXnXnXVXmX-X%X.Xc.7.7.7.4.4.2.4..X=XtXiXFXCXnXMXMXjX9X9XjXjXhXhX6X>X&X&X3XMXMX0X4X4X6X6XjXlXNXBXDXAXSXSXHXHXHXJX>.o o o # o + + + + + + + % > > 6 6 m n C Y 6.W.E.W.{.{.'.'.'.(.(._.s.! ! ^ ^ ^ ! ! ^ [ [ [ (.(.'.].].'.'.l.6.3.1.1.) C n C m * * @ # # # # + + + + + O O O + + # ;.iXJXVXNX9XdXkXxXxXkXBXBXBXBXzXxXxXzXxX,X:X&X>X6XjXNXBXBXDXDXBXNXNXBXDXBXjX9X;XM.M.M.v..X.Xc.c.#X7XuX0X3X6XhXhXhXhXhXhXdXfXfXlXkXkXxXxXxXxXxXxXxXxXxXhXxXxXjXBXAXBXCXBXAXVXmX9.@ o + + * % % % # * # % - = k N V ) ) ] { 6.{ { I.I.I.I.{ { { ` ( ( ( _ ` ` { { { { { { { { { { ] ) ) V C n n > @ # # * # + O # ; ; O O O O O % % * 5 ;.#XaXuXuX9X6X6XwXjXNXlXdXdXNXdXNXNX>X6X6XjXMXjXjXlXgXfXfXjXlXkXxXhX1X1X>XB.b.v.9.2.2.8.0.0.v.*XmXJXVXgXDXNXlXlXNXNXNXmXDXDXDXDXNXBXNXNXNXlXfXdXdXjXkXBXBXBXBXBXlXkXNXBXwX9XuXc.@ o o O O O O O O O ; ; ",
"+ + % O O O O O O + o 7 v.&XM.B.:XeXeXwXwXMXMXjXMXNXNXNXjXjXfXdX6XhXjXjX6X6X9XnXmXFXFXyX.XXXXX X X7.4.1.0..X*X*XtXtX8XdXjXqXeX1X1XvXvXvXxXxXqX,XV.N.>XkXkXBXBXBXZXDXDXSXSXSXSXSXSXHXJXJX#X6 + + + + + + + @ > > , m m #.%.*.*.*.*.m C 1.W.].].{.[.{.}.}.}.}.'.d.s.u.u.p.p.s.p.p.f.(.(.d.(.[ W ( ' ' ' ' K.K.' ~ ~ ~ ' ( U C 5 # + + + @ @ % % % + + o :.uXJXVXBXDXZXZXZXBXBXzXlXlXhXjXlXdX>XV.&XjXBXZXBXBXZXZXzXBXxXhXkXMXjX9X-X#Xc.c.4.4.c.v.%X-XmXnX9XMXMXwXjXMXjXwX6XqXhXhX6XhX:XN.M.&X4XwXwXqXwXwXwXwX6XjXjXlXZXDXAXHXLXHXJX>.o o o # + + + + % % % % > > > 6 6 m m C V ) 5.] ] { { ] ' ( W ^ ^ Q Q Q Q ^ ^ / Q Q ! ^ ^ ^ [ { { { 6.6.6.3.3.) 1.H C C C n > > * * * # # # + + + O O O O + + 5 2.tXJXVXAXMXjXlXlXxXkXzXBXBXBXkXxXxXzXhXV.b.n.B.C.6XlXZXDXBXDXDXBXlXlXlXqX:XV.N.N.&X3X7X8XnX-X&X&X&X:XqXqXeXqXqXhXhXhXdXfXgXfXlXlXlXxXxXxXxXxXxXxXxXhXhXhXhXjXNXNXfX9XMXJXJXJX>.# o + * = % * * - - = = k N B ) ] ] ] { 6.6.] { { { { { ` ( ( ` ( ( _ ` ` _ ` { { { ) ] { { { ) ) ) Y V C C C 5 > - - = * # # - # # ; ; O O O # % * m 2.*XVXGXCXMXMXMXNXjXjXfXdXdXjX5XjXNX4XNX9XMXCXNXMXNXmXgXjXNXBXzXxX1XZ.V.Z.B.b.v.:.=.0.#X#X%X=X-X7X9XnXNXlXlXlXlXlXgXgXgXNXDXDXNXNXNXNXNXNXlXdX6X6XdXlXBXBXBXBXBXBXBXZXAXAXCXGXb.+ X O O o o o O O O ; ; ",
"% % % O O O O O O O o %.&X3XV.V.,XeXeXwXwXkXkXjXkXjXNXNXNXNXNXlX1XqXhXxXhXjXjXjX9XCXmXtX*X*X.X X4.0.0.v.#XiXVXGXVXNXlXhX1X1X1X1X1XvXvXvXxXxX1XZ.B.B.V.qXkXBXBXBXZXDXDXZXSXSXSXSXSXSXJXJX#X6 + + + + + + % @ > > > r m m m M *.*.<.*.*.1.6.E.E.Q.Q.'.[.'.'.'.[ _ ! i.u.u.s.s.p.p.f.(.(.(.(.s._ [ ' ' ' ' ' ' K.~ ~ ~ ' ( U C 5 @ + + # @ @ % + + + + o 9.VXVXVXDXZXZXZXZXBXzXlXlXlXdXhXlXdX>X&X>XlXBXZXBXlXzXzXxXzXxXxXxXhX1X,X>X#Xv.v.v..X%X=XiXuXMX9X4XjXkXhXkXjXwXqXqXhXhXqX1XhX<X&XN.&X3XwXpXwXpXMXkXkXjXjXjXjXdX6XfXAXLXHXVX%.o + # @ + + + % * > > > > > > 6 6 %.*.V V Y ] ] ] ] ] ' ( ( ! Q f f f f i.i.i.i.i.Q Q Q / / ! _ ( ) ) ` ` ` ) ) 3.) V C C n n > > * * * * * % + % + + % % % + n ;.*XiXiXVXBXBXNXlXkXzXzXBXBXBXzXxXxXzXhXV.B.n.B.V.6XNXBXNXlXDXDXDXlXhX<XZ.N.B.Z.Z.1XkXjXBXAXNX6X:XV.V.:XeXeX1XxXxXxXxXjXfXfXfXjXlXlXlXxXxXxXxXxXxXxXhXhXdX6X6X9X0X7X3XnXVXnX=X%.# + # * = % = = w n k n N U ) 6.E.E.E.E.E.E.{ I.I.I.{ { ` ( ( ` ( ( _ ` ` _ _ ` ` ` { { { { { ) ) ) V V V V V n r = = w - - - - - * - ; ; ; ; ; + > M :.#XiXuXMXMXMXMXMXMXfX6XdXdXjX5X9XMX3XMX9XNXCXNXmXmXNXnXNXCXCXlXqX:XN.B.B.B.B.M.:.=.~.aX7X7X8X7X&X>XdXBXlXzXzXlXfXgXgXmXNXNXNXNXNXNXNXNXDXBXjXdXdXhXlXzXBXNXBXBXZXZXBXkXCX8X-X4.o X O O o X o o O O O ; ",
"% % % % O $ O O O o o %.7X9X&XqXeXwXkXeXwXkXkXjXjXjXNXNXCXBXBXBXBXkXhXqXqXqXkXkXMXCXCX=X#X#Xv.0.9.c.M.$X=X0X9X9X6XdXxXxXvX1X1X1XvXvXvXxXzXzXhX<XV.V.,XkXkXBXBXBXDXcXDXDXDXSXSXSXSXHXJXJX#X6 + + + % % % * * > > > n n m m m m V 2.<.<.5.5.] ] I.I.{ ] ] { { d.s.s.u.s.p.p.p.d.f.d.|.l.d.f.d.s.(.' ' W W ' ' ' ' ' ' ' ( U B n - @ @ @ @ * % % + + @ + b.JXAXDXAXZXZXZXBXzXlXjXdXlXdXdXlXjX<X>X6XjXBXBXlXxXkXzXxXxXxXxXxX1XZ.N.N.M.M.%X&X=X7X=X9X5XwX6X,XkXBXkXkXjXwXwXjXxXxXhXqX<XhXqX,X2X4X0XwXeXwXkXBXBXBXNXlXdX>X&X;XNXLXHXnXM o # @ * + * * * > r r r r r r 5 m *.1.1.1.1.] { { [ ' W W ! Q Q t.f f f i.u./.u.u./ f f f f Q ! ( ( ( ` { 3.3.) 3.1.V V B N N n w w = = - - % % % % % % + % # 5 M .X%X%X8XMXBXBXNXlXlXBXBXBXBXZXxXxXzXxX:XV.V.<XjXBXZXBXBXDXZXlXlXhX1XZ.V.Z.Z.1X1XkXBXjXlXNXfXjX4X:XV.V.Z.1XxXxXxXkXxXxXjXfXfXxXkXlXkXkXzXzXzXzXlXxXhXdXdX6X6X7X0X7X7X7X=Xb.>.5 + # * - - $ n k n N c c b U ] ] I.E.E.E.E.E.I.I.I.P.[ [ _ ( ( _ W ( _ [ [ _ _ ( ( ` { { { { { ] ] ) Y B B B N n n w k w w w w = = - - - # ; + * # > m *.0.v.v.=X&X=X8XnXnXnXfX9X9XMX5X9XMX5XMXfXMXNXNXmXNXNXgXNXCXNXjX,XV.B.B.B.B.N.$X,.#.0.aXiX7X0X3X3X5X6XhXlXlXzXlXdXfXfXNXNXNXmXNXNXNXNXNXAXDXBXlXlXlXzXBXBXCXAXAXAXAXfX3X;Xv.4.5 X o O X X X X o O O O ; ",
"+ + % % $ O O O O O o ;.iXGXqXBX1XzXzXqXkXkXhXhX6XwXNXCXBXBXBXBXCXjXjXjXjXjXjXBXkXwX4X2X&X$XM.M.$X&X2X2X2X2XqXBXkXxXhXqXqXqXqXhXhXhXxXkXzXxXvXvXxXvXxXxXxXzXBXZXDXNXNXAXSXAXNXnXJXGXGXmXv.6 + : + + % % - - - - w n n n n N N B 5.5.5.5.] ] ] ] ] ' ( _ _ p.p.p.g.p.p.p.d.{ l.].z.l.l.|.f.f.p.f.p.d.[ [ [ ~ ' [ ] ] ] ] ( B c k = - - - - - % # # o # v.JXHXHXSXBXzXlXlXzXBXBXBXjXjXdXjXjXjXjXjXBXDXZXDXZXzXzXzXzXzXxX1XZ.V.B.B.N.V.V.:X6XqX6X4X4X6X9XMXBXCXBXMXjXfX9X9X6XhXhXhXkXhX1X:X:X,XeXBXkXkXzXkXkXqX6X6X;XN.M.&XVXHXnX%X5 : @ # + + @ * = * = r r w n n n V 1.8.6.6.6.{ [ W E / ^ i.Q t.y.t.t.i.! [ { I.{ [ ^ / g d r.t./ ^ ^ [ ( ) 5.7.5.1.1.) ) ( B b B N c k k w = = - - - % # % % # 5 M ;.:.2.9.v.%X&X>XfXAXSXDXNXlXjXjXlXlXlXjXhXdXxXkXBXBXlXlXlXlXzXhX<XV.V.V.:X<XzXkXxXlXBXBXgXfXkXwX,X&XV.V.,XhXkXkXxXxXkXlXlXhXqXeXhXhXzXzXkXlXzXlXjXNXBXCX8X=X=X%Xv.c.2.;.M m - - - - = = w w r N c c L W ' [ I.I.E.Q.E.Q.Y.Y.Y.P.^ ^ ! ! S Z Z _ [ [ [ s.u.u.s._ W ( ( ( { 6.{ ] ) U U U U U N N c c k k k k k - - - * @ % + % * n C M M M *.;.2.c.v.#X%X-XiXGXCXmXuXuX8X8X8XfXgXgXgXgXBXDXlXkXxX<XV.B.B.B.B.B.B.&X:XB...&.uX=X7XuX0X3X;X>X6XjXlXlXjXfXfXlXlXNXNXNXNXBXAXDXBXdXlXAXSXAXNXNXCXGXCXmXuX7X%Xb.9.>.M 5 O o X X X X X X o O ; # # ",
"% % % % $ $ ; O ; O o ;.uXJXwXjXhXxX<XZ.1XhXqX6X4X6XjXNXCXBXBXBXAXMX5X5X6X6XjXkXkXqX1XrX:XN.sX:XwXpXMXwX4X,X,X1XxXhXhXhXjXjXjXjXlXlXlXkXkXxXxXxXvXxXxXzXzXzXlXlXHXDXNXNXVXVXJXJXJXJXGXtX0.6 + @ @ % % - - & & - w w k n k c B U 5.!.!.6.5.{ { ] ' ' W ^ ! p.p.g.p.p.p.` ` 1.7.7.7.7.6.l.x.f.p.p.f.d.d._.[ ^ ^ [ ' ' ] ] ( L v x k = - - - - - # # # 5 %XJXJXJXVXAXBXNXjXjXjXjXlXjXjXjXjXNXNXBXAXAXDXDXBXcXcXcXcXxXxX1XZ.C.B.B.N.rXrXrX1XqXhXjXjX6X6X6XwXMXCXMXNXMXfX9X9X6X6XjXjX,X,X,X,X:X,XeXqX,X,XqXqXqXjX9X9X&XM.b.b.M.#Xb.9.: @ + @ @ @ @ * - - = k k k k N B ) 6.E.E.{ { [ _ ! Q / t.f g t.s y.i.u._ ` 6.W.6.{ [ ^ t.t.r.r.g / ^ ^ [ ( ) 1.1.1.1.) ) ( ( b b c c c k k k k = = - * ; ; % * n m M M m M %.>.9.n.b.&X-X5XfXNXjXNXNXNXlXlXBXZXzXBXZXZXZXZXBXzX1X<XZ.V.V.Z.1XhXkXlXlXlXBXBXgXfXjXjX6X>X&X&X:X,XhXlXzXkXhXhXhXhXhXeXeXhXkXlXlXjXBXCXNXMX9X=X#Xv.:.:.%.M 6 5 > = - = = = w k k k N N c L L ~ [ P.I.I.I.E.Y.I.P.P.P.H./ Q f a a Z Z _ [ [ [ s.s.u.s.[ ! [ [ ( ' { ] ] ' ( T U U U c c c c c k k j k k = - - * @ * + * > n r > > n n C M M ;.4.c..X*X=XiXuXuXiX8X8X8XdXdXgXNXDXDXlXxXvXZ.C.B.B.B.B.B.:XqX6XM.>.,.&X2X7XiX7X7X-X3X5XdXdXfXfXdXdXdXjXNXNXNXNXNXBXNXjXAXBXNXfXMXCXAXGXGXiX$Xv.4.*.7 7 7 5 O O X X X O O O o O # - - - ",
"* * - % % & & & - ; + :.uXJXMXwX<X:XB.B.:XkXjX6X3X6X9XjXNXNXlXNXBXfX5X6XjXjXjXjXqX6X,X:X:X:X4XwXCXCXCXBXjXqXqX1XqXhXhXhXjXjXNXjXBXlXlXxXkXkXxXzXxXxXzXBXBXBXlXjXNXNXAXJXJXVXVXGXiX7X*Xv.:.6 @ + * * * - - & - w w k k N N N U U ] !.W.E.{ ` _ _ W ! ^ ^ ! p.g.g.p.a.` H H *.2.2.2.*.;.3.x.x.f.p.p.d.d._._.[ ^ ^ ' ( ( ( ( ( b x k k w - - = - - # # m %XJXGXHXHXAXBXBXlXjXjXjXlXBXBXBXNXjXlXDXSXDXBXlXlXZXZXcXzXxXvX<XC.B.N.Z.1XeXeXeX1XhXkXkXlXjXdX6X6X6XwXjXjXNXjXfX9X6X6XjXjXqXqX4X,X,X,X:X:X4X4XqXwXMX9X7X&Xv.9.:.=.>.%.M 6 @ + + * > = - - w w k k k k c B Y ) 6.6.{ ` ( W ! Q i.i.f g g f f i.p._ ` ;.2.8.8.1.) [ u.i.t.g g f / / ^ ! ( ( ) ) ) ) ) ( ( U B B B B c z k k k 5 5 - - # * - n 5 5 > > > 5 6 7 6 %.:.b.v.%X;XfXnXVXVXCXNXBXAXjXjXjXNXBXNXhX<X:XZ.Z.Z.<X1XxXzXhXlXNXBXBXlXlXlXjXjXjXhX<X>X:X&X1XkXBXkXhXqXhXhXeXeXqXjXBXBXNXMXBXCX8X%Xv.,.>.%.7 : : : : > > = = w w w k k k c N B U L W ( ' I.E.E.E.I.I._.H.^ / / Q f s s a Z W _ { ` _ p.p._ s.[ [ [ [ [ ( ' ' ' ' ' ' ' T T U B c c c c k k k k k = = > : > > > > > > % * > > 5 > @ @ 5 M %.;.9.v.%X=XtXmXmXmXmXnXnXNXDXBXjX1XZ.V.B.B.B.B.B.N.qXAXwX&XB.B.&X2X7X7X7X7X3X3X3X6X6XdXdXdXdXdXfXfXNXCXNXNXNXCXCXMXCXCXCXGXGX8X&X9.:.%.6 6 5 5 5 # # O O O ; & & O ; ; - - 4 k k ",
"r = - - - - - - - ; # ;.=XGXuX0X&XV.B.B.:XjXwX4X4X4X0XwXjXjXjXjXjX6X9XjXNXkXhXqX,X:X:X:XrXeXwXBXCXBXBXBXBXkXjXqX6XqXhXjXkXkXMXNXjXjXjXjXhXhXxXhXzXkXkXjXjXjXCXCXVXCXVXGXmX-X#X#Xb.9.:.=.#.6 > + * > * - - - q w k c N N B U U ' ] I.E.{ _ _ ! ! ! ^ ^ u.u.p.p.J ` ` H M M %.=.=.%.#.%.;.x.x.x.x.a.d.f._._._._.s.[ _ _ _ ( ( L b c k k k w w - - % @ 5 c.*X=XmXJXAXAXAXAXCXMXMXMXNXNXNXjXdXdXBXSXBXBXlXlXZXZXzXxX1XZ.C.C.V.Z.1XkXxXhXhXhXhXxXjXlXNXlXdX6X6X6X9X9XjXjXjXjXjX9XwXwXkX6X2X:X4X4X4X4X0XuX7X7X2X$Xv.9.:.%.M 6 5 5 > > > * * > > r w k k k c c c c U U ) 3.6.6.{ _ W E Q Q i.i.f f f Q ! J ` H *.%.&.=.=.*.V ) _ ^ / f t.t.f f Q Q ! W _ ( ( ` ) ( ( U U U U U B B N k n n n = - - - > C n > > > > > 5 > 5 5 6 %.%.:.9.M.%X8XMXCXMXCXBXAXAXBXAXAXBX6X:XV.V.:X<XqXkXzXzXhXlXNXBXlXlXNXBXjXlXlXjXhX6X:X&X>XqXkXhXqXqXeXeX4X4X4XwXCXCXnX8X=X%Xv.:.%.6 < < < : : : > > 5 n n n k k k z c b B U U ( ( ' [ I.E.E.I.I._.u./ f g g g f s s S D _ { 6.3.` ` ` a.[ [ [ [ [ [ [ [ [ [ ( ' ' ' ' ' U U L b b c c c k k k = > * : : > > > > > > > > > 5 5 > > > > > > m *.2.9..X-XmXFXmXmXmXCXBXMX6XZ.V.B.B.B.B.N.N.,XjXMX6X>X2X3X9X3X2X;X-X3X9X5X3X6X6XdXdXdXdXdXdXfXNXCXCXMXMXCXBXnXAXJXGXCX7Xv.%.6 6 > : : : : > # # - - - - w - - - = k k c z z ",
"n r w = - - w - - ; # M c.#X$X$XN.:X&XN.4XwX4X2X2X3X4X9XjXjXjXjXqXwXjXkXhX<X,X1X<XV.V.:XqXkXMXBXCXCXCXBXBXkXqX1X6X6XqXjXkXkXMXMXdXdXjXjXjXjXqXqXjXjXjXjXNXCXAXGXJXuX%Xv.b.9.:.:.#.#.6 6 6 6 < @ > > = = w w k k c c N B U U T ' ] I.I.[ ! D D Q i.i.u.u.s.s.! J H H %.%.#...$.$.X.X...%.>.>.x.x.l.f.f.s._._._._.s.[ _ _ _ ( ( L b c k k k k w = - = > *.4.:.v.M.9XnXCXCXMXMXMXMX9XfXMXjXdXfXCXAXBXBXlXZXZXzXvX<XV.B.B.C.Z.1XeXkXeXhXjXxXxXjXjXjXBXBXNXjXdX6X6X6XwXjXjXjXjXjXwX9XwX:X&X&X4X4X4X0X=X$X.X0.0.:.%.m , , 6 > > : , 5 > * * = r w k n c c c c b L U ( 6.6.6.d.p.[ ! Q i.i.i.f f f i.Q ` ;.;.%.$.X.X.X.X.$.%.*.V ( ( ^ i.t.g g g f t.Q E E ! _ ( ( ( ( U U U U U B B B N N n 5 = = = 5 m n > * * * * * > > > 5 5 5 m M %.2.v.%X=X8XCXGXJXSXAXAXNX6X&XN.V.:X1XhXzXzXlXxXjXjXNXNXlXjXNXBXlXlXlXlXjXdX<X>X:X,X<X1X1XxXeXeX,X3X2X7X7X&X#Xv.:.*.6 , : : < < < : : : : > > n n n n N c c b b b L U ( ( ] { I.E.I.P.[ ^ f g d g d g f i.i.D A H 3.7.8.1.H 3.l.{ d.s.s.s.s.s.s.^ ^ ^ [ [ ' ' ' U U U L b b b c k z n n > > > > : > > : * : > > @ * > > > > > > > > 5 5 m ;.0..X=X-XnXVXVXCX9X:XV.B.B.B.B.N.V.>XBXqX4X6X9XfXMXMX3X;X&X>X9XfX9X5X9XdXjXjXdXdXjXjXCXCXBXCXMXMXMXCXJXGX7X#Xb.:...: > , , > > : @ # # - - - - - w w k k k k z b b b ",
"n n k k w w w w w - * n %.:.:.,.9.B.M.N.2X0X0X0X&X2X3X0XjXjXjXkXjXwXqX,X:XV.Z.<X,X:X:XqXzXBXBXBXCXCXCXCXNXMXjXqX6XqXqXqXjXkXkXNXjXjXNXNXjXjXjXwXwXMXCXGXJXGXCXmX=Xv.:.%.%.%.m 6 6 6 , , 6 6 < @ > > w w k k c c c c B U U T ' ' ] L.[ _ D S Q i.i.i.u.u.s._ ! G M %.#...X.X.X.X.X.X.X.o.o.%.>.3.x.f.s.s.u.u.u.u.s.s._ _ ( ( ( ( b b b c c k k w = > > M %.6 %.>.9.v.M.%X=X7XnXCXCXBXAXBXCXCXCXCXBXBXBXBXzXxX1XZ.V.C.C.Z.1XxXxXhXqXkXzXlXlXlXlXlXNXNXBXNXjXdX6X6XqXhXjXjXjXjXjXwXCX3X&X&X:X&XM.M.0.2.*.m m , > > > > > > > > > > > * * = r n n N N c c L L L U ' 6.6.{ ` _ u.u.i.i.i.f f Q i.i._ ;.*.%.o.O.O.O. .O.O.$.$.#.V V ( u.t.t.g g g t.t.f f Q ! ( ( ) ) ] ' ) U U U Y V B B C n 5 > 5 5 > > * % % % * * * * * > > > > m 6 M ;.2.0..X=X7XCXCXCXMX6X&XC.N.<X1XhXzXzXzXxXhXjXlXlXlXlXlXNXNXlXjXfXfXjXjXhXhX,X:X:X:X1XxX1X,X&X&X$XM.v.9.>.%.5 : : > , > > > : : : : > > n n C N N B B B B B U ( ( ' ] ] { { I.P.[ / f g d d d p s f i.D F z C V <.*.*.M ;.3.{ d.d.s.s.u.u.u.u.u.u.^ ^ ^ ' ' ( ( U U L L L b B B B C n > > , > > > * @ : : : * @ @ @ @ * = > > > > > > 5 M ;.4.v.%X-XuX8X2X&XN.B.B.N.V.:X,XqXBX4X6XNXNXMXMXfX9X3X>X>X9XjXfX9XfXjXjXjX9X9XjXjXNXCXCXAXAXVXCXVX-X#X9.%.7 7 : : : : : : : @ * * - - = k k k k k k k c b b v A A ",
"N N N c c k k k k = = 5 > 5 6 6 ..&.,.,.v.$X2XuX2X2X0XwXjXkXkXkXqX1X,X:XV.V.Z.<X1X1XqXkXlXkXkXBXNXCXCXNXMXMXNXlXqX6XqXqXqXqXjXjXNXMXNXMXMXMXMXMXMXCXCXmXuX=X#Xv.=.%.6 6 m 6 , , , , , , 6 , , > > r r k c c c N c U R T T T ' ' ] { [ ! D D i.i.i.i.^ ! _ _ ( G %...X.X.X.X.X.X.X.X.X.X.o...%.>.x.x.a.p.s.u.u.u.s.d.d.` ( ( ( ] ( ( L b c c c k w n > M %.m %.#.6 %.;.:.9.v.#X&X8XuXMXVXAXVXCXMXBXBXlXkXxX1X<XA.A.Z.Z.vXxXvX1XxXxXlXBXBXlXlXgXgXgXlXNXlXjXdXdXjXhXhXqXwXjXMXMXMXCX&XB.v.v.9.:.=.*.C t > * > > > > > > > > > > : > > > n n n N B B N B U U ( ' ] 6.6.` _ _ i.i.i.i.i.i.Q ! u.p.` %.&.X.O.O.O.O.O.O.O.O.X.#.#.*.V ^ i.t.t.g d t.t.g f Q ! ! ( ] ] ] ] ] ' ) ) ) ) Y V C C n 5 5 5 * % * % * * * * % % % * * - > n n m m m *.:.9.0.=X-X9X9X>X&X>X6XhXhXxXkXkXkXxXxXNXlXlXlXlXNXNXNXNXfXgXdXjXlXlXkX1X,XZ.Z.rX1XrXZ.B.v.b.,.%.6 > : > : > > > > : : : : > > > n C C V B B B U U U ( ( ) ] ] { [ { { [ ^ Q f g d d p d g f S D A z 5 > , #.#.6 6 %.;.` d.(.s.s.u.u.i.i.i.i.u.^ ^ [ [ ' ' ' ' ( ( U U U U V C n 5 6 6 , , > * @ : : @ > * @ + % # * * - * * = > > n m m ;.9.b.v.#X&X:X:XZ.Z.:X,X,XqXkXMX6XMXBXgXgXNXfXjXdX5X5X9XjX9X9XMXjXjX0X6X6X6XjXjXMXMXMXnX7X&X#X:.%.6 6 5 : : > > > > : % + O O - = k k k k c c c c z z v b A W ",
"B B B N N c c c N w r r > > > : < 6 6 , %.9.M.=XiXuXuXpXpXwXwXqX,X:XZ.:X:X:X<X1X1XhXkXkXxX6XxXBXCXCXCXNXjXwXwXjXjXqXqX6X6XqXqXjXCXMXMXwXpXMXCXCXCXuX7X$Xv.9.*.%.m m > > > > > > < : > , , , , 6 r r n n c B U U R R T T ' ' ' ' ' ] _ ! D D i.i.i.Q ! ! ( ( G V %.X.X.X.X.X.O.O.X.X.X.X.o.o.&.:.c.x.x.d.f._._.f.s.d.d.` ` G ( ) ( ( ( L L B B N n C r m M m #.m 6 m 6 6 6 %.>.4.b.v.%X7XMXAXAXBXBXBXNXxXqX1X<X<X<X<X1XxXvX<X:X1XkXNXBXNXlXfXfXgXfXgXlXgXfXdXjXjXxXhXqXqXqXMXCXCX7Xv.>.&.%.6 7 6 > > r r > > * % > > > > > > > : > > > m M V V V Y Y Y ) ) ] { 6.l.l.l.a.p.u.! Q i.i.u.! _ p.` 3.#.X.O.O.O.O.O.O.O.O.X.X.X.#.#.C W / u.i.t.g d r.d g f Q ^ [ { { 6.{ ] ] ] ] ] 5.) ) Y C n n 5 > * > > > % + + + * * % % % % - > > > > n m M *.*.:.9.v.M.M.M.&XdXkXxXhXhXhXxXlXlXBXNXjXjXNXNXNXjXNXgXgXfXjXlXxXkXqX1X:XZ.Z.rXZ.N.,.9.:.%.6 : : : @ > > > * + * > + : > > > r n N B U U U U ( ( ( ) ] { { { [ [ [ u.^ f s s p p p f Q ! ! A 5 5 : 6 } , , , , ..M H ` d.d.s./.u.i.f t.i.i.^ ^ [ [ [ ] ' ' ' ' ' ( U U V C n 5 5 6 > > > @ + : * + % + + + % * * - = = * * - = > > > m %.%.=.0.$X2X4X:X:X1XqXqXqXkXjXdXAXNX-XgXJXNXDXlXdX6XdXdX9X6XMXwX9X4X3X3X6X9XjXwX0X3X%Xb.:.6 m : : > 5 : + : + % > > > = = - - w k k k k c c c z z z l v A A ",
"c B U U U N c N B N n n > @ : : < < , , 6 #.%.=.$XsX7XpXCXMX0X6X:X:X:X:X:X<X1XhXhXxXxXkXlXlXlXlXjXMXjXjXjXjXNXjXMXjXjXjXqXqXqXqXMX9XwXCXCXpXuXuX=X#X0.:.%.m m m 6 , > > > : : : : > , > , , 6 m m C C C B U U T R T ] ] I.I.P.P.] ] _ _ ! ! i.i.Q S A A ) 1.1.*.&.&.X.X.X.X.X.X.X.X.X.X.o.&.&.:.n.c. Xl.d.d.(.d.|.l.` J G G ) ) ( ' ( ( ( U B N N n r m M m m m m m m m m m %.%.%.%.>.9.b.%X8XJXHXlXBX<XqX:XhX:X<X1XqXvXqX<X<XqXjXNXlXfXfXNXNXlXgXgXlXlXlXlXjXxXxX1X1X,XqXBXMX2X0.:...6 6 5 < < > > > * * * * * * : : : % @ : : : : > M *.C V Y V Y 1.3.3.] 6.6.z.3.3.` p._ ! S i.p.p.p.l.z.3.%.&.X.X.O.O.O.O.O.O.O.X.X.X.....m ) ( [ u.u.t.g d d g g Q Q W ( ` ] ] { { ] ] ] 5.] ] ) V N n n 5 > > * @ # + + + + + % * * * * * * * > r m n m m %.%.%.o.:.M.fXAXlXxXxXjXjXjXlXNXBXNXNXNXBXBXMXfXfXfXjXfXdXdXxXzXzXkX1XZ.V.N.w.+.o...6 : : > > * * > > > > > > > : > > r n C N Y R U U U ( ( ' ) ) 5.5.{ ( W ! u.Q f s p p s s s E ! J G 5 5 , , } } } } } , , 6 C H { d.s.u.i.i.t.t.i.u.u.^ [ [ ' ' ' ( ( ( U U U U B N n n 6 6 > > > : > : * % % + + + + + % % % % = = * = r r m 6 6 6 6 :.M.&X4XrXeXeXqXqXwX9XjXjXNXNXNXNXNXgXzXhXhXdX6X6X6X9XjX9X4X4X,X,X,X,X:X>XN.,.o...6 6 : > > > > > > > > > * * * * = = k k N c c c b b b z z b z l b A ",
"b B U U U U U B B N n n = # @ : : : : : > , 6 m :.2.v.#X&X&X&X3X:XrX,X,X1X1X1X<XvXhXxXxXxXjXjXjXjXMXjXjXjXjXMXNXNXNXkXjXjXhXhXqXwXwXwXMXpX-X$X#X2.:.*.%.m m 6 , > > > > : : : > : : > > , , 6 m m C V Y Y ) Y ' ] ] L.L.I.I.[ [ ( ( ( W ! ! ! ! S A W ( 1.2.2.:.-.-.-.-.&.&.&.&.X.o.&.&.&.&.&.&.9.c. Xz.l.d.d.d.l.l.3.` ` ) ) ` ( ( ( ( ( ( U B B n n m m m m m m m m m m m m M m 6 M %.>.9.v.#X3X>XjX6X>X>XzXzXhXhXxXxXqX1XqXkXjXlXlXfXgXNXNXlXgXgXgXlXjXjXjXkXxX1X1XqX:X:X$Xv.:.#., < < : : : > > * * * * * * * : : * @ * > > : : , M V m C V V Y 1.5.3.3.6.6.3.3.3.l.a.a.p._ p.p.a.x.z.z.:.%.&.X.X.X.X.X.X.O.O.X.X.........m V ) { { u./ f g g g f i.^ ! W ( ( ] { { { ] ] ] ] ] ) Y B n n n > > > @ @ # # # # # # % % % * * + % > > > > > 6 %.6 7 %.b.&XdXlXlXlXxXjXjXlXNXNXBXNXNXNXCXNXMXfXfXfXlXlXjXjXhXqXkXkX1XZ.B.B.,.o.< : : : : @ * * * * > > > > > > > > > r n N N U R Y ] ] ] ] ] ] 5.8.5.) _ W Q i.f f s s s a f E W G H M 7 < < } | } } } , , , 6 m V ) ` s._./.i.i.i.i.i.u.[ [ [ ( ( ( ( ( ( T T U U B N n n 5 5 5 > > > > > > * * % % + + % % - % % * * * = w r m > > > 6 #.9.$X4XeXeXqXqXwXwXjXjXlXNXNXmXmXnXgXhXhXhXhXdX9X0X9X0X0X4X4X6X,X:X:XN.b.,.o.6 < < : : > > > > > * * % % % - = w n n N B B B B B B B B B z z z z z A ",
"b b b U U U U U U B N n > @ + @ @ : : : @ : > > 6 m %.:.,.9.v.N.:X:X,X,X1XqXqX<XqXqXhXhXjXjXjXjXjXfXjXjXfXjXMXMXNXNXMXkXkXkXhXhXkXMXwX3X%Xv.,.*.M m m 6 5 5 > > > > > * * * > > : > > > > , 6 m m C V ) ) ] ] ] ] ] I.I.I.[ ^ W W G G G _ ! ! ! A ( ) 3.2.2.:.-.-.-.-.&.&.&.&.=.#.%.&.&.&.&.&.&.:.9.c. X].l.6.` ` ` 3.` ` ` ` _ _ _ ( ( ( ) ( Y B N n n m m , , m m m m m m m m 6 6 6 6 6 M %.:.b.b.N.>X>XhXzXZXzXkXxXxXhXhXzXAXdXjXjXfXgXNXNXgXlXgXgXlXjXxXlXkXxX1X<X:XB.,.:.%.6 6 < : : > : @ @ * * * * * * @ @ @ @ @ @ @ > > > > 6 m M C C V V Y 1.3.3.3.3.4.3.3.3.l.l.a.a.a.d.a.z..Xv.:.%.#.&.o.&.&.o.....o.&.o.............m <.5.{ [ ^ / i.i.f f / ! ! W A G ( { { I.{ ] ] ] ] ] U B N n n 5 > > * * @ @ @ * @ @ + + + % % + % * % % * > > 6 : 6 9.&XdXjXlXlXlXlXlXlXlXNXNXNXNXNXNXCXNXMXfXdXfXjXjXjXjXjXqXkXeXrXN.B.B.,.-.< : 1 : : + + * * * = r > > > n > r r n N B Y Y ] ] L.E.E.I.I.{ W.8.3.) ( W Q Q f f s s f Q ! _ 3.3.;.%...| | | | } } } , , ..6 m M V ` d.(._.u.i.i./ u.s.s.[ { ( ( ( ( ( ( ( ( U U B N n n n n n r > > > > > > * * * * * * * * % % % % % * = > r > > > : 7 9.&X4XeX4XqX6X6X9X9XMXNXmXmXmXnXnXgXdXdXdXhXdX6X0X4X3X4X4XeX,X:XV.V.B.+.< < < : : : : > > > = * # + O ; % = n N B Y Y ) ) ) ( ( ) ) G G z z z z l l ",
"b z b b U U U B U B N n > * @ @ + @ : : @ @ @ : > , , 6 6 %.9.v.M.&X:X:X,XqXkXhXqXhXhXhXjXjXjXjXjXfXfXfXfXfXMXMXMXNXMXNXkXkXhXqXqXqX&Xb.9.:.%.5 M m 5 > > > > > > * * * * > > > > > > > > , m m m C V ) ) ) ) ] ] ] E.E.{ [ ! ! A G ( _ W W ! _ ( ] 5.8.2.:.-.-.O.-.-.&.%.#.#.%.M %.%.=.&.&.&.o.o.&.9. XXXz.7.6.` ` ` ` a.d.p.[ [ ' ( ( ' ) ( U B n n n > > > > m m m m m m m 6 m m 6 m 6 6 m 6 &.o.>.>X6XBXhXlXBXlXlXlXjXjXBXSX6XfXjXfXgXNXNXgXlXlXlXlXlXlXkXzXxX1XZ.N.,.o..., < 6 , @ @ > : + @ @ @ * * @ @ @ @ @ @ @ * = > 5 5 5 C V V V V Y Y ) 1.3.3.3.3.3.3.3.3.3.l.l.` ` l.z.c.v.9.&.X.X.&.&.%.#.6 , 6 m m m 6 6 ........t *.<.1.{ [ P.H././ Q Q ! ! _ _ ( ( ` { E.E.E.I.] ] ] U B N N n n 5 5 = = * * * * * * % + % % + + + @ % % @ * @ + 6 c.=XfXjXlXZXlXlXlXBXBXBXNXNXNXNXNXMXMXMXMXjXNXjX6X6XjXkXkXkXqX,X:XN.Z.Z.Z.N.,.7 1 + : @ * * * - = = > 5 n n n n N B Y ) ] L.E.E.E.Q.[.'.E.E.].6.` ( G W Q Q f f f f Q _ [ 6.c.9.:.&.X.O.O.O.X.....} , ......#.#.V 1.6.'.(.s.u.u.u.u.s.s.[ _ G ( ( ( ( ( ( T T U U B N n n n n n r r r > > > = * * * * * * * % + % % % % * * % > > : : 6 v.pX6X4X4X4X6X6X6X5XfXfXmXmXNXmXnXgXdXdXdX6X6X3X3X2X2X4X4X,XV.N.B.N.N.,.8 < < < : > > > > * * # % ; ; - = n N Y ) ] ] ] ] ] ] ] { { ) G z z z z l l ",
"b b b b ( ( U N B N n n > * # @ O + + % % % + % > : : > 6 6 %.:.,.B.:X4X6XqXkXkXhXhXhXjXjXjXkXjXfXgXgXgXfXnXMXMXMXNXMXMXkXkXqXqX,X:XB.>...6 6 6 m n > > > * * * * * * * * @ * > > > > > , m m m V V 1.) ) ) ] ] 6.E.W.l.d.` p._ _ _ _ _ A A ( [ { 6.8.2.:.&.O.+.O.-.&.&.#.t t t C C *.%.%.&.&.o.o.&.:.0. X X].].3.3.` ` d.d.s.s.[ [ [ [ ] ] ( U N n n = > * @ @ > > > , n 5 > > > n m m m 5 > > 7 : &.fXBXNX5XlXlXjXjXBXNXjXCXBX9XjXjXfXgXNXBXlXgXlXBXBXBXzXkXxXxXA.Z.N.,...< : : > > + + : : + @ @ : : @ @ @ @ * * * * * = n n C C C V ) ) 1.5.) ` 1.3.3.3.3.x.x.3.3.3.` 3.3.7.z. X.X9.&.X.X.X.&.%.#.m > * * r n n m m #.#.....#.#.*.Y ) I.I.[ _.^ ! ! ! _ _ _ _ _ _ ` I.E.E.Q.I.L.] T U N c N n n 5 = = - - - * * > > : * % + + + + + + + O O > 9.-XVXMXlXlXBXlXlXlXBXBXBXNXNXNXNXCXMXMXjXMXMXNXjXjXjXjXjXqX1X:X:X:X:X1XeXxXeX&X,.: 1 @ : * * = = w = = 5 5 n k N B U ] { E.E.[.[.[.[.[.[.[.'.'.{ ` G G _ ! Q Q Q Q Q _ { l.7.4.:.&.X.O.O.O.X.$.#.#.m 6 ....#.#.#.#.*.6.l.(._._.s.^ s.s.[ _ ( ` ` ) ( ( ' ( ( ' T U U B N n n n n w w w > = = = = * * * @ * * @ @ + + % % % % + * @ + 6 b.7XCX9X9X0X9X9X9X6X6X9XfXfXmXNXNXmXgXfXdX5X>X&X&X&X&X&X>X,X:XN.B.C.Z.Z.B.,...< < < > > > % + % % # - - 4 k N V ) ] 5.] ] ] 5.5.6.6.6.( A z b b b v F ",
"G A G ( ( ) ) U U B N n = # O + O + + % + + % * % % @ : > > > , &.B.4XMXkXkXkXhXkXkXjXjXjXMXMXNXfXgXgXgXnXnXMXMXMXMXMXjXkXqXqX1XqX:XB.,.7 : > 5 > * * > > > % % @ @ @ @ @ @ @ @ > > > > , m m V 1.1.3.5.5.5.6.E.W.].].l.` _ p.p.p.a._ _ A W ' I.L.5.8.2.&.-.+.+.-.-.X..., > r r N N C *.%.%.&.o.&.&.=.2.0.~. X X7.7.3.a.d.s.u.s.[ [ { { { { ] ) B B C n > * * + @ % * > > > > * > > n m n n > > : 7 b.JXAXdX9XSXjXfXlXNXNXmXMXMXfXMXMXfXjXNXBXNXlXlXBXBXzXkXqX1XA.C.N.N.,.&.6 1 @ @ * + + : > % @ @ @ @ @ @ @ % * - - - = w n N B B ) ) ] ] 6.E.E.6.3.3.3.3.3.x.x.x.3.K ` 3.z.c.c..Xv.:.X.X.-.-.&.#.m , > % w w r w r m m #.#.....m m C ) E.I.P.P.[ [ s.[ _ _ _ _ _ _ _ { (.Q.Q.I.I.L.' U b c c k n k k w = = = * > > > > > > @ # o o + + o + > c.=XGXVXnXBXDXhXlXlXlXlXNXNXNXNXNXCXCXNXjXjXMXNXMXkXkXkXjX6X:XV.V.:X1XxXzXkXxXeXpXv.6 1 + : > > r w n k 5 5 5 n c c U ) ] E.E.Q.[.[.[.[.[.[.[.'.d.p._ _ _ _ _ ! ! ! ! p.d.l.].7.:.&.X.X.O.O.O.X.$.#.m 6 6 #.#.#.} } #.*.1.5.E.'.(._._.s.s._ _ _ ` ` ` ) ' ' ( ' ' ' T U U B N n n k w w w = = = = = * * * * @ : : @ @ + % % % % * + o > 9.8XVX9X9X9X5X5X3X3X3X3X8XfXfXNXNXNXNXgXfXdX5X>X&X&X&X&X&X:X:XZ.V.C.A.1XA.Z.B.,...< : + + + O O ; - - = 4 k z B Y ) ] ] 5.5.] 5.6.6.6.6.( A v v v v A A ",
"G G ( ` { { ] ) ) Y V C = O O O O + % + + % % * % % * : @ + @ : ,.N.MXBXjXkXkXqXkXkXkXjXjXMXMXMXfXgXgXgXnXnXMXMXCXMXMXjXqX1X<X<XkXwX:XB.&.: : > * * * * > > > % # # # @ @ @ @ @ > > > n n m *.*.2.8.7.7.W.W.].].].].].l.` J g.p.a.p._ ! W ( L.I.I.!.1.=.&.O.+.+.+.X...< % % r y N y N C #.%.o.o.&.&.=.=.2.0. X7. Xz.l.a.f.u.i.i._ ` { '.'.'.6.6.5.1.) C n 5 > * % + + % % * % + * > > > > > > : %.,.7XJXVX9XBXAXNXfXjXNXNXmXnXnXCXCXCXfXfXBXBXNXNXBXlXxXqX,X:XZ.C.S.Z.Z.B.v.:.6 > * + % * % % > % @ @ @ @ * * * = = w w w N N B ) ) ] ] ] I.E.Q.E.E.6.6.3.3.l.x.x.x.x.3.3.l.z. X.Xv.9.&.&.O.-.-.&.#., > w w e e y y r t t #.#.....m m C Y 6.E.I.I.I.(.d.[ _ J _ _ _ J _ { (.'.Q.I.I.L.' U L L U N N k k k k w w r r r r r r > > : o 1 @ + o n 0.aXGXJXVXmXDXZXzXlXlXgXgXjXlXNXNXCXBXBXCXMXMXMXCXkXkXwXqX,X:XZ.V.:X1XkXBXZXzXxXqXMX&X,.6 : @ > > n n n n 5 5 5 n B U ( { E.Q.Q.Q.[.{.{.{.[.[.[.(.s.p.p.` ` ` _ _ W ! s.d.'.'.6.7.:.&.o.X.O.O.X.X...6 > > > , e.e.} e.#.=.*.Y 6.'.'.(.(.d.[ _ _ ` l.3.` ` ] ' ' ' ' ' T U U B N k k k k k k w = - - - * * * : : : > : @ @ % * % + * # 5 9.-XVXNX9XfX9X9X5X7X7X7X5XfXfXNXCXNXNXfXfXdXdXdX6X3X;X&X&X&X&XV.Z.A.A.A.1XA.Z.N.B.,.6 1 + + + % - - = 5 n k k B B ) ) ] ] 6.6.6.6.6.6.3.{ A Z v v v v W W ",
"A _ _ { { { { ] 6.5.Y V n ; O X O O O O O O O % % % % + + @ > %.M.4XBXjX6XwXkXhXkXkXjXjXjXjXMXNXjXgXgXfXfXjXMXNXCXMXjXqX1X<X<X<XhXhXkX>Xb.6 : > 5 > * + + + % % # # # @ = = = = > n n n C V <.1.2.8.7.]. X X X X X X].l.` p.p.f.d.p._ ! ^ [ I.E.5.8.2.=.-.O.+.+.o...< @ + % r r N N t N V %.#.o.o.&.&.#.=.0. X7.].l.d.d.s.i.t.t.! [ d.'.}.{.{.].W.6.5.Y C n n > * * + + % % % + + * % + + : : @ 9.M.JXMXMXMXJX9XNXlXgXNXNXmXnXnXVXBXCXfXfXBXBXBXBXlXxXqX<XZ.V.N.Z.Z.A.:X:X:X$X9., @ + % % + O + + + + + % * - = w w w k k N U Y ] { { { L.I.Q.Q.Q.E.'.l.l.l.l.x.x.x.x.x.l.z. X.X.X9.&.-.-.O.O.-.&.#.> * = w w w N y e r t t #.....#.#.m V 5.W.E.Q.I.I.{ _ _ _ p.p._ _ _ (.'.[.Q.I.I.L.' U L L U b B N c c k k k w r r r r r r 5 > 1 # > # # :.iXFXVXGXVXmXfXlXZXlXlXfXfXfXjXlXBXBXBXBXNXjXjXNXNXkXqX,X:XV.V.:X<XkXzXBXZXZXBXzXBXkXeX$X,.< + : n n n n k k k z B ( ( ] I.'.[.[.Q.[.[.OXOXOX[.[.(._ p.s.d.a._ ( ( W _ { '.].z.7.:.&.o.X.o.X.X.o.#., > * % > > t e.#.$.#.#.#.M 1.W.'.'.E.{ ` _ ` l.l.3.` ` ` ' ' ' ' ' T T U L c c c c k k k k w = - - * * * * * > > > * * * * @ + + : :.=XGXnX8XCXAXVXNXnXfXfXfXfXfXjXNXBXNXjXfX6XdXdXjXjX0X3X&X&X&XN.N.Z.1X1X1XZ.1XZ.Z.:XB.o.: 1 @ : > r n n n k N N B ) ) ] { { E.E.6.6.6.6.{ ` Z Z Z Z v v W W ",
"! ! ! A '.I.{ { E.6.6.5.1.V n 4 - # ; O O O O O X O % + + 6 9.$X9X6XjXjXlXlXlXhXlXlXlXlXjXMXfXfXfXfXjXlXlXhXhXxXqX1X:XZ.Z.:X1XxXxXcXcXBXHXJX#X%.+ + : + + > > O - - = 5 5 5 n n C N B B U Y ] 5.6.].XX X]. XXXXX X Xz.3.` p.p.p.s.[ ^ ^ [ [ { 1.*.&.-.-.O.-.-.%.5 ; ; % + > *.0.<.N y y R n m %.&.-.&.#.%.;.3.].].'.[.[._./.t.t.i.u.[ (.}.XX X].].].(.' U U B N N n n w = - - - % + + + o : :.&XCXCXCXCXCXCXCXNXNXNXBXNXNXNXmXmXNXfXAXHXlX<XkXZXhX<XZ.N.B.B.Z.<X<X<X1XhXhXhXwXwX0Xo.o + @ * - % * @ * * - w w k k k k B U ' L.L.I.I.E.Q.'.[.[.[.Q.E.E.l.l.l.d.a.l.l.z.|.|. XXXc.9.&.$.-.O.-.-.&.#.> = = ; 4 1.0.M - e N e w m , } #.#.m M V ) W.{.Q.[.[.(.[ u.p.p.u.! ! [ I.(.[.Q.Y.I.L.' ' W L L L L L c c c N k k n w - * * * @ > # o %.=XGX7X7X8XMXVXDXBXlXlXNXNXmXNXlXNXlXlXZXjXjXBXxX<X<XZXhXV.C.V.Z.1XkXzXSXZXZXZXAXAXDXNXBXeXeX:X9.7 : 5 n k k b L L W ' I.I.Q.[.[.[.OXOX[.OXOXOX{.[.(.{ s.p.p.p.d.s.[ ! [ I.E.].7.2.&.o.-.O.X.&.%.m , * * r r r r % r n 6 #.#.#...#.%.*.7. X].E.{ { { ` a.a.` ` ` ` ] ] T T T T T P L L c c c c c k k k w w = = - - - - w O n * + 5 @ o :.#XCXCX9X3X9XfXMXNXNXNXNXlXfXfXfXfXlXBXCXjXfXfX3X5X9XjX,XV.N.N.N.rX1X1XqXkXkX6XvXvX1X<X:XV.9.&...: : n C k k U Y ) ] ] { { I.E.E.E.W.E.6.6.` A a a u u a E W W ",
"! ! ! W (.{ { ] 6.5.5.5.) Y B k 4 = - % $ O O O O O O + 6 ;.v.=X9X6XjXxXlXlXlXlXlXlXlXlXlXgXmXfXlXjXdXxXxXqX<X<X:XZ.:XZ.:X<XxXzXcXcXcXZXHXHXmX$X6 + + @ + @ * = - 4 4 k n n n C N B B U U ' ] I.W.{.}.}.XXXXXXXX X Xz.` _ p.p.s.s.P.^ H.P.[ ` ;.&.O.O.O.O.-.&.M ; & & % @ ..,.M.2.V y y R N m %.&.-.&.o.&.%.3.z.|.[.[.[.`./.t.t.t.i.u.(.{.XX{.].'.'.(.[ W U U B N N k k k w - = ; # @ @ : %.M.BXMXNXNXNXCXNXNXNXNXBXBXBXlXNXlXmXNXNXBXBXhXhXxX1XZ.C.B.B.V.:X:X,X6XvXhXxXxXxXxXkXBXn.6 : + * k - * @ * = w w k k k k c b U ' L.I.Y.Y.Q.Q.[.[.Q.[.Q.E.6.l.l.d.d.a.l.l.].|.'.}.XXc.:.&.X.O.O.-.&.&.6 @ = 4 ; M b.M.,.m w c e w r > } #.#.m M M Y !.W.Q.Q.[.(.s.p.p.u.i.! ! [ P.(.[.Y.Y.I.L.' ' ~ ~ P P L L L L L c c c k k = = - = * @ > *.#XiXMX9X3X6XjXNXNXNXNXlXNXNXgXgXlXlXlXlXdXhXxXxXhX<XhXkX<XC.C.:X<XxXcXcXSXSXZXZXAXAXAXDXZX1X:X&XB.:.%.5 5 C B U P ' P.P.Q.Q.[.[.[.[.[.[.[.{.}.}.{.'.(.[ d.a.p.p.s.s.s.^ I.Q.Q.W.2.:.O.O.O.O.X.%.m m w - % r r N r & k w m ..#.#.....%.%.2.W.{.].E.E.{ ` a.a.a.a.` ` { ] T K.G.G.T P L L I b x c c c c k k k w w = - - - w - - - = @ @ ..M.3XMXjX3X9X9XnXfXnXmXNXmXgXfXdXlXdX5XdXNXCXMX9X;X3X6X,XZ.N.N.Z.Z.1XeX1XqXMXMX6X<X1X<X<XrX:XB.,.&.7 : n C N c U Y ) ] ] { { I.E.E.W.E.E.6.{ _ A a s s u a E W W ",
"! ! ! W { { { ] 5.5.5.5.) ) B B n n k k w - % % O X o : ;.v.$X3XdXjXxXlXlXlXlXlXzXlXlXlXNXNXNXNXBXjXhXkXxXqX<XZ.Z.Z.:X<X<XhXBXZXSXSXSXZXSXHXHXJXv.6 o @ @ + * 5 4 4 k n n n N B N B U U T ] I.I.{.}.}.}.}.XXXX X X].l.` _ p.p.s.[ P.H.H.P.P.` ;.&.O.O.O.-.-.o.6 O & % + < -.B.N.9.*.n N R N C *.&.-.-.&.&.%.;.l.].].{.[.)./.^.^.^.i.u.(.{.}.{.].{.[.(.[ ' ( R U N c c c c k k w = = @ : =.M.pXJXjXjXjXjXNXlXBXBXBXBXBXlXlXlXlXNXVXCXBXjX6XxXqXV.B.B.B.V.:X<X<X1XhXhXlXkXzXzXzXkXBX&X9.6 + # 5 - - - = w k c c c c z b U ( ] I.Y.Y.Y.Q.Q.Q.Q.Q.Q.Q.E.E.d.d.d.a.a.l.l.].|.|.}. X0.:.$.X.-.O.$.&.#.: % - - 5 >.V.Z.B.>.n w e e t > , #.#.m m M V 5.W.W.Q.[.(.s.p.i.u.i.! ! [ P.(.[.I.Y.T.I.P.K.K.' T T T L L U L L c c k k k w - - * @ M #XGXmX8X9X3X5XfXNXBXNXNXNXNXlXgXgXlXlXlXjXdXjXxXhXhXhX<X&X&XV.V.1XxXcXZXZXSXSXSXZXDXDXAXAXZXrXV.V.&X%Xb.%.C H ` ( ' I.Y.Y.[.[.[.[.[.[.[.[.[.[.}.}.[.'.{ [ s.s.s.s.p.p.s.P.).[.{.7.2.&.O.O.O.O.X..., > = - % > m <.n - c - r 6 #.#.#.#.#.%.*.8.W.{.{.'.(.{ a.a.a.l.l.{ { ] ' K.G.T P ~ L L L b c x c c c k k k k k k w w w q k $ - 5 + 6 v.8XMXMX6X6X9XfX9X9X8XfXfXfXfXfXfXlXfXdXdXNXCXCXCXnX7X&XV.V.V.Z.rX1X1XxXeXjXMXNX6XhXvX1X1X1XrX:XN.b.:.6 5 C B U ( ) 5.] { { { I.E.W.E.E.E.d.{ ( Z a a a u Z W _ _ ",
"Q ^ ! W [ I.E.6.6.5.5.5.] ) ( B N N n n k k w = * o + %.v.&X2X0XjXxXlXzXzXzXzXzXzXzXlXlXNXNXNXBXNXlXkXkXxX1X<X<X<X<X<XhXxXzXAXAXSXSXSXSXSXAXJXHXGX9.5 # @ > > - 4 k k n n N B B B U U ) ] { I.E.{.}.}.}.XXXXXX XXX].{ _ D p.u.s.[ P.P.H.P.P.] ;.&.O.O.O.-.&.6 > $ w % < ..w.S.S.B.>.C N N y N V =.-.-.-.&.%.;.3.].].{.[.)././.^.^.i.u._.[.}.}.{.{.|.'.I.I.] ] ] U U L b c c k k N - # M v.pXGXpXjXjXjXjXNXlXBXBXBXBXBXBXlXlXNXNXCXCXCXjX6X1XZ.B.B.C.Z.<X:XZ.1XxXlXlXzXzXzXzXzXzXkXMX=X9.5 @ = - = = k k c c c c c b U ( ' L.I.Y.Y.Y.Q.[.Q.Q.Q.Q.Q.E.6.{ a.a.a.a.l.6.].|.|.}. X4.=.X.X.-.O.$.$...> % - - 7 n.A.S.Z.,.6 w e r t r , #.#.m m m C 1.W.Q.Q.[.)._.s.i.u.i.i.! [ [ (.).Y.Y.Y.Y.Y.I.I.I.' ' T T T T U L L c c k k w - - * m 0.iXJXuX7X8X3X5XdXNXBXNXNXDXNXgXgXgXlXlXlXjXjXjXjXjXjX6X&XN.&X,X6XxXZXZXcXcXcXZXSXSXAXDXDXZXxX:XV.:X6XNX-Xc.;.1.3.] I.Y.).).[.[.[.[.[.[.[.[.{.{.}.{.[.(.{ [ s.s.s.s.p.u.s._.[.[.{.8.:.&.O.O.O.O.X.6 > % % > * 6 :.0.V - N w r , m #.#.#.#.#.m <.W.{.XX}.'.d.a.a.l.l.l.6.{ ] ' ' K.' ~ W W L L I b b b b c c c c c k k k j w w n $ - * + 9.8X8X9X9X6XjXNX9X3X8X5XdXfXgXfXfXfXfXBXDXNXfXfXCXJXJX7XM.B.V.:X1X1XeXxXxXxXkXkXjX6XkXxXxX1X1XrXrXrX&XB.:.M C V ) ) ] ] { { I.I.E.E.W.W.E.E.d.[ A F a a u a Z W [ ( ",
"Q Q Q ! _ I.'.!.!.5.5.5.] ) ( ( B B N k n n n n > > m 9.&X9XpXjXkXlXlXzXzXzXcXzXzXzXlXlXBXBXNXNXBXlXlXkXhX<X:X<X1XxXxXzXZXDXSXSXLXSXSXLXSXSXAXHXLX8Xc.5 + > n - k k c N N B B U Y ) ] ] { I.'.[.{.}.}.}.XXXXXX].XX'.` W ! Q i.u.^ P.U.H.U.P.{ ;.&.O.O.O.-.&.5 % % r > < O.m.S.h.S.,.6 n N N N V =.-.-.-.&.o.%.3.].].].{.[._././.^.t.u._.'.}.}.}.{.{.[.).I.I.I.I.] ' U L L b c k n = 6 c.iXCXMX0XjXxXjXlXNXzXBXBXBXBXBXBXNXBXBXBXCXNXAXAXqX:XV.B.V.Z.1X1X<XZ.<XxXlXBXNXlXzXzXzXBXjXAXCX=X9.M = 4 4 k k c c L I I L U ( ( [ I.Y.Y.Y.Y.Q.Q.Q.Q.Q.Q.E.E.6.{ a.a.a.a.l.l.].}.|.].].2.=.X.X.-.O.&.o., r w - # 8 m.A.h.S.m.o.> w N y t , #.#.#.m m C Y W.[.[.[.)._.s.p.u.i.i.! ^ [ (.).Y.Y.Y.Y.Y.Y.I.I.L.' ' ' ' ' T T T L c c k k k 5 5 4.=XFXuX8X7X;X3X6XdXlXNXNXNXDXlXlXgXgXlXlXlXlXdXjXCXCX&XM.M.&X>XNXBXNXAXZXxXzXxXcXSXSXAXDXBXzXvXvXvXhXhXBXVX-Xc.3.) 6.'.Q.Y.[.[.[.[.[.[.[.[.[.{.{.}.}.'.'.{ _ s.s.s.s.u.u._.).[.{.W.8.=.&.O.O.O.O..., % % - > : o.9.v.*.* r e r > m m #.#.#.m m <.8. X}.{.].'.` { l.l.l.l.{ ] ' ' ' ' ~ W W W L L I I I I b b b c c x c x j w w w - = o 5 =XmX7X5X6X6XdXjX9X5X5X5X8XfXdXfXlXlXdXjXNXMXnXMXnXuX8X=XM.M.&X:X,X1XeXeXeXeXkXkXjXjXzXzXxXxXeXrXrXrX4X&Xv.:.V V ) ) ] { E.E.I.E.E.E.W.E.6.6.{ _ A l u a u v E ' [ ' ",
"Q Q Q ! W '.{.W.W.!.5.5.] ) ( ( ( U B B N n n n > M 9.#X0XMXBXkXNXzXzXzXcXzXcXzXzXzXlXBXBXNXVXNXAXZXzXxXqX<X1XqXxXxXcXZXSXSXHXLXHXAXDXSXSXSXSXHXDXHXmX4.# * n k k c B B U U U Y ] ] { I.E.E.'.[.{.}.}.}.XXXX}.].}.l._ ! Q Q Q ^ H.U.U.H.P.I.{ H &.O.O.-.-...> % w w % < -.S.S.h.S.+.7 n N R R R =.-.-.-.-.o.%.3.].].].{.[._././.^.^.i./.).}.}.}.{.[.'.[.[.Y.Y.Y.I.L.' T T U B B k C 4.-XVXnXpXBXjXxXxXlXlXlXBXBXlXlXBXBXBXBXBXBXCXMXAXBX:XN.V.Z.<XZ.Z.<XqXvX<X6XlXNXlXlXkXkXkXkXjXAXGXCX=X:.5 * k k c c L L L L ( ( ( ] ] I.Y.Y.Y.Y.Y.Q.Q.Q.Q.Q.E.E.l.d.a.a.a.a.z.z.].}.|.].z.:.$.X.O.-.-.&.X., w q - # 8 m.A.j.S.m.&.> w c e r > t #.#.#.m C V W.[.[.[.[.(.s.p.u.i.i.! ^ [ (.).Y.Y.Y.Y.Y.I.T.T.L.L.L.K.K.' ' ' ' L b c c k k n ;.#XGXVX7X7X7X&X3X6XjXNXNXNXNXBXlXlXgXgXlXBXNXNXjXBXJX0X9.o.>.M.&XAXJXBXSXZXhXzXhXzXZXSXAXDXBXlXxXzXZXZXhXNXJXJX*Xz.1.6.{.Q.Y.[.Q.[.[.[.[.[.{.{.{.}.OX}.|.(.{ _ p.u.u.u.u.u._.).[.[.W.2.=.-.O.O.O.X.#.r w q - > 7 >.n.B.>.> e e w w r m m #.#.m #.*.1.W. X{.|.'.{ { l.l.z.l.{ ] [ ' ' ~ ~ ~ W W ~ P L L L L L L I I b c x x x k w $ w > O :.FX9X9X9X6X6X6X6XdXdX6X8X5X6XdXfXlXBXBXjX9XfXVXAX-Xv.9.v.#X2X3X:X:XeX1XeXeXeXqXqXjXjXxXxXxXxXeX1XrX1XeX0X&Xv.2.;.1.3.{ I.E.E.E.E.E.W.E.E.6.6.` D Z Z u u v v W ' [ ' ",
"i.i.Q ^ v (.{.W.W.!.!.5.] ] ( ( ] ) ( U B C C M M 4.#X2XwXBXBXkXBXBXzXzXcXcXcXcXzXzXlXBXBXNXNXNXAXkX1X,X1XqXvXxXxXzXZXSXSXSXLXLXJXJXDXDXDXSXSXSXDXLXHX*X;.5 n N B U U U Y ) ] ] { E.E.E.E.'.'.[.{.}.}.}.XX}.}.].|.d.! Q E Q Q / H.U.U.H.H.I.{ H :.-.O.-.&...> % w % % , -.m.S.h.m.+.5 n R R R N =.&.-.-.&...%.4.].].{.{.[._././.^.^.i./._.}.}.+X}.[.[.[.[.).Y.Y.Y.I.K.L.' ' U B B 4.*XFXVXuXMXAXjXxXxXxXlXlXlXlXlXlXBXBXBXDXDXNXCXCXMX&XB.B.:X,X1X:XZ.1XxXxXhX6XjXMXMXjXjXkXMXBXjXAXMXCXnXv.M 5 n N b L L P T ~ ' ' ' ' L.I.T.Y.Y.Y.Y.Y.Q.Q.Q.'.E.l.l.d.a.a.a.x.z.].].}.].].z.:.#.X.O.-.-.&...> - q q - 8 m.S.j.S.S.&.> w c e w * t #.#.#.m m V W.[.{.[.[.).(.s.p.u.i.i.^ ^ _.).Y.Y.Y.Y.Y.T.L.T.I.I.L.L.L.K.K.' ' L L U b k N H .XtXVXmX7X7X3X&X6XdXlXBXBXNXNXNXlXzXlXlXBXNXNXNXAXVX7Xb.7 1 6 ,.M.BXHXBXHXSXlXZXlXcXcXZXAXZXDXzXzXcXSXSXzXBXSXJXiX.Xz.z.].[.[.{.[.[.[.[.OXOXOXOXOX}.}.}.|.(.s.! i.i.u.u.u./._.).[.].8.*.&.-.O.O.O.X., r e e - @ 7 D.D.D.,., e e w w = n m #.#.6 #.#.<.7. X{.|.|.{ l.l.l.l.l.l.{ [ ' ' ~ ~ ~ W W ~ P P P P P P L L I I b x x x x k % r 5 m .XmX8XfX6X6X6X6X6X6XjX6X6X6X6XdXfXlXBXNXNXnXfXnX-Xb.6 6 :.v.7X9X4X4XwXeX1X1XqXqXqXqXhXxX1XxXxXeX1XrX1XeXwX0X$Xc.2.;.1.{ { E.E.E.E.!.W.E.6.6.6._ F F Z Z v v v W ' ' ' ",
"i.i.Q ! v I.{.W.W.!.E.6.{ { ( ( ' ] ] ] ) H *.%.:.M.9XMXMXAXAXzXBXBXzXzXcXcXcXlXzXzXlXlXNXNXVXVXjX:XN.V.:X<XqXhXcXZXSXSXSXDXDXHXHXLXLXSXSXSXSXcXLXSXLXKXv.M n n U U ) ] ] ] ] I.E.E.E.E.E.'.'.'.{.}.}.}.}.}.}.}.|.s.! Q Q f Q / H.`./.J.H.P.{ *.:.-.O.-.&.6 - - w - % , &.m.S.S.m.+.5 N R R R N =.&.&.-.&...%.4.].].{.{.[._._./.^.^././._.}.}.+X+X{.{.[.[.[.Y.).Y.Y.Y.Y.I.{ ( B 7..XtXmXmXMXNXjXxXxXxXxXjXhXjXjXlXlXBXBXBXDXNXBXMXCX0Xb.,.B.2X4X,X,XqXxXxXdXhXlXjXMXMXjXjXkXMXNXMXAXMXnXJX-X9.M C B U U T T ' ' ' ' ' ' L.L.I.T.Y.Y.Y.Y.Q.Q.'.'.E.l.l.d.a.a.a.x.].].].}.].].z.:.#.X.O.-.-.&.#.> - q q ; 5 ,.S.S.S.m.&.* c L e w % t m #.#.m m V 7.].}.{.[.[.(.s.p.i.i.i.! u._.).).Y.Y.Y.Y.Y.Y.L.I.I.I.I.I.I.K.K.L.' ' ) U B ) 7.FXtX-X8X8X7X3X3X6XjXlXBXBXNXNXNXlXlXlXlXBXNXBXVXJX7Xc.7 1 # 6 %.b.nXJXBXLXHXBXSXZXcXlXcXZXAXAXZXzXxXcXSXZXZXSXAXmX-X.Xz.W.{.{.{.[.{.[.{.OXOXOXOXOX}.}.}.'.(.s.i.i.i.i.u./._._.).[.].8.*.$.-.O.O.O..., w e e w @ o.m.D.D.n.m q e e w w r m #...6 #.m *.8. X}.|.|.3.l.l.x.z.x.l.{ ] ' ' ~ ~ ~ ~ ~ ~ ~ P P P P P P I I I I x x x k N * n m 4.tX8X9X6X6X<XdXdXdX6X6XdX6X5X5X6XdXlXNXfXVXVXuX%Xb.6 o : 6 :.#XuXpXwXqXqXeX1XeXqX1XqXqXxXqX1XxX1X1XrX1XeXeXwX7X#X4.:.2.3.{ E.E.E.E.W.W.6.6.6.{ _ F F S Z Z v v W ' ' ' ",
"i.i.i.! _ ( { W.W.!.E.6.6.{ { [ ' I.] Y 1.1.M %.#X7XCXAXBXZXBXkXzXzXzXzXzXzXzXzXlXlXNXNXVXVXVXCX&Xn.>.n.:X6XhXlXZXZXZXSXLXHXHXJXJXJXHXSXSXSXZXZXDXSXDXJXIXc.5 C Y U ] ) ] I.' I.Q.Q.Q.E.E.'.[.{.{.{.{.}.XX].].}.|._ Z a Q f / H./.U.U.H.H.[ ) ;.&.-.O.-.&.> % $   & - + 7 n.Z.S.,.%.r y R y y t *.%.X.X.&...M 3.].|.{.{.[.(._././.t.i./.`.|.}.}.{.{.{.{.{.[.[.[.U.Y.Y.I.L.{ { ` oXtXFXFXnXMXjX6X>XhXlXhX6XhXlXlXZXNXBXAXAXlXmXAXJX7X9.7 7 ,.2X4XwX,X>XhXhXdXdXZXMXCXMXNXNXNXNXjXjXjXfXfXNXnX%X4.V N U ] T P K.' ' ' ' ' K.L.L.L.Y.Y.Y.Y.Y.I.E.'.'.{ ` l.a.a.a.x. X].].].].XXc.=.$.X.O.O.-.&...> & q q & # 8 ,.A.A.,.6 w e x q w - > t #.#.#.#.m 5.].}.[.}.[.(.(.p.p.p.u.! ^ _.(.).).U.Y.Y.Y.Q.Y.I.I.I.I.Y.Y.Y.I.L.' ] ] U B ].FXtX-X-X8X9X8X5X9XNXNXlXlXBXNXNXlXlXhXcXDXlXNXVXnXmXb.7 o o # > 5 :.-XHXJXJXHXSXDXDXDXZXZXZXZXDXZXcXcXZXZXZXZXBXNXJXFXyX X].{.}.{.}.OXOXOXOXOXOXOXOX+X}.}.[.s.i.Q f i.i.i.H._.).).{.].<.=.&.O.O.O.$.} > w e q - > o.D.D.+.v.> e e e q w = 5 #.....#.#.*.1. XXX|.}.l.x.x.x.x.x.l.l.{ ' ' K.K.G.G.G.P P P P P P P P I P P I x x c k n n m 2.=XFXuX5X6XdX6X<X6X6XdXdXdXdXdXdXjXlXNXjXAXnXnX%Xb.6 o o @ > %.9.$X7XpXwXwX4X,X,X1X1X<X<X:X1X1XvX1X1XA.Z.1X<X4X4X=Xv.9.1.6.E.E.E.6.E.W.E.W.6.3.` G F F S A v v W ' [ [ ' ",
"i.! ! ! _ [ { E.E.!.E.E.6.{ { ] ] ] ] ] 1.V ;.:.-XfXBXZXZXZXZXzXlXlXlXzXzXkXlXlXlXBXBXNXAXJXnX=Xb.&.o.,.N.6XjXNXHXHXSXSXSXDXHXHXJXJXHXSXSXSXZXZXcXSXSXJXIX*X;.V ) ) ] ] ] E.] E.Q.Q.[.Q.'.'.'.[.}.{.{.}.].].].@X(.! a a f Q / H./.`./.U.U.P.` ;.&.-.-.-.&.> - &     & # 5 ,.B.B.>.M t y R y y t M %.X.X.&...%.3.z.'.].{.'.(._.u./.i.i./._.|.}.}.}.{.{.[.[.[.[.[.Y.Y.Y.Y.{ ] 6. XtXFXGXmXnXNXjX6X6XhXlXhXdXjXlXBXNXNXNXAXAXNXNXAX7Xv.%.: : &.N.4XpX0X9XjXBXlXdXdXNXMXMXNXCXBXNXdXdXjXMXfXnXfX&Xv.3.V B ( ' ' ' ' ' ' ' [ K.L.L.L.Y.Y.Y.Y.I.I.'.'.l.` ` a.a.` x.z. X].].].].XXc.=.$.X.O.O.-.&...> &   q q - 7 +.B.N.,.> q c b j & % > t m #.#.#.m 8.].{.[.[.[.'.(.p.u.u.! ! s.s._.).).).Y.Y.Q.Q.Q.Y.I.I.Y.Y.Y.Y.P.P.] ] ] ) 1.XXaXiX-X8XuXfX9X9XdXNXlXlXlXBXNXBXlXdXZXSXDXdXMXVX7Xb.%.# o o + > 5 =.#XmXJXJXHXAXDXDXBXlXlXZXDXDXZXcXcXZXZXZXZXcXBXJXJXmX*X X].{.{.}.}.{.{.{.OXOX{.}.}.}.}.(.s.i.i.f i.i./ J._.`.[.[.].*.%.-.O.O.O.$., % e e q - > o.D.D.D.b.+ e e e e w = 5 #.....#.#.*.1. X}.{.}.x.x.x.x.x.x.x.l.{ ' ' K.G.G.G.G.G.~ ~ ~ P P P P P P L b c c c N n n *.v.iXnX5X9XhXdX6X6XdXdXdXdXdXdXdXdXjXNXNXCXnXnX-Xc.%.@ o o + * 6 *.0.$X7XpXMXwXqXeX1X1X<X<X:X1X1X1X1XrXA.A.rXrX,X,X2X#Xb.2.5.6.6.6.6.E.W.W.W.5.) G A F F Z v b b W ( [ ' ( ",
"! ! ! _ _ ' { E.E.E.E.E.E.{ { { L.' ] 6.) V 2.b.NXBXZXzXBXZXZXZXlXlXlXkXlXlXjXjXdXCXAXCXVXCX%X9.*.7 : %.v.7XAXJXHXHXHXHXSXDXHXLXHXHXHXSXSXSXSXSXcXSXHXHXIXKXoX1.) ) 6.] ] E.I.Q.Q.[.[.[.'.'.'.[.}.}.}.{.].].].@Xd.! a a E / ^ _.U.U.J.H.P.[ ) ;.-.-.-.-.#.> & q     & & @ %.,.9.m C N y y y t t M %...X.$.o.%.3.z.'.].{.'.'.d.s.u.i.i.u._.(.[.}.}.}.{.{.OX[.OXOX).Y.I.E.{ { ].yXFXGXVXnXfXlXlXhXdXdX6X6XdXlXBXBXlXCXBXBXAXAXNX9Xv.%.: 1 1 7 9.2XMXMXMXNXBXDXcXfXlXjXMXNXBXBXjX9X9XMXCXfX9X9X8X-X.X7.V U ] L.' ' K.K.' L.K.L.L.L.Y.I.Y.Y.I.I.'.l.l.` ` a.3.3.x.z.].].].].]. X0.=.$.O.O.O.-.&...: &   q q & # ..&.,.#.- e c b j & - > t m #.#.#.m 8.].{.[.[.[.'.(._ _ _ p.s.s.[ [ ).).[.[.[.Q.Q.Q.Q.I.Y.I.Y.Y.Y.L.] ] ] ) 1. X*XtXiX-X8XnXnXfXdXjXlXlXlXlXlXDXNXNXgXDXSXNXfXCX-Xb.7 # o o + + @ > M 4.%XmXIXHXVXDXDXlXlXBXZXZXZXZXZXZXZXZXZXcXcXlXAXJXJXtX.X].].}.}.}.}.}.}.}.OXOX{.}.}.|._.u.i.t.f t.f g J.`.`.OX[.].*.&.-.O.O.O.&.t * e e q & = 7 +.n.n.9.O e y e e w = 5 ......#.#.#.1.].}.{.}.x.x.x.x.x.x.x.l.{ [ ' K.T.G.G.G.G.G.G.G.~ ~ P P P P L c c B B C n M 0.=XGX8X;XjX6X6X<X<X6X6X6XdXdX6XdXjXlXBXNXCX8XnX#X*.# o + + + + : , %.0.=XpXMXkXqXqX1X1X<XrXrX1X1X1X1X1XA.A.A.rX<X:X2X:XM.9.2.6.6.6.6.6.6.6.5.) B z z F F v z b G _ _ ' ' ( ",
"_ _ _ _ _ ( ] { I.{ I.E.E.E.E.I.I.] 6.6.V ;.v.%XAXBXlXlXlXzXcXlXlXlXlXxXjXjXjXfXdXMXCXCXnX=Xc.%.6 > : 6 :.#XCXJXAXJXHXHXHXHXJXJXHXHXHXSXSXSXSXSXDXDXAXHXJXIXmXc.H ) 6.] ] E.E.Q.Q.[.[.[.'.'.[.{.}.}.}. X X].].|.p.! a f / ^ P.).J.J.J.H.P.[ ) %.-.O.O.-.#.> q q 9   q & + : ..%.> n R R y R y r M %.&.$.$.o.%.3.z.'.].{.].'.d.s.s.u.u.u.s.s.(.'.|.|.{.{.OXOXOXOX[.[.E.E.6.z.oXFXFXmXnXfX6XjXlXxXhX>XV.&X6XNXBXNXNXBXAXAXJXJX7XM.*.: o o o : :.M.iXCXCXnXfXDXDXlXNXjXjXNXCXjX9X5X9XMXMX9X9X9XnXnX=X.X1.B ] ] ' ' ' ' [ [ I.I.I.I.I.I.I.I.I.'.l.l.l.` ` l.x.x.x. X].].].].]. X0.=.$.O.O.O.-.$.6 @ & q q q & O < ..} , r y x q q k - w t #.#.#.#.#.8.].{.[.[.[.Q.E.[ _ _ s.s.s.[ ^ _.(.[.[.'.Q.Q.Q.[.[.Y.Y.Y.Y.Y.I.' ] ] 1.7.#X7X-X-X-X8X8XfXdXdXjXlXlXlXlXlXDXDXBXAXlXfXNXVXnXv.7 # 1 o + + + + * > %.9.%XVXJXAXAXAXDXZXZXZXZXAXAXZXZXZXZXcXcXcXlXDXAXJXKXyX X XXX}.}.}.}.}.OXOXOX}.OXOX|._./ f t.g f f g J.`.`.[.'.W.*.&.-.O.O.O.&.t % q e q q - 7 o.n.b.;.O c c e e w = > ......} #.#.1.].}.[.}.z.x.x.x.x.x.x.l.{ [ ' K.T.K.K.G.G.G.G.G.~ P P P P P L c B C C M 5 :.#XuXCX8X>XjX6X<X<X<X<X5X5X5XjXdXdXjXjXNXNXMXnX=X9.6 o o @ O % % * > 6 ;.v.2X9XwXkXqX1X1X1X<XrX1X1X1X1XA.A.A.Z.A.rX:X,X4XN.b.4.7.7.7.6.6.{ { B B z z b F l l b G ) ` ` ) ) ) ",
"G G ( _ _ ' [ { I.{ I.I.E.E.E.E.L.L.E.5.V 4.=X5XBXzXxXlXzXlXlXlXNXNXjXxXjXjXjXjXMXMXCXnX=Xc.%.M > * @ @ 6 9.=XJXJXJXHXJXHXLXHXDXHXSXSXSXSXSXSXSXHXmXAXLXJXHXKX*X3.H 3.5.] E.E.E.Q.Q.[.[.'.'.{.{.[.{.]. X Xz.l.` _ D S Q ^ P.P.U.U.J.J.U.P.{ 1.*.-.O.O.-...* q q 9 9 q w O + < 6 > n R R y R N r M %.&.$.-.X.%.4.z.].].{.].'.l.d.d.d.s.s.s.s.s.{ (.'.{.}.OXOXOXOX[.[.'.6.7.oXtXFXiXnXMXjXdXhXxXlXxX&XM.V.6XBXBXCXBXJXJXJXJXnXv.>.5 # o o o # M :.$XuXGXnXdXgXDXlXBXjXjXNXNX6X3X3XfXnXfX9X9XfXMXuXuX=X0.V ] ] T L.' ' [ L.I.I.I.I.I.I.I.I.6.l.l.l.3.3.3.x.l.x.x.z.].].{.].]. X0.=.$.O.O.O.-.$.6 @ w q q q & + < ..} < r y y e q k w = r #.#.e.#.#.2.].{.'.[.[.Q.E.[ [ ` d.s.s.[ ^ [ s.(.(.'.E.E.Q.[.[.[.Y.Y.Y.Y.I.L.] 5.8. X$X2XsX&X;X5X8X9XdXjXlXlXlXzXlXlXDXDXDXHXfXfXAXCX%X>.1 # 1 + + + + + @ # M >.9.*XJXHXHXHXSXZXDXZXZXZXZXAXAXZXZXZXcXcXzXlXNXAXJXtX.X X X].}.}.}.}.}.}.+XOXOXOX`.u.f g d d g g J./.`.).Q.'.7.*.&.-.O.O.O.$.r % q q q q - > 6 :.:.n ; N e e e w - > ......#.#.#.<.{.}.[.[.|.z.x.x.x.x.x.l.6.] ' ' K.K.K.K.G.G.G.G.~ P P P P L B B B C m m M v.-XnXMXfX6XhX6X<X<X<X5X5X8X5XjXjXqXjXjXjXfXfXVXb.7 # o o + O % * > > > M 9.v.2XwXBXkXeX1X1X1XrX1X1X1X1XA.A.A.A.A.A.Z.rXeX:XB.0.8.8.3.3.` ) ( b z z z z z A A G H ) ) ) ) ) ) ",
"G G G ) ` [ [ { { [ [ { { E.E.E.L.!.E.1.3..XnXNXBXlXzXcXcXlXlXNXCXNXNXjXjXjXjXMXCXCXCX-Xv.>.6 6 % % + + + m b.7XJXHXHXAXAXHXLXHXSXSXSXAXAXSXJXJXJXVXJXLXSXDXHXKX XH 1.5.] E.E.I.Y.Q.Q.Q.Q.'.'.].'.'.].7.7.7.3.G D D Q ^ [ P.I.P.U.J.J.H.P.{ 1.%.O.O.O.O...* $ q q q e w @ < ....6 n c I R R c n m %.&.-.-.&.=.4.].].].{.].].].l.'.'.(.s.s.s.s.[ { { '.[.{.{.[.[.[.{.].7.XXtXFXnXnXMXBXBXxXhXxXxXxX:XC.&XdXAXAXAXAXGXGXVX8X#X>.7 # ; O O o o > 5 0.=XJXHXAXNXNXlXBXlXlXNXfX>X>X5XnXfX9X9X9X9X9X9XCXiX#X8.1.Y T ] ' ' [ I.I.I.Q.Q.E.I.{ { 6.l.l.l.3.3.3.3.3.x.x.z.].].].].]. X0.=.$.O.O.O.-.$., % w e e q - @ ..-.&., % e c y e w - - r #.#.} } #.2.].{.'.[.[.E.E.{ { d.d.d.s.[ _ ! _ [ (.'.'.'.{.'.'.Q.Y.Y.Y.Y.I.I.5.5.0..X#X$XN.&X-X8XdXdXjXNXlXlXlXlXlXlXDXDXDXAXMXAXJX%X:.7 1 o o o o O + * * @ M ;.;.b.-XJXLXHXSXDXZXZXZXZXDXSXSXAXZXZXcXcXcXZXDXDXJXFX=X.Xz.].|.{.}.}.}.}.}.OXOX[._.i.g d d d g g /./.`.Y.Y.W.7.%.&.&.O.O.O.=.t % & q q q w % > M C - - c q e e w = , ......$.#.#.<.{.OX[.{.}.|.].z.z.x.z.z.6.{ ' ' ' ' ' ' ~ G.G.G.~ ~ P P P U B B C m m %.9.=XCXfXfXNXlXxXhXhX6X6X6X9XfXfXjXjXqXjXjXjX9X8XCX%.o o o o O % % % > > > 6 %.:.$X3XBXkXxX1X1X1X1XrXrX1X1XA.A.A.A.A.A.Z.rX1X:XN.0.2.1.1.1.) G G G B b b b G ( G V V V V V C V V ",
"H H ) ) { [ [ [ [ ' ' ' ] ] 5.5.L.E.5.5..X-XmXDXBXzXcXZXcXgXlXDXNXNXjXjXfXjXjXMXMXJXmXM.:.%.6 > - $ O + + : %.b.7XVXHXHXAXHXLXLXSXSXSXZXAXAXJXJXHXJXHXHXAXSXLXHXtX3.) 3.) 6.E.I.I.Q.Q.Q.Q.E.E.'.'.'.6.5.2.2.H G _ p.u.u._.I.I.I.U.U.J.U.P.{ 1.%.O.O.O.O...* $ q e e e r , $.,.,.%.n c I P I c N n %.-.-.-.-.=.2. X].].W.W.W.W.7.6.l.{ _ p.d.d.s.[ [ { I.E.Q.Q.[.E.W.W. X*XFXGXuXMXNXNXlXkXxXxXxXhX6X6XjXNXCXAXJXAXCXVXiXM.>.7 : o O O O o O # @ M v.iXHXHXAXDXDXBXlXlXBXfX>X-XgXnXfX9X9X9X9XwXMXMXuX=X.X1.Y ' ' [ [ { I.I.Y.Q.Q.E.6.{ { 6.l.l.3.l.x.x.x.x.x.x.z.].].].XX]. X0.=.X.O.O.O.$.$., * w e e e w 5 &.m.,.&.> e y y e w w - > #.$.} } #.2.].{.'.[.[.Q.E.6.l.d.d.{ [ [ [ _ _ _ { d.'.'.'.E.I.I.I.Y.Y.L.L.E.) 8..X#XB.B.N.&X-XfXfXdXjXlXlXlXxXlXlXBXDXDXDXVXAXJX7X,.7 : # o o o o O O % * @ m M M 4.v.8XHXHXAXZXZXZXZXZXAXJXJXSXAXZXZXcXcXZXSXAXAXJXmX*X X].].|.{.}.}.}.}.OXOX).u.f g d d d g F./.`.`.Y.Y.!.7.%.&.-.O.O.X.=.r % & & q q w % % n N w w q q q e w r 6 ..X...$.#.#.<.{.OXOXOX}.{.].].|.z.z.z.l.6.] ] ] ' ' ' ~ ~ G.G.G.~ P P T U B V M 6 #.>.#X9XNXfXjXNXxXhXhXhXhXdXfXfXnXnXjXqXjXjXjXjXdX9X=X1 o X o # X % % % * * > > m %.9.$XqXhX1XvX1X1X1XrXrXrX1X1XA.A.A.A.A.Z.rX1XrX:XM.0.*.;.) H G b ( ( ( G ( ` ` G C m m m m m C C ",
";.;.) ) { [ [ [ ' ' U U U ) ] ] 5.5.1.7.*XiXnXSXZXzXcXZXlXgXgXDXjXjXdXdXfXjXMXMXuXJXuX9.M M 6 O - O O + + o : %.v.8XJXLXHXHXHXHXSXSXZXZXDXAXJXJXJXHXHXAXDXSXSXSXIX7.;.1.) 5.6.E.E.E.E.E.E.E.E.E.E.6.6.) H H H K l.d.d.d.I.E.E.!.Y.U.U.Y.E.6.:.&.O.O.-.-.#.* $ q e q % % , ,.m.m.,.6 w c R I I c m =.-.-.-.$.&.:.4.8.7.8.2.8.8.8.3.3.) ( _ d.d.s.[ [ [ [ { I.E.E.6.5.7..XtXFXFXnXNXjXdXxXzXzXxXhX<XdXNXAXAXjXCXJXCXCXmX=X9.7 : 5 ; X X ; O O + @ # *.#XiXKXVXNXDXBXlXBXBXdX>X5XNXfXfXfX9X6X6XwXCXMX0XuX*X4.) ] U { { { I.I.I.E.E.E.6.6.6.6.l.3.3.x.z.z.z.z.z.z.z. X X X X X X0.&.X.X.X.X.$.#.6 * w e e w 5 ..+.S.m.-.6 r e e w w w - > #.$.} } #.2. X].'.].[.W.W.6.6.6.{ ` _ _ s._ _ _ _ { 6.6.6.E.I.L.I.I.L.L.] ] Y 1..X$X0.w.N.&X5XfXfX6XfXlXjXlXlXlXlXBXDXDXDXBXAXnXv.6 : @ + o + # + O O + + @ 5 m %.:.9.%XJXHXHXAXZXZXAXSXSXHXHXSXAXZXZXZXZXZXSXSXJXJXJXtX.X].].].{.{.}.}.}.}.[._./ f g d d f g J./.`.).Y.Y.W.7.*.&.-.O.O.o.%.> $ & q q q w w * t V N k q x q e w n m #.$.X.$.#.#.<.{.+X[.OX{.{.].].z.z.z.z.].l.6.{ ] ) ) ' ' K.K.K.' ~ ~ T T U V V m 6 %.,.5XnXfXdXlXjX6X6XhXhXdXdXdXfXfXfXjXhXjXjXNXMXnXnXb.X o o X = X % % % % % > 5 m M *.b.:X4X1X1X1X1X1XrXrXrX1X1XA.A.A.Z.Z.A.rXrXrX,XsX0.;.;.1.H B b ( ] ] { 6.6.) C 5 6 6 6 m m m m ",
":.=.*.3.'.{ [ ' ( U U U U U ( ( 1.*.1..XiXGXAXBXBXBXzXzXzXhXhXhXlXNXdX>X5XNXMX9XGXuXv.:.m 6 : + O O O O O + @ : ;.#XVXJXJXJXLXDXSXSXZXSXDXAXAXAXHXHXHXSXSXSXSXSXAX.X;.;.7.1.Y 7.5.5.!.!.!.!.E.6.7.7.7.3.3.3.3.4. Xc.4.8.8.8.8.W.E.!.!.W.7.9.:.&.-.-.-.-.#.* $ q w % + 7 +.m.m.m.m.&.6 n c I I y m $.$.$.X.X.X.X.$.$.%.%.%.#.%.%.M C C B ) [ [ _.[ P.' ( { ].W.7.7.2. XtXFXiX8XMXjXjXhXxXkXkXkXkX<XdXlXDXDXDXAXSXAXVX=X9.M > @ + O O O O o o O O + : =.#XmXJXVXNXmXNXfXfXNXfX5XfXdXfXfX6X5X5XdXjXqXjXCXiX.X1.Y ] ] { { { I.I.I.{ 3.` 3.l.z.z.z.z.z.z.7.4.4.9.9.9.0.0.0.0.c.9.,.-.X.-.-.$.$.#.n w ; n O * o.+.S.h.h.@.O., > r = - $ r V =.#.e.$.$.q.2.2.8.8.8.2.1.2.2.1.) ) ( _ _ _ _ ( ) ] ] 5.5.E.L.] ] ' ' ' ( ) N 4.*X#XN.:XN.:X>XdXjXfXfXgXgX5XHXgXgXAXZXAXgXgXJX%X6 @ @ # + O ; % % % + + @ > > m *.;.:.v.-XGXJXJXNXSXSXZXZXSXSXDXDXZXZXZXZXSXDXBXAXJXJXnX-X X].XXXX].XX+X'.(._./.i.f g g g ^ ^ P.P.Y.Y.[.'.].7.:.&.o.O.O.O.o.5 ; & 9 e e w % < &.0.2.r w N e e w w m %.$...#.} m 1.{.+XOXOXQ.{.].7.].z.z.z.z.l.6.6.6.5.5.] ' K.' ' ' ( ' ] ] Y V *.m 6 ,.&XSXBXjXjXjXjXdX6X6X5X6X6X9XfXfXfXBX>XfXNXgXmXnX.X# + o X O O O O + + # * = 5 m m M ;.v.&XAXeXeXeXrXrXA.1XA.A.A.A.A.A.A.1X1X1X<X<X:XM.9.:.;.V B b ' { { { 6.z.2.m 6 6 6 6 6 , , , ",
"-.=.*.7.'.{ [ ' P U R R Y ( ( ` V %.4.$XuXVXCXAXBXBXBXlXlXhXhXdXfXgXfX6X6XjXMXCXCX=X0.;.m > @ + O O O O O O + : 6 4.%XJXJXJXLXDXSXSXDXDXSXSXSXAXJXJXSXSXSXSXSXSXDX%X,.%.>.;.*.1.<.5.5.!.E.E.E.E. X X].z.z.z.z.c. X0.:.=.=.=.:.2.8.8.2.2.2.:.-.O.-.-.-.$.t % $ $ + # < o.w.m.j.h.m.+.o.5 N c I N t ..$.$.X.X.| | X.X...X.X.o.o.o.%.M C V ] { I.(.P.(.[ ( { ].].c.c.c.*XmXGXnXfXNX6X6XqXhXkXBXBXMX6XdXlXZXZXBXNXHXJXuXv.:.6 > @ + O O O O O O O O + + 5 2.=XGXJXKXnXNXNXgXNXNXfXNXfXgXgXfX5X5XdXdXhXkXMXuX*Xc.5.) ] ] ] { { I.E.6.l.3.3.l.z.z.z.z.7.4.2.;.;.:.:.:.:.:.:.:.>.>.&.X.O.-.-.$.$.*.n - ; = @ 6 +.h.j.k.j.h.w.-., * * = % > m #.#.e.$.$.$.#.#.#.%.%.*.*.#.#.M C C B b A ( G ( ( ) ) 1.5.E.I.L.I.] ' ' ] ) B 7.%X%X&X,X:X,X6XxXjXfXgXgXmXgXDXgXDXAXlXAXBXHX-X4.5 # # ; O O ; % % % % + % > : 5 M *.*.4.#XFXIXIXHXHXSXZXSXZXZXZXZXZXZXSXSXAXAXAXAXAXBXMXuX.X X XXX].{.}.(.P.^ Q f a s f Q P.I.I.Q.Q.E.'.].].4.:.=.&.O.O.O.o.: ; & 9 9 e % : ..-.B.9.#.* w e q q w m %.#...$.#.=.8. X+X+X+X]. XW.7.7.7.7.z.z.l.6.6.6.6.5.!.L.K.' ' ( ( ( ) 1.<.V m 6 #.b.0XNXlXlXBXBXlX6X>X3X3X5X5X5X6X9X9X>XDXDXgXAXJX%X;.+ O O O O O O O + + # # * = n n %.*.9.M.CXMXeX1X1XrXA.1XA.A.A.A.A.A.A.A.A.1X1X1X:XN.v.9.1.H B b ( { { { 7.7.2.#., , , } } } } } ",
"=.=.2.6.d.^ / E W L T ] ) ) ] 7.*.:.v.7XCXCXMXBXCXNXlXlXlXhXdXdXdXgXfXjXjXjXMXCX=Xv.:.%.6 : + + O O O O O O + @ : 6 4.-XKXVXLXDXSXSXSXSXSXSXSXSXJXJXSXSXSXSXSXSXSX8XM.4.%.;.1.*.1.5.W.W.W.W.].{. Xz.l.x.|.@XXX.X.X0.=.$.=.=.=.=.=.=.=.=.=.&.-.O.O.X.$.$.t * $ - + 7 +.w.m.j.j.j.h.w.+.6 r N N N , ..$.#.#.#.X.} ........X.X.X...&.#.#.*.5.E.(.(.[ P.[ ( { ].]. X.X%XtXGXmXnXnXCXdXdXdXhXkXkXkXjXdXdXlXZXAXBXNXAX8X#X:.6 : @ + O O O O O O O O o + + 1 5 4.=XKXKXnXDXNXmXVXNXfXNXmXmXfXgXdXdXdXdXxXkXNXnXiX*Xz.) 6.6.E.E.E.E.'.].z.3.3.l.l.l.l.7.4.4.;.%.%.&.&.&.-.&.&.%.%.%.o.o.-.-.-.$.=.*.n - - # %.,.,.m.j.k.j.j.m.,.&., > * % = n m #.#.#.#.#.#.t m m m m m m m m m C N B b b b b W ( ( ] E.E.I.I.Q.L.] ] { ) 3..X=X-X3X6X6XqXhXkXlXjXfXgXNXNXNXgXHXDXfXAXBXnXc.7 # # # ; O $ $ % % % + + @ > > > m M %.:.9.*XFXJXHXHXDXDXSXDXSXDXDXZXZXAXAXDXAXAXBXNXjXMXGX*X X7.7.6.6.E.{ [ ^ Q Q Q ^ ! ! { 6.E.E.E.6.6.7.0.2.:.&.o.O.O.O.&.: ; & 9 q w > o.+.w.S.m.&.5 * w e w w m %.#...$.$.$.:.8.7.W.W.W.~.7.8.0.7.4.7.z.6.{ { 6.6.6.!.L.K.' ' ( ( ) ) 1.<.*.m #.9.&XAXjXjXjXlXBXjX6X>X3X5X5X5X5X5X9X6X>XHXAXgXJX-X>.# O O O O O O O O + + + + @ * > 5 M %.;.,.2XpXMX1X1X1XA.1X1XA.A.A.A.A.A.A.A.A.1X1XrX:XN.v.4.;.B b ( [ [ { 6.7.1.m 7 , , } } } } } ",
"=.=.1.` ! Q a a E E L ] 5.5.8.7.4.v.-XVXCXnXMXCXMXlXjXjXjXjXfXfXdXfXjXjXCXAXpX=X9.:.%.6 : + + + + O O O O + + + @ : 6 9.%X8XLXHXSXSXSXSXSXSXSXHXJXJXJXSXSXSXSXSXHXDXfX%X:.>.4.1.8.7. X{.{.{.}.+X].3.` ` x.XXXX X#X0.&.&.-.-.=.=.&.&.&.&.&.&.-.-.-.$.$.#.t * $ - 7 o.w.m.j.j.j.j.j.m.,.&.m n N t m #.=.#.#.#.#.#.#.#.#...X.X.X.X.&.$.#.*.8.6.{ [ ^ [ W W { ].].c.#X=XmXmXnXfXfXfXlXjXjXxXjXxXjX6XfXlXlXBXSXSXDXfXb.>.6 : @ + O O O O O O O O O O o o 1 # 5 >.%XKXVXNXgXfXNXNXfXNXNXNXNXfXgXdXdXdXhXkXNXnXFXtXXX5.E.E.'.{.{.[.{.{.z.l.3.3.l.3.3.3.z.4.;.%.%.&.-.-.-.-.&.&.&.%.&.&.-.-.-.$.=.%.m * > + 9.B.m.S.j.j.j.j.m.w.,.&.6 + % = n m #.#.#.#.#.#.m m m #.#.#.m m m m M C C B b b A W W W ] I.Y.Y.Y.Y.I.E.] ) 3.XX-X-XuX9X6XjXhXxXjXjXjXfXNXNXDXgXNXSXNXNXBX5X9.7 : : + O % % $ $ % % + + @ @ > > > M *.*.;.4.v.=XFXJXJXNXBXSXSXSXSXSXZXDXDXDXBXAXAXAXNXNXCXJXbX.X4.3.3.` { [ [ s._._._.(.[ ( ) 1.1.1.1.1.1.1.2.=.&.X.X.O.O.X.%.> % & $ $ n %.,.m.m.h.m.,.+.6 w w w r m %.$.$.$.$.$.$.$.=.=.=.%.*.m m *.*.V 1.3.3.` { { { { { ' K.' ( ( ) Y Y *.*.*.%.9.&XCXBXBXlXdXdXdXdXdXdX6X6X5X5X9X9XfXfXNXBXCXVX-X:.# o O O # % O O O O O + + + # * > 5 m m #.%.$X0XCXeX1X1X1X1X1XA.A.A.A.A.A.A.A.A.A.1XrXrX:X#X0.;.B b _ [ [ _ ` ` H m 6 } } } } , , , ",
"=.*.H G Z s s g f E L ) 5.1.8.0..X=XmXGXMX9XfXNXjXfXjXjXjXjXfXfXdXNXjXfXBXJX-X9.%.*.%.> + + + o ; ; ; O + + + + @ : # 6 4.;XIXHXHXSXSXSXHXSXHXHXSXSXSXSXSXSXSXSXHXAXHXVXb.:.4.4.7.W. X}.}.}.}.+X].{ G ` l.|.XX.Xv.,.&.$.-.-.-.-.O.O.O.O.&.&.&.-.:.=.=.#.t % $ + o.,.m.j.j.@.k.j.j.j.m.,.&.#.m m m #.%.%.#.#.m m #.#.....X.-.-.$.-.$.$.=.8.6.[ [ ! ^ W W { l.z. X*X7XnXnXnXMXjXdXNXlXlXjXNXlXjXdXfXBXBXfXAXLXNXM.%.6 : # + + O O O O O O O O + + O o + # # 5 4.-XJXVX5X3XMXVXfXfXNXNXNXNXjXfXdX6XdXkXlXfXmXFXyX X7.E.'.{.+X}.}.}.].6.` ` ` ` ` l.l.3.;.%.o.X.-.-.-.-.-.&.&.&.%.&.&.&.$.$.&.%.m > > : B.S.h.j.k.j.j.j.h.m.m.,.o.+ * r C V m m #.*.m m M m #.#.e.e.#.#.#.#.#.M C C b A E ! E W [ I.U.[.[.Y.I.Q.5.V z.yXiX7XMXjX6XxXhXjXjXjXjXgXNXDXNXgXDXNXmXSXfXb.7 # 5 5 + O * % % % % % * @ @ @ > > > m *.*.:.2.9.#X-XmXJXAXBXSXSXSXSXSXZXDXDXDXBXBXAXAXBXBXAXAXJX*Xz.1.1.) ] d.(.(.|.@X@X|.` C M #.%.%.%.%.%.%.=.&.o.X.X.X.X.X.#.> % $ $ - %.,.m.j.j.j.h.h.w.,.> w w r m #.#.$.$.$.X.X.X.X.$.$...#.} #.#.#.m <.5.` { { { _ [ ] ' ' ' ( ) Y V *.*.*.%.:.M.mXJXfXBXjX6X5X5XdXjXlXdXdX9X9X9XfXjXMXJXMXAXVXc.# o O O + # + O O + # + + + + @ * > 5 5 6 6 6 b.&XwXkXxX1X1X1X1XA.A.A.A.A.A.A.A.A.A.A.rXrXrX&Xv.2.H B _ [ _ ! _ _ G n 6 } } } } , < < ",
"M V G A a s s g f E L ) 5.<.8.0.$X7XCXnX9XfXjXjXfXfXfXjXjXjXjXjXfXNXNXnXCXMXM.%.6 ;.*.: o + + O O O O O + + + O + : @ : %..XJXHXHXSXHXHXHXSXHXHXSXSXSXSXSXSXSXSXAXBXHXHX&X,.:.0.0.c. XXX}.}.}.}.|.{ ( _ ` x.z..Xc.:.$.-.-.-.-.-.O.O.X.X.o.&.=.=.=.*.*.*.m r n 6 ,.w.j.j.@.k.k.j.j.j.m.w.,.#.#.#.m m m m n n r > > , , , } -.-.-.-.$.$.=.1.` _ ! ! ^ W ( { z. X.X-X3X6XdXMXBXlXdXlXjXjXlXBXBXNXlXfXDXBXfXAXHX;X9.6 7 @ + + + % % O O O O O O + + * o o @ @ @ ;..XVXnX;X;XnXVXMXNXNXNXNXNXlXjXdXdX<XxXlXdXnXmXtXoX7.6.6.{.+XOXOX}.].l.{ ` d.d.l.l.x.3.;.%.o.O.O.-.-.-.$.&.%.%.%.%...#.#.#.#.#.6 > , 7 B.S.h.k.k.j.j.j.j.j.m.w.&., > n V V m m m M n m m m m e.e.e.#.#.#.#.#.#.C C A Z E Q / / ^ P.).[.[.Y.I.Q.6.V XXyXiX7XnXdX5XjXhXhXdXjXjXlXNXNXNXNXDXgXNXHX%X>.7 : @ # ; * - ; - - - % * * * @ > * > m *.*.:.2.0.v.%XuXHXHXDXSXDXDXSXSXSXSXAXAXBXBXDXAXSXAXAXBXJXtX X3.1.H ( d.}.|.@X@X@X].1.M ....$.#.#.#.#.#.$.$.X.X.X.X.X.X.#.r % $ + 6 ,.m.h.j.k.k.k.j.h.,.m r - > t m #.#.o.X.X.X.X.X.X.X.X.$.$.$.$.#.#.<.5.5.{ d.[ _ ! [ ' ' ' ) ) *.*.*.=.%.#.2.%XVXAXfXfXjXdXdXdXfXjXjXfXdXdX9X9XfXMXMXCXCXJX=X6 o + O + + + ; % % % * + + + @ * * > n > 6 M 6 9.v.2XMXxX1X1X1XA.A.A.A.A.A.A.A.A.A.A.A.A.rXrX:XM.9.H G _ _ ! ! ! W A z 5 , , , t t > % ",
"G G A Z s s g g a E W ] 5.<.8. X=XuXMX9X9XMXNXdXfXfXfXjXjXMXMXMXNXMXCXCXuX#X9.%.%.%.m @ O + # O ; O O O % + % O + > : > 6 9.mXJXHXHXHXHXHXHXHXHXSXSXSXSXSXSXSXSXAXBXAXHXfXb.:.9.c.c. XXX}.+X+X}.].{ ( ( ` ` z.c.c.:.&.-.-.-.-.-.X.X.....6 6 M C C C C V m m M ;.w.h.j.j.@.k.k.k.j.j.m.m.-.} < , > > * - - - - % % % @ < } $.-.-.$.$.%.*.H G ! ! ! ^ ! _ l.]. X#X8X>X6XjXlXlXlXjXjXfXfXlXNXBXNXlXlXNXNXNXVX8Xb.%.6 5 # + + + + # O ; O O O ; # # * O O @ @ : M 4.=X&X&X&X9XMXMXBXMXjXjXjXNXNXjXdX<XhXxXdXfXnXtXyX X6.5.W.{.}.{.{.].l.{ { d.d.d.l.x.x.>.%.o.O.O.O.-.X.| } 6 6 6 6 > > , , , , > > , o.m.h.k.k.k.j.j.j.j.j.m.m.-...: > t n t r r w w = = > < , e.e.....#.#.#.%.V G W Z a f f E ^ P.).).).[.E.E.7.7.*X7X7X7XfXgXdXgXfXjXjXjXlXlXlXlXNXmXDXnXJXVX9.7 5 > # + * - - - - - * * = > > * @ * > m m *.:.2.0.v..X-XJXHXAXHXDXAXSXSXSXSXSXAXBXDXAXAXAXAXAXAXJXGX*Xz.3.H ( d.@X@X@X@XXX0.2.#.X.X.$.$.$.$.$.$.#.$.$.$.X.X.X.X.*.r % O : &.m.S.j.k.k.k.k.j.h.w.:.V > > m m #.#...#.....X.X. .| | ..| | e., t <.8.6.{ [ [ E E ! [ ' ( ) <.*.=.=.=.#.=.v.7XCXNXNXdXfXlXlXlXlXjXjXjXjXfX9XdXfXMXMXMXGXuX4.: 1 # + # + ; ; % * % * + + @ * * * > 5 > 6 %.6 :.,.#X0XzXvX1X1XA.A.A.A.A.A.A.A.A.A.A.A.A.A.rX:X$Xb.;.K _ ! ! ! ! ! D A C m 6 5 r > > % ",
"A A Z a s s g a a I ' 6.1.<.8..XiXMXMX9XdXBXNX5XdXfXfXjXMXMXMXMXNXfXCXJX7X9.%.*.%.m > + O % # - % % % % - * % % * > @ > : %.=XJXHXHXHXHXHXHXHXHXSXSXSXSXSXSXSXSXSXSXAXJXAXM.,.9.c.c.]. X}.+X+X}.|.{ _ _ ` ` 3.z.c.>.o.&.-.$.O.-.X...< : > 5 k k k w n m , > 6 o.w.m.j.j.j.k.k.@.j.j.h.m.O.< 1 + + % $ $ $ & & $ ; % + + < $.-.$.$.o.M H K J ! ! ! ! ! _ l.z. X#X6X<X<XhXxXhXjXlXlXlXgXgXlXgXgXgXBXjXNXJXVX%X:.6 7 @ + # @ % O O O O O O O ; # % ; # * @ + # m :.v.M.#X&X7X9XjXBXjXfXfXjXNXNXjXdXdXhXhXhXfXnXiXtX.X7.5.E.{.{.{.{.{.'.{ { d.d.d.d.x.x.>.%.o.X.O.X.X.| < : @ = 4 4 ; - = * @ : > : < +.m.h.k.k.k.j.j.j.j.j.j.m.-.6 + % * * * - $ $ & & ; + + < } e.} } } #.#.M H A Q f s s a / [ Y.).U.Y.[.[.6.W.*XaXiX7X8XfXgXgXgXjXjXjXlXlXlXlXgXlXfXNXmXHXnX>.: @ = + % n - - C = * - - = > > * * > > n m %.*.2.2.9.v.%XVXJXAXHXAXSXSXSXSXSXAXDXBXZXAXAXDXBXAXSXJXJXtXc.z.3.` l.|.|.}.XXXX0.=...X.X.X.$.$.$.#.#.#.#.$.$.$.$.$.#.=.t * + 6 ,.S.h.k.k.k.k.k.j.j.m.9.=.t , M %.M M m #.#.#.#.$.e.} | X.X.$.e., t <.6.{ [ [ / E Z E [ ' ( ) <.:.=.=.&.#.:.$XGXVXgXNXfXjXjXjXlXlXNXBXNXMXjXfXfXMXCXCXCXJX#X6 + @ + * % ; ; # - * * # % @ * * * * > > > 5 m 6 *.%.b.&XzXxX1X1XA.A.A.A.A.A.A.A.A.A.A.A.A.A.A.:X&Xv.4.K J ! ! ! ! ! ! J G C n 5 k = = % ",
"S a a a a a a E I L ] 5.Y C 7.*XmXnXMXfXjXjXlXlXdXfXjXjXMXMXnXfXnXCXAXnX#X:.%.%.m 5 : + # - - - % % % - - - - % * * @ : : 6 v.JXJXHXHXHXLXHXAXLXHXHXSXSXAXSXSXSXZXSXBXBXHX0Xb.:.c.c.c. XXX}.OX+X[.(.` _ ` ` ` H 4.>.>.&.o.X.O.$.#.6 = - q q q x e q w > : < 7 < +.h.m.j.j.k.k.j.j.h.m.m.+.&.:.m > - O & &   q   & ; O + , $.$.$.%.M K G A D Q Q u.! Z _ z. X#XiX4X<XhXxXxXxXlXlXjXlXgXgXgXlXlXNXAX5XSXJX8X9.>.6 : @ # ; ; # - - # ; O ; ; ; * * % % + + + > n M ;.v.=X=X&X9XMXdXlXjXdXjXNXCXMXdXhXhXhXhXjXfXnXmXtXc.3.6.E.[.OX[.{.'.{ { d.d.d.a.x.l.;.%.o.o.X.X.$.} > * - & q j & k w - n *.2.9.9.,.h.h.k.k.k.k.j.j.j.j.h.h.+.&.%.*.*.n % - & $   . . O % , } $.X...} 6 m V G ! f g p g Q H.I.Y.Y.).Y.Y.W.7. XaXiXuXuX9XdXgXgXgXfXjXjXlXlXlXjXlX6XHXNXmXJX-X7 5 @ * - * = n n k n k = 5 5 > 5 5 5 > * > r #.*.=.2.9.b.M.=XmXJXJXHXAXDXSXHXSXAXAXAXAXAXBXlXlXBXAXBXHXmX.Xz.3.` l.'.d.d.].XX0.=.} X.X.X.X.$.$.#.t #.#.=.*.m #.%.#.V m > , &.B.m.h.k.k.k.k.j.j.j.w.w.,.#., #.m n n C m C m m m e.e.| | | | } , t <.E.I.[ / E a Z Q [ ' ) 1.2.2.=.$.&.&.v.iXnXnXNXgXfXBXlXBXfXjXSXjXjXNX9X9XjXfXfXAXJXiX9.: + > > % - $ $ - - - * * * * * * * * > > , > 6 m %.%.9.M.qX1X1X<XA.A.A.A.A.A.A.A.A.A.A.A.A.A.A.rX:X&Xv.H G _ D S ! ! S ! J G G z k k & & ",
"s s a a a E E L T ' ] 5.Y V z.*XnXMXjXjXjXjXlXjXfXjXjXjXMXnXfX9X9XCXCX7Xv.>.%.%.6 > @ + % % % % - - - - - - - % * * * > : 6 0.iXJXLXHXAXHXHXSXHXHXHXSXSXSXSXSXSXSXSXAXAXHXMXM.,.9.c.c.].XX}.OX+X}.|.{ ` ) ) K K 3.;.>.%.&.&.X...M n k q 9 0 0 i e q k V :.,.,.+.,.m.m.j.j.j.j.j.j.h.m.N.B.#X=X.X2.Y w & &   q       $ % > #.$.#.H K J J D ! ! Q ! ! G ` z..X$XpX6XqXhXxXxXxXjXlXlXlXlXgXgXlXlXgXDXdXJXfXM.%.%.5 @ # # # % - - - - ; ; ; ; ; - * % % % + + > 5 m %.0.$X=X&X5XMXjXlXfXdXfXMXNXjX9XdXhXhXhXjXdXfXnXtX.X7.6.E.Q.[.[.[.'.I.{ (.d.d.d.a.x.3.>.>.&.&.%.=.m > = q q q x x x k N 7..X*X=XM.B.m.h.k.k.k.j.j.j.j.h.h.m.B.M.=X=X*X~.C $ $ .       ; % : , ......#.M H G ! i.f s s g / P.I.Q.Y.).Y.E.W.~.*XaXuX9X9XjXfXgXgXgXfXjXjXjXlXlXjXjXjXAXBXmXHX%X7 : * = = - w n n k k k n n n 5 5 n 5 > > > r m *.:.2.4.0.v.%XiXKXHXHXAXAXSXHXSXAXAXZXAXAXZXBXjXjXjXDXHXVX;Xc.3.` l.d.` ` 6.z.9.:.&.o.o.X...#.#.t > > r t t r n n n m > : < &.m.S.j.k.k.k.k.j.j.j.w.B.,.} < < > * w w w w w r r t r , | | } } , r Y { [ ^ Q a a f Q ~ ' ) 1.2.:.&.$.&.&.M.CXVXNXBXgXjXBXlXBXjXjXAXfXMXjX5X3X9XjXjXCXJX#X%.: @ > = * - - - - - - - - - - * * * * > > > > 6 m %.%.:.b.&X,X1X<XA.A.A.A.A.A.A.A.A.A.A.A.A.A.rX1X,X2X#X4.K _ _ D D S Z Z D D D A z z j & ",
"s s s a E E L L ] ] 5.5.H ) XXtXmXMXMXjXjXjXjXjXlXlXlXlXjXfX9X9X8XCXnX#X:.%.%.%.> > * + % % - - - = k w = - = = - - = > > > :..XGXJXJXmXAXHXHXSXHXSXSXSXSXSXSXSXHXSXSXSXHXSX>Xn.,.c.0.7.XX+X}.+X}.}.'.{ ( G G K K K K ;.>.&.&.%.V c x x i i i 0 i x )  X$X&X:XN.m.m.m.h.j.j.j.j.h.h.S.<X6XAXJXaX*XXXV & q 9 9         & = C *.V K J J ! ! ! Q ! ! _ ` 3.c.#X7XCX6XvXxXxXjXjXjXjXNXNXNXlXgXgXgXgXBXBXHX&X9.6 M 5 @ # # * - - - - - - - - - & & - $ % # + + : > 5 %.:.v.#X&X3XfXNXlXjXdXdXjXjXfX9X6XdXhXhXhXqX6XfXuX=X X5.6.Q.Q.[.[.'.'.I.d.s.d.d.a.a.x.x.4.4.;.%.V n w q q x i i i x j B XXaXaX-X:XZ.S.h.k.k.k.k.j.j.h.h.h.m.Z.MXGXGXaXaX7.$ & .       . ; @ > m #.%.V H J ! i.t.s g g Q ^ I.Q.!.Q.Q.Q.E.7..XtXuXuXwXjXjXfXgXgXgXfXfXjXlXlXlXlXjXBXNXBXVXJX9.7 @ = k k k k n N k k k n C n n n n n n > > r m %.=.2.2.9.c.v.=XmXJXHXSXSXHXHXSXAXAXDXAXAXAXZXhX6X>XBXAXVX-X.X3.J l.d.d._ ` H V %.#...o.o.#.#.m > % % % w w w w w = * @ @ < +.m.S.j.k.k.k.k.j.j.j.m.w.O.< < : + % & q q e e e e e r , ..6 , 6 > k ( _ ^ / a a a f / ~ ' ] 1.:.=.&.X.&.9.%XJXJXDXNXlXlXNXjXBXjXjXAXdXjX6X>X;X5XjXMXMXGX2.: > > * = w - & & - - = - - - - - = * * > > > > 6 m %.%.*.:.M.:X,X<XA.1XA.A.A.A.A.A.A.A.A.A.1X1X1XeX4X0X&Xc.3.` _ ! ! ! S Z D D D D A b j j ",
"s a a E E ~ ( T ] 5.5.) ) 6.oXFXmXMXMXMXjXjXjXjXlXlXlXlXjXdX6X9XnXCX-Xb.%.%.%.m > : * * - - = - = k n k k - w k - - = > * > %.9.-XJXJXmXVXLXLXHXHXSXSXSXSXSXSXSXSXAXSXSXSXHXNXv.>.c.4.7.{.+XOX+X}.}.|.6.) G G ` J J K K >.>.:.;.U L x 0 0 0 0 i i L ].yXiXqXeXrXV.C.m.h.h.j.j.j.h.m.A.1XfXAXJXmXIXaX) & q 9     9 9     k B ) ` J g.g.! ! ! ! ! W d.6.4.c.*XuXCXqXhXxXxXjXdXdXfXNXNXNXlXlXlXlXlXjXAXAXv.>.6 M 5 @ # * - = = - - - - - = - - - - - - * @ @ : > > 6 %.9.M.%X&X5XNXlXjXdXdXdXjXfXfXfXdXdXhXhXqX6X9X9XmX.X3.6.E.Y.[.[.[.'.I.{ d.d.f.d.d.x.x.x.x.3.K H z q & q x i i 9 x j ) oXtX-X#X:X:XS.h.h.j.j.j.j.h.h.m.S.Z.<XlX9XmXiXIX.X= & .         & - m M M H G J ! i.t.t.g f / ^ U.).Q.Q.Q.Q.W.7.8.#XFXuX9XjXjXjXfXfXgXgXfXfXjXlXlXlXlXjXBXNXCXJX-XM 6 @ 5 n n n N B N N k k k N C C n n C n m n m m #.*.2.2.9.0.v.%XmXIXHXHXHXHXSXSXAXAXDXAXSXAXZXjX<X>XzXZXNXmXoX3.K d.d.d.d.a.J G M 6 ....o.%.M m > % w w w w e q & w n m 6 o.+.m.h.j.k.k.k.j.j.j.j.m.w.O.O.&.%.m = $ q e e e e e e w m 6 > > n k z W Q Q f s a a E / ~ ' ] 1.:.&.$.o.:.b.-XJXJXVXNXNXlXlXjXBXlXjXZX6X6X>X>X>X3XfXNXnX*Xm + > > * w w - - & - 4 4 4 4 = = = = = = > > > : > m %.%.%.*.9.N.qX1X<X1XA.A.A.A.A.A.A.A.A.Z.1X<X1XqXeXwX7Xv.3.` ` _ _ ! ! ! S D D ! ! D v l ",
"S Z Z E W ' ' ] ] I.] ) ) ].yXFXFXMXMXMXjXlXlXlXlXlXlXlXjXdXdX9XVXuX#X:.%.%.m 6 > > = - = = w w k k N k k k k k w w = > * > m ;..XGXIXJXAXHXHXSXHXSXSXSXSXSXSXSXAXDXSXAXAXLXAX&X:.9.4.7.].}.OX+X}.}.{.'.{ ) _ _ J J J J K 3.:.1.) b x i i i i i i L XXFXuX3X,X<X<XZ.S.m.h.j.j.h.h.S.A.xXlXDXVXmXIXFX) $ &   9 9 9 9 9 i b _ ` _ _ p.p.! ! ! ! _ _ l.7.4..X7XpXCXjXhXxXjXjXdXfXfXMXMXNXlXlXlXlXlXdXAXnX9.%.6 M > = * * - = w w = - - = w w w w = = - * * @ : : : , #.:.v.M.&X>XxXjXxXjXhXjXjXMXMXnXfXjXjXhXhXqXqX6XmX*X3.5.I.I.Y.[.[.[.(.I.d.d.f.d.f.f.a.a.a.a.a.` G j   9 x x x 9 j j H .XtX3X&X:X,XA.S.m.j.j.j.j.h.h.S.A.vXdX<XjXVXuXIX.X- &   9   .   4 z H H G D S S y.y.y.t.f / ^ P.[.[.[.[.W.W.W.8.7.*XVX5XjXjXlXjXfXdXfXgXfXfXjXjXjXxXxXjXlXAXnXJXb.7 5 5 n n N N C B B z k 4 k N B B B C C n m m m m m *.:.2.9.c.v..XtXJXJXHXHXHXSXSXSXAXAXAXAXAXZXlXdX6XZXZXDXKX*Xx.` l.d.f.f.d.d.a.K H %.%.M M M C r - w w q q e & q B 7.c.b.b.m.m.h.j.j.j.k.k.j.j.j.h.m.B.N.sXM.0.<.w q e e e e e q q n 5 5 5 B A F S a s s s a f / ~ ' ' ) 1.:.&.&.&.,.#XmXJXJXVXNXBXBXBXjXZXlXdXDXdX3X>X5X5X;X9XNX8X0.> % > * - n - w - - - 4 4 4 4 4 4 = = = > > > > > > m m %.%.=.:.M.qXqX1X1XA.A.A.A.A.A.A.A.Z.Z.,X,XqXqX4XwX0X%Xz.;.` ` _ _ _ ! S S S D D D A A ",
"A A A W W ' ] I.] I.{ ( 3.XXtXFXFXMXMXMXMXlXlXjXlXlXlXjXjXfXfXfXCX-Xb.*.%.%.m > > > > = = - w k k N N z k k k k k k w = > > m *.9.iXIXHXJXSXAXSXSXSXSXSXSXSXSXSXDXDXAXAXAXHXAX3X9.4.4.7.W.{.OXOX}.}.}.].l.{ ` J p.J D J J K H 1.) b x i i i i i i b XXaXiX2X,XqXqX<XS.m.h.j.j.h.h.S.vXzXDXDXAXKXFX*XC O &   9 9   9 i v ! ! ! D p.p.p._ _ _ [ { { 7.7.c.*XuXpXMXjXjXlXjXjXMXMXMXMXMXMXlXBXlXcXzXNXJX7X>.%.M m * > = = = w k k k w w w w w k k k = - * @ @ : : @ < 6 %.,.v.M.&X>XxXjXjXjXjXjXMXMXMXMXjXjXhXhXqXqX6XnX*Xz.5.{ I.Y.Y.Q.[.'.(.(.d.d.f.f.f.s.p.f.p.p.a.` A j i x x 9 q j 4 5 4.M.:X1X&X:X<XZ.m.h.h.h.j.h.m.Z.hXBXhXdXZXAXnXiX2.O $ q     . 2 l A G J g.i.y.y.y.y.y.f / ^ I.Q.Q.[.[.[.W.~.7.8.c.-XVX5XfXlXlXjXdXdXfXfXnXfXjXlXlXxXxXxXxXAXnX-X%.5 5 n n N B B B B B z k & & k B B B B C C m m m t m #.=.:.2.0.c.v.*XKXAXJXHXSXSXSXSXAXSXAXZXZXZXZXzXlXSXZXNXVXtXc.` { d.s.s.f.f.f.a.a.;.%.M M M n w - $ q $ q k q c 6.oX*X-X&XN.S.m.j.j.k.k.k.j.j.j.j.A.Z.eXCX7X*XXXY e e e e q q q & k n C B G D a s s s s s g / / ~ ' ' ) 1.=.$.&.:.9.*XmXKXKXVXjXBXBXBXlXZXjX5XBXfX>X&X5X9X;X9XfX%X%.> > r - - n & k k 4 4 4 4 4 4 k k k 5 = > > > > > > , m #.*.=.>.b.:XqX1XA.A.A.A.A.A.A.A.Z.Z.Z.,X5XwXwX4XwXpX&Xc.;.` ` ( ( _ A ! S S S D D ! ! ",
"A A b ( ( ' L.I.[ I.] ( 6.*XFXFXVXCXMXMXMXlXjXjXlXhXhXhXhXjXjXMX8X#X:.%.%.m 6 > > > r w w w k k N N b z c k k k c k k w > > m m ;.*XJXJXHXHXSXHXSXSXSXSXHXSXSXSXDXJXAXDXSXSXBXBXv.:.4. X!.!.OXOX{.{.{.{.].l.a._ g.g.D D J J K H ) U b x i i i i i j 6.*XiX7X0XqX6X<XA.S.h.h.j.h.h.A.vXxXlXDXNXmX=Xc.> $ &   9 9 9 i E / ! Q Q Q _ _ _ _ [ { { 6.6.7.7.v.=XmXMXMXNXlXNXNXMXMXMXMXMXMXNXNXlXlXzXzXBXAX;X%.%.6 m * > = = w k n k k k k k w w k k k k = * @ @ : : : > , #.&.,.b.N.&X6X6XjXjXjXjXMXMXMXMXMXxXhXeXhXhX6XfXtXXX6.] I.I.Y.Y.Y.'.'.(.(.d.d.f.f.f.s.f.u.i.p.a._ A c x x 9 j k - # 7 n.B.Z.V.&X&XZ.S.h.h.h.h.h.S.:XMXNXgXdXzXdX;Xb.M O $ q     i v A J J D i.y.y.y.r.r.t.Q P.L.!.Q.Q.[.).[.W.~.8.2..X8XnXdXdXhXhXdXdX9XfXfXnXnXfXlXlXlXxXxXxXAXMXb.6 5 5 C C V V V B B B z 4 & j k k c B V V n n m m t t m =.=.2.0.0.c.%XtXVXSXHXAXAXSXSXAXSXAXZXZXZXZXZXcXZXzXjXVXFXoX` _ s.s.s.u.p.p.p.g.>.>.;.;.M n = $ $ q $ & j q b }.tXtX-X>XZ.S.S.j.j.k.k.k.k.j.j.S.A.rXwXpXiXFXyX<.w w w w w - - & N H H G A Z s s p p s g g / ~ G.' T ) <.=.#.=.9.b.-XKXKXKXVXMXBXNXNXjXBXdX>XlXjX6X;X5XfX3X9X3Xb.> > > > = w w k k k 4 4 4 k 4 4 k k k 4 = > > > > , , , m m *.=.:.9.M.4XeX1XA.A.A.A.A.A.A.Z.Z.rX>X5XMXpXeXpXpX=Xv.;.1.3.G ( { ( ! D S D D D ! ! ",
"B B B U ' ] { I.' { ] ) z.tXGXmXCXCXMXMXNXjXlXjXdXhXhXhXjXlXlXCX=Xv.:.%.%.6 > : > n n n w w k N B N z z c c c k c k k k n r n m %..XFXJXJXHXHXLXHXHXLXLXHXSXSXSXDXHXAXAXLXSXBXHX#X:.4. X5.5.{.[.{.'.'.].].].l.d.J D D D J _ J J ` ) ( L x 9 9 x & ; M b.=X7X4X>X>X,XA.S.m.h.h.h.S.vXxXvXxXzX6X>XM.>.# # ; . j i v E ^ ^ Q Q i.u._ _ _ _ ` { 6.6.8.7.0..XiXCXMXBXlXNXNXNXMXMXMXCXCXCXCXNXlXlXzXlXjXMXM.6 6 6 > * = = w k n n n n k k k w k k k k k 5 - - * > : : : , 6 #.>.9.B.M.6X6XdXjXjXjXMXMXMXMXNXjXjXhXhXhXxX9XiX*X3.) I.L.I.Y.Y.[.[.'.'.d.d.f.f.f.f.f.i.i.p.s.s._ W b x q 4 4 # : o.,.m.S.A.V.&X,XZ.m.h.h.h.m.Z.qXpX9XdXxXxXC.B.>.7 > ; .   i Z Q ! ! ! i.t.y.y.y.y.t.t.^ I.Q.!.Q.Q.[.`.OXW.~.8.2.#XuXgXfXdXdXdXdXdX9XfXnXnXnXfXjXlXlXxXxXNXBXVX>.7 5 5 C V H H H B B z j 4 4 j j j j B ) V n 5 n m t t m *.*.;.4.9.0..X-XmXAXHXAXAXSXSXSXAXZXZXZXSXSXZXZXSXZXBXJXJX*Xl.G _ s.s.s.p.f.p.g.x.x.3.;.H C - $ $ w $ $ q & b oXFX-X;X;X<XA.S.S.j.j.k.k.k.j.S.S.vXqXMXuXiXGXyXC w q e e q q & & ( [ _ A Z u s s p p s g / / G.' ' ' 1.<.*.#.:.9.v.bXKXKXJXAXjXNXNXNXfXBX5X&XjXlXjX&X5XfX5X9X;X4.> r = = k w w k k j 4 j j j 4 4 k k k k 5 = > > > , m , t m %.=.:.:.b.2XkX1XA.A.A.A.A.A.A.A.A.rX>X6XjXkXeXwXpX=Xv.;.1.6.) ( { ( _ D D D D D D D ",
"B B N B ( { I.I.L.{ B ) oXmXmXCXnXMXNXNXNXfXgXdXdX5XhXBXjXjXMXMX#X:.%.%.m > > 5 m m m n n n N N B z z z k c c c c c k k w r t m 6 9.=XIXIXHXJXHXJXHXHXHXHXHXSXSXSXHXHXJXHXHXHXJX5X,.>.0.7.5.!.!.E.'.'.].].].].x.l.a.J J J p.p.p.p.p.[ ' P I e w = 7 o.+.n.V.1X>X>X9X<XC.m.m.m.m.A.<XhXzXxX1XZ.B.w.,.,...# ; 4 l E Q Q / Q a Q u._ ` { 6.6.5.5.8.7.2.v.=X7XCXMXNXdXfXlXlXNXlXjXfXNXNXNXNXNXNXjXjXBX&X9.%.6 > > 5 = w n B B N N n n k 4 4 k k k n N n 5 = 4 * # @ : : < ..&.,.B.M.&XMXdXfXMX9XNXjXjXjXfXfXfXjXxXxXhX6XMXtX;.) E.] I.P.Y.(.'.'.'.'.d.(.(.f.f._.u.i.i.i.u.u.u.! A z 4 5 o.,.,.m.m.S.m.A.Z.:XrXB.m.h.h.C.vX5XMXlX<XA.S.m.m.,.,.7 O ; 2 Z i.i.i.i.i.i.t.f s f f i.u.P.(.[.{.{.[.[.[.'.W.7.2.0.tXGX9XfXjXfXdXgXgXgXfXfXfXfXdXjXxXxXxXkXCXVXtXm n C N V V V H ) B j 4 4 4 4 4 4 j j z B V C n n C > > m *.*.:.4.9.c..X%XVXAXHXHXSXAXAXSXZXZXAXAXSXSXSXSXAXAXBXSXmXKXz.G ` [ s.s.s.s.p.p.a.a.g.g.K G k w w q q e w k V 4.&X6XfX5X;X;XA.S.S.h.j.j.h.j.A.A.jX8X7XfXAX8X9.n e q e e e 9 4 v Q i.i.Q f s s s g f f / ^ ' ' ] ) Y Y *.*.%.2.v.*XFXJXJXmXNXDXDXNXDXDXMX5X5XdXBXBX6XdXjXfXCX%XM = w w k k k k k j k k k j j j j k k k k k 4 5 > > , > , m #.#.%.;.*.9.%X9XqX<XA.A.A.A.A.A.A.A.A.Z.<X1XeXeXeXeXuX#X0.8.5.] I.I.I.[ _ A A D D D D ",
") Y B B U T ' ] ] ] Y 3.*XFXnXMXMXMXNXNXgXgXgXfXlXdXlXZXNXCXBXpXv.:.%.%.6 , 6 6 m m m n C N N B z z z z c c c c b b c k n r t m 6 :.#XGXIXJXHXHXJXJXHXHXSXSXAXAXSXSXJXJXJXSXSXSX5X,.%.4.4.2.5.6.E.E.'.].].].].].z.l.` J J J p.p.g.i.s.[ ' R N > %.,.D.m.m.S.Z.V.>X5X,XV.C.m.m.B.hXhXxXxXA.S.S.S.m.S.m.,.7 4 z A ! Q Q Q f f Q u.` 6.l.].7.7.8.8.8.;.v.&X9XCXjXjXfXfXlXlXlXlXjXfXjXNXNXCXNXMXMXCXNXN.:...6 > > n w k N B B N N n k k k k k k k N N n k 5 4 4 4 # @ @ > 6 &.:.9.B.&XMXfXfXMX9XNXjXjXlXjXfXgXfXjXxXhXwXMXuX;.3.6.] L.I.Y.I.[.'.'.'.(.(.d.d._._._.u.u.u.i.u./.s._ A 4 7 o.m.S.S.S.j.S.S.A.Z.Z.N.m.m.m.A.dXgXlXxXA.S.m.m.m.S.B.>.5 ; A ! i.i.i.i.i.i.i.i.Q Q u._.P.P.I.I.'.[.[.[.'.'.~.7.2. XaXGXuXMXfXfXdXgXgXgXgXgXfXfXfXjXxXxXkXkXCXmX#XM n C B H H H H V B j 4 4 j j j j j j z b B B N n n 5 > m M *.:.4.9.0.v.#XnXVXLXHXAXAXSXSXAXAXSXSXSXSXJXHXAXAXNXAXmXKXc.H ) _ [ [ s.s.p.i.g.g.g.p.a._ G b x q $ w w $ 4 %.B.Z.<X5XPXPXZ.C.S.h.j.j.h.S.A.A.5X8XdXlXdXC.>.@ - q e e x x v Z f y.t.f s s s f f f / H.P.' T Y Y V V V M *.2.v.7XVXJXGXNXNXNXlXgXNXNXMXnXnXNXBXlXdXdXMXMXiXv.n k k k k k k k j j j k k j j j j k k k k k k 5 > 5 5 6 m m #.#.#.=.*.4.M.7XqX1XA.A.A.A.A.A.A.A.A.Z.<X1X1XeXeXeXeX$X.X8.5.6.I.Y.Y.{ { [ ( W A ! ! ",
"5.5.] ) U U T ' ] ( ) c.tXGXnXMXMXjXjXjXjXfXjXlXjXdXlXNXNXAXCX=X9.:.%.m 6 6 m m m m n C V V B B z z b b B B b b b b b N n n m m 6 #.9.-XIXIXHXHXJXJXSXAXAXAXAXAXSXSXSXSXSXSXSXSXZXn.%.:.4.2.1.Y 6.6.6.6.z.z.z.z.].z.l.` _ J _ _ p.p.s.d.[ G M 8 D.m.S.S.h.S.S.S.V.<X<XA.Z.m.m.V.zXxX1XA.A.S.S.S.m.S.B.n.>.K K J ! ! Q Z Z Q p.s.'.'.].|.].].7.8.8.*.v.-XMXBXhXhXjXjXlXlXlXlXjXfXjXMXNXMXMXMXCXBXMXv.&.6 6 < > n n N B B B B C N z z k k k k k k N N N n 5 4 4 * * @ : , ..&.,.v.N.fXfXfXjX9XNXjXlXlXNXNXmXgXjXxXhXkXMXVX:.7.5.] L.I.I.Y.Q.'.'.'.'.'.(.(.(.`._.u././././.`.`.s._ 7 %.D.m.S.j.k.k.j.S.S.S.A.Z.m.D.m.A.xXvX<XA.S.h.j.j.S.S.C.,.M C a.! Q i.i.i.i.i.i.i.u._._.(.(.I.I.E.E.Q.'.'.'.'.7.2.2.#XFXGXuXCXfXfXfXgXgXgXgXnXnXnXfXjXxXxXkXlXCXiX4.C n C V ) ) ) H B z k j 4 j j j j j j j z B H B n n n 5 5 M %.;.2.4.0.v.#X-XKXLXHXAXAXHXSXSXSXSXSXSXHXJXHXAXAXBXJXVXJXoXH ) [ [ [ s.s.s.p.p.p.p.p.f.f.s.[ L x & w - + : o.D.B.V.Z.;X<XA.A.S.S.S.h.m.S.<X<X>X6XvXA.S.+.o.: + - q 9 i E Q f f t.t.f f f Q u./ / ^ P.P.' T R Y V V C M 1.0.v.iXGXGXVXmXNXDXgXfXfXMXMXCXCXNXjXjXlXjXNXJX-X4.5 k k k k k k k z j z z z j j j j k k c z k k k 5 n n m m m #.#.m *.*.:.b.&X6XqXA.A.A.A.A.A.A.A.A.Z.<X1X1XeX1XeXeX&X$X4.1.E.Q.I.Y.(.(.I.[ W W W ! ",
"E.E.E.] ] ' ' ' ' U ) .XmXVXnXjXwXwXjXjXjXjXjXjXjXlXBXNXMXAX9XM.:.%.#.6 , 6 M m m n n C Y Y U B z z b b B B b b b b b N N n m m 6 6 =.#XJXIXJXHXJXSXAXDXDXAXSXSXSXSXSXSXSXSXSXSXSXC.>.>.2.4.1.) E.E.6.6.7.7.z.z.]. X].x.a.` _ _ _ _ _ _ _ J K >.D.h.k.k.k.j.S.S.S.A.A.A.A.B.B.rXkX1XZ.S.S.S.S.S.m.m.B.n.n.>.K _ D ! S Z S p.f.(.|.|.].].{.].W.7.8.:..XuXAXBX6XxXjXjXlXlXlXlXfXfXjXNXCXMXfXNXBXBX6Xb.o...#.6 > m N B B U U B B B z l l z l z z k c N N N k 4 = = > > > , ..&.,.9.M.9XfXfXdX6XjXjXlXlXlXNXmXmXjXxXxXNXwXGX4.7.3.6.L.L.I.I.E.E.E.E.'.'.'.(.[.)._._./././././._.s.p.K >.D.m.h.k.k.k.k.j.S.S.A.A.m.w.C.vXvXC.S.S.h.h.j.j.S.S.B.n.>.K a.! S Q Q Q ! u.i.u._._.).[.[.'.E.I.I.I.E.E.E.6.8.2.0.=XGXVX9XCXfXfXfXfXfXfXfXnXnXnXjXjXxXxXkXNXGX=XM V n C H ) 1.1.H z j k l 2 l l l l j j j j b ) H N n C n 5 m M *.:.2.9.c.v.%XVXLXHXDXSXHXSXSXSXSXSXSXSXHXHXAXJXAXHXJXJXyX` { [ [ [ [ [ s.s.s.s.u.u.u.s.u.s.[ W j - # 7 o.,.D.m.C.C.C.A.A.A.S.S.S.m.m.A.vX<X1X1XA.S.h.@.+.+.: # & j Z Q f f f t.t.Q Q Q u./.^ ^ ^ P.P.' T T Y V V C V 8.v..XaXVXVXnXgXNXlXgXfXfXMXNXMXNXjX6X6XBXjXNXHX%XM = k k k k k k k z z z z z j j j j j k c b z n n n n n m m m #.#.#.%.*.:.9.M.6XhXA.A.A.A.A.A.A.A.A.A.rX1X1X1X1XrXrX2X=X0.) !.Q.I.Y.).).(.I.[ ' W W ",
"!.!.E.E.Q.Q.I.] ] U 6.*XmXCXMXjXwXwXwXkXkXkXxXjXNXBXZXBXAXAX3Xv.=.%.#.m > m m m n n N Y ) ) U U v v b b b b b b b b b B N C m m m , #.v.mXIXJXAXJXSXDXDXDXSXHXLXSXSXSXSXSXSXSXSXZXV.,.%.:.4.7.W.].'.].].].].].].]. XXX].'.l.{ ` J J J _ p.g.a.n.C.S.k.k.k.k.k.k.S.S.S.A.A.B.B.eXeXZ.S.m.m.S.h.h.S.C.B.n.n.x.x.a.J _ A A _ d.|.|.}.].|.].{.].W.7.8.4.*XGXAXNX6XlXlXlXlXlXjXjXjXjXjXNXCXjXMXCXBXCX&X,.%.%.%.m n C V Y Y Y U U B b l l l l v v v c c b B N n 4 4 5 5 > , , 6 ..&.,.b.8XfXfXdX5XjXjXlXlXlXNXmXmXjXjXlXNX9XVXc.7.1.6.L.L.I.!.E.!.!.E.].{.{.|.[.[.[.).`././././.u.p.p.a.>.+.h.S.j.k.k.k.k.k.j.S.A.A.m.A.vXA.S.m.h.S.S.j.S.S.S.C.n.>.K p.! Q Q ! ! [ s.s._.(.[.}.OX{.{.E.E.] ] ] ] ) ) 2.:.v.iXGXnXfXNXfXfXfXjXjXfXfXnXnXnXjXjXxXlXlXCXVX.X5 V C C ) ) 1.) B j 4 l l 4 u u l l l j j j z ) ) B N C n 5 m m %.;.2.9.0.v.%XnXLXLXAXSXSXAXSXSXSXSXSXSXHXHXJXJXJXJXJXJXbXH ] ] ' ' ' ^ ^ ^ _.s.u.u.u.u.u.u.i.p.F 4 8 +.m.S.m.m.S.S.S.S.A.A.A.Z.m.m.V.1XhX<XA.A.S.j.j.j.h.m.o.7 4 A Q f s d g f f / u.u.P.P.P.[ [ K.' ' T Y Y V C C *.8. X#XFXmXnXgXgXlXlXgXlXNXCXCXMX9X9X6X5XlXgXVXJXv.5 5 k k k k k k z z z z l l l l l j z c z b N N n n n n n m m #.#.%.%.*.;.:.v.>XhX1XZ.A.A.A.A.A.A.A.rX:XrXrXrXrXrXrX:X7Xc.1.E.Q.L.Y.Y.Y.Y.I.I.P.' W ",
"Q.!.!.Q.[.Q.I.' ] )  XyXiXMXMXkXwXeXeXkXkXkXkXxXlXjXBXAXCXwX$X9.%.#.#.m , m m n C N B Y ) ) ( L v F F A A A A A b b b B C C m m #.6 #.9.=XJXJXAXJXDXSXSXSXHXLXLXSXSXSXSXLXLXSXSXcX6Xn.o.*.2.8.W.E.E.E.].].{.].].].].XX}.}.].'.l.` ` _ s.p.i.g.a.n.D.S.S.k.k.k.k.j.j.S.A.A.B.B.rXZ.B.m.m.S.S.m.m.m.n.n.n.n.x.x.x.a.` _ _ d.|.|.|.}.|.'.].].].].W.4.0.-XGXCXjX6XxXlXlXlXjXjXjXjXfXjXNXNXfXNXBXNX9Xb.:.%.%.%.m n C Y ) ) ) ( U b b u u u u v v v v c b b B N k k = n > > , , ..&.,.b.8XnXfX8X5XjXjXjXjXjXgXmXmXlXjXBXkXjXMXv.4.3.6.L.I.!.E.!.!.!.!.{.}.}.}.[.}.}.[.`.`._._.u.u.p.a.g.K +.D.h.h.h.k.k.k.k.k.j.S.A.m.Z.A.S.h.h.S.S.S.S.S.h.m.m.n.x.a.a.s.s.s.[ [ d.'.|.|.}.}.}.{.{.{.].W.E.6.5.) ) ) 1.:.#XmXVXnXnXjXdXdXfXjXMXjXfXfXnXnXjXjXxXkXNXCXuX9.5 V V V ) ) ) H z 4 4 l l l u u l u u u l l j G ( B B B n n n m M ;.:.2.0.v.#X-XAXHXHXSXSXSXSXSXSXSXSXSXSXHXAXJXJXJXJXKXFXH ) ) ] ' ' ( W [ ^ ^ u.u.u.u.i.i.i.p.J z 8 D.S.A.S.S.S.m.h.S.S.A.A.A.B.m.Z.1XrXA.S.S.j.j.j.j.S.m.,.%.K _ u.f s y.f f / u._._.(.(.I.I.[ ] ' T T T V C m C *.8. X%XmXuXnXgXgXlXlXdXzXBXBXBXNXjX9X6X<XlXgXVXmX4.5 n k k k k k c z b b z l l l l l l l z b b b N N n n n n m m #.%.%.*.*.*.>.9.&XqXqX:XA.A.A.A.A.A.A.rXrXrXrXA.A.A.A.:X=Xv.3.6.Q.Y.Y.Y.Y.Y.Y.Y.Y.P.' ",
"Q.Q.Q.Q.Q.Q.L.L.] 6.oXaXiXNXBXwXeXeXeX1X1X1XqXhXjX6XjXCXjX&Xb.&.%...#.#.m m m t C B Y ) ' ( W L Z Z Z Z A A A A W A b B B V V m #.#.#.=.v.GXIXJXJXSXLXLXLXLXSXSXSXSXSXLXLXLXSXSXSXZXM.&.%.;.<.5.] L.I.E.'.{.{.{.{.{.{.}.}.{.{.].z.x.d.s.u.f Q ! a.x.D.D.h.j.k.k.k.j.j.S.S.w.w.m.m.m.m.S.S.m.+.+.o.>.>.n.x.x.x.x.l.l.` l.|.|.].].}.}.{.{.].].].c.4.c.iXMXNXBXxXhXlXlXlXjXjXjXjXjXjXjXjXfXNXBX9X&X>.&.%.%.M M C Y ) ) ] ] ( ( b v a a a a a a v v v b b B B N k k n > , 6 , 6 %.:.b.fXNXfXfX9XNXjXjXjXfXfXmXgXlXlXBXjXBXMX=X4.3.5.!.!.E.!.!.!.!.W.{.}.}.}.}.}.}.}.|.(.f.f.f.p.p.f.a.a.x.n.o.o.+.D.h.k.k.k.k.j.S.w.m.S.S.h.h.S.m.m.h.+.+.o.n.n.x.x.f.f.f.s.d.'.'.}.}.}.}.}.}.}.{.{.W.W.W.7.6.3.1.1.:.,.%XVXMXfXNXfXdXfXjXjXMXjXjXjXMXMXjXjXlXkXNXCX=X%.C V 1.) ) 1.) B k j l l l l u u u u u u u l j A ( G G B n n n n M *.:.2.9.c.v.%XnXHXLXSXAXHXSXSXSXSXSXSXSXAXAXJXAXAXJXKXJXV ) ] ] ] [ ] [ [ ( ' [ u.u.u.u.i.i.p.a.K >.,.m.m.C.S.S.S.j.j.j.S.S.A.B.B.Z.A.S.S.j.j.j.j.j.j.j.h.D.>.K _ i.i.t.t.i./._._.[.[.'.E.E.{ { ] ] ' T Y V m m *.1.4..X7XFXmXnXmXlXlXlXlXhXhXjXMXCXCX9X5X5XgXgXVX*XH # C N c c c c b b A b z l l z z z l l z z b b N N C n n m m M #.%.%.*.*.%.&.9.M.>XqX<X:XZ.A.A.A.A.A.rXrXrXrXA.A.A.A.:X&X.X7.6.E.Q.Y.Q.Q.Q.Q.Y.I.I.{ ",
"Q.Q.Q.Q.Q.Y.I.L.5.W.yXFXuXCXBXeXeXeXrX:XZ.:X<XqXjX6XjXAXMX%X9.%.%., 6 #.#.m m t N U Y ] ' ( W Z Z Z Z Z A A A A W W A B B V V *.#.#.#.#.9.uXIXJXHXSXLXLXLXSXSXDXSXSXSXHXLXLXHXHXSXJX&X>.=.:.<.1.] L.I.E.[.[.{.{.}.{.{.{.{.}.}.{.XXx.d.s./ g F./.s.G 8 o.+.h.h.h.j.j.j.S.S.w.+.w.m.m.m.m.D.+.8 1 8 K x.x.x.x.x.|.|.l.l.|.@XXX].{.{.}.}.}.].].7.0.4.v.7XMXMXAXzXhXlXlXjXjXjXjXjXjXdXjXfX9XNXCX5XN.%.%.%.%.M C Y 1.) ] ] ] ( W v u s s s s a a E E v v b b B B N k n n n m , 6 %.:.v.nXAXNXgX9XNXjXhXdXfXfXgXmXlXlXlXhXSXCXuX9.4.5.E.E.E.!.W.W.W.{.{.}.}.}.}.}.}.|.@Xx.x.x.x.f.f.f.f.a.a.x.K 8 : 8 +.@.j.j.k.j.S.@.@.m.h.h.S.S.m.,.o.8 1 8 >.x.a.f.f.f.s.[ d.].}.}.}.}.}.XXXX X].].W.7.7.7.3.1.1.;.:.9.=XAXnXfXBXfXdXdXjXjXjXjXjXwXjXMXjXjXlXlXNXCX#X5 M V 3.1.1.1.) z 4 j l l u u u u u u u u u u u b ( ( ( B z C n n M *.:.4.9.0.v.M.-XHXLXSXAXHXSXSXSXSXAXSXAXAXAXSXSXAXHXJXIXH V ) ] ] { { ` { ] [ _ _ ! p.f.f.f.f.x.x.>.>.,.m.C.S.S.S.j.j.j.j.S.A.C.C.A.S.h.j.j.k.j.j.j.j.m.D.n.x.` J ! u.u.u./._.`.).'.E.E.E.6.5.5.5.] ] ' ) V m m *.2.0.#XaXVXCXMXBXlXlXlXlX<X>X,XjXCXCX9X>XdXdXnXKX.XC ; C N b z z b b A A v l l l l v v l l z z z z b N C n m M M %.%.#.#.%.%.%.%.,.b.&XqX,X<X:XZ.A.A.A.Z.rXrXrXA.A.A.A.A.Z.&X#Xc.5.!.Q.Q.Q.E.Q.E.E.I.I.E.",
"Q.Y.Y.Q.Y.L.L.E.E.].yXGXuXwXkXrXZ.Z.Z.N.B.B.V.<XqX6XMXAXuXM.,.=.#.6 6 #.*.m n C B Y ] ] ( L L E a Z Z Z Z A A A A A A b B Y <.*.*.#.#.%.:.=XIXHXHXLXSXSXSXSXSXSXSXSXHXLXHXHXJXJXHXJX&X,.%.2.8.1.L.I.T.I.Y.[.[.{.}.{.{.OXOXOXOX}.].|.|._./.^.^.F./.^ G 5 8 +.D.m.h.h.h.S.S.h.+.@.S.S.D.+.7 7 > 5 K a.x.x.x.x.x.l.d.|.}.}.}.XX}.}.}.{.{.}.XX X7.4.2.$XiXnXCXBXxXhXlXjXhXhXjXjXjX9XjX6XCXCX9XAXjXn.&.>.%.M M V ) ) ] 6.6.] W Z Z a s s s s s s a Z Z E L b U U B N n n m m m 6 #.>.M.GXnXVXAX5XjXhXhXdXdXgXgXmXNXlXlXZXhX6XCX#X4.z.6.'.].W.W.W.].].{.{.XX+X+X}.}.XXXXb.c.c.x.x.d.a.f.p.p.d.` C - o 1 o.h.S.S.j.h.@.@.m.S.m.S.,...< 1 1 # M x.d.p.f._._.s.d.|.@X X X]. XXXXXXXXX X8.7.~. X7.7.3.1.:.>.b.3XCXNXfXdXgXBX6X6XNXBXwX4XjXCXNX6XZXBXjXAXCXc.6 V 1.1.3.) ) B z 4 4 l l u u u u u u u u u u u l A ( ) H B C C M M *.;.2.0.0.v.b.5XHXJXSXHXZXSXlXdXdXlXDXDXDXDXZXSXSXDXSXgXn.3.3.3.5.3.3.3.` 3.` ` ` ` a.a.a.x.x.x.x.x.x.n.n.D.m.S.S.j.k.k.j.S.S.m.S.h.h.h.j.k.k.j.j.S.m.+.n.3.` ` p.p.J g.s._._.(.'.W.6.8.7.5.5.1.) ) ) Y N m , 6 %.2.0.$XFXmXVXCXMXBXZXlX<XB.C.:XjXBXNXjX9XdXNXgXKX4.5 n N B b z c b b b v Z v l F Z l l l z l l z b B B B C C C m M %.#.%.%.*.;.;.,.9.M.qX4X:X:XrXZ.A.1XrXrXrXrXrX1XA.A.A.Z.V.M.c.7.5.E.E.!.E.6.6.6.6.6.6.",
"Q.Y.Y.Q.Y.L.L.!.6. XtXGXuXwXkXrXN.N.N.B.B.B.Z.qXjX9XMXCX7XM.:.=.#.6 m #.*.m n V B Y ] ' ( W W E a a Z Z Z D D D A A A b B ) <.*.*.#.#.%.:.%XHXJXLXLXLXSXSXSXSXDXZXAXJXHXLXJXHXJXJXJX2X9.%.:.2.5.] L.L.I.I.Q.[.{.{.{.}.+XOXOXOX{.|.|.|.`./.^.^.^.^.i.E z 4 7 o.+.D.m.S.S.S.@.@.m.m.D.+.7 5 n r N J f.x.x.x.x.x.l.l.|.}.+X+XXX}.}.{.|.].].]. X7.4.9.=XCXMXBXBXhXhXhXjXlXNXNXlXjXjXMX6XCXCXwXCX3X,.&.:.%.M C ) ) ) 5.6.{ ' W Z a a s p s s p s a a E E W b b U U N N n n m m m #.%.v.VXnXNXDX5XjXjXxXjXjXfXmXmXNXlXlXZXhXjXCX%X4.4.z.].].W.].].].].].].XXXXXX}.}.XX.Xv.v.c.z.l.l.f.f.p.u.f.d.( k ; 1 7 +.+.h.S.S.@.@.S.S.D.+...: + + ; 4 _ |._._.`._._.d.d.}.XXXXoX*X*XyX*X*X*XXX0..X.X*X%X.X.Xv.v.M.&X0XCXNXdXdXdXlX6X6XkXkXwXwXBXCXNXjXBXlXjXAXuX:.5 *.1.1.5.1.) B z 4 4 l l u u u u u u u u u u l l A ` ` ) B V C M M M =.2.9.9.b.b.;XJXJXSXAXjXV.C.B.C.5XDXDXcXcXlXZXSXDXSXgXb..X.X.X.X.X.X.X Xc.c.c.c.b.n.n.x.c.z.z.x.x.x.a.K o.+.m.m.j.j.j.j.j.S.h.D.+.j.j.j.j.j.j.h.D.+.K x.` _ _ _ _ J ` a.|.).'.{. X X X X~. X X7.7.z.7.8.;.=.=.:.9.v.%XiXCXVXCXlXlXcXxX<XB.B.N.,XNXBXCXMXNXDXmXKX4.5 k z B B b b b b Z Z F v u Z F l l l z l l l b b B B B C C M M %.%.%.%.;.;.=.:.,.M.4X4X:X:XrXZ.rX1XrX,X,XrXrX1XA.A.A.<X:X&Xv.c.7.W.W.W.7.7.z.z.z.z.z.",
"Y.Y.Y.Q.I.L.] 5.5.XXFXVX8XjXkXrXB.B.B.m.B.B.:XzXkXjXMXMX-Xv.:.%.#.m m #.*.m C V Y ) ) ( W W A S Z a S S S D D D D D A A G ) 1.*.*.#.#.%.%.#XJXJXLXLXLXSXSXDXZXlXdXjXNXJXLXIXJXJXJXHX9X9.#.%.<.1.] ] ] I.I.E.'.'.{.{.{.}.{.{.{.{.}.|.|.`./.t.t.r.t.t.f Z l k C M o.+.m.S.S.h.h.m.D.+.7 5 k e c U p.f.x.x.x.x.l.l.].XX+X+X+X+X}.}.].XX X Xc.c.c.9.v.-XCXCXNXlXfXhX6XxXlXxX6X6X6XjXBXjXNXMXwXNX&X>.&.&.%.M C ) 5.5.5.6.{ ( W Z a s p d d p p s s a Q E Z v b U U U N N n m m m m %.c.mXnXNXNX5XCXNXlXlXlXNXmXNXNXlXhXkXhXkXBX&X9.4.z.z.z.7.z.].].].]. X XXXXXXXXXoX#X#X X0.4.3.l.l.f.p.p.s.f._ z & % > : | +.S.S.@.+.m.D.o.1 1 % % $ q W (._._._._._.f.d.|.XX XXXyXFXFXaXaXtXyX#Xv.yXtXtXiX-X=X=X-X3X6X9XjXMXfXdX5XlXlXhX1X:X:XrXrXwXCXjXlXjXlXAX=XM n *.1.) 1.1.) z z j l l u u u u u u u u u u u l v G ( ) ) V V C M m m *.:.2.9.b.b.;XVXJXJXBX6XM.b.n.C.dXSXSXDXDXlXcXSXcXcXgX;X-X-XtXtXtXtX-X*X%X%X%X;X&XV.M.v.M.c.c.z.x.x.a.F 8 o.+.D.m.S.S.S.h.S.h.@.@.j.j.j.j.h.h.+.8 8 J a.p.[ [ ` ` K 3.z.|.|.].].XX*X=X$X$X*X*X*X*X*X*X#X$X#X#X$X*X=XiXGXCXCXVXlXlXcXhX<XB.B.N.>XjXBXCXNXDXVXnXbX;.5 k N B b b b b A Z Z a u a Z Z F l l l l l l b b B B B C C C m %.%.%.%.:.:.=.:.,.M.3X0X:X,X,X<X1X1X1X4X,X<X1X1X1XA.A.<X,X>X&X%X.XXXXX.X.X.XoXoXoXoXoX",
"Q.Y.Y.Y.L.] ] ] 1.oXFXFX9XjXkX<XB.m.m.B.B.V.1XzXNXNXCXCX=X9.;.%.#.#.#.*.V m C V Y ) ( ( W A A ! Z S S S D D D D D D A A G ) 1.1.*.M %.%.%.v.mXHXJXHXSXSXSXZXhX<XV.:X5XNXJXLXJXJXHXLXMXb.%.m *.<.] ] ] 6.6.W.].].].].{.].].}.}.}.}.}.}.|._.i.t.y.y.t.t.f v b R Y 6 o.>.D.m.m.h.,.+.6 = w c x I ' f.f.f.x.|.x.x.l.]. XXXXXXXXX{. X XXXXX Xc.c.9.c.v.7XCXMXNXjXdXlXlXlXjX:XV.V.>XjXBXjXjXjXjXwXN.&.&.=.%.M B ) 5.6.6.E.] ( E a a s d d d d p s s f f E Z v b B U U B N n C m m m 6 4.nXmXVXNX3XNXNXBXlXNXNXmXmXmXlXdXxXhXkXBX-Xb.c.c.c.c.c. XXXXX.XXX.X.XoX*XoXoX*X*X#X.X0.2.1.3.a.f.f.u.u.s.p.F 4 w w * : o.,.m.+.+.+.o.1 1 % w q   x [ `._._._.f.f.d.l.|.XXz. XyXGXVXVXFXiX=X#Xv.iXiXuXuXuXiXiX8X6X6X6X9XjXdXdX5XlXzXxXZ.B.B.B.N.:XMXjXjXjXBXAX%X5 M <.1.Y 1.1.V z z j l l 2 u u u u u u u u u u u j b ( ) ) ) H V M m m *.:.2.9.b.b.%XnXHXHXZXhXdX<X>XdXZXSXSXDXSXZXDXSXcXvXvX>X-X8XiXiXuXiX7X-X;X-X3X6X1X<X&X&X&X.Xc.z.x.|.x.J 8 8 8 o.+.D.m.S.S.S.h.@.h.j.j.h.m.+.o.8 4 F p.u.p.s.s.` ` 3.z. X].].z. X*XaXiX=X7X7XiXiXiXiXiX7X7X2X2X7X7X7XuXVXnXNXNXlXzXcXxXvX>XZ.:XdXNXNXMXMXNXVXmX-X;.n n B B b b b A Z F u u u a Z Z F l l l l l l b B B B B C C M m %.%.;.=.:.:.;.:.,.v.2XwX4X4X4X,X1XhX1X1X1X1X1X1X1X1X1X1XqX9X9X7X-X=X*X=XtXtXtXbX-XtXbX",
"Q.Q.Q.Q.I.] ] ) 1.*XGXFX9XNXkX1XZ.N.B.Z.rX1XxXkXNXAXJXGX=X9.=.%.#.#.#.*.V C C B Y ) ( ( A A D D S Q Q ! D D D D D D D A G ) 1.1.1.M *.%.M c.mXLXAXSXSXSXSXzX<XC.B.C.:XgXAXHXHXHXAXHXNXN.,.:.2.4.7.z.z. X X X XXXXXXXXXXXXXoXoXXX}.}.}.|.`.u.t.y.r.r.t.g E I I R B n 7 >.,.D.,.o.6 n e x I x b [ f.f.x.x.x.x.x.z.c. XXXXXXXXXXXXX X.X.X.X.Xv.b.v.#X8XCXjXjXfXdXlXBXBXqX&XN.N.>XjXMXjXwXwXjX6XB.o.&.%.M M V ) { 6.E.E.] ( Z a s p p d d d p d s s a Z Z l c b U U U B N n m m m 6 :.nXVXVXmX-XNXMXBXlXNXNXmXnXfXgXhXhXhXkXNX6X%Xv..X%X=X*X*X*XyXyX*X*X*X*X=X=X=X=X*X*X.X0.2.:.;.` f.f.p.p.f.f.A 4 q q w > : ..,.,.+.8 o o % $ $ q 9 v _.`.u.u._.s.d.l.z.XXXX7. XtXnXnXnXnX8X-X%X#X8XuXuXuX9X9X9X9X4X4X6X6XdXfXfXfXdXlXhXV.B.B.B.B.V.wXNXNXNXAXVXv.5 M V Y Y 1.V C z z z l l u u u u u u u u u u u u j b ) ) ) ) 1.*.M M m *.:.9.0.c.b.M.7XJXHXAXzXZXZXZXZXSXZXZXDXSXSXSXZXcXvX>X>X3X7X7X7X7X7X8X5X3X3X>X<X1X1X<X>X3X#Xc.z.x.x.x.x.C 5 5 5 8 >.n.m.A.S.h.@.h.S.S.m.+.7 5 4 4 J f.p.p.p.p.a.` 6.]. X].7.7..X=XpXpX2X4X3X5X5X8X5X3X2X2X2X4X4X9X3X5X9XfXfXlXlXlXcXzXhXhXhXhXlXNXjXjXNXmXmXmX-XH C N B N b b b A Z v u u u a Z Z Z u F l l l l b G B B B V V C m %.*.:.:.:.=.;.:.,.v.2XpX4X4X6X,XqXhXqX,X,X,X<X<X<X1XrXeXqXwXwX9X8X8X8X-XiXmXmXnXmXnXnX",
"Y.Y.I.I.L.] Y Y 5.yXGXmXnXNXxXhX1XA.A.1XxXzXxXxXlXAXJXCX%X9.%.%.#.#.*.*.V C V B Y ) ( ( A D D D S Q ! ! ! D D D D D ! G G ) 1.1.1.*.*.*.M 9.iXLXHXHXHXSXSXzX<XC.B.C.Z.dXNXSXHXSXSXSXAXdX&X%X=X=X*X*X=X=X-X-XyXyXyXtXtXtXtXtX*XXX{.}.}.}.|._.i.t.r.r.^.F.g I I R R c n 7 o.&.&.6 r e y I I i v a.|.x.x.x.x.x.z.c.%X%X*X*XyXyXyXyX.X#X*X=X=X=X&X&X7XMXCXjXlXfXdXjXjXlXjX6X>X>X6XjXjXjXwXwXNX4Xb.o.=.=.M V H ) { 6.!.E.] ( E a s p d d d d d d s s s a Z l v b U U U B N n m m m 6 >.nXVXVXmX5XCXNXBXlXNXNXmXnXgXfXhXhXhXxXxX9X3X&X;X8XnXiX-X-XiXiX7X=X=X=X2X=X&X=X=X*X#Xv.9.4.>.K a.f.g.p.f.f._ l 9 9 e w O + ..,.o.o o $ $ . $ q i ! `.`.u.s._.f.d.z. X.XXX7.XXaXnXdXdXdXdX3X;X;X9X9XwXwXwXwXwXwX4X4XqXjXdXfXjXlXdXlXvXV.m.m.m.m.V.jXBXBXBXSXVXb.5 *.V V 1.V V C B z z l l u u u u u u u u u u u j c B ) ) ) 1.1.*.V M M *.2.9.0.9.b.v.&XAXHXZXAXBXZXSXSXZXZXZXSXDXSXDXcXlXvX>X<X3X3X7X7X2X0X4X6X3X>X>X:X<X1X1X6X5Xv.c.z.x.x.x.x.H n 4 4 z z K >.m.S.m.@.m.m.D.o.5 4 4 j l _ f.p.p.p.p.p.d.'.}.{.].0.0.$XiXpXwX4X6X>X>X<X<X,X:X,XeXeXqXqX9XdXdXdX5XdXfXlXzXzXzXxXvXhXzXBXNXfXMXVXnXnXKX*XV C n N B b b b A Z u u a a a a Z a u F F F Z l b ( ( B Y V V M M %.*.:.:.;.=.:.:.,.v.2XpX0X4X4X,XqXqX1X:X:X<X:X:X:X:X,XwXeXqXqX6X5X5X6X7X8XnXnXnXfXgXgX",
"Q.!.!.!.L.] ) Y 7.yXFXnXnXlXdXxXxX1X1XxXzXzXkXlXjXCXGXMX#X:.%.%.m #.*.*.C C V B Y ( ( ( G D D D Q Q ! ! ! ! D D D ! _ G G ) 5.8.8.*.;.;.M :.-XHXHXHXSXSXSXZXvXZ.A.A.vXcXDXDXSXSXSXSXSXZXAXAXJXJXGXGXGXGXVXVXmXmXmXVXmXmXGXFX=X.X].[.{.}.OX)./.F.^.^.^.^.F.P L R T I c M %.9.9.V y I y I x u F f.|.x.x.x.x.c.b.*X8XuXiXaXaXaXaXaXyXtXaXmXmXmXmXMXMXCXCXjXNXlXfXlXjXxXkXlXjXxXjXjXwXjXjXjXNX>Xn.o.=.%.M V ) { { 6.!.!.] ( E f s p p p p p d d s s s a Z v v b U U U U N n n m m 6 %.-XmXNXVX8XBXMXBXlXNXNXmXnXgXfXdX<XhXxXqX6X9X3X5XfXdX3X=X-X7XuXuX7X2X7X0X2X2X3X-X;X#Xv.b.n.n.x.x.a.f.p.f.|.` b i 9 e e q n 2.v.:.5 $ q q 9 q   u s._.f.u.f.f.d.l. X X.X X0..XFXfXdXvXdXdX<X<X6X9X9X9XwXwXwXwXwXqXqXqX9XdXjXlXlXlXlXxXZ.B.m.m.m.:XMXBXBXBXAXnXb.m 1.V V 1.V 1.1.H B z l l u u u u u u u u u u u j c B ) ) ) ) 1.*.M m m *.:.4.0.9.b.v.&XAXJXBXAXzXZXSXSXSXZXSXSXNXJXNXgXdX<X&X<X3X3X0X0X0X0X4X4X0X4X>X:X<X<XvXdXgXb.z.z.x.x.x.x.) c j x v l z M o.m.S.w.m.,.7 # q x x x A _ p.g.g.g.g.J d.|.OX{.7.0.v.7XpXpX4X6XxX<X<X<X<X<XrX1XrXrX<X,X,X6X6X5XdXdXfXlXzXlXlXzXvXvXdXlXjXdXfXMXnXnXKX*XC C N B B B b b A Z a u a a a a Z a Z F Z F Z v A ( ( B V V V M M M %.;.=.:.=.:.:.:.0.=XpX3X4X4X:X,XqX,X>X>X<X:X:X:X:X,XwXwXwXqX1X<X1X6XwXpXwXMXjXlXlXlX",
"W.W.W.W.W.7.8.1.c.tXGXnXNXjX6XhXxXxXxXzXzXxXlXBXjXNXCX8XM.:.#.%.m *.*.V C C B B Y ) ( ( D D D D Q Q Q i.! ! D D D ! _ G G ) 5.8.8.*.;.;.M >.;XJXHXSXSXSXSXSXZXxX1XxXcXSXDXDXDXSXSXcXcXZXSXSXAXVXGXGXAXAXBXNXNXgXAXVXnX8XnXmX-X.X'.[.[.{.OX)./.F.^.^.^.^.F.I x y T I U 6..XiXyX8.R R I x i l D f.x.x.x.x.b.b.%XmXnXnXnXmXVXFXFXFXiXuXCXCXCXCXMXCXjXNXjXdXBXBXgXBXjXjXjXjXNXNXjXjX9XMXMXjXCX;X9.o.=.%.M H ` { 6.6.!.E.] ( E f p p p p p p d d p s s a Z Z v b U U U U B n n m m 6 %.-XnXNXVXfXAXCXBXNXNXNXNXmXmXgXdX<XxXkX<X6XdX5X6X6X>X&X&X3X0X9XpX2X2X4X0X0XeX9XmX;X%Xv.v.b.b.x.x.x.f.p.f.|.{ b j j e e R  XaXVX=X:.n q 9 q & X u f.`.u.u.s.s.d.z. X X0.0.0.*XGXdX<X<X6X<X>X>X6X6X6X6XqXwXjXwXwXjXwX6X6XdXjXNXjXlXlXxX<XZ.B.B.C.4XBXCXBXCXVXmXv.M 5.V ) 8.) 3.z.) B z l l u u u u u u u u u u u j z B B ) V V V V C m m %.=.2.0.0.v.v.&XJXHXBXAXZXZXSXSXSXSXSXDXVXHXNX;X5X>X&X>X6X9XwXpXpX0X4X2XqX4X>X:X<X<X<X5XgXn.4.c.x.x.x.x.6.B i x I x j n 6 ,.,.,.n.7 # w e I x x _ d.g.J g.g.J J d.|.}.'.7.4.v.uXCXwX,XqXhX<XZ.<X<X:XrX1XeXqXeX6X6XhXdX6XdXdXjXlXlXlXlXlXzXdXdXjXjXfX5X5XfXdXVX%XC V N R B B B b A Z a u a a s a a a Z Z F A Z v A ( ( U B V V M M m %.*.=.:.=.:.:.:.9.sXpX2X2X,X:X>X,X:X<X<X<X<X>X,X4XqXeXwXjXjXhXhXhXhXNXMXwXjXNXNXlXjX",
"*X$X#X$X#X.Xv.v.%X7XMXuXwXNXMX9XjXlXzXcXZXZXZXBXlXNXCX7Xv.:.%.%.C V V *.Y V C N Y V ) b F g.i.i.i.i.Q i.i.i.i.i.i.p._ _ G ) 5.7.8.8.;.*.%.:.#XHXHXSXSXSXSXSXSXSXSXAXAXDXDXDXAXAXSXAXAXZXAXDXDXAXJXJXAXDXDXDXZXZXlXZXlXBXCXMXnX.X{.Q.[.[.).`./.F.^.r.r.^.F.E I I I R 5.XXaXaXyXyX~.R e x x b _ x.x.x.x.x.z..X-X8X9XMXMXMXjXfXjXNXCXCXMXNXlXlXjXdXjXlXlXjXlXlXlXdXdX6XdXjXlXlXxXjXMXNXNXMXwX$X,.&.;.*.M H 3.6.6.5.!.E.{ ^ E s p p p p p p p p p p s s a Z b b B U U U B N n m m 6 %.=XnX8XNXNXNXNXCXCXCXNXNXNXNXBXjXjXjXdX5X5X5X5XdX5X3X>X5X9X9X9X9X9X9X0X6X6X3X3X8X-X#X.X.XXXXX Xx.x.f.a.a.f.f.G j x q c XXFXFX-XFX=X7.n & .     Q _._.u.u._.f.d.].XX X0.0.9.*XFXfX6X6X6X6X6X6X6XjX6X3X6XwXwX6X6XwXwXpXMXMXMXMXMXCXBXBXxX<XZ.Z.<XCXMXMXAXmXmXmX XV 1.5.5.5.6.6.6.) b j l l u u u u u u u u u 3 2 j z B ) ) V V V V V M m %.:.2.0.0.v.v.=XJXCXAXSXSXSXSXSXSXSXSXAXMXCXNX6X&X&X&X>X9X9X9X9X0X0X4X4X4X4X4X:X,X4X6X6X5XM.>.n.x.x.x.@Xl.) j x I c e N 5 7 o.,.%.> n r e e x L [ p.p.g.g.J J a.l.].].~.9.9.M.7XpXqX6X<X1X1X,X,X1XeXeXeX4X0X6X6X6X6X6X6X6X6XjXjXlXNXBXBXlXlXfXgXgXfXdX<XdXjX5X%XM C Y Y Y Y ) ( A v v a a u u u u a a a F F F l b U Y B Y B C C M m m %.=.=.=.:.9.:.9.#X0XpXeX:X,X,X:X<X1X1X1X1X6XqXwXwXjXjXdXdXfXfXgXjXjXjXjXdXdXfXdXjX",
"0X3X&X&X&X$XM.M.&X0XMXpXpXCXCXjXNXBXZXZXZXZXzXlXlXNXCX7Xv.:.%.%.C V V 1.1.1.<.<.1.) ] A A i.i.i.i.i.i.i.i.t.t.i.i.i.! _ ( ` 6.7.7.8.1.*.%.>.v.HXHXSXSXSXSXSXHXHXHXJXSXAXAXAXAXAXAXAXAXAXAXDXDXAXJXJXAXDXDXZXcXcXzXZXlXBXCXCXMX.X{.[.[.[.[.`.`.^.t.r.r.^.g g I I c ] XXyXaXaXaXaX{.Y c c b ( d.|.x.x.x.x.z.%X8X8X9XdXjXjXhXhXhXkXxXhXhXjXlXlXlXhXhXlXlXhXhXlXjXdXfXdXdXjXlXlXjXjXqXjXjXjXwXM.>.o.%.M M V 1.6.E.E.!.I.[ W E s p p p p p p p p p p p s a Z A b U U U U B n n m m 6 6 -XMX8XMXmXNXNXCXCXCXNXNXNXNXNXMXMXMXfX6X5X5X6XfX5X>X>X5X6X6X6X6X6X9X9X6X6X5X5XiXtX#X XXXXXXX].l.l.x.f.a.f.a._ 9 q w B XXaXGXmXIX=X4.5 . . 9 i u._._.u.s.f.d.` 7.XX~.0.0.9.*XGXMXwXwXjXjXjXjXwXwX4X3X6XjXwX9X9X9X9XpXpXMXMXMXMXMXAXBXlX<X<X<XhXCXAXCXAXmXKXFXc.H 5.6.E.E.E.E.6.` G l l l u u u u u u u u u 3 2 4 z B H 1.1.<.1.V V V M %.=.q.9.0.v.v.%XHXCXAXSXZXZXSXSXSXSXDXNXjXMXjX6X&X&X&X>X4X9X0X0X0X0X0X4X4XqX4X,X,X4X0X0X9X%X>.n.x.x.x.x.x.` k w N c e r > 5 5 M n > t e y x x W [ p.p.g.J J ` l.z.7.7.2.9.:.v.7XMX9XqX6XqX6X4XeXeX4XeX4X0X0X9X0X6X6X,X,X,X4X6XqXjXMXCXCXNXNXmXgXgXgXdX6X<XhX5X%X%.H ) ] 5.5.5.) G b l u a u u u u a a a l F F z b U Y R Y Y V V M m m %.=.=.=.:.9.:.9.#X2XpXeX:X,X,XrX1X1X1X1XqXqXqXwX9XfXfXfXfXgXgXgXfXjXjXdXdXdXfXjXjX",
"MX9X4X3X&X&X&X&X3XwXCXMXpXCXCXNXDXDXZXZXcXlXzXlXlXNXCX=X9.:.%.%.M V 1.8.7.7.7.7.7.6.6.( Z i.f t.i.i.t.t.t.y.t.i.i.i.! _ ( ) 5.8.8.1.*.*.M %.v.JXHXSXSXSXSXHXHXHXHXHXHXSXSXSXSXAXAXAXAXAXDXDXDXAXJXJXAXAXDXZXcXZXcXZXBXAXBXCXCX#X].Q.Q.Q.Y.)._./ g t.t.^.g a I L I U 5.XXaXIXaXyXW.R c c b _ d.l.x.x.x.x.c.%XnXnX9XdXdXdXhXhXhXhXdXdXdXhXlXlXlXlXjXlXlXdXdXhXhXdXjXjXjXjXjXjXxXxX6XwXwXwXwXM.&...%.M M V ) { 6.E.E.] ' W a s p p p p p p p p p p p s a Z A b U U U U B n n m m m 6 =XCXfXMXnXmXNXNXMXMXjXjXjXjXjXMXMXjXdX6X6X6X6X6X6X5X3X5X6X6X6X9X9X9X9X6X6X5X5X8XtX%Xc. XXX{.].` a.x.l.a.a.f._ b q q k 1..XaXIX=Xc.C ; . . j v _._.u.i.u.s._ ` 3.c.0.0.2.9.=XGXMXjXjXjXMXMXNXjXwX6X4X9XjXjXjXjX0X9X9XpXMXMXMXMXMXCXBXNXxXhXxXzXCXJXAXAXmXKXFXz.H 5.E.!.!.E.6.6.{ ( b l u u u u u u s s s u u 2 j z V ) 1.1.1.1.Y V V V *.=.:.9.0.v.v.#XHXCXAXZXZXSXSXSXSXDXgXgXjXjXjX6X2X&X2X3X3X6X0X9XwX0X0X4X4X6X4X,X4X4X0X0XuX%X>.z.x.x.x.x.z.` k q c y e w * 2.0.4.*.n t e x x x W _ p.p.p.J J K 3.7.8.1.2.4.:.v.7XMXjXjXqXqXqXqXqX4X4XeX4X4X4X4X4X6X4X,X>X:X,X,X6X6XdXnXMXNXCXCXNXmXgXdXdX6XjX9X=X;.1.6.6.E.7.6.{ ( F F u F u u u a a a F u F F z B ) ] Y Y Y Y V V M m %.=.=.=.:.9.:.9.M.2XpXeX:X,X1X<X1X<X<X1XqXhXqXwX9XfXfXfXgXgXgXfXfXjXjXdXdXdXdXjXjX",
"NXjXwX6X3X&X&X:X0XMXCXMXMXMXCXCXAXDXBXlXzXzXzXlXlXNXMX&X9.=.%.M M V 1.8.W. X X X X].]._ S Q f t.i.t.t.t.y.y.t.i.i.i.! W ( ) ) ) Y <.V *.M %.v.JXHXHXSXSXSXHXHXHXHXHXHXHXHXSXAXAXDXDXDXDXZXZXZXAXJXJXJXAXDXZXZXZXcXSXDXAXAXAXCX%XW.E.!.E.E.)._./ f g t.t.f g I I L x q U XXyX+X5.B c x x b [ |.l.x.x.x.x.c.%XmXnX9XdXdXdXdXhXhXhX6X6X6XdXlXlXlXlXlXzXlXhXdXdXhXdXlXjXjXhXhXjXjXxXqXjXwXwXqXB.&...%.M V V ) ) ] { ] ] ( W a s p p d p d d p p p p p s a Z A b B U U B N n n m m m 7 =XVXnXNXnXnXNXNXMXjXjXjXjXfXfXMXMXjXfXdXdXdXdXdX6X6X5X6X6X6XdX6X6X6X6X5X5X5X5X7XtX%X7.7.].].'.` a.l.d.a.d.d._ ( j   & w H XX*X*.n ; ; .   x W _._.u.u.s.p._ ` 3.4.2.2.:.9.-XGXMXjXwXjXjXjXNXjXjX6X6XwXjXjXjXjX0X0X9XwXMXMXMXMXNXNXNXlXkXxXzXZXMXJXAXVXmXKXFX7.) 5.E.!.E.E.6.6.6.( b l u u u u u u s s s u u u l B ) 1.1.1.1.1.1.H *.*.*.=.:.9.0.b.b.#XHXBXAXZXZXSXSXSXBXlXdXdXjXjXjX9X4X3X4X9X3X6X9XwXpX9X9X4X4X6X6X,X4X4X0X7XuX;X4.x.x.x.x.x.|.3.B q y y e N *.*XyX*X.X1.N e e x v W [ _ _ J J J K 3.1.*.*.<.4.:.v.8XMXjXjXhXqXqXqXqX4XeX4X2X4X4X6XqX6X,X,X:X:X:X>X,X3X6X9X9XMXCXVXVXnXfXdXjXjXjX8X*X1.5.!.!.E.E.6.{ _ A F Z Z a u a a a a F u F F b B ) ] ] ] Y Y V V M m %.=.=.=.:.9.,.9.M.2XpXeX:X1X1X<X1X<X1X1XqXhXhXwXwXNXMXjXfXjXgXlXlXjXjXdXdXdXdXjXMX",
"MXNXMXNXwX>X>X4XjXNXNXjXjXjXNXNXBXBXlXlXlXlXlXBXNXNXMX%X9.=.%.m M V 1.8.W. X X XXX].{.[ ! i.t.t.i.t.t.t.t.y.t.i.i.i.! A _ ) ) Y Y Y 1.1.;.%.b.JXJXSXSXSXSXSXHXHXHXSXSXSXSXSXAXAXDXDXDXZXZXZXSXSXAXJXJXAXAXZXZXZXZXSXZXAXAXAXCX%X XW.W.W.].{.|._./ f g t./ / E I I I x c U 5.Y N c e x b ( d.|.|.f.x.x.x.c.*XmXnXfXdXdXdXdXjXwXqXdXdXdXdXjXlXjXjXlXBXBXlXdXjXjXjXlXxXhXhX6X6XhXhXkXjXwXwX4XB.&.#.%.*.1.) ) ( ) ] ] ] ( W Z a s p p d d y.p p p s s s a Z b b B U U B N k n n m M 6 =XVXnXCXnXmXNXNXNXlXlXjXjXjXfXlXjXjXfXfXfXfXfXdXdXdX9X6X6XdXdX6X6X6X6X5X5X5X8XuXaX*X7.7.].'.'.{ ` d.d.d.d.d._ W j 9 j & w V V = & $ &     v _ f.f.s.p.f.p.` x.3.2.:.2.;.9.-XVXMXjX6X6X6X9XjXjXNXjXjXjXjXjX9XjX9X9X9XfXMXMXMXMXjXjXjXjXjXlXzXzXMXJXAXDXmXKXbX3.) 5.6.E.E.E.6.6.{ ` ( v u u u u s s s s u u u u l B ) 1.1.1.1.1.) ) 1.;.*.=.:.9.0.v.b.#XHXBXSXZXSXSXZXzXjXdXdXdX9X9X9X0X9X9X9X0X3X9X9XjXMX9X9X6X>X6X6X,X>X4X0X7X8X*X3.x.x.x.x.x.x.l.G k e e N Y oXtXyXtXyXW.R e q x b _ [ _ J J J G K ;.H M *.<.2.,.M.uXMX9X6X6XqXqXqXqX4X4X2X:X4X4X4X4XeXrX,X<X:X:X:X>X>X3X6X9XwXNXCXCXMXnXMXMXwXwXuX*X8.7.!.!.!.6.6.{ _ A Z F S a a a a Z Z F Z F F A ( ) ] ] ) U Y V C C M %.%.=.=.:.,.,.9.M.0XpXwX4XeX1X<X1X<X1X1XqXqXqXwXwXjXjXjXfXfXfXjXjXjXjXfXdXdXfXjXMX",
"NXjXNXNXNX6X6X6XNXjXjXjXjXjXNXjXNXlXlXlXlXlXlXBXNXNXfX#X,.=.%.m V V 1.8.W.].]. X}.{.}.[ ! i.t.t.t.t.t.t.t.t.t.i.i.Q ! ! [ 6.6.5.5.8.8.8.;.%.b.JXJXHXHXSXSXSXHXHXSXSXSXAXAXAXAXDXDXDXZXZXZXZXSXSXAXJXJXAXSXSXZXSXZXSXZXAXAXBXCX#Xz.7.7.W.].}.}.(.^ Q f f i./ E v I I b c k k k k x x L ( { '.|.d.l.x.x.x.c.=XmXfXfXfXdXdXjXjXjXqXjXhXdXhXjXjXhXdXlXBXZXzXjXjXlXjXkXxXxXhX<X<XqXqXkXqXeXqX2Xb.&.#.M *.1.) ] ) ] ] ] ] ' W E a s s d d d y.y.p p s s a Z Z b b b B U c c N k n 5 m 6 =XCXuXCXnXNXNXNXNXlXlXjXjXjXjXjXjXdXdXjXjXjXjXdXjXjXfXdX9XdXjXdXdX9X6X9X9X9XfXmXFXyXz.7.].].'.'.{ d.d.d.d.d.[ _ v j & & $ w w & $ .     u A s.p.s.s.p.f.p.a.].3.;.=.:.*.9.iXGXMX6X3X>X>X6XwXjXNXjXjXjXjX9X6XjXdXdXdXfXfXMXMXMXjXdXdXdXjXlXlXlXNXAXBXDXmXKXtX3.) ` 6.{ E.E.E.6.{ { ( b l u u u a s u u u u u u l H 3.5.1.5.5.5.1.) 1.1.*.%.=.9.0.b.b.#XJXCXAXAXSXZXlXhX6X6XqXwX3X3X3X4X9X0X0X9X9X9XwXwXwX9X9X6X<X6X6X4X3X4X7X7X-X=X3.3.x.z.x.x.x.l.) c e e N Y yXtXtXFXyX1.r q j x W _ _ _ D A J G K H V m *.:.4.,.M.uXnX6X6X6X6X6X6X4X4X4X2X:X4X4X4XeXrX,X,XrXrX:X:X:X>X>X4X4X0XwXMXMXMXMXMXMX6X0X7X*X8.W.Q.!.E.E.6.{ _ A Z Z S S a a Z Z Z Z Z F F A ( ' ] ] ' U U U V C C M %.=.=.:.9.,.9.M.uXpXwX4XqX1X<X1X1X1X1X1XqXqXwXwX9X6X6X6X6XdXdXdXjXjXjXjXjXjXjXjX",
"kXjXjXjXjXxXjXjXNXjXjXlXjXlXjXlXlXlXlXlXlXlXlXlXNXNX9XM.,.%.%.m V Y 1.7.W.].].{.{.{.}.[ ! i.f t.t.y.y.t.t.t.t.t.i.Q Q ! d.'.].W.W.W.W.7.1.M c.GXJXJXHXHXSXSXHXHXSXAXAXDXDXDXDXDXDXDXZXZXZXZXZXZXAXAXJXSXSXSXSXZXZXSXZXAXBXBXMX#X2.1.2.8.7.].].{ [ ^ Q / / / / E I x i x k k k k c x W { d.'.|.l.|.|.|.z.c.-XmX8XfXfXfXdXjXjXjXjXjXjXjXjXjXjXdX6XjXBXZXBXlXlXlXjXkXlXkXhXqX1X1XqXqXqX4XqX2Xb.o.#.m V 1.5.{ { I.I.E.I.] _ E Z a s s p s y.y.s s s s a Z Z A b b U L L L B k w 5 m 6 =XuX8XMXnXNXNXBXNXlXlXjXjXjXfXjXdXdXdXfXjXjXfXfXjXjXjXdX6XdXjXdXdXdX9X9XdXdXnXmXGXyXz.6.].{.[.|.d.d.d.p.d.d.s.d._ l     & q q &       j A _ f.p.f.s.p.s.d.l.].2.*.%.:.%.9.iXGX8X3X>X>X6X6XwXjXjXjXjXjXjX9X9XjXdXdXdXdXfXfXfXfXfXdXdXdXlXlXzXlXBXCXCXAXmXmX*XH ) ` 6.6.E.E.6.6.{ { ] W v v u u a a u u u u u u z ) 6.6.5.8.6.5.3.) 1.1.;.%.=.:.9.b.v.#XJXNXBXZXZXkX6X1XqXqXqX6X3X3X3X3X0X9X9X0XwXwXjXjX9X9X6X6X6X6X6X6X6X6X8X7XiX-X3.3.l.x.z.x.z.z.` B k w k B 6.XXtXFX Xw q e j v W _ _ J D G G G H 1.V m m <.2.4.M.uX9X5X>X,X1X1X,X,X,X,X2X2X4X,X,X,XrXrXrXrX,XrX:X:X:X>X>X3X4X6X6X9XMXMXMXjX0X0X2X*X8.W.!.!.E.E.E.{ _ W D Z Z Z Z Z Z Z Z Z Z Z A W ( ] ] ] ] ' ( ( B C C M %.=.:.:.9.,.9.v.7XpXwX4XqXqX1XqXqX1X1X,X,X4X6XqX6X6X6X6X6X6X6X6XjXjXjXMXMXjXjXjX",
"BXjXjXjXNXNXNXBXNXjXjXNXNXlXlXlXlXlXlXlXlXlXlXlXNXNX9XM.:.%.%.m V Y 1.7.W.].{.{.{.{.}.{ ! Q f t.t.y.y.t.t.t.t.t.i.Q S ! (.}.{.].{.].W.7.;.M 9.GXJXJXHXHXHXSXHXHXSXAXDXDXBXDXDXDXDXZXDXZXZXZXZXDXAXAXAXSXSXSXSXSXZXSXZXAXBXCXMXM.;.*.;.2.2.7.z.{ [ [ ^ / / / / / E x x j j j k z b v ( '.|.|.|.l.|.|.|.z.v.-XVX8XfXgXfXgXjXjXjXjXjXjXjXjXjXjXjXdXdXNXZXZXNXlXlXjXlXlXzXxXqX1XqXqXqXqXqXwX4Xb.o.%.m <.5.6.E.E.I.E.E.E.{ [ ! E a s s s s y.s s s s a S Z E W L U U U L U U N k 5 m 5 %XiX7XMXMXNXNXNXlXlXlXjXjXdXdXjXdXdXdXfXlXjXjXdXjXjXfX9X6X9XdXdXdX6X6X9X9XdXfXmXFX*X7.5.W.{.{.}.(.d.d.[ [ d.d._ a.A j j j   q q q q j b _ d.d.s.f.s._ d.'.l.z.2.*.%.:.%.9.aXGX-X>X>X6X9XjXjXjXjX9XjXjXjX9X9XjXjXfXdXdXdXfXfXfXMXdX9XdXlXBXBXBXAXCXMXAXmX-XoXH ) ] 6.E.E.E.6.` ] { { ( v v l u a u u u u u u u G 6.].W.6.6.6.5.5.1.1.3.;.M #.:.9.b.v.%XJXjXBXBXNXqX,X,XqXwXqX4X3X3X3X4X9XMXMX9XMXMXjXjX9X9X6X5X6XdXdX6X6X9X8X7XiXtX4.3.3.z.z.l.x.z.` B k k w k n ) z. XB . k c z b A _ _ A D G G G H 1.*.t m =.:.:.M.8X9X3X>X<X<X<X,X>X2X2X2X2X4X,X:X:XrXrXrXrXrX,X:X:X:X:X2X>X,X,X>X6XjXMXjXjXwXwX7X*X8.W.!.L.L.E.E.{ [ _ ! ! Z Z Z Z Z Z Z Z F Z A W ' ] ] L.] ] ' ( B C C M M =.:.:.2.9.9.v.7XpXwX4XqXqXqXhXqXqX,X,X,X4X6X0X0X6X6X6X6X6X6X6XdXjXMXNXNXjXjXdX",
"xXlXlXlXjXxXlXlXlXlXlXzXBXBXBXBXDXDXlXlXzXlXlXlXdXjX3Xv.:.%.#.M V Y 1.6.].].].{.{.{.|.(.[ Q Q i.t.y.y.t.t.t.t.i.i.Q ! [ (.[.'.{.{.].E.6.1.M 4.JXJXJXJXAXAXAXSXSXAXAXNXBXBXDXDXDXDXDXDXZXZXDXZXSXSXJXAXAXAXAXAXDXZXAXZXAXNXCXCXv.%.%.%.:.4.7.7.6.{ [ ^ ^ ^ ^ ^ ^ ~ W v z j 4 k z ( _ d.'.|.|.x.x.'.}.XX Xc.tXVXnXgXgXgXgXdXdXjXjXjXjXjXjXjXjX6X5X5XlXAXBXjXlXNXlXlXlXlXxXxXhXhXqXqX6X,XkXpXB.&...m <.5.5.{ I.I.I.E.E.I.{ [ ! S a s f f f s s s s f S Z Z W L U U L L U U c k n 5 5 v.=X-XuX9XCXAXAXZXBXlXjXfXfXfXjXjXjXjXlXjXjXfXjXjXjXjXfXdX9X6X6X6X6X9XdXdXdXfXnXFXyX X7.W.Q.{.'.'.'.(.d.d.{ [ d._ _ G b z x j c c b ( _ d.f.f.s._._.s.{ '.].W.1.V *.=.%.0.aXFX;X>X5X9XjXjXjXjX9XdXjXMXNXNXNXNXdXBXNXjXNXfX9XnX9X9XfXMXNXBXBXBXJXCXCXVXmX;Xz.H ) { { { { { { { ] 6.6.] ( F Z F u u u u u u a Z ` E.].].W.W.W.6.3.3.6.3.*.%.%.=.,.9.v.%XCXAXMXjXjX6X>X>X>X:X&X&X3X7X9X9X9X9X9X9X9X9X9X9X6X6X6X6XdXdX6X5X5X9X9XuXmX=X2.3.3.z.|.|.z.z.l.` z k B ) z k C n & & k q z b A _ _ G A G G ) ) V m m #.:.4.9.M.7XnX5X>X6X,X>X,X,X,X4X4X4XqXeX,X:X:X:XrXrX,X:X:X,X4X4X2X2X6X<X,X>X6XdXjXNX6X6X7X#X7.5.!.!.E.E.I.I.{ [ W Z Z Z Z Z Z Z Z Z Z Z W _ [ { L.L.' [ ' ( B B V V %.%.:.:.9.9.9.v.7X0XuX0X6XwXhXhXqXqXqX6X6X4X4X6X0XwX9X6X6X6XjXjX6XdXjXMXjXdXdXdX",
"lXlXlXlXlXxXjXlXlXlXlXzXBXBXBXBXDXDXlXlXlXlXlXlXjXNX9XM.:.%.#.%.V 1.5.W.].].{.{.{.}.}.'.s.! Q i.t.y.y.t.t.t.i.i.u.! ! [ [.}.{.{.[.{.W.5.1.M 9.mXJXHXHXHXHXHXHXSXAXAXAXAXSXSXSXSXSXZXDXSXSXDXDXSXSXSXAXAXAXAXDXDXZXAXAXSXCXBXCXv.&.%.%.:.4.7.7.W.].'.(.s.s._.s.s._.{ [ ` ) H ) ` ` d.l.'.l.l.l.l.'.}.].z.4.tXVXnXgXgXgXgXdXfXjXMXjXjXjXjXjXdX6X>X&X6XlXjXjXjXNXlXNXlXNXlXlXlXkXkX6X,X>XjXMXM.&.6 m <.5.5.{ I.I.I.I.I.I.I.[ ^ Q Q f f f s s s s s a Z E E W L P P P P L L c k n 5 5 .X=X=X7X8XNXCXjXfXdXdXdXjXMXlXjXdXdXdXjXlXMXfXjXjXjXjXfXdX9X6XdXdXfXfXdXfXjXjXnXKXyXc.7.W.W.Q.'.'.'.(.(.(.(.{ d.a.a.` { { { { ( ( _ ` d.d.f.f.s.(.[.).'.[.'.6.8.*.*.*.%.0.aXFX5X6X9XjXjXjXjXjXfXjXMXNXNXNXNXNXjXlXfXdXjXfX9XCXCXCXCXCXBXBXBXBXnXMXCXVX-X.Xz.H ) ] { I.I.{ { { E.E.E.{ ` _ A Z l l u u u v W [ { '.'.E.W.W.W.E.6.6.3.1.;.*.=.:.9.9.v.=XCXnX&X&X3X3X3X3X2X2X2X3X0X8XuX9XuX9XnXMX9X9X9X9X6X6X6X6X6X5X5X5X5X9XuXuXmX*X2.4.3.l.l.l.z.z.z.3.H C H 3.H k 4 k & & b b b A ( ( W A A b G ) 1.1.M m m %.4.9.#X8XMX9X6XdX<X<X,X,X4X4X4X4X4XeX,X,XrXrXrXrX1X,X,X4X0X0X0X0X6X1X<X6X6XdXjXjXjXNXmX*X7.5.!.L.I.I.I.I.I.[ _ W S Z Z S D Z A A Z W W ' ] ] L.K.L.] [ ( U B B V M %.*.:.:.4.9.b.=X7XuX9XwXjXNXBXjXwXwX9X0X0X9X9X0X9X9X9X9XjX6X6X6XdXjXNXMXjXjXjX",
"lXlXlXlXlXlXlXlXlXlXlXlXBXBXBXlXBXBXlXlXzXlXlXlXlXBX9XM.,.%.#.%.<.5.W.].].{.{.{.{.}.}.[.(.[ ^ i.t.y.f t.t.i.i.i.u.! _ (.}.+X}.{.Q.{.].5.1.V 4.iXGXGXJXSXSXAXDXNXNXNXAXAXSXAXDXDXHXAXAXSXSXSXAXAXSXSXAXAXAXDXDXDXZXAXAXSXBXBXNXv.&.%.%.;.2.7.7.].].'.'.(.(._._.s.(.d.d.l.3.3.3.l.d.d.'.'.l.l.x.].|.}.z.7.4.tXGXnXmXgXgXgXdXjXMXMXjXjXdXdXdX6X5X>X&X6XjXlXjXjXjXjXjXjXlXlXlXlXlXkXkXjXwXCXMXM.&.6 *.<.5.] { I.I.I.I.I.I.I.P.[ ! Q Q f s s s s s a a a E E W P P P P P P L c k n n : v.%X%X;X7XMXMX6X6X6X6X9XdXMXMXBXNXjXjXCXBXCXfXjXjXjXjXjXdX9X9XfXjXMXjXdX9XfXMXfXKX*X7.8.W.W.E.[.'.'.'.'.(.(.(.` _ ` ` { ` ` ) { { { { d.d.d.d.(.[.OX[.[.'.!.5.<.V *.<.=.v.aXFXMXjXjXjXjXjXjXfXfXjXjXMXMXMXjXjXlXlX6X6XjXfX9XVXnXnXMXCXMXMXMXMXCXCXCXmXnX%Xc.3.) ] I.I.I.I.I.E.Q.Q.W.E.'.{ _ F F l u u u Z [ (.'.'.E.E.E.'.'.E.'.6.3.1.;.*.:.2.9.b.#XiXIXGX=X%X#X2X7X2X&X2X0X0XnXMXMXnXuX9X9XnXfXfXfXfX9X6X6X6X<X5X5X5X6X9XfXnXFX*X2.7.3.3.3.3.z.x.z.z.3.;.H 3.) = $ & j k B ( ( ( ( ( A A G G ) ) 1.1.M > , m 9.b.=XnXMX5X>X6X6X6X6X6X4X4X0X4X4X4X4X,X,X,XrXrX:X,X4X4X0X9XpX9XqX6X6X6X6X6XdXdXjXCXGX=X7.5.E.E.I.I.I.I.I.{ [ _ A A A A D D A A W W [ [ ] ] K.L.L.L.' ( ( B V V M %.%.:.:.:.9.b.=XiXuXuX8X9XjXjXMXMXuX9XuX9XuXuXpXuXuX9XfX9X9X6X6XdXjXNXMXjXMXNX",
"lXlXlXlXBXBXBXlXlXlXlXlXNXlXBXBXNXlXlXgXlXlXhXjXjXNX9X#X9.#.#.%.<.7.].{.'.'.{.{.{.}.}.}.'.d.[ u.f f f i.i.i.i.u.! _ [ '.}.}.{.Q.Q.[.'.6.1.V 4.uXJXJXJXJXJXAXDXDXJXJXHXHXHXJXAXAXSXAXNXAXSXSXSXAXAXAXAXAXAXAXAXAXAXAXAXSXBXAXNXB.>.%.%.;.2.7.7.W.].'.'.'.'.(.(.(.[ { { 6.3.) ` 6.l.l.'.'.|.|.|.}.{.}.7.7.4.iXJXNXNXNXgXgXfXMXMXCXjXdXdXdXdX6X5X>X>X6XjXlXjXdX6X6XBXBXBXBXBXBXBXBXjXNXjXMX0Xv.&.6 V <.5.] { I.I.L.I.I.Q.I.I.[ ^ Q Q f s a a a a a a E E W ~ P P P P P P L b c n n > #XiX-X8XnXAXCXCXNXMXMXMXCXCXCXCXMXMXjXCXCXNXMXjXjXjXjXjXfXdX9XdXjXMXdX6X5X9XfX8XVX=X7.1.W.{.!.Q.'.'.'.'.'.'.'.'.d.d.d.{ { ) ( { { { { d.d.d.(.[.OXOX[.[.Q.!.5.<.*.*.=.=.v.tXmXCXNXjXfXdXdXdXfXdXdXdXdXdXdXdXdXjXfX6XfXNX5X&X-XiXuXuXmXCXCXVXCXGXiX-X-XiX*Xc.) ) ] I.I.I.I.I.E.Q.Q.W.'.'.l.` G A z j j v ( { (.'.'.E.E.E.E.'.'.'.6.` ) H *.=.2.:.v.#X7XJXJXuX7X=XuXCXiX8XmXCXCXMXMXMXMXnX9X9XfXfXdXfXdXdXdX6X6X5X<X5X5X6X9XuXnXGX*X:.4.3.3.3.x.x.x.z.c.z.z.3.3.) n - k k b B G G G ( ( ( ( ( ) { 3.1.*.m > 6 %.:.b.=XnXMX5X<X6X6X6X6X6X4X4X4X4X4X4X4XqXeX,XrX:X:X,X4X4X0XuXuX7XpXwX9X9X9X8XfXfXMXMXVX=X7.] I.I.I.I.I.I.I.I.{ [ W W A A D A A A W [ { { ] ' K.L.T.K.' ' ( B B C *.*.:.:.2.4.9.v.=XiXmXmXpXpXwX9XCXCXCXCXmXmXmXmXGXCXuX9X9X9X9XjXdXjXjXMXjXjXjXjX",
"lXjXjXlXBXBXBXBXlXlXNXNXNXNXBXNXlXlXlXlXlXlXlXjXdXfX9X#X9.#.m %.<.6.].].E.E.[.[.{.}.}.}.[.(.[ ^ Q f Q i.i.! ! ! W _ I.[.{.{.{.[.[.[.Q.W.1.n 2.GXJXJXAXAXAXDXDXDXJXJXAXAXAXAXAXAXAXAXAXAXSXSXSXDXAXAXAXAXSXHXHXHXSXSXAXHXAXAXNXb.:.=.*.;.2.8.W.W.{.{.{.{.'.|.'.|.'.'.'.7.3.1.6.].].|.}.}.|.|.|.].{.{.W.7.0.aXJXVXNXNXgXgXfXMXMXMXMXfXdXdXdXdX9X6X>X5XdXjXdX6X6XdXfXMXNXNXMXNXNXCXfXMXuX0X&X9.o.6 *.<.5.] [ [ P.K.I.I.I.I.I.[ ^ ! Q S s a a a a a a E E ~ ~ ~ P P P P P L L c n n > *XGXCXMXMXCXMXCXCXMXMXMXnXnXnXnXnXMXfXnXnXMXCXMXjXjXjXjXjXdXdXfXMXNXdX6X5X6XjXfXJXtX4.1.W.W.Q.Q.Q.'.'.'.[.[.[.|.'.'.'.'.'.6.{ 6.6.'.(.'.'.|.}.OXOX[.[.[.{.!.5.<.*.#.#.%.v.-XGXCXjXdX9X6X9XdXfXdXdXdXdXdX9X9XdXfXgXgXNXnXM.9.9.v.v.v.#X#X#X%X#X$Xv.9.b.v.v.3.V ] L.I.Q.Q.Y.I.E.E.Q.'.E.E.l.{ ` G z l l ( { (.'.'.E.Q.E.E.E.E.'.'.{ { ) V M %.=.:.v.v.b.M.=X%X#XM.%X%X#X#X=X=X#X#X#X%X7XuXuX9XnXfXfXdXdXdXdXdXdX6X6X6X6X6X9XuXnXVX-X9.c.4.>.;.;.>.3.x.n.c.c.z.z.7.6.H z B H G G G ( ( ( ( ) { 6.3.3.1.*.m 6 6 %.:.c.=XnXCXfXfXjX6X6X<X,X,X>X4X4X4X4X6XqX4X,X,X:X4X2X&X$X$X&X=X%X2X2X=X=X=X%X=X=X7X=X=X.X7.] L.L.Y.I.I.I.I.I.{ [ ( W A A A A A W ( [ { { ] ' L.T.I.P.] ' ( U B C *.*.;.2.2.2.0.0..X$XiXiXuXuX8X8X8X8X7X7X-X-X-X-X-X-X7XuXnX9X9XMXjXjXjXjXdX9XdXjX",
"jXjXfXjXBXDXBXBXlXlXNXNXNXNXNXlXNXNXBXBXlXlXlXlXdX6X3XM.9.%.6 M Y 6.].'.E.'.[.[.{.{.{.}.{.'.(.[ Q Q Q Q ! ! ! ! W { '.{.}.}.}.}.[.[.Q.].5.n 2.JXJXGXAXAXBXVXDXAXGXGXJXJXJXJXJXJXJXHXHXJXAXSXAXNXAXAXAXSXSXHXHXHXSXSXAXHXAXSXBXb.:.=.*.;.3.8.E.W.{.{.].{.].].|.|.{.{.].].6.5.6.].{.}.OXOX{.[.].].{.{.W.7.4.iXGXnXNXNXlXgXfXMXMXMXjXfXdXdXdXjXfXdX>X>X6XdXjXdXjXCXnXnXmXNXNXBXAXAXAXJXCX8X#X,...6 M <.1.] ] [ P.P.L.L.I.I.I.I.P.[ ^ Q S a a a a Z E E E ~ ~ ~ P P ~ P P L L b n n @ #XFXVXVXVXAXBXAXBXAXCXCXCXCXMXJXJXAXCXCXMXMXMXMXjXjXjXjXjXfXdXNXNXNXjX9X6XdXMX6XAX-X0.1.8.!.!.!.Q.'.'.'.'.'.[.'.'.'.'.'.E.E.6.'.'.'.'.'.[.[.[.[.[.[.[.{.Q.5.<.m *.=.:.b.=XnXJXMXfXfX6X5X6XdXdXjXjXfXfXfXfXfXfXfXfXNXVX8X9.7 7 6 6 M M %.%.%.%.%.%.%.%.%.H H H ] L.I.Y.Y.Y.I.E.E.Q.'.E.6.6.6.{ _ G b G { '.'.E.E.E.Q.'.E.I.I.E.I.{ { ) V m #.=.9.v.9.%.%.;.;.%.%.%.%.6 %.%.%.6 %.%.>.b.&X7X8XfXfXdXdXdXdXdXdXdX6X6X9X6X9X9XfXnXVXmX%X*Xv.c.4.;.>.;.>.>.x.n.z.z.z. X6.B B ) H G ) ) ) ) ] ] { 6.5.1.1.V 5 : : 6 v.#XiXVXCXMXfXdX6X6X<X>X>X>X2X2X>X4X4X4X4X4X4X4X0XM.,.&.>.:.4.9.9.9.4.:.:.2.4.9.9.:.2.7.5.] I.Y.Y.I.I.I.I.I.{ [ _ _ _ A A A ( _ _ [ { ] ] L.L.T.T.I.] ' ( U B C m M *.2.2.2.2.9.2.0.v.v.v.v.b.b.9.9.9.9.9.9.9.9.9.v.=XmXVXuX8XfXMXjXjXdX9X9XdXjX",
"NXjXdXjXNXBXNXNXNXNXNXNXNXNXNXNXgXlXNXlXlXlXlXlXjX6X3XM.9.%.6 m Y E.].'.'.[.[.[.{.{.{.{.}.|.'.d.u.Q Q ! ! ! W _ _ '.{.}.}.+XOX{.[.[.Q.W.5.C 2.aXJXJXJXJXJXHXJXJXJXJXJXHXJXJXJXAXVXJXHXJXAXAXJXAXAXAXAXSXSXSXHXHXJXJXAXHXAXSXBXb.&.%.*.;.8.6.W.].{.].].].].].].{.{.{.].W.5.5.6.].[.{.OXOX[.{.{.{.W.{.W.7.4.tXGXnXmXmXgXmXmXMXpXpXjX9X9X9XdXjXjXjX6X5X5X6X6X3X5X9XfXfXnXnXnXfXnXMX9XnX7X&X#X,.6 6 M *.1.] [ [ P.P.I.L.L.I.I.P.I._.i.i.Q S Z Z Q Q E / ~ ~ ~ P P P ~ P P L L c n n 5 v.=X-XnXnXMXnX9XuXuX9X8X8X7X7X8X7X=X7XuXMXCXMXMXjXjXjXjXjXjXfXNXNXjXdXdXdXjXjX<XCX-Xc.8.7.!.!.W.Q.'.'.].].].[.OX[.[.[.[.Q.E.6.'.'.'.'.Q.Y.Y.Y.Q.Q.Q.Q.E.6.5.8.*.2.v.$X7XMXmXNXNXjXdXfX6XfXdXfXfXfXfXdXdXfXfXjXfXfXNXVX;X%.1 1 : : : 5 5 6 7 7 5 6 6 6 6 C V ) ] L.I.I.I.I.I.I.E.E.Q.E.{ { { { ( G G ( 6.'.'.E.[.E.E.Q.Q.E.I.I.I.{ { ) C n %.:.0.9.*., > > : : 5 : : : : 5 : @ : 1 7 :.M.-X8X9XnXfXdXdXdXdXdXdX6X6X6X6X9XjXMXMXNXHXmXKX-X*X.Xb.n.4.>.>.>.>.>.4.4.z.1.B ) ) H ) ) { { { { ] { 6.5.) V M 6 6 *.,.tXmXGXGXNXfXdXdX6X6X<X>X>X2X2X2X2X>X3X4X4X4X4X4X4X,.< 1 : : > 6 6 6 6 6 5 5 6 6 6 5 M 1.] L.Y.Y.Y.I.I.I.I.I.{ { { _ _ _ G _ _ ` [ { { ] L.L.I.Y.Y.I.L.' ( U B C n m *.2.2.;.*.*.M %.%.%.%...6 7 7 7 5 5 5 5 5 5 6 :.#XmXGXnX8XnXfXjXjXdX9XdXjXNX",
"BXMXfXjXNXNXNXdXNXNXNXNXNXNXNXMXfXfXlXlXfXdXdXfXNX9X-X#X9.%.6 m <.6.].].'.{.{.[.{.{.{.}.}.{.'.(.s.! ! A A A ( ( E.].}.}.}.OX{.[.[.[.Q.E.5.V 2.=XiXuXmXCXmXmXnXnXiXiXuXuX8X-X%X%X8XVXJXAXVXAXSXSXSXSXAXAXAXAXAXAXSXSXAXHXAXSXBXb.&.%.%.;.4.7.W.].{.{.{.].W.].].{.{.{.{.W.6.5.E.W.[.OXOX[.[.[.[.[.].{.7.8.4.tXGXVXnXgXmXmXNXMXpX9X9X6X6X6XjXjXjXjXjX6X3X;X&XM.M.%Xv.v.v.v.b.b.b.b.b.b.b.b.v.4.6 5 M V ) ] ] [ P.P.Y.Y.Y.I.I.I.I.(.[ p.! Q Z E E ! / ~ ~ ~ ~ P G.G.G.P P L L c k n > 4.9.9.v.b.b.9.9.9.9.9.,.:.>.>.:.:.:.b.=XnXVXMXMXjXjXMXjXjXjXjXNXjX9X6X9XdXjXjX5XNX-X.X X XW.W.W.W.].].].].].{.[.[.Q.Q.E.E.E.{ E.'.[.[.Q.Y.Y.Y.[.{.[.E.6.3.7. X$X=X2X7XMXMXgXgXNXlXjXdXfXfXdXfXdXfXdXdXdXdXfXfXfXgXNXCX%X%.o # # : : > > 5 5 5 m 6 6 5 m V ) ] ] ] I.I.I.I.L.I.E.E.E.{ { { ` _ G G ( ) { E.'.'.{.E.I.E.[.'.I.I.(.l.6.) C n *.2.0.=.6 > 6 > @ : > @ + # @ # # # : 1 : :.#X7XfXnXfXfXdXdXdXdXdXdX6X6X6X9XwXNXMXCXfXHXDXHXmXVXmX-X%Xb.n.>.>.>.>.>.;.;.H ) l.6.` 6.{ { 6.6.6.{ { { ) V M m %.9.%XCXFXGXGXVXNXNXNXNX6X6X6X,X>X2X2X2X&X2X3X4X4X4X4X4X4X,.1 1 : : : > > > 5 m m n 5 5 n 5 V 5.] L.T.K.I.L.I.I.I.I.I.{ 6.{ ] ( ( _ ` d.{ I.L.L.I.I.Y.Y.Y.P.] ' ' U B N n M ;.2.2.*.M m m 6 5 > 5 6 7 : : : > > > * > > > *..XaXGXuX8XMXfXdXdXdXdXjXNXDX",
"MXNXNXNXNXjXfXdXMXMXCXJXJXVXnXMXCXAXAXAXCXMXMXMXAXJXGX*X9.%.M M <.5.W.].'.[.[.[.OX[.[.[.OX{.[.E.d._ ( ( ( ( ) 6.{.{.{.{.}.}.[.[.[.[.[.'.5.V V ;.0.0.0.0.0.0.4.4.:.:.>.;.%.%.%.%.4.KXJXAXSXDXcXcXSXSXSXZXZXZXZXZXSXSXAXSXSXAXjX6X,.>.&.%.;.8.~. X~.{.{.{.].'.'.].}.{.].'.E.] L.Q.OXOXOX{.{.].].].].7.3.4..XmXJXJXmXmXgXfXfXfX9X9XjXdX6X6X6X6XwXjXMX4XpX2X,...%.6 M m 6 6 m m m m m M %.%.*.*.M 5 C V ) ] ] L.I.P.Y.Y.L.T.Y.Y.I.I.[ _ _ _ ( ( W W ~ ~ ~ ~ ~ G.G.G.G.G.P P L b k k > *.%.6 M m 5 C M m m 6 6 7 7 5 > > > : 0.GXVXfXfXfXjXfXdXdXfXfXMXMXMXfXnXfXfXfX5X5X8X8XtX-X*XoXXX X].7.].].].].].].].W.!.E.E.E.Q.Q.Q.E.I.I.E.[.E.W.E.5.7..XyXiXiX8X8XfXMXNXNXgXNXlXgXfXjXjXdXdX6XdXdXdXdXdXhXlXjXNXnXJX=X6 + @ @ % % * > : : > 6 6 m n n B ( ] ' ' P.I.I.L.L.L.!.!.I.{ [ ! ! ! ( G ( ) ) _ { |.'.E.E.E.E.E.'.'.'.{ 3.) n 5 %.2.:.M 6 > @ > > > * * * * * @ @ @ @ : 5 :.%X8X8XdXjXjXdXdX6X9X9X9X9X9XjXMXNXBXAXAXNXBXAXZXBXBXBXNXMX8X&XM.n.,.>.>.>.H H ) E.'.'.E.E.{ ] ] ] ) ) H ;.3.4.c.v.-XMXAXMXnXfXfXdXjXjXlXjXqX6X4X2X2X2X2X2X3X2X:X,XeX4X:X:X&.1 + : * * % @ @ > > > > r n w V 5.] ] P.P.' L.L.I.I.I.I.{ { W.5.Y B B ( p.d.{ I.L.L.K.P.P.U.K.P.I.[ ' U U N > M 1.2.M n > 5 5 5 5 5 > : @ @ @ @ * * * - = r n *..XiXuXMXMX9XjXfXdXdXdXdXlXhX",
"MXNXNXNXNXNXjXjXMXCXAXCXmXmXuXuXGXGXGXCXCXuX7X7XuXmXiX$X0.*.m m 1.8.W.].{.{.[.[.OX[.[.[.{.{.{.'.'.` ( G ( ) 6.W.{.{.{.[.[.[.[.[.[.Q.Q.E.5.V C M n 5 5 n n n r > > : * @ @ # # # ;.mXJXJXLXSXcXcXcXcXZXZXZXZXZXZXSXAXAXSXSXSXZXBX&XN.B.b.v.c.~.W. X{.{.{.{.{.'.'.{.].{.[.E.] !.[.Q.[.{.{.].].'.z. X X.XoX-XFXKXVXNXmXNXfXjXdXjX6XdXdX6X6XqXqXqXwXMX0XMX%X%.: 5 : m 6 , 6 m m m m m m M M #.M m 5 n V ) ] ] L.L.P.T.U.Y.Y.Y.I.I.I.{ ` ` ( ( ( ( ' ( ~ ~ ~ ~ ~ G.G.G.G.P P L b k k > m m > m 5 = 5 > > > : @ # # # @ @ @ @ 0.FXGXnXMXMXMXjXdXdXfXMXjXMXMXMXMXfX9X9XfXfXfXnXVXmXmXmXyXyXoXXXXX X].7.7.].].].].E.L.' Q.Q.[.{.{.[.E.E.6.6.7. XoXtXiX-X8X9XfXMXNXNXNXfXfXfXdXfXlXlXjXdXdXdXhXhXhXxXlXzXlXNXnXJX=Xm + @ % % % * > > : > > 6 n n n c U ' ' K.K.K.] ] ] L.5.5.] [ ^ Q Q E ( ( ) { ` ( ^ s.I.E.E.E.E.E.'.'.6.{ 5.) n 5 *.2.M , > : + % * + + + + + + + + + % : 6 9.-XCXMXlXjXhXhX6X6X9XwX9XfXjXjXNXBXZXAXAXAXAXZXBXBXBXzXlXAXBXMX0X2XM.b.4.;.H H ) 6.E.E.'.{ E.E.6.) ) ` 3.c..X*X8XnXCXNX6XMXNXNXjXjXjXlXlXjXqXqX0X0XeX0X2X:X2X:X:X:X,X,X:X:X&.1 + @ * % + # @ @ * * * = w N Y ] ] [ P.P.K.I.I.I.I.I.I.I.E.E.5.Y B B ( _ [ { I.I.I.K.K.P.I.P.I.I.] ) ( U B n M *.*.C 5 > > > 5 > > * @ @ @ @ @ * * - - w w n *..XiXuXMXMX9XdXgXgXdXdXhXzXzX",
"NXNXNXNXNXNXNXNXMXAXCX&Xv.v.v.b.v.#X#X#Xv.v.9.9.b.v.v.0.2.=.*.m 1.6.W.].[.[.[.[.[.[.[.{.{.{.{.{.|.` G b ( { E.].{.].].'.'.'.[.{.[.Q.E.E.) C n n > > > > * * * * * @ @ # # + + + M iXIXHXLXSXZXZXcXcXcXZXZXSXSXSXSXAXSXSXSXSXSXSXAXCXpXuX-X*X.X7.~.].].{.{.].].].].].{.{.E.] E.{.E.Q.].].].].].XXoX*XtXFXKXKXVXmXNXNXNXlXjXjXjXhX6XdXhXhXhXqXqXqXMXMXGX#X7 o : # : > : : > 5 6 6 6 m m m m m m > n V ) ] ] L.L.T.T.T.Y.Y.I.I.I.E.'.{ ` { { ( ( ] ( ' ' ' P P G.G.G.G.P P L b k k > m > : > > * - * * @ # # # + + + + + + 4.FXGXmXMXjXjXdX9XdXdXjXfXjXMXMXjXfX9X5XlXfXfXnXVXJXJXJXIXFXFXtXyXoXXX].z.7.W.].].E.L.] Q.[.[.[.[.E.E.6.6.].XX*XtXFXmX-X9X9XfXMXBXNXgXfX6X6XdXlXNXBXNXjXjXjXlXlXlXlXlXlXlXNXnXJX=X6 o + % + + * * @ @ > > 5 5 n n N U ' ] ] ' ' ' ' ] { ] ] [ [ / Q Z Z W ( _ { [ ! Q ! [ I.'.'.'.I.E.'.E.6.8.<.m m =.=.m > > > * * > + % % % % % + + + * > 6 0.iXGXCXNXdXdXdX6X6XwXjXjXjXlXNXBXZXAXAXSXSXZXzXzXBXBXlXlXCXMXCXAXAXCX;XM.4.;.H ) 6.E.E.W.6.6.6.3.3.7.XXoXbXFXKXKXVXBXMX6X3X5XdXjXjXjXjXNXlXkXjXkXpXwX0X4X2X>X:X:X:X,XrX:X:X&.1 1 + % % + # @ @ @ * * * w V ) ] ] ' ] P.P.P.P.[ [ { I.I.{ { ] ( ( G ( ( ] ] I.E.I.L.] L.I.I.I.I.] ] ( U B n m M M m > * * > > * @ @ @ # # @ @ * % - * w r n *..XaXuXuXpX0X6X6XdXjXlXzXzXzX",
"jXjXjXlXlXlXNXNXMXJX8X9.6 6 6 6 m m M %.%.m 6 6 m m %.*.*.*.*.n Y ] E.E.Q.[.[.[.OX{.{.{.OX{.{.'.l._ G b G ] 6.'.'.].{.{.{.].{.{.[.Q.E.E.1.C n 5 > > > : @ @ * * @ @ # + + + + @ M iXIXJXLXSXZXcXcXcXcXZXZXSXSXSXSXSXSXAXSXSXAXSXHXJXJXJXGXuX=X*X X X X].].].'.'.'.].{.{.E.] E.{.[.].].].].XXoXyXtXbXFXFXKXVXVXNXDXNXBXlXjXjXjXhXdXdXhXhXhXhXqXqXwXCXJX%X7 o : + @ @ @ @ : > > > 6 m m m m m 6 > n V ) ] ] ' L.T.K.T.Y.Y.I.I.I.E.6.` ) 6.6.) ( ] U ' ' ' T P T K.G.G.P P L b k k > > : @ > > * * * * @ # # # # # + + + + 2.aXmXnXMXjXdX6X5X5X9XdXfXfXfXfXfXdX9X9XlXfXgXfXmXNXVXKXKXJXFXFXFXtXyXyXXX].7.6.6.E.E.] E.Q.[.Q.E.{ 6.6.XX*XFXFXmXiXiX8XfXfXfXMXNXNXfXfX6X6XwXjXCXBXNXNXjXjXlXjXjXjXjXlXlXNXfXGX=X6 o + + O + % * @ @ @ > > 5 n n B U ] ] ] ' ' ' ' [ { ] ] [ ! Q f Z E W W [ [ [ Q f Q ^ [ (.(.(.I.E.E.W.W.8.*.m m #.m r > > > * > > % * * * % * % + + > > m c.uXGXMXdXdXdXdXdXjXjXjXjXlXlXBXBXZXZXAXAXZXBXlXBXZXBXlXBXNXdXdXlXAXAXCX8X%X9.M V 3.W.E.5.6.3.3.7.XXyXbXKXIXJXmX8XnXnXnX9X%X;X6XjXlXNXBXBXBXBXkXMXBXMXwX0X6X6X,X:X:X1XeX,X:X&.1 1 + + * * # # @ @ + * * r Y 1.5.] ] ] { [ P.[ [ [ I.I.{ [ _ W W W ( ( ) ) ) ] { I.I.I.I.L.I.I.I.] ] ( U B n n m n > > > * * * * @ # # # # # # # + % - w r C 1..XaXmXuX9X3X5X6XdXjXlXlXlXlX",
"hXjXjXxXlXlXNXNXMXJX=X&.1 : > @ > > > > > 5 > 5 6 6 m m *.*.*.n V ) E.E.Q.[.[.[.OX[.[.OX+X}.'.6.( _ ( A A ( _ { E.'.}.}.}.{.{.{.{.Q.!.E.5.V C 5 : : @ + + + + @ + + % % + + + + M aXIXJXHXSXAXZXZXZXZXZXZXSXAXAXSXSXAXAXSXSXAXAXAXJXJXJXHXJXVXmX=X*XoXXXXX].].W.].'.{.].E.] ] W.].].].XX*XtXFXFXmXmXmXmXmXmXDXDXDXZXBXlXlXjXjXjXdXdXhXhXhXhXqX6X6XjXGX%X7 1 : o + # @ @ @ : > > , m m 6 6 m m 6 n V ) ) ] L.L.T.K.K.L.Y.Y.Y.I.{ ] ) { 6.6.( ( ' L ( ' ' T T T T K.G.P P L b N n r * + + @ @ * # * % + + + + + + + + O O ;.tXmXnXnXfXdX6X5X5X6XdXdXdXdXdXdXfXjXlXBXlXgXlXNXNXmXnXFXmXKXKXKXFXFXFXyXoX X7.6.6.] ' ] E.[.{.E.6.W.].tXFXIXFXtX-X-X8XMXfXMXNXNXNXfXdXwXqX6XqXjXMXBXBXjXjXjXjXfXfXfXjXNXlXfXVX%X6 o + + O + + @ + + * > > 5 n C V Y ] ' ' ] ' [ [ [ [ [ ^ E E a a E Q E W ^ [ ^ / f f ^ ^ [ P.(.I.I.E.W.6.1.C > t m , > * * * + * * % % % + + % % % + > > M v.mXJXMXfXjXjXjXlXlXNXNXNXlXlXzXzXZXZXZXZXZXlXZXZXZXlXlXDXBXBXlXjXlXlXNXCXuXM.:.*.;.1.1.1.;.4..XyXFXIXGXFXKXKXmXmXVXVXnX5X&X-XfXNXBXNXjXxXhXhXhXjXkXkXMXkXqXqX6X,X,X1X1X,X&X&.1 1 + + % % # # # # + * > n <.5.5.5.] ] { { P.P.[ { I.I.[ ^ E E a Z W ( ] 5.) ) ] ] E.E.E.E.E.E.E.] ] ] ( B n n r > > = = * * @ # # # + + + + + % % % * = n C 1.#XFXCX8X4X3X6X6XjXjXjXhXhXqX",
"hXhXhXhXhXlXlXNXAXJX=X%.1 + : + > * * * * > > > 6 5 , m V *.*.C Y ] E.E.Q.[.{.[.{.[.[.{.}.{.I.] ( _ _ ( A A ( ( { 6.].}.}.}.{.].{.[.W.W.7.1.C 5 > : : : @ @ @ @ * % + + % % % @ m aXIXJXJXSXSXSXSXSXZXZXZXZXAXAXSXSXAXDXBXDXAXJXJXJXAXAXSXHXJXJXGXKXbX*XoX Xz.6.].].].W.6.) 5.7.W. X.XyXmXKXKXmXnX8X8XnXVXNXBXDXBXcXlXlXlXlXjXjXhXhXhXhXhXhXqX6X6XjXAX&X6 1 1 o + # @ @ @ @ > > > 6 m 6 6 m m m m V 5.5.] L.L.L.P.L.L.Y.Y.I.I.] ) ) 6.l.{ ( ( ( W W ( ( ' T T T ' T T T L B N n r + + @ + + * % + + + + + o O O + + O o ;.tXFXmXmXjXfXdX6X6XdXdXdXdXdXdXfXjXlXlXlXlXlXlXBXNXNXmXmXmXmXmXmXmXVXGXFXbXyXoX X7.) B 5.6.6.5.5.7.oXtXIXKXmXiX-X8X8X8XCXNXNXNXNXBXNXMXjX4X:X:X>X6XkXBXNXNXNXNXNXNXNXNXNXlXdXAX;X7 o + + + + * * # % * * * > n C Y Y ) ' ' ] [ [ [ ^ ^ ! E E a s a E ! ! ! ! ! Q f g g Q Q / ^ [ P.P.{ 6.5.<.C t t t > r - * * % % = * * * * % % + % + > > %.v.FXJXVXBXlXlXzXzXBXZXZXZXzXzXzXzXcXcXZXZXZXlXlXZXZXlXBXDXDXZXDXZXZXZXAXSXCX7X#X0.:.*.1.8.9.v.tXGXJXGXmXmXmXmXVXmXVXAXNXfX9XfXnXNXfX5X>XV.V.&X,X6XqXwXkXBXjXhXqX,X,X1X,X:X&X&.: 1 # + + ; O ; # + + * r C <.1.5.5.] ] ] ] [ ' ] ] ] ( E E a s s a Q [ { 6.] ( ( ] { E.!.E.E.E.E.] ] ] ( U N C n = - * * * % % % # + + + + + + + + % * > n C *..XFXVX8X9X9X0XwXwXjXhXqX1X1X",
"xXxXxXxXjXlXlXNXJXJX=X;.# + + O % % % + + @ + + : > > > m V *.C Y ] !.!.!.Q.Q.Q.Q.[.[.[.'.{ [ ( ( _ _ A A _ _ W ( _ { '.{.}.{.{.{.{.W.W.8.1.C 5 @ @ # # # + + + + O O O O O O + m aXIXJXJXAXSXSXSXSXSXSXSXSXSXSXSXSXAXlX5X5XBXHXHXJXAXAXSXSXSXSXSXJXKXFXbXyXXX X X].W.W.6.5.8.7. X.X=XmXVXVXNXnX8X8X8XNXVXBXlXlXlXzXlXlXlXlXlXlXhXhXhXdXdXdXqXqXjXjXJX=X6 o 1 o O + + + + @ : > > , 6 6 6 m m m C Y 5.5.] L.L.I.Y.Y.Y.(.I.I.{ ( ) 6.'.l._ W W W W W W ( ' ] ( T ' T T T U U B N r + + > O O % ; % + + + + + O O O O O O ;.tXmXmXfXjXjXdX6X6X6XdX6XdXjXlXlXlXlXfXfXdXdXgXlXNXNXlXNXNXNXNXMXnXNXVXKXFXFXaXyX.X7.1.7.8.5.1.4..XtXIXGXmX8X-X5X8XfXfXNXNXfXfXjXNXNXlX6X:XN.B.N.:XqXNXNXBXBXBXNXNXNXNXNXlXdXAX=X6 o + @ + + * * * - = = > n n V Y Y ) ] ] [ [ [ W W E f a a a a S ! _ _ _ [ ^ ^ / f g g f f i.^ ^ [ [ { ) ) Y C n m m C n n n - - = - * * * * * % % + > > *.v.iXGXCXAXCXBXBXZXZXZXZXZXcXcXcXcXcXcXcXcXcX5X;XdXBXDXZXDXlXDXZXSXSXZXAXHXBXCXCX=Xv.2.9.v.v.M.2X9XuXuXMXCXNXVXmXmXnXmXNXmXnXfXfXfX5X&XC.B.B.V.<XhXhXwXkXBXkXkXhXqX,X,X,X:XN.&.1 # # # ; ; ; # # # % > m V <.<.1.] ) ) ) ] ] ] ( ( W E a s p p p g Q ^ [ { { [ ( ( ] ] ] ] ] E.E.] ] ] ( U B N n r = - - - * - % # % # % % + + ; + + * > m M *.v.iXuX7X8XpXwXqXqXhXqX1X1X1X",
"kXxXxXxXlXlXNXCXCXGX=X:.: + % + % % % * * * @ + > > > > 5 m m n Y ] !.!.!.!.!.!.Q.[.{.[.[ ! W ! _ _ A A D _ _ _ A A ( { '.{.}.{.{.{.W.W.8.1.C > @ @ : : @ @ + + + + + + + + + + 5 iXIXJXAXZXZXZXZXSXSXSXSXSXSXSXSXHXSXdXV.C.5XSXJXAXAXAXDXSXDXSXDXDXHXIXIXKXtXyX X].7.W.7.8.8.0..X*XuXCXnX9XjXjX6X5X9XjXlXjXlXzXlXlXlXlXlXlXlXlXlXhXhXdX6X6XqXjXdX9XAX=X7 o o o o O + + + # : > > > 6 , , m m m C Y 5.5.] L.L.I.Y.Y.).).I.{ ( _ ` l.|.l._ A W ! ! W W ( [ ` ( ( ' T T T ( U B N n % * > + O - ; % % % + + + O O O O O X *.-XnXnXfXdXdXdX5X5X5X5X6XdXlXBXZXlXdXdXlXgXdXfXgXlXlXlXBXBXBXlXjXjXlXBX9XnXVXGXFX-X.Xc.;.2.4.0.v.%XiXCX8XfXfXdX5X-XgXAXNXfX9X5X6XdXfXjX<XV.B.m.B.C.1XlXlXlXBXBXNXNXNXDXNXmXdXAX=X6 o # @ # * = = - = 5 5 5 n C V Y ) ) ] ] [ [ W E E Z a s f Q Q ! _ _ ` ` { [ [ ^ / f p g t.t.i./ ^ ^ P.] { 6.) V V C N n n n = - = - - * % % + + + + > n *.c.tXFXuXCXCXBXDXZXZXZXZXZXcXcXcXcXcXcXcXcXdXV.M.&XlXZXZXZXDXDXZXcXcXzXzXBXBXAXCXpX$X0.9.0.0.B.N.:XwXCXMXwX8XnXVXVXNXNXNXnXfX9X5X5X5X>XC.B.B.V.hXBXkXjXjXNXBXBXkXhXqXqX4X:XB...1 # # # - ; ; - = - - n V 1.1.1.1.5.5.] { { { { ' W E a s s p p p f / u.[ [ s.s._ _ ( ( ] ] ] ] ] ] ) ( ( U B N n w = = w w - - - % % % % # O O O + # * r m *.;.v.7X7X=X7XpXwXqXqXeXeX1X1X1X",
"xXxXxXxXlXlXBXBXAXGXiX:.> O + O + % % + + + + + # # # # @ > m C Y 5.!.W.!.!.Q.Q.Q.[.[.[ W ! ! ! _ _ _ _ J J J J J G A ( ( { ].+X}.].].W.7.1.C n > * @ # # # + + + O O + # + + o 5 iXIXVXAXZXcXSXSXSXSXHXHXHXSXSXDXLXHXgXC.C.gXHXHXHXSXDXZXZXDXcXcXDXDXJXJXJXGXFXtX*X X7.1.;.0..X%X=XuXMXjXqXqXhX6X3X4XjXxXxXxXzXxXkXzXzXlXjXlXBXBXlXlXlXxXxXhX6XCXMXGX=X6 o # o O O + # * > > 5 m m m m m %.#.m V Y 1.5.5.{ I.I.'.[.(.[ [ ` { ` l.|.|.d._ W ! D D Z Z W _ _ _ W ( ( W W W ( B B n w * % - % $ % % % $ ; % + ; O O % O + *.*XGXnX9XdXfXfX5X>X>X>X>X6XjXlXlXlXhXdXfXgXlXlXlXlXlXlXBXBXzXlXkXkXlXlXjXjXjXNXCXCX7X#X9.9.b.M.M.N.&X2X>X>X5X>X5XfXlXlXNXfXdXdXfXlXNXlX<XC.m.m.B.Z.vXkXlXlXBXDXNXNXNXNXmX8XNXHX;XM 1 @ O # # - = = k k n n C B Y 1.5.5.{ ] ( _ W E Z S f f i.i.p._ ( G ) 1.1.) ) ( [ / t.t.y.t.t.i./ Q ^ ^ [ [ ] ( B B k k k k k = - - % % % # # # * * > > *.v.tXFXGXVXAXAXAXAXAXZXDXZXcXZXZXZXZXZXZXZXlX>XC.;XlXDXDXlXcXDXSXZXcXcXZXAXBXBXeXN.v.0.B.M.B.m.B.N.:XqXkXBXjXfXfXnXmXmXnXfX8X8X5X5XdXdX<X:X6XdXjXxXjXjXNXBXMXBXNXjXMXBX0X&X9.6 1 + * - - - 4 4 = 4 n V 1.5.8.3.5.6.6.6.6.{ { [ ! E f s p p p s f Q ! ! ^ s.i.i.p._ [ [ ( ( ( ' ( ( ( ( U U B B N N n k k w = = - - - % % % O # # # * * > n *.2.c.*XiXiX8X8XjXhXeX1X1X1X1X1X",
"hXhXhXhXhXlXNXCXMXVXiX:.> + % O + O O O O + + + # # # # @ > n C 1.5.6.W.W.Q.[.[.[.I.[ [ s.u.i.u._ ` ` _ J J J J J J G G ( ` 6.].].].W.W.7.1.C n = - * @ * @ + O O o O O # # O o 5 =XVXNXLXSXZXcXSXSXHXSXHXHXHXSXAXHXHXlX5XdXDXLXHXHXSXSXSXSXcXcXcXDXDXDXJXJXJXGXFXtX.Xc.0.9.v.#X#X&X4XwXjXhXhXhX1X,X6XhXhXqXhXxXzXkXxXhXdXdXjXBXBXBXlXNXBXBXNXMX0XpXJX=XM o o o # * * = > 5 n m m M V V *.*.*.*.V Y ) ] ] { I.I.I.{ [ ( _ { l.'.l.l.l._ G G D D D D Z D ! ! ! W W ( W W W b b B k w - = - % & - - - & $ # # % + O % O + *.*XmXnXnX9X8X5X5X5X5X5X<X6XjXlXlXfXdXdXlXlXlXlXlXlXlXlXBXzXlXlXkXkXzXzXxXxXkXkXkXqX:XM.M.M.M.N.V.N.N.Z.:X>X<X<XdXlXBXlXfXfXgXfXlXBXBXlXvXA.B.B.C.1XzXZXZXBXlXgXmXNXDXAXAXnXmXmXv.5 o + # # - - = = k k k z B ) ) 3.3.{ ] ( ( _ W Z Z Z a a S ! _ J H V *.*.*.V V V ( W f y.d g g t.i.i./ / ^ ^ [ ( W b b N n k k k k = - - * * * * * = > 5 *.0.*XiXGXJXJXJXBXCXMXjXNXDXBXZXDXZXDXDXDXDXDXfXdXdXDXZXDXcXlXlXlXcXcXcXcXzXBX,XN.B.B.&X:XN.B.B.B.B.N.:X1XeX4X9XjXMXfXdX8X8X3X5X9XdXlXBXlXdXdXlXBXBXCXNXNXMXMXAXAXCXCXGXuX&X9.M # # = = - k k k n N B ) 5.8.5.6.6.6.6.{ { [ ! E a s p p p p s a E _ _ ( _ _ p.i.p.! _ _ [ [ ( ( ' ( ( ( U U B B N N c k k k w w w - - - - - ; # # # * * > n *.2.0.%XtXiXiXuX4X1XqX1XqX1X1X1X",
"vXvX<X6XdXjXjXCXAXGXiX:.> O @ O O O O O O + # + o o + # # = n C <.<.5.5.E.E.I.I.P.W E ! s.i.p.p.` ` ` ` ` K K K K K J G G ( _ ` { ] 5.5.5.) V C k k = = - - - ; # ; ; ; # # o o 5 -XHXAXSXlXcXSXHXHXHXHXHXHXHXHXSXSXSXAXDXSXHXHXSXHXHXLXSXSXSXZXZXZXDXSXSXAXJXJXIXFX=X%X%X%X%X&XN.&X:X,XqXhXxXkX1X1XeXqXqX1XqXhXhXhXhX6X6XdXjXBXMXjXjXlXNXBXNXMXCXGXIX-X%.1 + + # * = = > 5 n C m C V V *.1.1.1.Y 5.5.6.6.6.{ { W ( [ ` a.l.l.l.l.l.` G G ) ( G A A D D D D D ! W W W W W b b b b k w w w & & q w w - % - - % % % % O + *.#XFXVXMX9X3X3X9X9X9X9X5X6XjXjXfXdXdXdXBXBXBXBXBXlXlXlXBXBXzXlXlXlXzXzX1XxXxXeX,X:X&XN.:X&XV.Z.Z.N.N.N.V.V.:X>X6XlXBXjXfXfXgXNXBXDXBXlXxXvX1X<XxXzXzXlXlXlXNXAXHXAXmXnXmXiXtX%X4.5 + @ = - - = = k k k k B ) ` ` ` ) ) ( ( A A A Z Z Z S D D J K H M m #.#.#.m m M V B Q t.f s s g f t.t.Q Q Q ! W W b b N z k k k w = = - = = = > > > 5 m *.4.c.#XtXVXVXJXJXJXJXAXVXNXAXDXAXAXAXAXAXSXAXDXDXZXDXDXcXZXcXlXlXcXZXZXzXxX<XN.B.B.:XkXwX,XZ.N.B.B.B.B.N.V.:XqXCXBXMX8X9XnX3X6XfXjXNXDXBXlXjXlXMXMXMXMXCXAXuXMXCXCXGXCXiX$X2.m > = k k k k k z B B Y ) 5.6.6.6.6.{ { [ ! E a s p p p p p h Z A ) ) 1.) ) ) p.g.D ! ! _ [ [ ( ( ( ( ( ( ( U U U b c c c c k k k w w w w w - ; # # # * > , m V *.9..X*XtXiXmXwXqX6X1X1X1X1X1X",
"<X<X<X6XdXjXjXCXJXJXuX4.6 + % O + + O + + # # # # # # - = n C C Y Y ) ] ] [ [ [ E E ! u.u.p.p.a.K ;.3.3.3.;.K H K K K J G G G G B B B ) ) ) ) Y B N n k k = = - - ; ; ; - # # O 5 *XKXAXDXgXZXSXSXJXHXHXHXHXHXHXHXHXSXSXSXLXHXDXSXSXHXHXSXSXSXSXSXSXSXSXSXAXZXBXCXnXuXnXMXMX6X>X&X&XV.Z.<X1XeXeX1X1X1X1XrXrX1XhXqXhXhXdXjXjXjXdXfXnXCXBXAXAXAXCXGXGXGX*X%.+ @ * % * * = = r n n n C V V V 1.5.8.6.].].6.6.l.{ _ W _ d.l.l.x.l.l.l.3.H H H 1.) H G G G D D S S ! W W W W A Z b b b c k k k w q w w w w - - - - % % % % % *.#XuXCXuXuX8X9X9X9X9XfX9XdXjXjXjXjXlXlXBXBXBXBXNXNXNXlXBXBXBXlXzXlXlXkXxXxXvX1X:X:X:X:X4X,X:X:XZ.Z.N.V.N.N.V.V.>XjXjXfXjXNXlXNXBXZXBXlXzXxXxXxXZXZXzXjXSXAXAXVXVXnX=X%X9.9.4.;.6 # # @ 5 5 k k k n N B B V ) ` ) ( G G _ A F Z Z Z Z A D J K K M M ....$.$.....#.#.#.C A Q Q Q f s g f t.t.f Q Q ! E W b B b c k k k k k = = > > > > > m M M M %.*.4.v.*XiXGXJXJXJXHXJXHXHXHXJXAXAXAXAXAXAXAXZXZXcXZXZXZXcXcXZXZXcXhX<XB.N.V.:XqXBXkXhX1XA.Z.N.B.B.B.B.N.:XjXMXMXfXnXNX6XdXjXdXdXjXjXjXdXfXMXCXVXCXCXCXGXGXmX-X%X#X0.2.*.C n n N k c b c B U ) ) ) { 6.6.{ [ _ ! Z Z a s p p p p p s a z B V *.*.M M M ` J J J _ _ _ [ [ [ [ ' ( ( ( ( L U U L b c c c c c k k k w w w - - - - > > n m <.2.9.v.#X%X=X-X7X3X0X9XwXqXqXqX",
"6XdXdXdXjXjXMXMXCXGXiX4.m + : + % % % + # # # # 5 5 n n N B V ) ) ] { { [ [ ^ ^ Q u.s.p.p.p.a.a.H %.;.:.:.>.%.%.%.%.H K K G G A G G G G ) ) ) ) ) U B N c k k k k 4 4 - = = - - # 2.v.=XJXHXLXDXDXAXJXHXHXHXHXHXLXLXSXSXSXHXSXSXSXSXSXSXSXSXSXSXSXSXHXSXAXZXlXhX6XjXNXAXZXZXlXhXqX<XV.V.Z.:X<X1XrXrXrXZ.Z.rX1XxXxXxXhX6X6XjXfX9XCXVXBXAXAXBXMXuX%X#X#X0.M @ + * - = r n n n n n C C V V ) 5.].].].].l.{ { d.d.d.d.d.d.d.a.x.x.x.;.;.;.*.;.:.*.M V H H G A D S D W W ! W E Z Z A b b c c c k j j c k w w = - - - * * % % M 0.$X%X-X7XuXuXuX8X9X9XfXjXMXjXjXjXlXNXNXNXNXNXlXlXlXlXBXBXBXBXNXNXlXlXxXvX1X<X>X,X6XwXwXqX,X,XrXrXA.Z.N.N.N.N.&X6XdXfXNXNXNXlXlXlXlXzXcXlXdXfXBXAXJXAX&XM.9.:.%.M m 6 6 6 5 > > * = 5 n C n C C B Y ) ) ) ) ( G A A A A Z A A D A A A G C M M ....X.$.X.X.X.X.......m k z _ _ ! Q Q f f f f f Q Q W W ( ( U B B B N N n n n n n n 5 > n m 5 > > > 5 m 6 M %.=.:.9.#X=XnXmXJXHXHXHXAXAXSXSXAXDXDXDXDXcXcXcXZXcXkX1X:XV.N.:XhXkXzXzXkXxXxXxX1XrXZ.N.B.B.B.N.:X,X6X6XwXjXfXjXjXdXdXjXlXjXfXNXAXGXCX-X#Xv.:.>.%.6 > : : % m n n N B b L ( U ( ] ] ] { { I.[ _ W Z a a u h p p p s s a v z 4 > , , , , , , C C G G _ _ _ ! s.[ [ ^ ^ W W W W U U L L b b b c c c c c k k k = - = > > n m m m t , m m m M %.9.v.%X7XpXMX9X9X",
"6XhXjXjXlXNXMXMXGXGXiX9.M @ : + > * * * * * - - n n n N B B Y ) ] { { { [ ^ ^ u.^ u.p._ p.a.` K M %.%.&.&.&.&.o.o.%.M M K G G G G G G B G ( ( ( ) ) ( B B c B B z z k k k k k = ; C M 4.v.%XgXnXAXJXHXHXHXHXJXDXHXHXSXSXSXHXLXLXSXSXSXDXAXAXJXHXJXHXSXSXZXzXxXxXxXzXZXzXkXzXzXzXzXhX<XZ.Z.:X:X:XrXrXZ.Z.Z.1XxXxXqX1X>X&X3XMXBXMXMXfX8X;X%XM.b.9.&.%.;.;.M > @ * = r n n n N N C V Y ) ) 5.6.].].].l.` ( _ d.(.|.l.l.l.l.l.x.x.3.%.%.%.=.=.=.$.#.%.*.;.H G A D D ! ! ! ! ! S W W W b b b b b c c c c c k k k w = w = * > 6 =.,.,.v.#X=X=X&X%X&X-X8X9XfXfXdXdXdXjXjXjXjXlXlXlXlXlXNXNXNXNXNXNXNXjXhX<X>X>X6X9XMXCXMXwX4X>X<X<XrXZ.Z.Z.Z.N.V.>X9XfXNXNXNXlXjXlXlXlXDXDXAXAXAXmX8X=X9.:.%.m 5 > > > > > > > n n M C C C V V H ) ) ` { ) ( ( A A A D F Z D _ _ D A G 3.;.%.#.X.X.X.X.X.X.X.X.X.......5 C ) 6.d.^ Q f s a a f Q ! ! W ( U ( U U B B B B C C C C n n 5 n 5 > > > > 5 > 5 6 6 6 6 %.:.4.9.b.%XnXJXHXHXHXHXHXAXDXDXZXcXcXcXcXZXkX1X:XV.V.qXxXkXxXkXzXzXxXzXxXxX1XrXZ.N.B.B.B.N.V.:X6XwXjXjXMXlXjXjXNXNXMXCXnX=X#Xc.:.%.6 : : # + + > m m C N N U U U ( ' ) ] ] ] ] { { [ W Z u u h s s s p s s a Z l k 5 > : < , < < < < : 5 6 V H ` _ _ s.s.u.^ ^ ! ! W ' ' ( W L L L L L b b c c c c k k k = r n n n m m t , , 6 6 5 m 6 %.:.0..X=X7XmX",
"9XjXNXNXCXNXMXnXCXuX-X4.%.: > + > > > > > r w w k k N B B U T ' ` [ [ [ u.u.i.i.Q Q ! _ J K K 7 %.&.&.&.&.O.O.O.o.o...M C G G A G G G G b b b b ( ( ( U U U U U B B b c c c c k - C n 6 7 7 9.b.%X;X-XgXNXDXDXNXAXSXSXDXAXSXLXSXSXSXSXSXJXJXJXJXJXJXSXZXkXxXxXxXzXcXcXzXxXzXzXzXzXxXhX1X:X:X:XZ.:XZ.Z.Z.Z.1XeX1X<X,X:X&X3XMXMX8X#Xv.b.,.>.o.7 7 7 7 6 M M 5 * > n n C C V V V V ) ) 1.3.6.].].].6.( G ` d.d.l.|.d.x.x.x.x.x.K M ..$.&.-.-.-.$.$.$.=.*.V G G D D D ! ! ! Q E E ! W L b L L b b b L b b c z n n n r r > > , 6 ....>.:.9.b.b.b.b.M.%X&X;X3X5X6XdXjXjXjXjXjXMXNXNXNXNXNXNXNXNXmXnXfX6X>X>X5X9X8XfXCXnX9X5X&X>X1X1X:X:XrXrX:X&X&X3X5XfXnXNXNXlXzXzXcXNXDXVXnX-Xv.4.;.5 5 5 n r r > > > % + * > n n C V V V ) ) ) 3.3.) ( G b A A D S S S ! p.! D _ 3.0.,.-.$.O.O.O. .X.X.X.X.o.......#.=.2.8.{ [ ! Q Q f f Q ! ! W W b b B B U U B V Y V V V C m n 5 5 5 5 > > m m 5 6 m m m m 6 6 6 6 %.>.b.#X-XnXVXAXSXSXDXZXSXZXcXzXzXxX1X:X:X<X1XzXzXxXhXxXcXcXxXzXxXxXxX1XrXZ.N.N.N.B.N.V.:XqXwXNXNXNXjXjXdX3X&X%Xb.:.6 5 : : : 5 5 : @ + % r n V N U T ' ' ' [ ] ] ] { { { ' W v a u s s s p s s a Z A V C m , , , < , , < < , < < , m V ) _ s.s.u.u.^ / Q / W ' ' ' ' W W L L U U L b b c c c k k w r r n t r > * > > , , n m n m m m *.4..X*X",
"9XjXNXBXCXCXMXuX%X$X#X;.m : , : > > > > r r k c N B U U U T ' ' [ ! ! u.u.u.i.i.f Q p.a.K 7 7 %.&.-.-.-.-.-.O.-.O.o...7 C B G A G G ( ( ( G b b b U ( ( ( U U U U U B B c N N N w n = 5 5 # 5 5 7 %.9.M.-XmXJXHXAXAXAXDXDXSXSXDXDXSXSXHXHXJXJXJXJXAXAXlXhXxXkXcXxXcXcXcXcXcXcXxXzXzXzXxX<X:X&XV.Z.Z.Z.Z.rXeXeX<X1XqX6X>X3X7X%Xv.:.>.%.6 7 7 6 6 6 6 5 m m > * r C V Y <.<.1.1.1.1.5.6.6.].].l.6.( A G l.|.|.f.f.x.x.x.x.l.3.K 6 X.-.-.-.-.O.-.-.$.$.#.M V G G G A ! ! ! Q S Q ! W A L ( ( L L W U U L b B N n n w r r r , , , , 6 6 M %.;.:.,.9.b.v.#X&X-X9XnXCXMXjXMXMXNXNXNXNXjXjXNXNXNXMXfXfX>X>X5XfXfX5X8X8XnXnX8X3X5XjXjXqX:XrX1X:XV.&X:X>X9XfXCXBXBXNXDXDXmXtX%Xb.4.%.5 > > > > * % * > > * % * > n n C V V H ) ) ) 1.3.3.( B z b A A ! ! p.p.! D A G ` c.9.-.$.X.O.O.O. .X.X.o.......o.X.$.$.=.;.1.{ d.s.s.u.u.^ ! ! A A A b G G ( ) ) ) ) ) V V C m 5 > > > > @ : 5 5 > 5 5 5 6 6 6 m 6 %.6 6 6 %.9.v.%XnXAXHXSXAXSXSXZXxXqX:XV.V.Z.1XkXhXkXkXxXhXzXcXcXZXzXzXzXzXxX1XrXZ.N.B.B.N.V.:X4XCXCXCXMX9X;XM.b.o.6 7 : : : : @ @ # @ > > > C V Y Y Y ] ] ' ] [ { ] { { I.{ ( b v a a s s s s s a Z A H ;.=.#.} } , , < < : < < | } , , m V ) { s.s.u.Q Q Q Q E ' ' ' ( ' W ( U U U U B B c c c n n r > r r r > > > > > , > > > n m m m M M *.:.",
"wXjXBXJXMX&Xv.v.4.>.%.%.M : : < < , > r k N U R Y R R ] ] ' ( ! Q i.i.i.i.i.i.i.f i.p.J M 7 o.O.O.O.O.O.O.O.O.O.O.X.X...M H ( ( H H ( ( ( ( ( b B G ( ) ) ) ) ) U U U U U U N N n w - > > > : 5 5 5 6 m ;.b.&XuXMXMXCXAXAXBXBXDXHXSXSXSXSXZXZXZXzXjXdXdXlXNXDXNXDXDXcXcXcXcXcXcXcXcXcXxXvX<X:XZ.Z.Z.Z.N.A.1XeXeXkXkXwX3X#Xb.:.%.6 7 6 6 6 5 > > : : : > , > n m *.*.*.1.2.8.8.8.8.7.7.3.7.z.3.G A _ l.x.x.f.f.f._.f.d.` ;.%.#...$.O.O.O.O.O.O.O.O.X.X...6 M V ` ` _ D ! ! S S ! ! A A b B ( ( ( ' U U U U U B B n = * > > > , , > > 5 5 5 6 M %.;.:.9.c.b.#X-XGXGXMXfXfXNXBXBXNXjXdXhXjXBXjX6X>X>X>X6XdX9X9X9X9XMXnXnXMXfX5X5XdX6X1X<X:XZ.V.V.:X:XwXMXuXmXJXGXtX.Xc.;.M 5 > > > @ @ @ : : : : : # # # > n M V V V ) ) 3.3.3.1.H z z z z b b A E ^ [ _ G H 7.0.:...o.o.X.-.-.$.$.....6 5 6 #.#.$.=.%.%.M ;.3.6.6.{ (.I.[ _ G G J G G G G J H H H 1.<.V C m m 5 > > : : > < , , 6 6 6 6 6 6 6 6 6 6 6 6 6 m %.*.;.c.v.GXJXBXAXAXZX:XV.N.Z.<XqXqXxXjXxXlXzXBXlXlXBXBXBXBXBXzXzXxXvX1XV.N.N.N.N.:X:X3X9X8X%X9.%.7 : : : : @ : : : : @ @ + @ * > C V V Y ) ] ] ] ] ] I.I.{ { ` ` G F F a a u u s a Q ! ! ` 3.>.&.X.X.X...} 6 6 6 6 7 ....} } ..#.2.7.` [ s.u.Q E E E ! _ _ W W ( ( ( ) U U Y U B c B C n n > > > > > > > > > > > > > > > n m m m n n ",
"MXwXpX9X&X9.%.M M 6 6 6 6 7 : 7 < , , n n N U R ] ] ] ] { [ ! ! i.i.i.i.i.u.i.i.Q u.s.J M ..X.O.O.O.O.O.O.O.O.O.O.O.X.o.*.1.] ' G H ) ( _ ( ( ( B G ) ) ) ( ( ' T U U U U U N N N r * > > : : > 5 5 > 6 m %.:.9.M.#X2XCXJXJXHXHXHXSXAXAXSXZXZXZXxXxXhXlXNXDXJXAXDXDXDXDXDXDXDXDXcXcXcXxXxXvX<XrXZ.Z.N.Z.A.1XzXBXBXwX&Xb.,.%.6 , 5 5 6 5 > > > : : > > , r r m V *.*.1.2.8.7.7.7.7.7.7.7.3.;.K K ` d.l.x.x.x.f.f.f.d.d.3.;.=.$.X.O.O.O.O.O.O.X.X.o.X.X.o...%.;.3.` _ _ ! D S S D D A A b B ( ( ( T T U U U U U B N k - = > > > > : * * * @ > > 5 6 6 M %.;.4.v.=XnXnXCXMXMXfX9X6XhXhXjXhX6X,X>X,X6X6XdXdXdX6X9XdXfXfXfXmXfX5X5XfXjX1X:X:X:XZ.Z.N.N.2XuXuXiXtX*Xc.;.M 5 > > @ @ > : : : : : : : @ # # # > 5 M M V C H ) ) 3.3.1.H z z z b b A W E ! [ _ ) 1.4.2.&.o.o.o.X.-.-.$.#., > > > > , #.&.%.%.%.M *.2.7.6.6.E.E.{ _ J J J _ G G G K H ;.1.V V V V C m n 5 : : : : > , , , > > > > 6 6 6 6 , , , 6 m m M M *.;.#X7XMXHXBX<XV.V.V.<XxXhXhXhXhXxXlXzXNXNXBXBXBXAXAXZXBXzXxXxX1XZ.Z.Z.N.N.N.N.2X%Xb.%.6 : < < > : : @ : : : @ @ @ @ * = > C V Y ) ) ] ] { I.{ I.{ { { ` ` J A F F u u u Z S ! _ _ ` ;.&.o.X.X.X.$.#.#.#.6 6 7 ....X.} } $.=.2.3.` s.! ! Q Q E ! _ ! W W W ( ( ( U U Y U B b B n n 5 > > > > > > > > > > > > > > > 5 5 n n n n ",
"2X$XM.9.:.%.6 6 m 6 5 6 6 6 : , , , m C B B U T ] ] ] E.{ [ ! ! i.i.i.Q i.u.u./ i.u.s.K M o.X.O.O.O.O.O.O.O.O.O.O.O.O.&.:.1.] ] H H ) ` _ ( _ ( G ) ) ) ) ) ( ' ' T R U U U B N N r > > : : @ : > > > > , 6 m #.%.:.v.%XiXCXJXHXJXHXAXAXZXZXcXZXxXlXlXBXNXDXAXJXDXDXDXDXDXDXlXlXlXcXzXlXxXxXvX1X1XZ.N.Z.A.Z.:X,XV.B.,.&.6 6 > : : : : : : : : @ : @ * > > r m M ;.1.2.8.7.7.7.7.7.7.7.z.3.M K 3.|.|.x.x.x.x.f.f.d.d.3.3.:.=.&.O.O.O.O.O.X.X.X.X.X.X.X.X...#.:.4.3.` ` _ D D D D D A A G G ( ) ) ' ' ' ( U U U ) B N 5 > > * @ @ + @ @ @ @ @ @ : @ : : 5 5 6 ;.9..X%X-X8X7X3X3X6XjXjXjX6X:X:X4XqXjXlXjXjXdX6XdXfX9XdXfXMXfX8X8X6XjX1X:XZ.:XrX:XN.sX2X0X-X#X9.%.6 > # + @ * * * * > > : : : : : # 5 = = > n M C C V V ) ) ) 3.H G z z A A A A b Z ! _ { 6.7.2.=.&.o.o.O.-.-.$.#.#.: * - = > < , $.=.%.%.%.%.;.2.5.6.W.E.{ ` _ ` ` ` _ G G K K H 1.V <.<.<.V m m m > > > > > > > > > > > > > , > > , , , 6 m m n 5 M 6 >.9.M.9X4XV.V.Z.rXhXkXxXhXhXhXxXlXlXlXlXNXCXCXBXBXBXBXzXzXxXxX1X1XrXZ.N.N.9.,.&.7 : : : : : > > @ @ * @ @ @ @ # # * = = n N B B U ( ] ' ' ' ] { { 6.3.` K J F F Z Z Z E _ [ _ ` 3.>.o...X.X.X.$.#.#.m 6 6 6 ......} } e.#.*.6.` _ ! ! ! ! ! ! ! ! W W W W ( ( U Y Y Y U U B n n n 5 5 5 5 > > > > > > > > > > > > > > > > > ",
"9.:.%.6 6 6 m m m m , m m 6 < < , 6 m C V U ) ) ] ] { { { [ ! Q i.i.i.Q u.u.u.^ u.[ ` H %.o.X.O.O.X.$.$.-.-.-.-.O.O.-.-.;.1.5.5.) ) ` ` ( ( _ _ ` ` l.6.{ ] ' ' ] ' ' ' Y Y U N N r > > > : @ : + % > > > , 6 m , 6 #.:.9.v.%X-XJXVXAXHXSXBXxXxXhXxXzXDXNXDXAXAXDXDXDXDXDXDXlXlXcXcXlXzXxXxXhXxX1XA.A.A.V.m.D.B.&.o.7 6 6 6 > > : : : : @ @ @ @ * * * > > n C V 2.5.8.8.8.7.7.7.7.7.7.3.H C K l.x.|.|.|.l.d.d.d.d.l.3.2.:.&.-.-.-.-.-.X.X.X.o...X.X.&.&.o.#.%.;.3.6.l._ ! ! ! D A A G G ( ( ( ( ' ] ] ] ( ( ( ) ) C n r > * % @ + + @ @ @ @ @ : @ @ : : : : 6 M %.:.c.v.#X%X;X5X6X6X6X,X:X,XwXkXNXlXlXjXdXdXdXfX5X5XfXfXfXfXdX6XjX<X:X:X,X1XrX:XsXsX$Xv.>.7 # @ @ @ @ * * * % % % % + @ : : : > 5 5 n n C C V V ) ) ) ` ) ) H B A A A A A b A W [ _ { ].c.2.&.$.X.X.-.-.-.$.} , > - - - * % < #.%.%.%.#.%.*.;.1.7.W.E.E.{ ` ` d.d.` _ J G G H 1.5.8.8.8.<.V C C m n r r r r > > > > > > > > > > > > 6 m m n > > m 6 %.6 >.M.N.N.1X1X1XxXhXhXxXzXhXxXjXjXjXjXlXNXNXNXNXNXzXzXxXxXxXxXxXeXrX:XB.,.< : : : : : @ + @ % % @ * > > > * % * - = = w k N B B U T T T T ' ] { 3.3.3.` ` J D A A W _ ` { ` 3.;.%.o.o.X.X.X..., , , > 5 6 6 ....} } e.#.#.1.` { p.! ! ! ! ! ! ! ! ! E W [ ] ] ) ) ) T U U N n n k n n > > 5 5 n n r > > > > > > * > > > > ",
"6 6 6 m m 6 > > > > : > , , , , 6 m V V Y ) ) ] ] { { { [ [ ! Q Q i.i.^ ^ s.s.[ d.{ ) H %.X.O.O.X.$.#.#.$.$.-.-.-.-.-.&.=.*.1.5.5.6.6.{ [ [ [ d.l.l.l.l.l.{ ] ' ' ' ' ( T U U B N r r > > : : : * * * * > > > > > : : > 5 M :.9.%X=X8XVXAXNXhXhXhXxXzXZXBXNXAXAXDXDXDXDXDXDXlXlXDXcXzXxXxXxXhXhX1X1X1X1XV.,.+.&.7 7 : > > > > @ : : : @ @ @ @ @ * * * > n C V *.8.8.8.8.7.7.7.7.7.z.7.H K K ` ` _ l.|.|.d.d.d.d.l.3.2.:.&.-.-.-.-.-.$.$.$....., &.&.$.&.&.&.%.%.;.6.z.l.` _ _ _ A _ _ ` ` ( ( ( ( ' ] ' ( ( ) ) Y B n n = % % % + + + # + + + + + + @ : @ + @ > > 5 M %.:.9.v.M.N.V.N.V.:XwXkXqXxXxXxXjXjXjXdXdX5X5XfXdXfXfXfX5X6X6X<X<X1X1XeX,XN.b.&.7 7 : # : * * * % % % + + + + * * > > 5 5 n n C C V V Y ) 1.) ` { ` ) G A ! D A A v A W ( { { l. X0.:.&.$.O.O.-.-.$.} , > = & & = * % < t #.%.&.#.#.%.*.*.7.W.W.'.I.{ { d.d.d._ G G G H ) W.W.W.8.5.1.V C C C n n n n n n > > * * * * @ @ > > > n n n > > : : 6 6 >.B.B.N.eXxXkXhXqXqXhXkXjXjXxXjXjXjXjXNXNXNXNXlXlXzXxXzXzXxXkXkXwXeXN.&.: : : : + o + : % * * * = > > > = = w n n N N B B U U T ' ' ' ' ( ) ` 3.3.3.3.` ` _ ( _ _ ` ` 3.3.;.%...o.X.X.X.$., < * > > > 5 , , , } } e.#.m *.3.l.d.[ ! ! _ ! D ! ! ! Q ! [ { { ] ] ] ] T U B N n k n n w = k n n n n r > > > > = = * > > > ",
"> > > > > > > > * * * * > , , m m %.*.V ) ) ) ] { { { [ [ s.u.Q Q u.u.u.[ [ [ { 6.3.;.%.&.$.O.-.$.#.m t t #.$.&.-.-.-.&.=.=.2.8.8.E.E.{ [ { d.|.x.x.x.x.'.{ [ ' ( ( ( U U U U B N n r t t > > > > > * * * * * @ > : @ @ @ > 5 M :.9.v.&X;X3XqXBXxXkXzXBXBXBXBXAXDXDXDXDXDXDXDXDXDXDXlXhXxXhXhXhXxXxXxXhXV.,.o.< 7 7 : : > * % % : @ @ @ @ @ @ * * * * = n C V V 1.1.1.1.5.6.7.7.7.7.3.K K 3.l.` G d.|.|.d.` { 6.6.2.;.&.&.O.O.-.-.&.$.#.#.m , , #.#.$.$.&.&.&.%.*.2.7.l.l.a.` _ _ _ { ` ` ` _ _ ( ' ' ' ( ( ( ( U B N n w - % % # @ * @ + + + + + + + @ @ + + @ > - @ > 7 M %.>.n.b.B.B.:XeXBXqXjXhXjXjXjXjXdX6X5X9XfXfXfXNXnX6X6X6XqXqXqX1XqXqX,X,.7 1 1 : : + + % % + % * * * * = > > > 5 5 5 n n C C V Y 1.1.5.5.{ { { ( G A ! Q Z Z v W _ [ l.l.z.z.4.=.$.-.-.O.O.X.} , > - & j j q - * > < e.#.&.%...#.%.*.8.8.W.'.E.I.{ { s.d.` _ G G G ) ].!.!.!.!.5.Y Y Y B B N N n n n n r > * * * * @ * * * > > > > > 6 : : 7 ,.N.B.B.:X1XhXxXhXhXqXqXqXjXjXjXdXjXjXNXNXNXNXBXzXzXzXzXzXxXkXkXkXkX:X,.: : : : + + + > * * > > = - - - = - w N B U U U T T ' ' ' ' ' ' ( ) ` 3.3.3.3.` ` ` ` ` ` 3.1.1.>.%...o.X.X.X.| #.< + % w n w n > , , , e.e.#.m M 1.7.l.d.[ [ [ ! D S ! Q Q ! [ I.I.E.I.L.L.' R U B B N n k k w = w r n n n n n > > > = > > > > ",
"> > : + + % > > > > > * @ > , m *.*.*.1.) ) ) ] { { { [ s._.s.u.! u.s.[ [ { { { 3.;.;.=.&.-.-.$.#.m m r r t #.#.$.-.-.-.&.&.=.2.8.W.W.E.I.d.(.|.l.x.x.x.|.(.{ ' ( ( ( ( ( Y U Y B N n C m t > , r r > > > > > > % % * * * # @ > 5 6 %.:.,.b.:XBXzXzXzXBXBXZXAXBXBXDXDXDXDXDXDXDXDXcXzXlXxXxXkXxXzXzXzXkX>Xb.o.1 : : : : % % * * * @ @ @ @ * * * % - = w n V V V ) ) ) 1.1.3.3.7.3.3.3.H ` l.l.` _ d.d.d.{ { 6.6.1.*.&.&.-.O.O.O.-.=.#.m n r t r t t #.$.$.&.o.&.%.*.2.7.l.l.{ { ` { { { ` ` ` ` ( ( ( ( ' ( ( U U U N N k w - * * - - * % # # * * % + % : % @ * - * # # @ : 5 7 &.,.n.B.N.,XeXwXkXjXhXhXjXjXdXdXdXdXdX9XfXNXNXfX6XhXjXqXqXqXqXqXeXN.,.7 : 1 1 o + * * % % * r > r > > > 5 5 5 5 n C V V Y ) 1.5.5.5.5.{ { ( A Z Q a a Z Z W [ d.'.z.z.4.:.=.$.-.-.-.$.} , > - & i v v x q w r * , ..$.&.o.#.%.%.*.1.W.W.'.(.{ d.[ s.d.` J G G ( E.E.!.!.!.5.Y Y Y U B N N N N n n n r = - * * - * * * * * * > : m > , &.B.&XB.B.B.V.rXqXkXkXkXqXqXjXjXjXdXdXjXNXNXNXNXNXzXzXzXzXzXxXkXkXkXkXeXsX< 1 1 : > : : > * * = = - - - = w w w c U U T ' ' ' ' ' ' ' ' ' ( ` 3.3.3.3.3.` ` ` ` ` 3.3.1.;.%.o.o.X.X.X.X.} , % % w c c e k r > > , e.} #.m #.*.8.7.l.d.{ [ _ S Z S Q S Q ! [ I.I.L.L.L.L.T U U B B c c k k w w w w r r n n r > > = > * * * ",
"+ * > : % + + + + @ @ + + * t m *.*.1.1.) ) ` { { { _ _ s._._.u.u.s.[ [ { 6.6.3.;.*.%.&.-.-.$.$.#.C n r r r m m #.&.-.-.-.&.&.=.8.W.W.E.I.[ s.d.l.x.x.x.|.|.{ ' ' ( ( ( ) ) ) Y Y B C C m m r r r r > > > > * + + + @ * * # # @ : : 5 7 7 >.M.jXZXBXzXzXZXAXZXBXNXlXDXDXDXDXDXDXDXcXlXlXjXxXlXlXzXkXkXBXBX>X9.7 1 # : * % % % = * @ @ @ * * * * > n n n C ) 1.) 5.3.5.5.3.6.7.7.7.` ` 3.l.` ` a.d.d.[ [ { E.E.8.:.=.&.O.-.-.O.X.=.%.m n r r r r r t e.#.#.o.o.&.%.%.;.7.z.l.{ l.{ { { { ` ` a.d.( ( ( ' ] ] ' T ' T U U N w w w % - * - # % - * > % + + % + % * $ $ % * @ : 5 7 7 &.9.n.B.N.rXeXBXxXqX6XdXjXjXdXdXjXdX9XfXBXNXfXjXhXhXqXqX1XeX4XqXwX:X,.7 1 1 : + * > % % * = % w = = = = 5 5 5 C V Y Y ) ] 5.6.6.6.6.{ [ W v a a a a a E W { '.'.].7.2.=.&.-.-.-.-.$.} , > & j i E / v q w w % < , #.&.$.&.&.=.*.<.7.W.'.'.(.(.[ s.d.d._ D G ( { Q.{.Q.!.L.] T T U U U U B N N N n n w w = = = = = - % % * * : + < #.9.2X:XB.B.,.B.V.:XeXBXBXkXqXqXjXjX6XdXjXNXNXjXlXkXkXkXzXzXzXxXzXkXqXkXBXpX:.6 1 1 > > > > % - - = = - = w c c c U T T ' ' L.L.] ] ] ] ] ] ` ` 6.l.l.3.3.` ` ` ` ` 6.4.2.:.o.X.X.X.O.$..., @ % & k c x x c w r r t , } } ..#.%.*.8.6.'.(.[ _ S a S S S S ! [ [ I.L.L.L.L.T U U L b c c c k k k k w w = w = w > > = = * * * ",
"+ + + + + + @ @ + + + + @ > m V Y Y Y Y ) ) ` ) { { s.s.s._.s.u.^ s.[ [ { E.7.2.:.&.&.-.-.$.$.e.t N N w w n n > m #.=.-.-.&.&.&.*.5.W.E.I.[ [ s.f.|.|.x.l.|.d.` ' { { { ] ] ] 5.] 5.Y Y V C m n n n > > > > > * > > > * * * # + @ # 1 : o.n.&X>XqXhXzXzXBXBXBXBXlXlXlXlXDXSXSXDXDXDXBXlXlXxXlXlXlXzXlXlXBXCX&Xb.: # o + * * % * * * = - * - = n n n N V ) 5.6.6.W.].].].7.z.].].z.l.3.l.l.` a.d.l.d.{ { I.E.7.1.=.-.-.-.O.-.-.&.%.r C n k c q w r r t t #.&.o.X.$.=.=.*.3.].'.{ l.{ ` { l.d.d.l.{ ( ( ] ] ' ' ' ' ' T U B c c w w = = = - % - % * * % % % % % % - O $ * + # : o 7 ,.M.N.B.B.N.Z.jXhXhXhXhXdX6X>XjXjXdXdX6X6XdXjXNXxXqXqXhXqX,X:X&XwXMX&X,.6 : 1 + % * % * > = * w = = = 5 n n n V Y ) ) 5.5.6.5.5.!.!.{ W i i a h g a a E [ '.|.l.].0.:.%.$.-.-.-.$.} , > w j i a f E E v x e % > , ..$.&.&.$.$.#.*.1.W.{.[.(.(.[ s.d.d.p._ G A { '.[.[.!.L.] ] ' T T U U U U B N N k k k n n n C k - * % + @ > o < b.pX0X&XN.N.B.B.B.B.N.qXBXBXBXkXjXjXNXNXjXwXjXjXjXlXlXlXkXkXkXkXzXzXBXBXBXBX&X9.6 < : : : > % - - - - & w k c c U R T ' ' ' L.L.L.L.I.I.I.] ( ` a.` l.l.` ` ` ` { 6.3.1.;.&.o.X.X.O.-.X.} < + O & k c c x x k k r r , , } ..#.6 %.1.6.'.'.{ ! S S S i.Q Q Q ! [ P.L.K.K.K.T T L L L b b c c c c k k w w = = r w w = w > > > ",
"+ + + + + + @ @ : : : : > n m V V Y Y Y ) ) ) ` { d.s.s.s._.u.u.^ s.P.{ I.E.8.2.&.&.X.-.-.$.e.t t N N k k k k n n m =.=.-.-.-.&.=.2.8.E.I.[ [ s.f.(.|.x.|.|.l.d.` { I.I.{ ] { E.5.5.5.) Y V C C n n n > n n > > @ @ @ + + + # # : o o 6 v.2X3X:X:X1XhXzXzXBXBXZXBXlXlXlXDXDXDXDXlXDXDXBXlXjXjXNXjXlXjXjXNXAXMX-X9.6 o @ > * * r + % = > > = w w n N B Y 5.E.W.W.].{.}.{.].].].].l.l.` l.a.a.a.d.d.d.{ { E.E.8.<.&.-.-.-.-.-.-.%.m w N c c L e e w r r t #.$.X.X.$.&.=.*.1.7.].6.'.{ ` { l.a.a.d.{ ] ( ] { ' ' ' ' ' T U L c c k w w w w - - - - = = * * * * * * $ w O O > o o 6 b.&X4X:XN.N.N.N.:X,X6XxXxXhX6X<X6X6X6X6X6XdXfXjXNXxXqXqXqXqX1X,XqXwXwX4X&XM.>.: : > > > > > r r r n n n n N C C Y ) ] ] { 6.6.6.6.!.E.] W i a g h h s a / (.|.|.].c.4.:.&.&.-.-.-.#., , > w j i a g g a v x e w > , 6 #.$.X.$.$.#.%.<.W.[.[.(.(.[ s.d.d.d._ _ A { '.{.{.Q.E.E.L.L.] ' ' ( R U U U B N N n n k k k = - - = > @ o : =.$XwX4X2X:X:XB.B.B.B.B.:X,XqXBXkXjXjXjXjXNXjXjXxXjXxXkXkXkXxXlXlXzXzXzXBXkXBXwXsX9...: @ > > - = w k k k c c c c U U T ' ' K.K.I.I.I.I.I.I.] ( a.a.a.x.l.` ` ` ` { 6.3.;.%.o.X.X.X.X.$.#., : $ $ & b L L x e c c n r , , } ..} #.#.<.7.].'.(._ D S S i.i.Q Q ! [ P.K.K.K.K.T P P L L I b b c c c c k k w w w w w w = = = = = ",
"+ + + + + # @ @ > > > 5 n m C C B U Y Y Y V H ( _ s.s.s.u.u.u.u.s.s.(.I.E.7.8.:.&.O.O.-.&.#.t t N N N N k k k k n t #.$.-.-.-.-.=.<.8.6.I.P.P.P.s.(.|.|.|.|.x.l.{ I.E.E.E.I.I.E.E.E.5.5.] ) Y Y B C N n n n n m n n 5 > > @ > > @ 1 7 b.uXAXjX>XZ.:X1XhXkXBXBXAXZXzXlXlXlXDXDXDXlXNXDXBXNXlXNXlXjXBXBXjXjXNXAXCX-X4.: # > > * * * = > n n n n n B B B ) 6.W.].'.{.}.}.}.].].].z.l.` ` a.a.a.a.l.a.{ { I.E.6.1.=.-.-.-.-.-.-.%.m w k c x I ( I x e w r t m #.$.$.$.$.&.%.1.7.].E.'.{ { { l.a.a.l.'.{ ( ] { [ ' ' ' ' T U L I c c k k k k w w w w - - - = - * * - O - + O @ o : b.nXAXAXjX>XV.V.C.N.V.<XxXkXxXhX6X<X6X6XdXdXdXfXjXkXjXhXqX<X<XqXqXjXqX4XqXCX9XM.%.: @ * > > * * r n n n N B B B V ) ] ] { 6.6.6.6.!.E.6.] W a h g d d h a ^ (.|.].].c.4.=.$.-.-.-.&.m > > r q i u f g s a E x x w r > , ..o.X.X.&.#.#.<.8.W.[.I.I.P._.(.d.d.p._ W [ (.[.[.[.[.Q.E.E.I.I.] ] ' T U U U B N c k k k n N n n = > > : 6 v.7X4X4XqX,X,XZ.N.B.B.B.B.N.:XkXMXkXjXjXjXNXNXjXjXjXxXxXxXxXxXlXlXlXlXlXlXlXBXMXpXsX:.< + : > - w k c c c c c c L U T ' ' K.K.L.I.I.I.I.E.E.{ _ a.x.x.x.l.` ` ` ` 6.6.3.;.%.o.X.X.X.X.#.t > % & & j A ( W x e x e k n r , ..X.} $.#.*.7.'.I.(.s.! Q Q Q S Q Q Q ^ [ K.K.K.K.K.P P P P L L L L b c c c c k k k w w w = = = - = ",
"+ + + + @ @ @ > > 5 n n n N B U ] ] 5.5.) V B G _ s.s.u.u.i.u./._._.(.'.W.7.2.:.-.O.O.-.&.#.C t N N N B B k j c N t t #.&.-.-.-.&.=.1.5.I.Y.U.P.^ _.|.|.|.|.x.x.{ I.E.'.Q.E.I.I.!.!.E.L.] ] ] ] ) ) B B n k n n n > > > > @ @ : o 7 c.7XAXAXjXqXZ.:X<X1X1XhXBXZXBXzXlXlXlXDXDXAXlXNXDXBXNXMXjXMXdXNXBXlXfXjXMXnXnX%X:.: + > > * n n n n k n C B ) Y ) ) 6.E.'.'.{.}.}.}.|.].].z.` ` ` a.a.a.f.d.d.{ { '.E.5.*.%.-.O.O.-.-.=.m n k c c x ~ P.~ x x e w r t #.#.$.$.$.$.#.*.8.W.'.'.6.{ l.l.d.a.f.|.{ ( ' { L.' ' ' ' ' T L L I c c c c c c k k k w w = = = = = = * O = : o : b.nXJXHXSXBXhX<X:XV.C.C.:X1XxXxXxX6X<X6XdXdXdX6X6X6XjXjXjXqX1X1X6XqXqXqX6X6XqX0X$Xv.%.: + @ > > > r n n N B B Y ) ) ] 5.6.6.E.E.6.6.6.6.6.{ ^ a h d d d h f ^ ).|.]. X0.2.%.$.-.-.-.=., * > w q i a f h h g E v q q w r t #.o.X.X.&.$.#.*.8.W.[.(.(.P._.(.d.d.d.p._ [ (.[.[.[.[.[.[.[.Q.E.I.] ] ) ( U U U B c c c c k n n 5 * # : 6 ,.=XpX3X6XqX,X1XrXZ.N.N.N.B.B.N.,XqXjXMXMXjXjXjXjXxXxXxXxXxXxXjXlXlXlXlXlXlXlXzXwXMX4XB.%.6 > = = w k c c c b b L U T ' ' K.K.K.P.Y.Y.I.E.E.E.{ J a.x.x.x.l.J _ ` { 6.6.3.;.%.o.X.X.X.X.} , % ;   j v W W W I x e x c n r , ..X.| $.#.#.7.].{ ).d._ ! Q Q f f Q Q ^ [ P.L.T.K.K.K.' T P P P L L I b c c c c k k w w w w - = - - ",
"+ + # @ @ > > > n n n N N U Y ] I.E.W.W.7.5.] { W ! u.u.i.i././._.(.).[.].7.2.-.O.O.O.O.$.#.N N N N N U ( b j k N r t m $.-.O.O.-.=.*.1.I.Y.).U.P._.(.|.|.x.x.x.{ I.E.Q.Q.I.I.L.I.I.L.L.L.] ] ] ] ] ) U N k n C n > > n n > : : : 9.uXJXBXjXxXhX1X<X<X:X:X,XqXkXBXzXlXzXlXlXDXDXlXlXNXNXNXMXMXjX6XdXlXjXlXNXNXMXNXVX=X:.: # > 5 n n n n n N V ) 5.] ) ] { E.'.[.{.}.{.{.}.}.|.|.` ` a.a.a.f.f.d.d.{ (.'.6.1.=.&.O.O.O.-.-.*.N e c b x I [ ).[ x x k w r > t #.$.$.X.$.#.*.1.E.].'.E.{ d.l.d.a.a.l.{ ( ( { I.P.K.K.K.K.T P L L I c x x c c c k k w w w w w w = = n @ # # : 4.8XAXSXAXZXZXcXzXhX<XV.V.C.V.,XhXxXhX6XhXjXjXdX6X5X>X6XjXxXhX<X>X>X<X<X6XwX6X4X4X2X=XM.*.: @ 5 n n C n N B Y ) ) ) ) 5.5.6.E.I.6.6.6.6.6.E.{ ^ f p p d d g / _.[.].]. X0.:.%.&.-.-.-.=.> % % w q i E / s h f E v j w w r m #.&.O.X.X.$.#.=.1.W.[.[.).(._._.s.d.f.s._ _ (.[.[.[.[.[.'.[.E.E.I.I.{ ] ] ' ( U U U b c c N k 5 n 5 # 5 %.#X9X9X6XjXhX>XqXeX:XZ.:X:XN.B.B.M.&X4XjXMXjXwXwXjXxXxXxXxXxXjXjXlXlXlXlXlXlXlXlXkXkXwX4XM.:.5 * n k c c L L L L U U T ' K.K.K.P.P.Y.I.I.E.E.6.` ` x.x.x.x.l.` ` ` { 6.3.2.*.&.o.X.O.X...t > $     l A ! W W L I e x c k r > } X.| $.} #.8.W.{ (.(.[ ! ! Q f f Q Q ^ ^ P.Y.I.T.K.K.K.' P P P P L I b b c c x x k k k w w - - - - ",
"# % * * > > n n n n n c N R T L.L.I.!.W.W.W.].'.W ! u.u.i./././._.(.).[.].7.2.-.O.O.O.O.#.m N c N N N U ( A v x c N t t #.X.O.-.-.&.*.1.I.Y.).).U._.(.|.|.x.x.x.{ I.Q.Q.Q.Y.I.I.I.I.L.L.L.L.L.L.{ ] ' T U U U V V C m m r > : > 4.%XJXJXNXBXzXvXxXhX1X<X:X:X1XqXBXzXzXlXlXlXlXNXgXlXmXgXfXfXfXMXCXNXlXjXlXBXBXBXBXVXCX%X>.1 # M > n N C V V ) ) 5.] ) ] { E.[.{.{.}.}.{.}.}.|.|.` a.a.a.d.f.f.d.d.d.(.'.6.1.%.&.O.O.O.O.&.C c x x x i W _.`._.E x k k w r t m =.$.X.$.#.V 1.E.].'.E.{ { d.a.a.a.l.` _ ( [ I.P.K.K.K.K.K.T T P P I I I c x c c c k k k = = - - - @ 5 o o 9.-XfXSXAXAXZXZXZXcXxX<X:XV.C.C.V.1XdXdXhXjXjXjXdX6X<X>X6XqXjXhX<X<X>X>X,X,X4XqXwXwX0X3XuXv.6 : > 5 n C C V Y ) ) ) ] ] 5.6.6.6.(.d.6.6.6.6.E.I.^ g p p d d g / _.[.{.].c.0.:.&.&.-.-.&.#.> % % w q x v / g g f E v j k w w n #.&.o.O.X.-.$.#.<.E.[.[.).(._._.s.d.f.p._ [ (.'.[.{.{.{.'.'.E.E.E.E.E.{ { ] ] ] ( U b c c N N C 5 # # ;.#X8X9X9XjXNXhX6XhX1XrX:XrXrX:XN.B.B.B.&X4XwXjXMXwXjXxXxXxXkXkXlXNXlXlXlXlXlXlXlXkXzXeXeXBX0Xv.%.> n k c c L L P L U T T ' ' K.K.K.K.I.I.I.E.E.6.` ` x.x.x.x.x.` ` ` { 6.3.;.%.&.o.O.O.&.#.t w q 9   l ! S Z W L I e x c k w > } X.| $.} #.1.W.(.(.(.[ [ ! Q f f f Q Q ^ P.Y.Y.T.T.K.K.K.P P P P P L L L I b v x x k k k k w - - - ",
"* - * > r n n n n N N B R T K.L.L.I.!.W.W.].].]._ u.u.u.u./././.`.(.).[.Q.5.=.-.O.O.O.X.6 n c c w N Y ) ( ( b x c N N t , ..O.+.-.&.=.1.L.Y.Y.).U._.(.(.|.x.x.x.'.'.[.[.[.Q.Y.Y.I.I.I.I.L.L.L.I.I.L.' ' ] ] Y Y Y C m m > * m *.=XnXJXBXBXZXzXxXxXxXxX1X<X<X,X1XqXhXlXlXlXlXNXDXgXgXgXdX9X9XfXMXBXBXNXlXjXjXlXNXNXnXCXVX#X%.7 M C N V ) 1.) ] ] 6.] ] { E.'.[.[.[.{.}.}.}.}.|.l.` a.a.a.f.d.f.d.l.{ l.l.3.;.&.-.O.O.O.O.#.n y I x I i ~ _._._.! v z k w r r m #.$.O.$.#.V Y 6.{.'.'.6.{ d.a.a.a.l.d.{ [ [ I.I.P.T.T.T.K.K.' T T T P P L L L c c c k k k 4 = = * o 5 5 *.-XAXNXSXAXSXSXSXZXlXhXhXhX1XZ.V.V.Z.,X<X6XhXhXhXdX6X6X6X6XqX6X6X<X<X<X<X6X>X,X6XwXwX0X3XmX=Xb.*.M m n n V Y ) ) ) ] ] { 5.6.E.'.'.'.6.6.W.W.W.I.^ g p d d d g H.).[.]. X0.0.:.&.&.-.-.&.m t * * w w x i E f Q f u u j k e w r m #.X.X.X.-.X.#.<.E.'.[.).).(.(.s.s.d.f.p._ d.[.[.[.{.{.'.'.'.E.E.E.E.E.E.I.{ { ] ' ( U B k C C * @ M v.iX3X3XdXlXhXdXhXhX1XeXeXeX4XrX:X&XM.N.N.&X2X4X0X6XqXhXhXjXxXkXlXNXlXlXNXlXlXlXkXkXxXxXeXkXwX&Xc.;.C N c c L L P P U T T ' ' K.K.K.K.L.I.I.E.6.5.) ` x.x.x.x.x.` ` ` 6.6.3.;.%.o.X.X.o.$.#.t w q 9   u S Z Z W L x e x c c w > , X. .$.$.#.<.W.'.(.(.{ s.u.i.Q f f Q Q ^ P.).Y.P.T.T.K.K.K.K.' ~ ' ' W L L L b b c c c k k k k w w ",
"w w r r n n N N B U R ] ' L.L.T.Y.Y.Q.!.~.~.].'.[ u.u.i./././._.`.(.(.'.E.2.=.-.O.-.-.X.6 r c x w Y 5.` ` ( A b x c N t , ..O.,.-.-.&.1.] Y.Y.).).U._.(.|.x.x.x.'.'.[.[.[.[.Q.Q.Y.T.I.L.I.I.Y.Y.Y.L.L.L.L.L.] Y 5.Y <.<.V *. XtXFXNXNXNXNXlXlXzXxXzXzXxXhX1X,X,X:X<XhXjXlXBXDXAXmXnXgXdX5X5XfXjX5XdXjXNXjXdXjXNXfXMXAXJXuXM.:.M 1.1.1.1.1.] 6.6.W.E.E.'.{.}.{.{.[.[.}.}.}.}.z.` ` a.a.a.f.d.d.d.'.6.6.6.3.;.&.,.O.O.O.-.#.r y I x I v [ _.u._.[ l z k w w r C #.$.$.$.#.#.V 6.].{.'.'.l.l.x.x.a.l.l.` { [ I.Y.P.T.T.T.K.K.K.K.' K.K.K.' ' T U U U B B N N n n 5 : 6 v.mXVXNXAXZXZXZXZXZXzXxXxXzXZXBXkX1X:XV.&X:X1X6XqXjXjXjXjXjXjXqX6X6X6X<XdXhXjXhXqX6X4X4X4X0X9XMX8X#X9.;.V V V V ) ) ) ) ) { 6.6.E.'.'.'.W.W.W.W.W.{ ^ a p d d d g H.).[.]. X0.9.:.&.&.-.-.&., r r w w e e 9 v E E a i 2 j k e w r m #.X.X.X.-...m V 6.[.[.).).).(.s.d.f.f.p._ s.(.[.[.{.{.'.].'.'.'.'.'.E.E.E.E.E.E.E.I.] ] ) H M M c.mXVX&X&X&XdXjX<XdXlX6XqXkXBXwXqXwXqX,X:X&XN.N.&X&X3X4X6X6XqXjXjXjXkXlXlXlXlXlXlXlXlXlXhXxXxXqXjXMX-X#X;.V B U L P P P T T ' ' K.K.K.K.K.P.I.I.{ 6.3.) 3.x.x.x.x.l.3.{ { 6.6.1.*.&.X.X.X.X.$.t > $ $     l Z Z A ! L x e x x c w > , ..X.X.$.$.<.W.[.(.(.(._.s.u.Q Q Q Q Q ^ P.).Y.Y.Y.T.T.T.T.K.K.K.' ' ' ' ~ L L L I b c c k k k w 4 ",
"r r N N N N N B U ) ] ] ] I.I.I.I.).Q.!.W.{.{.(.u.i.t.i././.).[.OX).'.].0.,.-.-.-.O.,.} t t c c c N 6.].` J ( b c c c N r 6 %.,.+.+.-.:.*.5.Y.Y.U.U._._.(.|.x.x.|.'.'.'.[.[.[.Y.L.L.L.L.L.Y.Y.Y.L.L.L.L.L.L.L.L.' ] 5.Y 1.c.=XiXCXVXBXBXNXNXNXNXNXNXlXjXxXjXjXdX6XqX1X:X4XAXJXMXMXnXfXfXdXfXdXlX6XdXfXjXlXjXjXjXMXCXCXCXCXuXM.>.V ) 5.` ) ] E.E.[.[.[.[.{.{.{.{.[.OX{.OX+X{.3.` a.a.a.a.d.d.l.l.E.6.6.7.;.&.,.-.O.-.-.%.m c x y x x I [ _.s.s.[ l j k e w w r m $.$.$.#.=.*.1.W.'.'.'.'.l.l.x.x.x.x.l.{ ] I.Y.Y.Y.Y.P.K.K.K.L.L.K.K.K.K.' ' ' ' L U ( U N N N > @ v.GXGXNXDXZXzXcXZXZXcXhX6XxXBXBXAXSXBX6X4X,XV.:X4XwXBXCX0X9XCXMXjX6X>X6XhXhX<X<X6XhX6X6X6X6X>XjX6X8X8X%Xc.;.V H H ) H H ` ` ` ` { 6.E.E.W.W.W.7. X]._ E g d d g g / H.).[.].z.0.9.&.X.X.-.O.$.n w w w w w w q x b b j   & w k w w r , #.$.O.X.X.&.M V 6.[.[.[.Y.).(.d.d.f.f.p.p.[ [ (.[.}.{.[.{.{.{.'.'.'.'.E.E.'.W.E.6.E.6.5.8.M M c.-XuX7X3X3X>X6X6X6XdXfXfX6XkXBXjXjXjX6X:X:X4X2X&X$X9.9.&X2XwXpXwX6XhXkXkXkXxXxXxXlXlXNXjXjXkXkXhXeXqXqX0XM.2.C B ( ' ~ P ' ] T ' K.K.T.P.K.P.P.I.] ) ` ` x.x.x.x.l.` { { 6.5.8.2.=.X.O.O.O.O.X.< % - q &   u Z ! ! W x 9 x e x x k 4 5 ..| | $.$.*.!.{.[.[.'.(.s.[ ! Q Q Q ! [ I.).Y.Y.T.U.U.U.T.G.K.G.K.K.K.' ~ ~ ~ P L L L b c k - k C ",
"r r N N N U U U ( ' ] ] ] { { { P.(.Q.!.!.~.Q.P./.t.t.t./._.[.[.[.(.'.z.9.,.O.+.-.-.,...m N c c c c ) 6.K K G b c c c c r n %.,.+.+.+.&.*.5.Q.Y.U.U._._._.|.|.x.x.l.'.'.[.OX[.Y.!.!.L.L.I.Y.Y.Y.I.L.L.L.K.K.K.K.L.{ ) ) z.*XiXmXCXBXBXBXCXNXNXCXCXNXNXlXlXjXjXjXhXqX,X6XqXwXCXGXMXnXnXjXjXdXdXdXdXdXjXjXMXjXfXfXfXCXCXCXJXAX;Xb.;.) 3.6.{ { E.E.[.[.[.[.{.{.{.{.{.OX{.OX+X].3.` x.a.a.a.d.l.l.E.E.E.6.4.;.&.-.-.-.-.-.%.n c x x I I I ~ s.s.[ W l j x e w w r m $.$.$.$.&.%.<.].{.[.[.(.(.l.l.x.x.x.l.{ ] I.Y.Y.Y.Y.Y.L.K.K.L.L.L.L.L.K.K.K.' ' ' ' ' U Y Y V m :.=XJXJXAXSXZXcXcXcXZXzXhX6XkXAXSXAXSXSXCXkXqX&X:XN.M.&X4XuXMXMX9X9X6X4X6XhXhXhX<X6X6X6X6X6X6X6X6XjX9X7X=X#X4.V ;.1.1.) H H H K ` ` 6.E.!.W.W.W.7.].z._ Z h g g h g J._.).'.z.z.c.9.&.X.X.-.O.X.n w w w w w w q q b b j & & w w w w r t #.$.$.X.X.&.M V 6.[.[.[.).[.'.{ a.l.d.f.p.p.s._.(.[.{.[.'.].|.'.'.'.E.E.E.W.W.W.E.W.6.1.;.*.4.#X8X8X5X6X6X6X6XjXMXMXMXCXCXNXjXjXjXjX6X>X4XjX3XM.9.#.%.0.$X=XpXMXMXzXkXxXxXxXxXkXlXNXNXNXNXjXkXhXeX1XeXeX&X9.V C U ( ~ P ' T T ' K.K.T.T.G.K.P.[ [ ) ) ` x.x.x.l.l.{ { { E.5.8.2.&.X.O.O.O.-.X.> % & & $   u v Z E v x e y e x x j 4 5 6 ..| $.$.=.W.{.[.[.[.).(.s.! Q Q S ! ^ P.(.Y.Y.L.U.H.U.H.P.K.K.K.K.K.K.~ ~ ~ ~ ~ L I b c c N n n ",
"r N N N U Y ' ' ' ] ] ] ] { I.I.P.I.I.!.!.Q.Q.^ /.t.t.t./._.).[.).(.'.].9.&.O.+.-.-.,...m N N c c c U ` ` J G z c c c N r n %.,.+.+.,.:.*.5.E.Y.U.U.U._._.(.|.x.x.l.d.(.).[.[.Y.I.I.I.I.I.Y.Y.Y.Q.I.L.K.K.K.L.L.[.{ ) 7.oXmXKXVXCXCXBXBXNXlXNXBXNXNXNXlXlXlXlXlXkX,X4XqX2XM.&XCXMXMXMXMXjXjXdXdXjXjXjXlXlXjXfXdX9XMXCXCXJXJXMX-X7.3.3.6.E.E.E.[.[.[.[.[.{.{.{.{.{.OX{.{.XXW.) J x.a.f.f.d.d.l.E.'.I.W.7.;.&.-.-.O.-.&.%.n c x I I I I L [ (.[ v x x c c r w r m $.$.$.$.&.%.<.].{.[.[.(.(.l.l.x.x.x.x.6.{ I.I.Y.Y.Y.P.P.P.L.L.L.I.I.I.I.L.P.K.' ' ] U U 5.1.V *.*XVXJXJXHXSXZXcXcXcXcXxX6XqXBXSXHXDXSXHXAXBXwX,X>X,.&.,.M.9XAX9X9XjXjX6X6X6X6X<XhXhX6X<X6XjXjX6X<XjXMX7X7XiX.X1.H H 1.3.) ` ` ` ` 3.6.E.W.W.W.W.z.].l._ u h d g g / /.).).'.]. Xc.9.&.X.X.O.O.X.n - w r r w w q 9 v W v j q w w w w w t #.$.$.X.X.&.%.V 6.'.[.[.[.[.'.{ ` l.l.f.d.s.s.[ (.[.[.{.].].].'.'.].].W.E.W.W.E.E.E.5.1.V 4..X-XuX8X5X6X6XdXjXjXjXMXMXMXNXdX6XjXjXxXjXjXMXCX&X9.6 1 : =.9.M.2X9XjXxXhXhXxXxXxXkXlXNXMXMXNXlXlXkXxXeXeXeX4X#X4.V B T ~ ~ T T T K.K.K.K.K.K.P.' ' ( ) ) K x.a.x.l.6.` { { { { 6.2.%.X.O.O.O.-.#.> % & q $ .   i v v x e e e e x x j = 5 6 X.X.$.$.=.W.{.[.[.[.[.(.s.p.! Q S Q ! [ I.I.I.Y.U.U.U.U.P.P.K.K.K.K.K.G.~ ~ ~ ~ L L b c B V C n ",
"N C V B U Y ) ' ' { I.] ] I.E.I.I.I.I.!.Q.Q.I.^ /.i.t.t./._.Y.[.).(.[. X9.&.O.O.-.-.,.#.m N N c c c B ) ` ) G k c c c r r r %.:.+.+.,.,.*.5.E.Y.Y.U.U.P.(.(.|.l.x.l.d.d.(.).).).I.I.I.I.I.Y.Y.Y.Y.I.L.K.K.L.L.{ '.6.5. XtXFXVXnXCXNXBXBXlXlXNXBXlXlXlXlXlXlXlXNXjXqX4X&Xb.>.9.&XuXMXCXNXjXjXdXdXjXjXlXlXNXlXjXjXfXMXMXMXBXJXBXmXoXz.3.6.].W.E.[.[.[.[.[.{.{.}.{.[.}.{.{.}.7.` ` x.x.a.f.f.d.d.I.).I.E.7.;.&.-.+.O.-.-.#.n c x I I I I I [ (.' j x x c N N r r n #.$.$.$.&.%.<.W.].[.[.(.(.l.l.x.a.x.l.l.{ { I.I.I.I.I.P.L.L.I.T.I.I.I.Y.I.I.K.] ] { U U 1.V V c.GXJXJXJXHXAXcXZXZXcXkXhXhXxXAXHXSXDXSXHXBXjXjXwX&Xo.< o.9.&XGX8XMXMXwX6X6X6XhX6XxXhX6X,X6XMXjX6X<XjXjX5XuXGXtXc.H H H 1.1.) ) 3.3.3.7.W.W.W.W.].].z.a.A u h s g f ^ _.).).'.z.z.c.:.%...X.-.X.o.n - - r w w e q 9 v W E v j q q q w w n #.$.$.X.X.%.m M 6.].[.[.[.[.'.6.l.x.x.a.d.d.s.[ [ (.'.'.].].].].].].].].].W.E.6.6.6.6.5.M c.=XiX8X5X5X5X6X6X6X9XfXMXMXMXdX6X6XlXjX6X6XjXAXpXM.%.1 o : 6 :.9.$X;X2X>X,X<XvXxXxXkXlXMXNXNXBXBXBXkXxXeXeXqX0X7X#X4.B U ' ' ' ' ' ' K.K.K.K.' ' ' ( ( ) ` ` a.a.x.l.` ` { { I.6.6.2.%.o.X.X.X.$.#.> & & q $ .     i l x e e e e x x j = > 6 ..X.$.$.=.W.{.[.[.[.[.(.s.p.! S S S ! ! [ I.I.Y.Y.Y.U.T.P.K.K.K.K.K.K.K.K.' ~ ' ' U U U B C C V ",
"C V V B Y ) ) ' ] I.I.I.L.I.E.I.I.I.Y.E.Q.Q.{ W _.u.i.i./._.).[.).).|. X0.&.O.-.-.-.,.m n N c c c c c B ) ) B z c c c r r r %.:.+.+.,.:.*.1.E.I.Y.).U.P.(.(.|.l.x.l.d.[ [ (.(.(.I.{ { { I.Y.Y.Y.I.L.L.K.L.I.I.I.{ 6. X*XiXmXnXMXlXlXBXlXlXlXlXlXlXlXlXlXlXlXlXjXCXCX8XM.&.7 %.9.-XuXCXMXfXjXhXdXjXjXlXlXlXlXBXNXlXNXjXfXMXCXBXVXbXXX7.7.].].Q.[.[.[.[.[.[.{.{.[.}.}.}.{.{.6.` l.x.a.a.a.d.d.{ I.).Y.E.7.>.&.-.O.O.-.-.#.n c x I I I I I L ' L 9 x y y N y y r n #.$.X.$.#.#.*.W.].[.[.(.(.l.l.l.a.a.l.l.{ { { { { { { { { I.I.Y.I.I.Y.I.Y.I.L.{ I.{ ) ) 1.C 1.tXJXJXJXJXHXZXzXZXSXcXhXdXlXZXSXSXZXZXSXAX6X:X4X9X9.7 1 < o.v.iX7XpXjX6X6X6XjXlXlXBXjX6X6X9XMXMX0XqXhXjX9XnXnXiXtX;.;.;.1.1.) ) 1.3.4.7.7.W.7.6.6.l.` A l u a f / H._.(.(.'.l.z.c.c.:.%.X.X.X.X.o.m % % r w w e q x E / E I v i 9 j j k n #.&.&.X.o.o.6 M 8.].].{.{.{.].z.z.x.x.l.d.d.p._ _ { { { 6.l.].W.W.].W.E.].W.W.E.6.5.5.5.2..XiXuX8X9X9X6X6X6X6XwXfXfXnXfXlXhXlXlX6X>X>XfXCX%X:.< o + > , #.,.M.$X&X&X&X:X<XvXxXkXlXjXNXNXBXNXBXzXxXxXeXeX4XpXtX X1.U R ' ' ' ' ' ' ' ' ' ' ' ( ( ` ` 3.l.a.x.l.d.{ { { { I.6.6.2.%.o.X.X.X.$.m = & & q $ 9     i v b c e e e x x w - > ....X.X.$.=.8.{.{.[.[.[.(.d.s.! D S D ! ! _ [ P.I.I.Y.Y.Y.I.L.K.K.K.K.K.K.K.K.' ' ' U U Y C n *.c.",
"m M V V Y ) ] ] L.I.I.I.I.I.Q.Y.Y.I.Q.Q.Q.E.[ ! _.u.u.u._.U.Y.[.[.[.}.XXc.>.o.-.-.-.,., n N c c e c e k B B z k c c y e r t #.:.-.+.-.&.*.1.!.Q.Y.).).Y.(.(.'.l.x.l.d.s.[ _.(.(.P.{ { { I.I.Y.Y.T.L.L.L.I.I.E.E.) z.*XtXmXnXMXNXjXlXlXlXlXlXlXlXlXlXlXlXlXlXlXNXCXCX=X9.6 : 6 %.v.=XCXCXfXjXlXlXlXlXlXlXBXBXBXBXlXjXjXjXMXBXBXAXIXyX X].].].'.[.[.[.[.[.{.[.[.[.}.}.|.].].6.` l.x.a.a.a.d.d.I.I.).Y.'.7.:.&.+.O.O.O.O.o.n c x I I I I x I I x 9 e e y y y y r n #.$.o.X.#.#.*.7.{.{.{.'.'.d.` ` a.a.d.l.l.{ { 6.6.6.{ { { I.Y.I.Y.Y.Y.Y.I.I.L.{ { ] ) 1.1.C 4.GXGXJXJXJXHXZXcXSXSXcXhXxXZXSXSXAXZXZXSXlX&XN.&XM.o.1 1 1 : *.v.=XuXjXjX6X6XjXxXjXBXNXjX6X9XwX9X6XkXqXqXjXfX8XuXGX9.;.;.1.8.3.3.7.2.2.8.5.1.1.) ` K A F F F ! [ [ (.'.'.l.z.z.c.0.b.,.&.o.X.X.X.X.m % % r w q e x E g g g / E 0 i j j k n m #.&.o.o.o.6 6 2.z.W.W.W.].].z.z.z.3.3.l.l.d._ _ ` ) ) ) ` 3.6.6.6.6.] 5.6.E.W.6.1.) 1..X=XuXuX8XMXjX6XjXjXjXjXjXMXMXMXNXlXxXhX6X<XdXCX=X9.6 1 o + : @ > %.0.M.%X&X&XV.>X<XhXlXjXxXjXNXCXNXBXzXkXxXeXeX4XpXuX*X7.Y U U ' ~ ' ' ' ' ' ' ' ( ] ` ` ` l.x.a.x.l.a.` { { { E.6.3.4.%.o.X.X.X.$.m - & & q   9     i v L c e e e e x q - > ....X.X.$.=.8.{.{.[.[.'.(.d.d.p._ D D ! ! _ _ [ { E.Q.I.I.I.P.T.K.K.K.K.K.K.' ' ' T U Y ) V M 9.tX",
"m M *.V ) ] ] ] L.I.I.I.I.Q.Q.Q.Y.(.[.Q.E.{ _ ! s.u.u.s._.P.Y.OXOXOX}.XXc.:.&.-.-.-.,., n N c y e c e k B z j k c c y e r t *.:.-.+.O.&.%.1.W.E.Q.[.).(.I.(.l.l.l.l.|.(._._._.(.(.{ { { I.I.I.Y.T.L.I.I.I.E.E.6.5.XXtXmXnXMXMXkXjXlXlXlXlXlXlXlXlXlXlXlXlXlXBXCXmX=Xb.%.: : > 6 ;.v.uXAXNXlXlXzXlXlXlXlXlXlXBXBXlXjXfXjXNXBXBXVXJXbX*XXX].].].[.{.[.[.[.[.[.[.[.|.|.'.l.6.` ` l.x.a.a.a.d.d.'.).).).'.7.:.+.+.O.O.O.O...n c I I I y x x x v x x e e y y y r r n #.X.X.o.#...*.7.].{.{.{.'.l.3.` a.a.d.l.l.6.6.6.z.l.6.3.{ I.I.Y.Y.Q.Q.Y.Y.I.I.{ ] ) 1.1.;.4.#XJXGXJXJXSXHXAXZXZXZXZXcXcXZXAXSXAXZXZXZXdX&XM.b.&.: 1 o 1 # 5 :.b.7XjXCXMXjX6X6X6XjXjXjX9X9X9XuX0XkXhXhXxXjX9XuXGXv.4.;.1.8.8.3.6.;.;.;.V V V H K G F F J ` a.` ` 6.z.7.7.4.0.9.9.9.,.-.O.O.X.X.X.m * % w w q x I / g g g g g g i i j - 5 6 ..o.X...o...6 *.2.1.1.5.1.1.1.;.;.;.;.3.z.|.l.6.6.3.) V ) 3.6.6.6.5.] ) 5.5.5.1.V ) 2.=XiXuXuX9XMXNXjXjXjXjXjXMXMXMXMXhXhXhXdXdXjXMXnXb.6 1 o o + * + : 6 *.9.#X7X;XV.&X>XhXxXxXjXjXjXNXNXlXlXkXxXxXxXqXwXpXiX.X8.Y U ( ~ ' ' ' ' ' ' ] ] { ` 3.l.l.x.l.x.l.` ` 6.6.6.6.6.7.2.%.o.X.X.$.$.m - $ & q 9 9 9 i a E L I e e e x x w - > ....X.X.$.=.8.{.{.[.[.'.'.'.l.d.a._ _ _ _ J _ _ { E.E.E.I.I.I.I.P.T.K.K.K.' ' ' ' U Y Y V V 2.#XuX",
"%.*.;.;.) ) ] ] L.I.I.I.I.Q.Q.Q.Q.'.'.'.I.[ _ ! f.f.f._.(.I.[.OXOXOX}.XXc.:.&.-.-.-.,., n N c y e N c k B z j b c c y e r t *.:.-.O.O.&.%.1.7.!.E.[.[.'.I.'.l.l.l.|.|.|.).).(.(.(.d.{ { I.I.I.I.T.T.I.I.E.E.E.6.7.*XiXnX9XMXjX6XjXlXlXzXlXlXlXlXjXjXlXNXBXDXDXAX7Xv.%.6 > > > : 6 0.iXJXBXNXBXlXzXlXlXlXlXlXlXlXlXjXfXjXNXlXjXfXmXFXtXoX X].].].[.[.[.[.[.[.[.|.l.z.l.` { ` ` x.l.x.a.a.d.l.'.[.).).'.7.:.O.+.O.O.O.O...n c I I I y x x I v v b e e e y e r r n #.X.$.X.X...=.0.W.].].{.].z.3.3.3.` l.l.l.l.6.z.z.z.z.6.6.E.I.Y.[.[.[.Q.Q.E.{ { ) 3.8.;.;..XFXJXVXJXSXAXSXSXZXcXcXZXSXSXZXZXSXSXSXZXZX5X&X%X,.: 1 1 1 + + @ 6 :.v.&XCXCXNXjXNXBXjXjXjX9X9X9XpX9XxXxXxXhXqX6XjXMX7Xv.:.;.1.1.V V V M V M C V H K G G ` l.l.3.1.;.*.;.:.:.:.:.:.&.,.-.O.O.O.O.O.-.m - - w w q I g F.g d d F.F.g h i j & - > 6 ..X.< ....6 ..#.m *.m m m m 6 6 6 M z. XXX].|.|.l.` H ) 6.6.W.W.E.5.5.5.5.1.V V 2.c.iXuXuX8X9XjXjXjXxXxXjXjXjXjXfXfXjXzXzXlXNXNX3XM.%.1 o + O O + + : : , :.#XiX8X&X&X>XdXxXjXjXjXxXNXNXlXkXkXxXxXxXBXwXpXuX=Xv.1.V ( ~ ~ ' ' ' ' ) ] 3.3.6.l.l.x.x.l.l.3.` 3.6.7.8.7.7.7.2.%.o.X.O.$.$.#.= $ q q 9 9 i a E E E I x q e x x w - > ....X.X.$.=.8. X{.].W.W.].].l.l.l.` ` ` J J J _ ` 6.6.E.I.I.T.T.Y.T.K.K.K.' ' ' ' Y 1.1.M *.v.-XuX",
"c.%.%.2.1.) 5.] E.I.I.I.Q.Q.Q.Q.E.E.E.I.] ( _ a.f.f.x.l.'.'.OXOXOX}.{.XX0.:.-.-.,.-.,., C c e x y e k B H ` G 4 c c c N r r m :.,.+.&.&.=.2.7.W.W.W.E.E.E.6.3.3.` 6.l.'.[.|.|.[.'.d.{ 6.E.!.!.Q.L.I.I.I.Q.6.3.z.*X=X-XuXfXjXjXBXlXlXzXzXzXlXlXlXlXjXBXDXNXBXNX8Xv.:.m > > @ : 5 : %.#XVXJXNXjXBXBXBXBXNXlXlXjXjXjXdXdXdXdXjXjXjXuXmXFX*XXXz.].].E.[.{.[.[.[.[.'.l.3.` ` { ` l.l.` ` ` ` 3.l.'.(.).).E.7.:.&.O.O.O.O.-.6 r c I x e x x x Z ^ W v x e e e w w r r #.X.X.X.X.$.:.0.0. X X].].z.c.4.3.3.` 3.l.l.z.z.c.c.c.7.6.{ I.Y.[.[.[.Q.E.E.6.5.1.1.;.;.b.-XJXHXHXSXAXAXSXSXZXZXZXZXZXZXSXSXSXSXZXSXBX6XV.,.7 @ o o O o O + > m %.v.nXMXfXBXMXjXjXfX9X9X9XnXnXwXqXhXhXxXxXjXjXMXJX#X%.5 C n n V 1.;.;.M n V 3.` l.l.l.x.:.%.#.&...X.X.X.O.O.O.-.-.O.O.O.O.O.O.O.m $ - k q i / F.d d d F.F.d g g i q k = : , $.............#.#.#.#.#.#.#.} < 6 #.0..XXX].}.@Xl.) B ) 5.].{.].W.W.W.8.5.1.V 5 2.FXuX8X5X9X9XjXjXjXjXjXjXdXfXfXjXjXhXlXjXjXBXNXv...1 1 o o O O + + > @ > M :.=XmX=X3X3X6X6XjXhXxXNXNXNXNXlXzXxXxXxXqXqXwXuXiX#X2.C ( ' ( ( ] ( U ] 6.6.l.l.x.l.l.l.l.3.3.4.4.8.8.8.7.8.2.2.&.&.O.O.$.$.#.r & q q 9 . E E h g f v I x x x x w w r #.$.X.$.&.:.0.~.~.W.W.W.7.7.7.z.z.3.` K ` ` ` _ G ` ) ] E.I.L.I.T.T.K.K.' ' ' ' ) Y 7.<.m 9.M.CX0X",
"$X:.%.2.2.) ) 5.L.L.L.L.!.Q.!.E.E.{ I.I.{ [ d.d.l.x.x.z.].].+X+X}.{.XX.X0.,.O.+.-.-.:., n c x I c c c H 3.x.K z c c c N t t m =.-.O.o.&.=.:.8.8.8.5.5.3.3.1.1.H V ) { { I.(.(.d.'.{ { 6.W.!.!.!.L.L.L.{ 6.5.7..XtXiXnXMXMXjXjXjXlXlXzXzXzXlXlXlXNXjXNXBXBXAX9XM.2.M 5 > @ + @ > > M 0.=XVXAXBXNXBXBXNXlXNXlXlXlXlXjXdXdXjXlXlXlX8XnXmXtX.Xz.7.].'.'.[.'.'.'.'.'.6.` ` ` ` ` 3.l.3.3.3.3.3.l.'.'.[.[.W.7.:.-.O.O.O.-.&.#.r c I x e x x v E Q E Z i x x e w w r > ..X.X.X.X.&.,.0.0.0.0.0.0.0.9.9.4.;.1.3.6.6.3.7.z.c.4.8.5.] I.I.Y.Y.Y.I.E.5.5.5.5.1.;.0.%XmXHXSXAXSXSXSXSXSXSXSXSXSXZXSXSXSXSXSXZXZXdXM.9...@ o o o O O O + > 5 6 :.#X-X8XCXMXCXMXfX9X9X9XfXnXfXhXhXxXxXxXkXlXBXjX#X;.5 M 1.1.6.7.3.1.M 5 C ;.` ` 3.3.4.:.#. .X.X.O.O.O.O.O.O.O.O.O.O.O.O.O.O.O.6 $ & q 9 v g g d d d ^.F.d d g v j = = > m #.......#.#.#.#.#.#.#.#.#.$.} } ..&.4. XXX}.}.|.d.` G ) 6.].].].W.W.W.5.8.8.M M .XmXuX9X6X9XwXjXjXjXjXjXjXdXjXjXNXlXlXdXdXNXVX;X:.: 1 + O O O O + + * * > 6 *.v.7X7X9X9X9XjXjXhXhXhXNXNXNXlXkXkXxXxXkXkXjXMXpX=Xv.;.( ( ( ( ] ) U ) 6.7.z.l.l.l.l.3.;.M M *.*.*.<.*.=.*.=.=.$.X.X.X. .$.e.> $ $ 9 9 9 E g p g g h E x x x q q - r %.#.......%.=.<.<.<.<.*.*.*.*.*.*.;.H 3.l.` ` ` ` ` ) ] E.L.I.Y.K.T.K.K.' ' ) ) ) <.2.*.:.M.=XCX9X",
"uXv.:.:.4.1.) 6.] L.L.L.E.!.!.E.6.{ { (.(.(.l.l.l.x.z.c.c.XXXXXXXX X.X.Xv.,.-.O.O.-.&.< n k x I c N B ` x.x.x.` U c c y r r m #.o.o.o.o.%.=.*.1.V V V C M M M M C ) 3.{ { I.{ [ { { { W.{.W.Q.Q.L.L.L.] ) 3..X*XuXCXCXCXNXjX9XjXlXlXzXlXlXlXlXNXNXjXNXCXBXCX%X>.%.5 * * @ + + @ > 5 *.c.-XJXJXnXNXlXNXlXNXlXlXlXNXlXjXjXlXlXlXNXfXnXmXmX*Xc.7.z.W.'.'.E.I.E.'.'.3.3.` ` ` ` l.l.x.4.4.4.7.z.].].'.].W.0.:.-.-.-.O.-.-.#.n c x x x x v E Q a a f a v x q w w > > ..X.O.O.O.O.-.,.,.,.,.,.:.:.&.&.:.:.;.3.6.6.6.3.z.7.7.8.8.6.E.Q.I.I.I.I.] 5.5.1.1.;.4.v.8XSXSXDXZXZXAXSXSXSXSXSXSXSXSXSXSXSXSXSXSXAX&X9.o.7 1 o o O O O O + @ > 6 6 9.M.-XCX9XCXMXjXdX9XdXfXfXdXjXhXhXhXhXxXkXkXjX9Xv.*.;.7.z.7.].z.4.M * n H H 3.3.3.4.:.$. .O. .O.O.O.O.O.O.O.O.O.O.O.O.O.O.X.5 & & & i E g d F.F.F.^.F.d d g W q & > t m #.e.#.#.#.#.#.#.#.#.#.$.$.$.X.X.$.=.2. X+X@X|.d._ d.G ) 6.W.].].W.W.W.5.7.1.M 9.iXmX9X9XjXjXjXqXwXjXjXjXjXjXjXlXNXNXBX6XjXJXNXb.7 o + + + O O O O + + > > > m :.M.uXuXfXjXjXjXhXhXqXjXMXNXNXlXkXkXkXzXkXjXjXCXuX#X9.) ( ( { { ] ) B { 6.l.l.l.l.z.z.M 6 6 #.m #.#.#.#.#.m ..} } | | | | , > $ $ q 9 v a g p d g g g v v x q q - t #.#.........#.m m m m t t m m m m m V 4.z.l.l.d.{ ) ) ] I.L.K.P.T.P.K.' ' ) ) 1.1.2.2.=.v.=XpXCXqX",
"CX2X9.*.2.8.1.5.] L.E.E.E.E.E.6.5.3.6.'.(.(.l.l.l.4.0.0.0.v.v. X Xc.c.v.9.,.O.O.-.-.,.< n w e c k B ` l.x.x.x.x.` U c e r t t 6 ..o.....#.#.%.%.M m m 6 6 6 6 6 M 1.7.E.I.I.{ [ _ ` { '.{.{.{.{.Q.L.E.6.) 7.*X=XuXMXCXCXMXNXjXjXlXlXlXlXNXNXNXNXMXfXCXAXMX&X9.6 6 > @ @ + + + % > > 6 =.v.iXGXnXCXNXNXNXMXMXMXjXNXlXjXjXlXlXlXlXBXlXNXKXtX.Xz.3.3.6.6.6.6.E.E.6.3.;.` ` ` ` 3.3.4.>.>.:.2.2.6.8.5.8.8.2.&.-.O.O.O.-.=.#.n c x x x I E / f s s g f a v x w w > , &.-.-.-.O.O.-.-.-.-.-.-.&.-.O.O.&.&.;.3.z.l.l.6.].7.8.8.7.E.E.Q.I.I.I.L.] ] 1.1.*.;.9.&XCXSXZXZXSXcXzXzXZXSXSXSXSXSXSXSXSXSXSXSXSXNXM.o.7 : # O O O O O O + @ @ 5 6 *.9.%XCXMXMXMXjXdXdXdXfXfXfXlXjX6X<X1X1XqX<XkXAX=Xc.4.7.7.7.].].7.V 5 C H H 3.3.6.4.:.$. .O.O.O.O.O.O.O.O.O.-.-.O.O.O.O.O.X.5 - & j v / g d F.d F.^.F.F.d g W & & n m m #.#.#.#.#.#.#.#.$.$.=.$.$.X.X.X.#.#.2.].}.|._.! Q [ A ( E.'.'.].W.W.W.7.5.V ;.%XGXMX6XjXjXjXjXqXqXjXjXjXjXjXjXlXBXBXjXjXBXAX&X>.: # + + + O O O O O + > * % > m 4.=XuX8X9X6X6XhXhXqXkXMXMXlXlXkXkXzXkXxXhXjXMXjX:X#X7.) ) 6.6.6.{ B ( ` l.l.z.].].z.%.6 6 ....#.#.#.} } , , < < | | | | , > $   q x E a p p d d g g v v v x w w r m #.........#.#.m m m t e.e.e.#.m m *.7.].l.l.d.{ ) ( ] I.K.K.P.T.K.K.' ' ) 1.2.2.2.:.2.7XuXMX4X4X",
"CXCXM.;.2.7.8.5.] ] 5.] ] ] ] ) 1.3.6.l.(.(.l.|.4.9.,.,.,.,.,.,.:.:.,.,.,.+.O.O.-.-.,.6 m k e x c H l.x.x.x.x.x.l.) B c w r t m ............#.#.#.#...6 ......#.m <.!.E.I.P.[ [ [ _ { '.{.{.OXOX{.E.E.6.1.c.=XiX8X9XjXNXNXNXNXNXlXlXlXlXNXNXNXCXCXfXAXJX7Xb.%.7 5 * # + + + % % + * > m 2.%XuXGXCXCXCXMXMXjXfXfXMXjXdXfXjXlXNXlXZXlXlXAXKX*Xc.3.) 3.6.6.E.W.E.6.H ;.` ` ` ` 3.3.;.%.%.#.%.M M V C M #.#.....X.X.X.$.%.m n c c c I ~ ^ f g d d p g g a x q w > , &.-.-.-.O.O.O.-.-.-.-.-.-.O.O.O.-.&.:.4.l.'.(.'.6.6.5.5.5.E.I.I.I.I.I.L.] 5.1.1.*.:.M.3XBXZXZXZXSXzXdXdXzXSXSXZXDXSXSXSXSXSXSXSXBX>X,.7 : @ O O + O O O O O + @ > 6 %.*.v.GXGXMXMXjXdXdXfXjXjXjXNXfX6X<X1X1X1X1X<XjX8X%Xv.4.8.7.W.].W.V 5 C ;.) { { 3.3.;.#.|  .O.O.O.O.O.O.X.X.-.-.-.$.$.$.$.#.5 - & x E f g F.^.^.r.^.F.d g g W j w V V m m *.m m m m m *.=.=.&.$.$.X.$.$.#.m 1.].|.s.^ / f Q v ' '.[.[.{.W.W.6. X;.5 b.nXMXjXjXxXzXzXkXjXkXkXjXjXjXjXjXlXBXBX5XCXAX;X9.7 : # + + + ; O O O O % * * * 5 > %.b.-X8XwX6X<X6XhXhXMXMXNXlXlXzXzXzXxXkXkXxXjXjX6X-X X5.) 6.3.6.6.( G ` l.'.'.].6.3.%.....X.X.X.$......., , , , < | | } m =     x v E a p d d d g g a a v x q w r m m 6 6 ......e.t m 6 ..} } } } , m *.7.].'.'.d._ ( ( ' I.K.K.T.K.K.K.T ' 1.2.4.4.,.:.v.CXpXMX:X>X",
"MXAX2X9.:.8.8.Y Y ) ] ] ) ) ) ) ;.;.` d.(.(.'.].4.9.,.-.-.-.-.-.&.&.&.O.+.+.@.@.+.-.,.6 m k c c ( 3.x.x.x.x.x.x.z.6.] B w w t m ................#...............m 1.W.E.I.[ [ [ [ _ ` '.{.}.OXOX{.W.W.7.z.*XiXCX9X9XjXjXMXMXMXMXNXlXlXNXNXNXCXCXCXMXGXCXM.>...7 : @ # O + O % % O * > m *.c.tXGXVXCXMXMXMXnXfXfXMXfXdXdXjXlXlXlXzXhXhXDXJXbX.X3.1.3.6.6.W.].W.6.H 3.3.3.6.6.3.3.%.6 6 ..6 , , m , , , , } } | | } ..#.m r w c c L ^ / g p d r.d d g a v x w r , &.O.-.-.O.O.O.-.-.-.-.-.O.O.O.O.-.-.:.4.l.(.(.(.I.E.E.6.E.E.I.I.Y.I.I.I.] 5.1.2.:.v.2XNXBXZXZXSXSXzXdXdXzXSXSXZXDXDXSXSXSXSXSXSXjXN.o.: # # o O % O O O O O + @ : , %.m 0.mXJXCXMXfXdXdXjXlXlXlXNXfXdXdXxXxXxXvXvXlXMXiX*Xc.3.z.].].7.V > n 1.3.{ [ { 6.1.#...X.O.O.O.O.O.X.} } } } } , , , , , > - & c W g d F.d d d r.F.d g g W j k N n r t t t r r > r n m m #...o.o.o.&.%.M H '._.Q f t.t.t.Z [ [.[.[.[.[.!.5.].M 6 %XVX5XjXxXkXkXlXkXkXkXkXjXjXjXjXjXlXlXlX6XAXMXb.7 # # @ + + + ; ; O O ; % % % > > > 6 *.$X7XMXjX6XhXxXhXBXCXMXlXlXkXzXzXxXcXcXlXhXhXkXMX#XW.5.1.` 3.{ ` G _ { '.'.].'.3.%.7 ..X.X.X.X.} ..} 6 , , , , } } ..M k .   x L E a s d d d g h a a i x q w r m m 6 6 6 ..} } } , , } } } , , , m *.7.].'.(.(.W ( G [ P.P.G.H.G.G.' ' ] 8.4.4.,.:.,.&XGX0XwX>X,X",
"eXCXpX#X4.2.2.) ) ] 5.5.] 5.5.6.1.H ) { '.|.|.].4.,.,.-.O.O.-.-.,.-.-.-.+.@.@.@.-.-.,.6 n n c U 3.x.x.x.x.x.x.x.z.].E.Y c w r m ........o...X...X...............m 5.W.E.I.[ [ [ [ _ [ (.[.{.OXOX[.].6.7..XtXmXCXwXjXjXjXNXMXnXnXNXlXNXNXNXCXCXCXCXVXCX=X9.%.6 7 # # # # % % % % % % > n m 2..XiXCXCXMXMXMXnXfXfXMXdXdXdXjXlXNXlXxXxXhXlXDXKX*Xc.3.7.7.W.].].].6.H ;.3.6.l.l.7.4.%...} ...., , m , , } } } } } } } ..m m r w c L ~ J.f g d r.r.d d d g I x e r > &.O.-.-.O.O.O.w.-.O.O.O.O.@.@.@.w.-.:.4.l.(._._.I.Y.'.Q.E.I.I.I.I.I.L.] ] 5.8.2.0.=XCXAXBXcXcXcXcXcXhXzXZXSXSXDXSXSXSXSXSXSXDXDX>Xb.7 1 : + O ; ; ; O O ; + + + % > m 6 2.=XVXGXnXfXdXdXhXzXzXlXNXmXfXlXzXzXxXxXxXzXNXmXiX.Xz.7.].W.W.1.n 5 H ` [ [ d.l.3.%...X.O.O.O.X.X.} < : * * > * % + % * # - & c ~ / g d d d d d d d g / W j q w - % - - - - - - - = = > , ..o.o.o.&.%.M G s.u.f g t.t.t.E P.[.[.[.[.[.W.5.5.M :.8XNX6XxXxXxXhXhXkXkXkXkXkXjXjXjXhXfXjXfXCXCX&X>.: # @ + # # + + O O O ; % % % * > > m 6 9.#X9XjXhXhXxXhXBXBXBXlXlXlXzXzXzXcXcXxXhXxXkXMXyXXX8.) 3.` ` ` ( _ ( { E.].{.W.6 < ..X.X.X.X.| , , , , < , < < , 6 n 4   i v W E a g g p d g h h a Z L c k n m m 6 7 7 , } } } , 6 ....} } , , m *.7.].'.(.[ E W A [ P.G.G.G.G.G.K.] 5.7.4.,.:.:.,.uXCX4X6XqX,X",
"eXeXCX2X9.=.2.8.5.6.6.6.6.6.]. X4.;.H 6.|.}.{. X9.,.-.O.O.-.,.,.-.-.-.-.+.w.@.O.w.,.,., n k c ( l.x.x.x.x.x.x.x.x.|.].] N w r C m #.#.#.#.#.#.#.#.#.o.o.X.X.X...m 1.E.I.P.^ ^ u.u.^ [ (.}.{.[.OXQ.].6.7.*XFXuXMXjXjXjXjXCXCXNXNXNXNXNXNXNXNXCXCXMXGXuXb.%.%.6 # # # - * * - - % % % * > m %.0.#XmXVXCXMXnXnXnXfXjXfXdXdXjXNXNXlXxXcXcXjXNXJXnX*X7.z.z.].]. X].7.C H ` ` ` 6.3.2.%.6 } } ..} , #., , } } ....} } e.m m m r r N U P./ g d d r.r.r.d d g I x w w r &.-.,.,.-.-.-.-.-.-.-.O.@.@.@.@.-.-.:.3.d._._._.P.(.'.'.I.I.P.P.P.P.L.] 5.5.2.2.v.7XJXSXBXZXcXvXcXcXZXSXSXSXSXSXSXSXSXSXSXZXcXlXV.,.: 1 # + O = $ ; % % # # # + > : m 6 =.#XiXGXnXfXfXdXlXzXzXcXDXVXNXNXBXzXxXxXvXhX6X8XnX*Xc.7.].W.W.8.C 5 C ( W ! s.d.` M 6 o.O.O.X.$.#., : + + % % % % % % - O 5 5 k ` [ g p d d d d d d g / A j & & & - w w q q q q w w - - > 6 #.#.%.%.H G _ u.i.t.t.r.r.t./ (.OX[.[.[.[.W.6.V M b.8XlXdXkXlXhXqXqXjXkXkXkXkXjXjXdXdXdXfXfXAX8Xv.%.: @ @ O @ # # + O + # # % O % * + > m 6 %.b.7XMXjXjXxXxXBXBXBXlXlXlXzXzXcXcXzXhXhXxXxXjXiX*X7.) 5.{ ' d._ ( A G ( 6.E.7.6 < ..X.X.X.X., , > > > > : > < > > = &   j W [ Z s g d p p f s h a E _ ( C n m 5 > > > , , e...6 6 6 ..} } } , t *.].].(._./ a A A [ P.H.G.G.G.K.' ] 8.0.0.:.&.,.,.CXwX3X4XjX>X",
"jXwXBXCXM.&.2.8.7.W.].].].].]. X3.;.` 3.E.W. Xv.,.O.O.O.O.O.,.-.O.-.-.,.,.+.-.,.,.,.9., n k c G x.x.x.x.x.f.x.x.x.|.|.l.V w r V C M m m m m m C M m m #.%.X.X...6 V { (./././.t.i.u.s.(.[.{.OX{.W.].7.3.mXnX6XxXhXjXjXjXjXlXlXlXlXlXNXgXDXNXgXDXJXGX$X:.%.%.> @ = = = = - - % - - * * @ > 6 ;.4.iXFXFXFXmXmXNXlXNXlXjXdXfXjXNXBXlXzXlXdXlXDXNX-Xb.4.z.z.7. X}.6.B B G ` ` ` 1.;.6 , } ..} } } ..< , 6 6 6 6 , , #.t t n r r N U P./ g d r.r.r.r.d g E L c k w w , 6 #.M m m m #.$.X.X.O.+.+.+.@.@.O.:.z.(._././././.P.[ [ [ [ P.U.U.K.] 6.2.:.b.$XAXLXAXlXSXSXvXxXcXSXSXDXDXDXSXSXSXLXSXAXlX<X&Xn.%.: 1 + * % % % O # @ # # @ @ + : > 6 %.0.-XIXVXfX9XBXAXlXlXBXNXNXCXNXBXNXfX6X6XdXfXVXAX8XM.4.6.]. X8.m * k ( ! Q i.u._ B n #.-. . .X.#., % O % $ $ % = & ; 4 V :.c.b.4.3.W g d ^.^.d ^.g s Z G 3.3.3.H n - q & q j j q q q w 5 m %.*.*.H ) _ ^ t.t.t.r.r.t.t.^ [.[.Q.Q.{.Q.6.3.5 ;.;X-XgXDX6XdXfXjXjXjXdXjXjXNXjXjXNXNXjXjXCXJX=X%.: # @ * % % % % ; + # # # # + + + * > m m m :.$XGXJXMXdXNXjXlXlXlXBXzXlXzXzXzXzXzXlXlXxXjX9X-Xc.Y E.L.Y.P.[ W A A G G ) 1.m ..X.X.X.| | < @ - j & & % * * > O ; - ; 4 G D Z h g g d g s s h u A { 1.5 + + O O % - % > > : @ @ > , } } } } , *.].|._.f g s u W [ H.H.J.R.G.' Y 8.0.9.,.,.=.,.M.wXpX4X4X4XqX",
"jXjXBXGXsX&.=.2.7.W.].'.W.W.W. X3.;.` { E.W.W.0.:.+.+.+.O.O.,.-.-.O.-.-.&.&.&.:.:.=.:.> = 4 B ` x.x.x.x.f.f.f.|.x.x.z.z.;.n r n n N N N N t r n n n n m #.......6 H d._./.^.^.g t.i._.(.[.{.OXQ.W.].z.c.nXfXdXhXhXjXxXjXlXlXlXlXgXBXDXgXNXDXnXDXMX=X0.=.%.m > > = = = k w - - = = - * # # > M *.v.-XGXmXnXmXNXlXlXlXlXlXlXlXNXNXlXzXzXxXlXBXBXfX%Xb.z.c. X].].].B A A G ( ` ) 1.M m , } } } | , 6 6 6 m m m m m t r t t % w V 5.[ f d r.r.r.r.r.d g E b k & & w * > r - - k k * > < | O.-.+.+.+.w.-.>.` [ /././././.^ [ [ P.P.P.U.U.K.] 8.2.9.M.9XBXSXSXAXSXSXlXcXDXSXSXSXDXSXSXSXLXSXAXAXBX:XB.%.7 @ + + - - = - ; # * # # @ @ @ : > > m :.#XiXGXnXMXBXDXBXBXZXDXBXCXNXCXNXMXdXfXfXfXNXNXfX&Xb.7.7.7.7.*.n k b ! S f i.! _ B V $.O.$.$.#.> + O - - - - - ; k 1..X#X$X$XM.b.l.! g d d d d p s _ 3.*XFXtXoX4.N k q 9 i x q e q q = C V ) ) _ ^ / t.t.t.r.g t.t.^ [ Q.[.Q.Q.{.W.] C M b.gXgXgXNX9XdXfXdXfXlXlXlXjXjXlXNXBXjXdXjXBX8Xc.7 # @ @ % % - - % # + # # # # # + + * > , m m =.b.=XCXVXCXNXlXlXzXBXBXBXBXzXBXBXBXzXlXlXlXjXdX8X*X1.E.L.Y.U.~ W A F A G G H M ....X.X.X.} , - & j j q $ % % $ % > 5 5 7 K J ! h s d d g p s i u A K M : 1 + % O $ $ $ $ % + # * > 6 6 } } , %.H ` _ E s p s Z W P.H.J.R.G.' ] 1.0.0.,.:.,.,.B.:XwXwX4X4X4X4X",
"lXNXMXJXeX,.=.2.7.7.W.E.E.E.W.].4.;.) { P.[ { l.>.o.O.O.O.-.-.-.| | < < : : : : , < : + # ; G x.x.x.x.x.x.f.f.x.x.x.c.z.2.C n r n k N N N r w r w r r m 6 6 ....K _ u././.^.^.g i.u._.'.{.{.{.{.].W.XX*XnXfXdXhXxXxXjXjXlXlXlXlXgXDXDXNXNXNXDXmX=X9.%.%.m > > 5 5 5 k n k w k n k 5 - # # @ 5 6 %..XFXGXnXmXDXgXgXgXlXlXlXNXNXlXjXZXZXzXlXBXDXNXVX%Xc.c. X].W.}.G A z l A A ( ) V m , , } } } , : * * * * * * * % O % > = n 1.3._ Q g r.r.r.r.r.d a A G V V V 1.m , % $ & & & & ; o < X.,.w.,.,.,.>.3.s././.^././.J.H.~ P.P.P.T.U.R.' ] 8.9.v.4XJXBXBXAXSXSXZXSXSXZXDXDXDXSXSXSXSXHXAXBXAXBXN.&.7 : @ @ * - r n n - = 5 @ # * @ : > : > > %.9.v.mXVXAXNXMXNXBXBXAXBXNXjXjXjXMXlXjXjXdXdXfXlX6X-Xz.6.8.7.8.V k 4 Z a Q i.Q ! _ H M %.;.;.%.> % % $ & & - & ; C .XtX-X&X&X&X%XoX|.i.d d d d s ^ @XyXFXFXaXIXaX8.$ q q q e e e q q w B ( [ u.i.t.t.r.r.t.g / ^ H.P.'.E.[.[.Q.{.W.V 4 4.-XVXgXfXfXdXdXdXdXfXjXlXlXjXdXlXBXNXdX9X9XnXb.%.1 # > @ # - - - - - % # # # # # % % % * > m m m ;.b.-XAXJXNXlXzXBXBXZXZXBXBXBXBXBXBXzXlXlXlXhXfXiX8.] I.L.P.~ W D D A D A G H M ....o..., , - q q q q & & - C ~.*X=X;X;XoXoXf.a s g d d p s Z _ z.oX%X#X#X.X*.= $ $ $ $ O O + % > 5 m m M M H G F a h h p g E ~ P.H.J.G.K.' 5.7.0.,.,.:.:.0.2X0XpX0X4X0X4X2X",
"gXDXjXGXCXM.:.:.8.7.6.E.E.E.Q.W.0.;.( [ /./ ! p.K %.+.O.O.-.-.-.} < + + % % O O O o o 6 M 5 3.x.x.x.x.x.x.f.x.x.x.x.z.c.c.c. X X) N r N N y y r N r n n m m M H p.i.i.t.g ^.^.^./._.(.[.{.W.{.{.W.7.oXtXnXfXlXhXxXjXjXlXNXNXlXlXgXDXDXNXNXDXAX8Xv.%.6 #.6 > 5 n n n n n n k n N n n = * # @ > 6 5 4.=XmXmXVXNXgXgXgXlXlXlXNXNXNXlXZXZXzXlXBXDXVXHX-Xc.7. XW.6.}.G A l l l Z A _ B C 5 > , , , , r w w w - - - - = % n 1.c..X.Xc.a.! f d r.r.r.d p a ! l.XXoX*X#X~.=.* - w     j ; O : ..,.,.,.,.4.l.d._./.^.F.F././.H.G.K.K.G.G.R.K.] 6.4.0.$XCXJXlXfXBXDXDXZXSXSXZXDXDXDXSXSXSXSXAXDXAXAXwXn.7 7 : @ = = = n N n = 5 5 = = = * > > > > > 6 %.:.=XnXJXCXdXlXNXjXDXBXlXjXjXlXNXNXfXfXdX5XdXlXlXnX.X7.2.7.~.8.B j u u Q i.Q Z S _ J J ` 3.1.C r w & $   & & O C .XyX*X%XM.N.&X*XoX_.f g g a ! |.yXtXmXiXiXFXyX1.- w q q e q 0 i x b ( u.u.t.r.r.r.r.r.t./ H.P.I.E.{.E.'.{.E.W.W.N C .XmXnX8X9X9XfX6XdXdXfXdXdXjXlXjXNXBXjXfX9X3X&X%.7 @ : 5 = - - w w = - - * # # # * * * % * > , m m 6 >.M.CXJXNXBXzXzXBXBXBXBXBXzXBXBXBXBXzXlXlXzX9XGX8.) !.L.I.[ ! D D D D D D J H M M #..., > * w q q q q q & n  XiX8X8X;X%XoX@X! a g g d p s _ x.oX;X;X=X=X#X XC $ & q $ $ $ + % > 5 C V G J A Z a s h h h a ^ P.K.G.G.G.K.] 7.0.9.:.:.:.,.#XpXpXpX4X4X4X4X2X",
"gXSXgXNXJX0XB.=.2.8.6.E.E.Q.Q.W.0.1.( ^ /.t.t.i.J K &.-.O.-.-.$.e.t r w e e e w - % > c.#Xb.%XM.x.x.x.x.x.x.x.x.x.c.b..X=XiXFXFX+X) c c c c c c N N N N C B H _ i.t.t.t.t.^.^././._.[.[.[.W.{.{.W.7.*XGXnXfXlXhXxXjXjXlXNXNXlXlXgXDXNXDXDXNXJX&X,.o.#.#.> 5 C n n n N N n k n N N n n > = > > > m *.c.tXJXVXmXmXNXlXlXlXfXlXNXBXlXlXlXlXlXZXDXNXJXmX.X7.z.].W.]._ D F u u Z Z A A B N n > > , t N c e e e e e w w n 3.oXtXmXPX%XoXf.i.s d r.r.d s Q l.oX*X-X-X=X=X0.t % & q q q & ; @ m :.,.,.9.l.f././.^.^.^././.H.H.K.K.T.R.G.K.' ] 7.0.v.2XAXMXNXNXlXlXDXZXZXDXDXDXDXDXDXDXDXAXBXZXHXAXN.&.< 7 : * = n n N N n = 5 n n 5 k - > > > > > 6 %.%.v.-XGXCXjXlXjXdXjXjXlXlXlXlXlXlXfXjXdX6XdXlXBXCX%Xc.2.8.].7.) G l i a i.i.a a i.i.i.i.p.{ ) B N w & .   & O * 1.oX*X=X&XN.V.%X*X|.[ E a Z l.yXtX-XpXVXGXaX Xn O w w e q 9 i h g / /.^.^.r.r.r.^.r.t./ H.L.E.!.!.{.{ E.'.E.W.6.n 2.-XVX5X9XjX9X9X6XdXjXjX6X<X6XlXNXBXNXjXCXCX;Xv.5 5 5 5 = n k w k k k w - - * # % * = * + % : > m m 6 #.9.7XJXAXBXzXzXBXzXzXBXBXzXBXBXBXBXBXzXzXZX6XGX4.) !.L.I.[ _ D D S S Q ! J J K K M M 5 > w w w q q 9 i 4 B .XtX=X>X;X;XPXUXf.Q a g h p f |.*XbX-X;X2X2X=X#XC $ $ $   $ $ + * n N G A S S s s s p h h a E H.K.H.G.G.' ] 5.7.v.9.:.:.:.9.$XwXwXeX4X4X4X4X4X",
"gXSXgXjXJXGX2X:.2.2.8.E.E.Q.[.Q.~.1.( ^ t.t.t.t.p.K >.&.&.&.=.=.t r e e e e e q w = *.tXmXNXgX;Xb.x.x.x.x.x.x.x.x.M.%X;X8XnXmXaXFX!.c c x x c e e e c U ( ( _ u.t.t.t.^.^.^././.`.).[.[.{.W.W.W.W.XXyXJXfXlXlXdXxXjXjXNXNXlXlXlXlXDXgXDXNXNXAXb.&.%.%.m 5 n C n N N N N N k n B V N n n > > > > M m ;.*XGXVXmXNXDXlXlXjXfXlXNXDXzXlXlXlXlXZXDXNXVXKX=Xc.7.].].].` _ D Z Z a a Z A W B N n n n n e e e e q q q q q B  XtX-X;XPXPX;X@Xf.S s y.d d s f.oXyX=X&X&X7XtX.XV O $ e k & & $ - C 3.4.z.x.u././.^.^.^.^./.J.H.K.K.K.R.R.R.T ] 7.0.0.M.qXBXqXBXSXDXNXDXSXDXcXZXDXSXDXDXDXDXDXBXSXHX9X,.7 7 5 > * r N N N B N k k n n n n w > > > > > 6 M %.9.#XCXAXCXNXjXdX6XdXlXlXlXlXlXlXjXjXjXfXlXBXBXCX=X.X4.4.7.7.6.{ ( u i Q u.i.f t.t.y.t.u.[ ] ) ) B x     & O O n 7.XX=X-X&XV.V.%XXXl.G z ) oXaXtXpXpXiXtXoXH ; O w w e e i h g g ^.^.^.r.r.^.^.^.^.F.H.P.!.!.!.W.W.{ 6.E.5.5.5.C c.tXmX5XjXCX9X4X6XwXjXjX6X<X6XxXBXBXNXNXAXJX&X,.1 5 5 5 = n n k k k k k = - - - - - - * * @ : : , 6 6 6 :.#XCXJXBXzXlXlXzXzXBXBXBXBXBXZXZXZXBXzXZX6XVXc.8.5.E.E.{ [ _ D D S ! ! D D D J G G C n w w e q q i i 2 z z.*X-X>X;X;X;X;Xx.p.Z s h s _.@X%X;XV.N.2X2X7X0.n . .       & & w B ( ! S s p p p p p h h Q ^ U.T.G.K.' ' 5.8.0.0.9.:.:.:.v.=X4X,X4X4X4X4X4XqX",
"gXDXgXlXAXGXpX0.:.2.8.5.E.Y.Y.Q.W.5.' ^ t.t.t.t.i.D K ;.;.=.=.*.t e e e e e e e e - 4.FXnXZXvXdXPXoXx.x.x.x.x.x.x.b.%X;XdXNXVXFXFX!.c c x x I e x x L ' [ u.i.i.t.t.^.^.^././.`.`.[.{.{.{.{.!.E.W.*XtXJX8XNXlXdXjXjXjXjXMXlXlXlXlXDXgXSXNXNXAX,.&.%.#.6 m C n N C B B B N n N V Y V N n n > > * M 5 %.v.iXVXNXNXBXlXlXlXlXNXNXNXBXlXlXlXlXlXBXAXNXVXiX.X4.z. X].l.a._ D Z a a a E E W b b b z k c y y e e e e e q ) oXFXPX;XdXgX;X;X@Xp.f s f f ! |.yXtX&XV.:X2XyX XC $ $ w w w q q c _ d.f.f.u.t.^.^./././././ H.P.P.K.G.G.J.U.' 5.7.0.9.N.wXkXkXZXSXSXAXAXSXDXcXZXSXSXSXZXZXDXAXSXHXBXM.%.< 7 5 > = n N U R Y B k n B N N N w w r r r > 5 m %.*.v.7XCXCXNXjXdX6XdXlXlXlXhXhXhXhXhXdXdXlXZXlXfXiX#X4.3.3.6.{ 6.{ U j v ! i.i.t.y.r.t.t.^ ^ [ [ ' ( x & & ; = C ) l..X%X&XV.V.C.M.v.;.V z.yXaXiX7XnX-Xb.K 4 ; k w w q x E g ^.^.^.^.^.^.^.^.^.^.F.H.P.L.E.!.5.5.] ` 3.] 5.1.1.V *XuXnX9XjXNXMXwXwXwXwXqXqXqXhXxXlXBXMXCXAXCXM.6 : 5 5 5 n n N k N k k k k = = = - - - * * * * : > 6 6 6 %.0.=XGXBXBXzXzXzXBXBXZXBXBXZXZXZXZXBXzXcXdXVX*X7.1.W.6.'.d.d.p.p.! ! ! D D F F A A A z c c e q 9 9 i 2 2 G  X;X;X>X;XC.;XoXx.A l a Q @XPX5X>X&X&X2X&X#X*.* O & 9 9 9 q x v A Z f s p p p p p p h f ^ _.H.R.K.K.' ] 5.0.0.,.,.,.:.9.#X-X4X,X:X:X,X,XeXeX",
"DXgXgXDXZXBXpXM.:.2.2.5.] I.Y.Y.W.E.[ ^ / f g f Q Q _ ` ) ) ) V w e e e e e e e q &  XFX-XlX1XcXKX;Xx.x.x.x.x.x.b.%X-XdXdXgXgXmXaX] c c x i I i x I ~ H././.t.t.^.^.^.t.t./.`.`.OXOXOXOX{.{.E.5. XyXmXGX5XDXjXdXjXjXjXMXjXlXlXlXlXDXgXSXDXVXVX>.%.%.6 > M C n B B B U U N N N Y Y V V C C n r r > 5 M 0.=XmXAXDXNXlXNXBXNXNXCXNXNXBXZXZXlXdXlXAXNXmXmX%X4.4. Xz.].l.` W Z a a a a a E E W W W v x e e e e e q q q B .XbX-X;X;XZ.V.;XoXx.D a S S |.@X*X-X:X:XZ.N.yX1.- w w $ $ e x x W _.`./.i.t./.^.^.^.^././.H.H.P.P.P.G.G.J.G.] 2.0.9.,.N.kXqXZXZXAXHXSXDXDXDXZXSXSXSXDXcXDXSXAXHXHX8Xb.6 < : 5 n n N R R R Y U c N B B B N k w r n r > > m m %.9.=XmXCXMXfXdXdXhXlXlXhXdXdXdXdXdX6X6XhXlXlX6XuX#X7.3.` ` ` { 6.6.) c l E Q t.t.t.t.t.f f / s.[ [ b & & 4 B 6.` a.x.b.M.V.C.C.C.M.>.%.v.iXiXiXmX-Xc.K ` _ b k w q q x / ^.^.^.r.^.^.^.^.^.^.f H.' L.I.I.] ] ) ) ` ` ) ) ) V ;.iXmXMX9X6X9XMXCXMXwX6XqXkXzXkXxXlXBXBXMXCXuX9.: M 5 5 n N z k z N c k k k k k k - - - - * * * @ > 6 6 6 6 :.#XuXBXBXBXBXBXBXZXZXBXBXZXZXZXZXBXcXcXgXJXtX X1.W.7.6.6.{ ` _ ! A A ! A Z Z Z Z F Z b c x q 9 9   2 2 l a.oXoX%XPX;X;X;XoXK z F _ UX;X&X&X&X,X>XM.,.: O $ q     i i E E a s p p p p p p p s f / P._.U.G.K.K.] 1.8.0.0.:.,.,.&.9.*X7XqX:X:X:X,X,X,X,X",
"gXgXlXlXBXMXwX0X9.=.2.7.] L.[.I.I.I.(.P.H./ f f f f Q ! s.{ [ ( k q q q e e q 9 w - ;.IXJX6X1XkXmXPXyXx.l.x.x.b.b.;XgXdXdXgXgX-X7.U c c x x x i I / /./.^.^.^.^.^.^././.`.`.[.OXOXOXOX{.{.{.W.W.7.tXmX8XNXBX6XlX6XdXfXjXMXlXlXlXDXDXAXNXNXHX;X%.%.#.m *.V C B ) Y Y Y Y B c B ) ) Y V N N C r r r > M M c.GXVXnXDXNXlXBXNXCXBXSXBXBXlXlXlXlXlXBXNXNXJXtX2.c.4.7. X].6.` ! Q f a h a a a a a f / b x q q e e q q q n 1.*XKXgX;X;X<X>X;XoXx.D A a.@XyXtX&XN.:X:X&Xc.C & = & q e q x P.`././.^.t.^././.^.^.f / ^ [ [ P.K.K.G.G.J.~ ] 0.0.9.B.:XeXkXBXAXSXHXLXSXDXZXcXSXSXcXdXzXZXSXAXJXJX&X%., 5 : = n N B R R Y ) U c c Y Y Y R N n n n r r r m m %.%.v.uXuX9XnX9X6XxXzXzXlXhXhXhXhXlXkXhX6XdXhX6X7X=Xc.H ` { ) 6.5.5.5.5.{ ' E a f t.t.t.g t.t.f ^ (.` B k B l.l.|.d.a.x.b.C.C.C.C.C.>.>.#XiXiXmXbXc.a.f.|.f.s._ j q x ~ /.^.^.r.r.r.r.^././ ~ ~ ' ' ' ' ' [ ] ` ) 3.) 3.) ) C v.iXnXjX6XdXjXNXwXMXwXwXwXhXxXkXzXBXxXAX4XGX7X7 6 5 n n N B B N b b c k k k k k k k = - - = > > : : 6 m m m %.0.7XCXBXlXlXZXBXlXAXBXBXBXBXBXBXzXlXzXlXmXnX*X4.1.W.7.6.6.6.` ( G A W A Z a a a a a Z L x x j 9   2 u S s.x.@XoX;X;XC.;XM.n.M z |.UX%XV.>X<X>XM.9.%.5 n - .   x W ^ f g p p p p p p p p f / /._.P.U.U.T.K.] ) 1.2.9.,.:.,.:.:.M.iX7X:X:X:X:XrX<X1X1X",
"NXNXlXcXBXlXjXwX0.=.:.8.] L.[.U.(.(.I.Y.P.P.^ / f f f i.u.u.^ _ ( b j q q e q & w & n tXmXjXkXkXnXPXPXc.x.x.x.b.%X;XdXdXgXgX;Xb.1.k w c x j v a ^ /./.^.^.^.^.^.^./././.).[.OXOXOXOXOX{.{.W.6.7. XaXVX8XlXlX5XhXdX9XfXMXMXlXlXlXBXBXDXNXVXVX%X%.%.#.#.V V B B ( Y Y Y Y U B B B ) ) Y V B N n r r > m M 4.tXVXnXNXNXNXNXBXCXNXBXNXlXlXlXlXzXlXBXNXNXJXtX4.3.3.7.7.~.].{ [ ^ Q a s s a s h s g f E v x x x q q q & = C 4.*XtX-XdX<X<X;X%Xc.` ` z.yX=X;X&X2X:XN.b.;.4 = n w q x i ~ /././.^.^.^.^.^././././ ^ ^ [ [ [ K.K.G.G./ ~ 1.0.9.,.B.,XkXBXAXSXHXHXHXSXDXDXZXSXSXZXzXcXSXSXSXJXMXv.%.5 6 > 5 n B U R R R Y U c b ( ) Y R U N n n n r n m M %.%.9.=XuXnXnX8X5XhXzXBXkXhXdXdX:X<X6X<X<X6X6X6X7XiX.X3.` ` ) 6.5.8.!.W.].I.[ E v a f i.t.y.y.i.! s.{ ) G G l.f.f.f.f.x.x.x.b.C.C.;Xn.,.%XFXtXtXoX|.f.f.p.p.f.(.A v v / /.^.r.r.r.r.t./ ^ ~ ' ' ' ' ' W ( ( [ ` ) 3.) ) ) V M .XiX9XdX6XdXjXMXpXMXpXwXwXhXxXkXkXlXjXCXfXGX$X5 m n n N N B B B B B b c k k k k k k w = - - = > > : 5 6 m m %.2.$XCXZXlXlXZXBXlXZXBXBXBXBXZXBXzXlXlXlXNXmX=X4.1.7.5.8.6.5.) ) ) ) ( W Z Z a s s s f E v v c j 4 b ^ u.^ ! p.x.oXoXC.;XC.n.>.>.oXPX;X>X;XV.M.b.n.4.4.;.5 & l W W E p p p p p p p p g f / /._._.U.P.U.T.K.] 1.2.9.9.,.:.:.:.,.#XuX7X:XZ.:X:X:XrX1X1X",
"DXNXDXDXlXlXlXBXB.=.=.8.5.] Y.Y.(.I.Y.I.I.I.K.^ f g t.t.t.f / ^ _ ` ( j   & q & & ; - v.=XnXCXjXgXPXbXoXx.x.x.M.;XPXgXgXgXPXM.x.1.N k N j j v / /./.^.^.^.^.^.^.^././._.).[.OX+XOXOXOX{.{.W.6.7.*XGXVX9XjXdX5XdXdXfXfXMXMXNXlXlXNXBXNXNXAX8Xb.%.#.%.%.M V V ( ( U U U U U B c k ) ) ) Y U N N w r > > m ;.v.GXnXNXgXNXBXBXNXNXNXjXlXjXjXlXlXzXlXNXNXJXmXv.M ;.7.~.~. X].(._.^ / a a a s h h s g E Z v v x q & & - n n ;.v.*X-XgX5X<X5X;XoX3.4.*X-X;X&X>X3XN.b.9.;.C C n & i v f /./.^.^.^.^.^.^./.J././._.[ [ [ ' ' ' ~ ~ ~ ~ ( 8.0.9.,.B.qXZXAXSXSXHXHXSXAXZXcXSXSXSXZXcXZXSXSXSXAX%X:.6 5 5 5 n N B U R T T T U c B ( ) T R R N N n n n m m m %.%.:.v.uXVXuX8X>X6XlXBXlXhX6X6XV.:X<X<X<X<X<X>X9XnX%X3.H ) ] 5.5.8.~.XXXX{.E.{ { b i f t.t.t.f Q p.` ` ` _ f._.s.f.f.f.f.a.x.b.M.%Xb.b.;XmXyXoXx.f.f.u.i.i.f.|.s.W Z Q t.t.r.r.^.t./ ^ ( T ' L.' ' ~ W W W ' ] ( { ) ) Y V M %X7X9X6X6XdXjXMXMXMXMXjXwXhXxXxXkXkXjXjXBXnX9.: m C N N b b B B B B b b z z z z c k k = - - = > > > > 6 m m M =.b.AXZXlXjXZXZXlXBXBXBXZXZXZXBXzXlXhXcXDXAXtXc.1.5.5.6.W.6.] ) 5.E.] ' W Z a s s s a a a E W z z { _./.i.Q u.f.x.x.oX;X;XC.n.n.;XPX;X;XC.v.b.c.c.c..Xc.K z G _ E a p p p p p p s g i./._.`.).).Y.Y.Y.L.] 5.8.0.9.9.,.:.:.:.0.&XpX4X:XZ.Z.:X:XrXrXrX",
"NXDXDXZXlXlXBXZXM.:.%.2.5.] L.Y.P.P.Y.I.I.L.K.~ J.F.^.^.t.f f / ! (.|.( j & & & & 4 5 z..X-XuX8XmXmXKX;Xb.x.z.%XgXgXgXgXPX;Xb.x.z.z.) C k k ( _././.t.r.^.^.^.^.J.H.P.I.Y.[.[.[.OXOXOX{.{.W.7.c.iXGXCXfXdXdX6XjXfXnXnXMXMXNXlXlXlXDXNXNXAX&X>.%.%.=.*.M V ) ) ( ( ( ( U B z j j B U ) ) U N N N r t > m m 4.FXVXnXfXNXBXBXNXfXfXfXfXfXhXjXjXlXzXBXNXVXKX*X6 ;.2.7.~. X].'.P.[ ^ / E f a s h p p a Z Z Z b j & & 5 ;.7.4.c.b.oX;X5X<XdXgX%Xn.n.=X%X;X;X&Xv.c.4.z.7.7.1.N j v ^ /.^./.^.^.^.^.^./.J.H._._.(.(.P.[ ' ' K.~ ~ ~ W ( 8.0.9.:.B.wXZXZXHXHXHXHXSXAXDXZXSXSXZXZXZXSXSXAXSXCXv.6 6 6 > n n B U Y T T ' ' ( b B ) ( T T T U N n r n m m m m %.%.9.7XVXuX9X5X6XjXxXjXhX6X6X>X<X6X<X6X<X<X>X4XCX-Xz.H ) 5.5.W.W.W.XX+X}.{.{.{.6.v i s t.t.Q ! _ ) ` ` J f.f.s.s.u.s.f.f.a.x.b.M.M.oXtXyX@Xx.f.u.u.i.u.f.f.f.! ! Z Q f t.t.t./.^ ^ ' ' ] ] L.' ~ / ~ ~ ~ ' ' ( ) ( ) V V V =XiX9XdXhXjXjXMXMXMXMXMXjXkXxXxXxXlXlXfXJX-X%.5 M C B B b b b B B b b B b z z z c k k w = = > > > : > , 6 m #.%.2.BXZXzXjXZXZXlXzXBXBXBXZXZXBXzXzXhXzXZXAXnX.X1.1.7.E.!.!.5.6.W.].I.{ [ W S Z a s s a a E W b H d.s.u.i./ i.i.u.f.x.oX;X;XM.b.;X;X;X%XM.b.z.x.z.x.c.b.x.` _ A u h p p p p p g f /._._.`.).).).Y.U.I.L.] 1.2.9.9.9.:.:.:.9.M.2XpX4X:XZ.Z.Z.Z.:X:X:X",
"BXBXBXDXlXlXcXZX&X,.%.<.8.] ] L.I.Y.Y.I.P.' G.H.J.F.F.F.^.^.f f Q _.@Xd.( k j $ & J `  Xc.oX;X;XmXmXKXbXb.x.b.;XgXgXgXPX%XM.b.x.|.oXz.V C ) '._././.t.t.^.^././._.U.Y.I.I.E.E.Q.Q.[.Q.{.{.7.0..XmXVXMXdXdXdXdXjXfXnXMXMXMXCXNXlXNXDXNXNXnXv.&.%.=.:.*.V V ) ( ( ] ] ( U c z j j z B ( ) U B N B n n > m 5 ;.-XJXnXnXNXNXNXMXfXfXfXfXfXdXhXhXxXlXBXNXmXJXnX;.;.;.8.W.W.E.{ I.[ [ [ ^ / E a s h p g s a E W A j 4 H c..Xb.b.c.b.oX;X;X;XgX;Xb.b.-X%X&X%Xb.z.l.l.l.3.3.3.( ( [ u./.t.^.^.^.^././.`.U.`.).).(.I.P.P.P.P.K.K.' ' ( ( 2.0.,.,.N.kXAXZXSXSXDXDXSXSXSXZXDXZXcXZXSXSXAXAXAX3X9.7 6 m > n N B U ' ] ] ] ] ' B B ) ( R T T U N N r n C m m m %.%.:.%XuXiXnX6X6X6X6X6X6XjXjX6X6X6X6X6X6X6X9X0XMX7Xc.;.) 6.E.{.W.W.{.{.{.}.XX].{.'.W u s Q s._ ` ) 3.` J p.u.s.s.f.u.f.f.f.f.x.x..X*XPXoXx.f._.u.u.u.f._.s.D D Z Z Z Q Q i.i.[ [ ' ' ' L.K.~ ~ ~ H.~ ~ ~ ~ ' ( ( U U B C V iXnXfXjXjXjXjXfXMXCXCXMXkXkXkXxXlXlXBXfXJX#X5 6 M N b b b b b b b z b G G b z z k k k w = = > > > @ > > , #.*.%.=.MXZXBXlXBXZXlXlXBXZXZXZXBXBXBXlXkXBXBXNXnXoX3.) E.E.E.E.E.E.].'.[.[.'.{ [ ! S Z f Q f a ! _ ) ` s.u./ f g f t.i.f.x.oX;XC.C.3X&XoXoXc.x.x.x.x.x.x.x.x.x.` D u s g p p s f / /._.`.).).U.U.Y.Y.Y.L.] 5.8.9.9.,.:.:.=.:.9.$X0XeXrXrXA.A.A.A.Z.:X:X",
"CXCXCXBXlXlXcXZX>Xv.=.=.1.5.] L.L.Y.Y.Y.P.~ H.J.J.J.F.F.F.F.f f / u._.s.{ ( c . j l.|.@Xx.z.oXoX;XPXPXbXoXx.b.-XgXgXPX%Xb.x.x.x.x.@X X;.1.7.].(./.i.t.t.t.f H.U.).[.[.[.'.E.I.I.I.Y.I.E.W.7.0.$XGXMXjXjXhXdXdXjXfXnXMXMXMXCXlXlXBXBXBXNX;Xn.&.:.:.:.*.V Y ) ( ( ] ` ( b j j l z j b B ( U U U R N C t m m M v.VXVXmXNXNXNXfXfXfXfXfXfXdXhXhXhXjXBXlXnXJXKXb.;.V 1.5.6.6.{ I.'.(.I.P.[ ^ / f s p s p s f ! A A z z.b.b.b.b.oX@Xb.M.C.;XPX-XM.M.>X&X%Xb.x.l.l.d.d.` ` ` _ ` s.u.i.t.^.t.t././.U.U.).).).).Y.Y.P.U.U.U.R.K.' ' ( Y 2.2.:.0.:XBXAXAXAXDXDXJXSXSXSXSXZXcXcXZXSXZXZXAXNXM.&.6 6 m n n B U ( ] ] ] ] ] ] B B ( ( T T T U N N n n C m m m #.%.:.v.=XiXnX9X6X4X6X6X6XjXkXwX6X3X6X6XqXwXMXpXpXuX#X4.6.].E.'.[.[.{.{.{.{.}.{.{.}.|._ u u A G 3.3.l.l.p.g.S u.s._._.u.u.u.f.d.x.c.oXoXx.f.f._././.u.u.! S Z D D Z S D ! S A ' ' ' ' [ P.H./ G.G.J.G.G.G.~ P W ( b U B V *.FXVXMXjXlXlXfXfXMXCXBXBXkXkXkXlXzXzXNXNXVXc.> M M N b b b b b b z b b G G A z z j c k k w = > > > @ > : > #.*.*.=.8XBXZXlXBXBXlXzXBXZXZXZXBXBXBXzXkXBXlXNXmX*Xz.` E.I.I.I.Q.'.'.E.[.[.'.'.6.` A Z Z Q Q f ! d.l.l._ i.i.i.^.t.t.t.i.f.x.oX%X%X7X%XoX@Xx.x.|.|.x.x.x.x.x.x.a.p.Z a s s g / /./._._.).U.U.U.T.T.U.Y.] ] 5.4.9.9.:.:.=.:.2.0.=XpXeXrX1XA.A.A.A.A.:XrX",
"pXCXCXBXNXlXlXlXMX$X:.=.<.5.] L.!.L.I.K.^ / J.J.J.J.J.J.J.J.J./ f f / ^ [ { ( z G |.|.@X|.|.x.b.M.C.;XmX;Xn.M.gXgX;X%XM.n.x.x.x.a.x.x.3.4.7.l.|.f.i.t.t.i.H.Y.Q.OXOX{.[.'.'.E.I.U.U.I.I.W.8.0.2XCX9X9XlXjXhXhXdXMXMXMXMXMXNXlXlXBXNXAXNXM.>.>.:.:.=.*.<.) ) ' ' ' ( L l j l z z j z B ( ) Y U Y Y V C n m M :.8XAXNXMXjXfXfXfXNXfXfXfXdXdXhXhXhXlXlXfXVXmX%X;.V 1.6.E.E.E.'.[.{.[.(.I.P.[ ^ Q g d d s f Q D J K x.b.b.n.b.oX@X@Xb.M.M.;X-X&XC.&XC.b.n.x.d.f._.s.f.f._ J d.s.^ u.u././././._.U.U.U.U.U.Y.U.U.U.U.U.U.U.R.K.] ) 1.2.:.9.M.pXAXBXSXDXDXDXSXSXSXSXSXDXDXZXSXSXcXZXZXjXn...6 m n m C B U ] ] ] ] ] ] ] b b ( ' ' ' T U U N N n C V *.m #.%.*.9.%XiXuX0X6X4X6X6XwXjXjXjX6X4X6XwXwXwXMXCXeX7X*X0.7.].'.[.).[.OXOX[.|.{.+X].].|.|.H k 4 H 3.3.x.x.a.g.a Z Q u./.i.u.u.u.d.a.l.x.l.f.f.s././.u.Q Z u l D _ _ ! D _ G z z ( ] [ ^ H.J.J.J.J.G.G.G.G.G.G.G.~ U b U U Y 1.FXmXfXdXlXzXfXgXNXCXBXBXBXlXkXlXxXzXgXAXnX:.5 V C B B B b b b b A G G G G G b z z c k k k k 5 > > : > : > m *.*.=.&XlXZXzXBXBXlXBXBXBXBXBXBXBXBXzXkXBXkXNXVX-X|.` { P.Y.).).).(.(.).).'.'.W.6.( b u Q Q i._.(.l.x._ ! Q /./.^.r.d f i.a.x.b.%X=X.Xc.x.|.|.|.|.x.x.x.x.x.x.x.a.p.Q Z E ^ P._._._.).U.U.U.U.T.T.T.T.] 5.8.0.9.,.:.=.:.2.2.v.0XpXrXrX1XA.A.A.A.Z.rXrX",
"CXCXBXBXZXDXlXlXHX3X9.%.*.<.Y 5.5.] ' ~ / / J.J.J.J.U.U.J.J.J.J.J.f / E ( _ { l.` |.l.|.|.|.x.x.n.b.M.KX-Xn.M.mXPX%Xb.b.b.x.x.x.x.x.x.3.4.1.` l.f.u.i.u._.).[.OXOXOXOX{.{.[.[.).).Y.I.L.8.8.M.pXCX0X0XNXlXjXdX6XjXMXMXMXMXNXlXlXNXjXSXNXb.>.:.:.2.*.*.1.] ] ' ] ( ( b j j z z l l z B ( ) ) ) Y Y Y C > M M M =XJXVXMXnXfXfXfXNXjXjXfXdXdXhXhXdXlXBXNXmXnXtX;.;.) 6.E.E.E.E.Q.Q.[.[.Q.(.(.[ ^ Q g d g a S D a.x.x.x.b.b.oXx.x.@Xb.M.M.M.;X;XC.C.b.>.K a.d.s.s._.s.p.! p.|.(.s._.^ _._._.U.H.U.).U.U.U.U.U.U.U.U.U.U.R.T.L.] 5.1.2.:.0.=XGXAXNXAXDXSXSXSXSXSXAXZXSXDXSXSXSXzXzXZX6X>.6 M n n N V Y ) ] ] ] ] ] ] ( b b ( ' ] ] T U U U N N N V *.#.6 #.%.:.#XiX-X9X6X6X6X9XjXjXjXNXwXqXjXMXwX6XwXBX2X2X=Xc.7.W.E.[.[.).[.[.[.}.}.}.}.XX}.].].6.1.H 3.3.l.a.a.p.F u u a / /./.u.u.s.d.a.J J f._.u.`./.E a i 2 z _ p.p._ _ _ H B k ' I.).P.H.J.J.J.J.R.R.G.G.G.J.G.~ T b U Y Y 2.GXMX9XdXlXzXgXfXNXCXBXBXNXNXlXlXlXlXgXHX-X%.n V N B B b b b b A A ( G A A A b b z z k k k k k > > * > > > m *.*.=.%XjXSXBXBXBXlXBXBXBXBXBXBXBXBXBXkXBXkXNXJXbXXX{ { I.).).).).).).).).'.{.}.].6.( A ! u._._.f.d.x.d.D a a f ^.t.t.t.i.! a.x.b.oXc.x.x.|.@X|.|.|.x.a.x.x.x.x.a.p.s.^ [ P._.U.U.U.).U.U.U.U.U.U.U.T.] 5.8.0.0.,.:.=.:.9.0.v.pXpXrXrX1XrXA.A.Z.rXrX1X",
"CXBXBXBXzXzXzXlXBXMXM.%.%.2.8.<.Y ' ' ~ J.J.J.J.J.J.H.H.U.U.H.H./ E ! _ ` ` x.oXx.x.x.x.|.|.|.x.x.z.oXPX;XC.;X;XM.b.oXb.x.x.x.@Xx.x.K K x.3.K a.` _ [ (.[.OXOXOXOX[.[.OX[.).Y.).Y.).K.E.W.4.#XmXuXfXfXdXjXjXjXjXjXjXdXdXgXgXNXDXmXMXJX&X9.>.%.9.:.<.1.) Y ] { ( ( v u l l l l l l l z b ) ] ] ) Y Y N n n 5 %.v.VXJXCX9XnXnXgXgX6XhXhXhXvXvXhXlXfXNXNXmXnXmX4.;.5.E.!.!.Q.Q.[.[.Q.Q.[.[.).(.{ [ W Z Z D p.a.a.x.a.x.|.oXoXoX@XoXoXb.M.b.b.C.M.b.K a.a.p.p.s.(.(.p.! p.f.f.f.f._._.`.OX).P.P.U.U.U.U.U.U.U.U.U.U.U.R.T.L.L.] ) 1.4.*.$XGXAXSXlXDXDXDXDXAXDXAXSXSXNXHXDXZXSXBXBXkX&X&.6 M n N Y U U ] 6.E.{ ] ' ' ( b c b U ) ] T U U U U N N N V #.%.#.#.:.0.*XJX8X4X4X4X,X6XjXBX6XhXxXjXjXjXjXlX>XjX8X%X X7.6.[.[.[.[.[.[.[.{.}.}.XX}.|.}.|.].l.G ` 3.l.a.a.p.p.Z 2 i i i E _._.s._.s.p.f.f.s._.^ E i i i j A _ D a.p.J d.B k 5.L.P.P.P.H.H.H.J.J.J.J.J.G.G.G.~ P T U U 1.1.c.JXuXfXjXxXjXhXlXlX6XjXNXMXCXBXCXjXDXdXJXv.C C n B U U U W A A A A A A A A A A z z z k k k n n n r > > > > m #.=.=.M.7XJXJXNXNXBXBXzXlXZXDXZXDXBXBXZXzXlXBXKXFXoX5.{ I.Y.Y.Y.Y.Y.Y.).).).[.[.{.'.{ ( { '.|.|.f.d.|.l._ l i i E t.t.g u.s._ l.x.x.x.x.x.|.}.}.[.' z z K x.x.x.x.l.d.[ P.P.U.Y.Y.Y.U.U.U.U.U.U.H.H.~ Y 1.8.0.8.2.<.=.2.2.0.sXwXqXrXZ.1XrXrXrXrXrX1XeX",
"CXBXBXBXzXzXkXkXBXCX#X;.%.2.2.<.) ' ' G.J.J.F.F.J.J.H.U.U.U.U.U.P.^ _ d.x.x.b.oXb.x.x.x.x.|.@X|.@X|.oXoX%Xb.b.C.n.x..X@X@X@Xx.x.a.a.g.a.x.a.` 3.` { { '.[.OXOXOX[.[.[.).).).Y.Y.Y.Y.] 6.7.4..XmXnXfX9X9XjXNXMXNXjXjXjXlXlXNXDXDXnXCXGX%X,.>.%.9.1.1.5.] ' ] { ( A l l l l l F F l l z b ( ] ] ) ) Y B C n 5 %.9.uXCXMX9XnXnXgXfXlXkXxXxXzXkXlXlXlXNXNXVXmXKXc.;.5.E.!.!.!.Q.Q.Q.Y.Q.[.[.'.I.I.{ [ _ _ _ a.a.a.a.d.a._ a.|.oXoXoXoXb.M.M.%X;Xn.x.a.p.p.p.s.d.[ A A ! p.f.f.i.u.f._.).).Y.T.T.U.U.U.U.U.U.U.U.U.U.U.T.T.L.L.] ) 1.2.;.#XGXJXJXgXcXDXZXDXAXAXAXJXHXDXHXDXZXSXBXBXkXM...6 M C B ) ( ' ] ] { { ] ( ( W b b b U ( ( ( T U R R U N N V m %.#...=.9.#XuXuXqXqX6X,X1XhXkXzXkXlXhXjXjXjXhX6X6X-X%XXX].W.OX[.OXOXOX{.}.}.+X+X}.}.}.}.}.|.|.3.H J ` a.a.p.p.Z u i x i I ~ ^ _._.s.p.f._.d.d.E v i x j j G J D g.g.J ` B N !.Y.Y.T.K.G.H.H.H.J.J.J.J.J.G.~ ~ P T U U ) ;.c.mXMXNXjXlXxXhXhXhXjXBXAXCXCXCXCXjXAXfXJXb.n C B U U U W W W A W A D D D D A A A A z z k k n n n n > > > > 6 #.&.=.0.=XGXJXVXNXDXZXZXZXZXZXDXDXAXAXzXxXlXCXVXFXyX7.6.E.E.Q.[.[.).).[.).Y.Y.).[.[.E.] { 6.'.|.|.f.|.|.a.B j j i a g f /.s._ a.x.x.x.x.x.|.'.] T c x G ` x.x.x.x.l.d.{ P.Y.U.Y.Y.Y.Y.Y.U.U.P.P.P.H.K.) 8.0.~.8.2.2.<.2.:.9.$XwXqX,X,XeXrXrXrXrXrXeXrX",
"BXBXBXBXBXzXzXzXBXAX-X:.m *.2.<.] ' G.G.J.J.F.F.J.J.J.H.U.U.U.U._.P.[ d.x.oXoXM.oXb.x.l.` l.@X|.|.|.x.x.b.x.>.n.b.z.XXoXoX@Xa.A A J a.a.x.x.` ` ` { '.[.{.OXOXOX[.).).).).Y.U.Y.Y.Y.] 6.7.4.#XuXMXfX9X9XjXNXjXjXNXjXjXlXDXDXDXNXnXCXCXM.>.>.>.9.1.1.5.] ] ] { ( u l v l u l Z F l l l b ( ] ] 5.) Y V C n 5 6 :.=XuXMX9XnXnXgXfX1X:XZ.:X1XxXxXdXlXNXNXVXVXJXv.2.5.L.I.Q.Q.Y.Y.Y.Y.Y.Y.Y.Y.Y.I.I.I.[ ` d.d.a.a.a.f._ F z J l.@X@XoXoXb.n.M.b.>.3.a.a.s.s.s._ b 2 l J f.f.p.p.s.s._.(.P.U.U.U.H.H.U.U.U.U.U.U.U.U.U.T.T.K.K.] ] 1.;.:.%XGXJXJXgXdXDXZXSXSXSXSXJXHXDXHXDXSXSXZXAXjX,.7 5 V C B ] ] ] ] ] { { ] ( W A W ( ( L U U ( U T T R U B N V M %.#...&.:.v.tX0X4X0X6XqXqXjXxXkXhX6XdXjXlXjXjXkXdX;X%X.Xz.6.{.[.[.[.[.{.{.}.}.XXXX}.}.}.}.}.}.].) G ` d.a.p.f.W v x x 9 9 I I ^ _.s.p.f.|.d.A i i x x j b G G J D J J G b U !.Y.U.T.G.G.G.G.G.J.J.J.J.G.G.~ ~ P T T ) 1.2..XGXMXNXlXlXlXlXhXhXlXlXNXNXMXBXAXBXBXNXVX4.5 C B Y U U ( W W A A D D D D D D D A A z z k k n n n n n 5 > > 6 #.$.=.9.$XGXJXAXNXDXDXZXcXcXcXBXDXAXAXkXzXBXjXmXGXtXz.3.5.] I.I.Y.Y.Y.[.[.Q.Y.[.[.{.{.].6.6.'.|.|.|.|.|.l.` z 9 i i h / _.[ ( 3.x.x.x.x.x.d.( x 9 q j G x.x.x.x.x.l.{ (.(.).Y.Y.Y.Y.Y.Y.Y.P.P.[ P.P.{ Y 2.0.0.2.=.*.=.0.:.9.&XwX4X:X,XrXrXrXrXeXeXeXeX",
"BXBXBXBXBXzXzXzXNXJXMXb.m %.<.Y ] ' G.G.J.J.F.F.J.J.J.J.U.U.U.U.U.P.[ d.x.oXoXb.%XoXz.K C ) '.].}.@X|.c.b.>.8 x..XoXoXoX@Xx.z 2 4 J a.a.x.x.l.a.) { '.}.{.{.OXOX[.[.[.[.).Y.Y.Y.Y.Q.] 6.8.4.*XuXMXfX9X9XjXjXwXjXNXjXjXjXNXDXNXmXMXGX9Xb.&.>.:.4.;.1.5.] ) ] ] W i u Z u u Z Z Z Z l z b B ) ] 5.) ) V C C 5 6 =.M.3XMXMXMXNXgXfX,XV.B.N.:XxXzXzXlXjXNXVXVXKX%X1.5.I.I.I.I.Y.Y.Y.Y.Y.Y.Y.Y.Y.Y.I.I.{ ` d.d.a.a.a.f.a.J l 4 z ` l.@XoXoXoXoXb.;.x.a.d.d.[ A u   2 z _ d.f.f.f.f.f._._.U.U.U._./.H.U.U.U.R.U.R.R.R.U.R.K.K.' T ] 5.;.c.-XJXHXAXgXdXDXZXSXSXSXSXHXJXSXLXDXSXSXSXSX6Xo.7 6 V V U ] ] ] ] ] { ] ' ( W W ( ( ( A b ( ( ( ) ' T U N N V *.%.#.#.&.:.c.=X=X2X>X6XjXBXxXhXdXdXdXdXjXlXlXlXBXhX3X-X-X X6.W.{.{.{.{.{.}.{.{.XXXX}.}.}.}.}.}.}.3.G G a.d.p.p.[ W c x q e x x v [ (.(.|.d.A 2 i v I x x b ( A p.D D J z c ] !.Y.U.U.U.U.H.G.G.G.G.G.G.~ ~ ~ ~ L L B B V 2..XVXMXjXjXjXlXlXzXzXzXzXjXjXjXBXAXAXNXNXgX>.5 C B U U U ( ( ( G D D D D D D D D D A z b z z n n n n n 5 > > , #.$.=.9.%XGXJXJXNXBXZXzXzXcXzXBXBXBXBXzXZXZXjXnXJXtXc.8.5.6.6.E.E.'.[.E.E.E.'.'.'.'.W.].6.6.6.l.|.|.|.f.|.l.b     i i a P.'.{ 3.z.x.x.l._ b x q q x z l.x.x.x.x.x.l.{ (.).).).Y.Y.Y.Q.Y.I.{ ] [ [ [ ] 1.9.0.0.2.*.=.:.:.:.9.2XpX,X:X1XrXrXrXrXrX1XeXeX",
"BXBXBXBXBXcXzXzXlXAXAXM.%.m *.V ] K.G.G.J.J.J.J.J.J.J.U.R.U.U.U.U.Y.I.d.z.oXoXoX%X%Xb.3.n z ) ) 6.|.z.z.oXx.K x..XXX*X].) b 4 4 F a.a.a.a.x.l.l.` l.}.}.}.{.{.}.}.}.{.{.[.[.[.[.Q.Q.6.7.4.0.=XuXMXfX9XjXjXwXqXjXNXjXjXjXlXBXDXNXCXGX2X,.o.>.9.2.1.1.5.] ] ] ' Z u u u u u a Z u F v z z b U ) 5.) ) Y V M m 6 %.9.=XCXMXCXCXmXMX,XV.B.B.C.<XhXxXlXlXCXNXVXmX=X2.5.L.I.I.I.T.Y.Y.Y.Y.Y.Y.Y.Y.Y.Y.I.{ { { d.a.a.f.f.x.d.A 2   j b G x.@XoXyXoXK l.` _ ( b 2 .   4 G ` d.a.f.f.f.s._._.U.U.U.U././.H.U.U.R.R.R.R.R.R.K.K.K.' T ] 5.:.%XGXJXJXNXlXdXZXSXSXSXSXSXSXSXSXSXDXSXAXSXAXM.7 7 M V ) ) ] ] ] L.I.{ ' ( W W _ W W W A A A A ( ) ] T U U B C *.%.#.#.&.=.9.#X2X2X>X4XjXzX6XV.<XhXlXzXlXjXjXlXzXhX6XVXFXoX7.7.{.{.{.{.{.XXXXXX XXXXXXXXXXX}.}.].].` ( _ s.s.! [ ( x q e e e q x b [ '.d.( j   i x I x x L _ A p.D D J l b { Q.Y.T.U.U.P.P.P.K.G.G.G.G.G.~ ' ' T U U V V 2.%XVXMXjX6XhXlXlXlXlXdXhXlXBXBXBXBXBXNXAX;X;.5 V Y U U U B G G A D D F F F F D D D A A A z z n n n n k n > > > m &.=.9.#XmXJXAXBXBXZXzXzXzXzXzXBXzXzXzXZXZXlXnXJXmX.X;.1.1.3.5.5.6.6.6.7.].].].z.7.7.7.7.z.3.` l.|.x.f.|.|.( j   9 i i ' 6.5.8.7.l.l.G c x 9 9 x L ( x.x.x.x.l.` { { ).(.).[.Y.Y.Q.[.E.6.{ ` ` ` ) ) 4.9.0.9.:.%.%.=.:.:.9.:XwX,X:X1X:XrXrXrXZ.Z.:XrX",
"BXBXBXBXzXzXzXzXlXBXJX-X:.m *.V ] ' G.G.J.J.J.J.J.J.J.R.U.U.U.U.U.U.(.(.l.z..X%XM.%X%Xc.H k N N c ( ` 3.x.x.3.z..X7.) N k c j z J a.a.a.a.a.l.z.|.}.+X+X}.}.}.}.+X}.}.}.{.[.[.[.Q.].7.7.2.0.7XuXMXfXjXCXjX6X6XjXjXjXjXlXNXDXDXAXAXCXN.,.&.>.9.:.2.1.6.E.{ { [ Z a s u u s a a u Z F z z z B ) 5.] 5.Y V *.m m %.:.&XCXCXCXVXNXNXqXZ.B.B.B.C.:X<XlXlXBXCXVXVXnX4.) ] ] L.I.L.L.T.Y.Y.Y.Y.Y.Y.Y.Y.Q.I.I.{ d.a.a.f.f.f.a._ b j q j 2 l b J |.oX3.` ( z i     . & z ` l.d.a.f.f.s.^ _.P.U.U.U.H.H./.U.U.U.U.U.R.R.R.T.K.K.K.] ] ] 1.4.uXJXHXAXNXDXlXZXZXSXAXAXAXSXSXDXDXlXDXZXAXfX9.7 6 V V ) ) ] ] ] L.I.] ( W W W ! ! A A A A A b ( ) ] ' T U B n M #...#.%.%.2..X0X0X4X4X6X6X&XC.C.:XdXlXjXjXlXBXkXlXjXVXGX*X7.3.7.7.].].].]. X X X X XXXXXXXXX]. XXX].` _ s.s.! [ ( x 9 e e e e j j b _ b j x x x x x x x ( [ _ p.D D A l W I.I.Y.Y.L.K.' W ~ ~ ' ' ' P T T U U B N B C V 4.=XVXCXjXjXhXjXlXjXdXC.C.<XBXSXAXBXNXDXAX%X%.C V Y U U B B B G A A D F F F F D D D A D G z z N N n n n n 5 > > m =.=.:.v.-XVXAXBXzXcXzXxXxXqX1XhXkXzXzXzXZXlXmXAXVX-X*X*X*X*X*X*XyX*XoX.X.XoXXXXX.X.X.XoX*X X` l.|.x.f.|.|.{ c     9 9 j c B 1.1.V z q q x x 9 9 ( l.x.x.x.x.l.` { { '.(.).[.Y.I.Q.}.UXtXbXbXtXyXyX*X#X$XM.M.9.,.,.,.M.M.$X0XjX,X:X:XZ.rX,XZ.B.B.B.V.",
"BXBXNXzXzXzXzXzXBXjXJXMX9.%.%.M Y ' ' G.G.J.J.J.H.H.T.U.U.U.Y.Y.U.U.).).l.l.c.oXM.M.%Xv.1.n k c x b B H 3.z.c. X].C - & k B k z ` a.a.a.a.a.l.|.@X@X@X+X+X+X+X+X+XXXXX{.{.].].].W.].7.7.:.0.7X0XMXMXCXCX6X&XV.&X6XdXNXDXDXBXDXAXCXpXB.,.>.,.9.;.8.5.E.E.{ { _ v s s h s s s s u Z Z b z z b U ) 5.5.Y V *.M m %.>.$XCXCXMXCXCXNXBXkXeX<X,X,XqXhXxXjXAXCXVXCXJXc.) ] ] ] ] ] ] K.L.L.L.I.I.I.I.Q.Q.E.E.(.d.d.a.f.a.a.a.d._ x 9 i i 9 u 4 ) |.l.) z   . . . . k H l.d.d.d.d.f.s.^ _.P.U.U.U.H.H.P.P.I.L.P.P.P.K.K.K.' ' ] ) Y Y 1.c.GXHXJXAXNXSXDXSXSXZXDXDXDXSXSXSXcXlXZXDXSX8X%.7 M V H ) ] ] I.I.L.] ' W W E ! ! S Z Z D D A F B ( ] ] ' ( U n m m 6 ..%.#.:.v.7XwXqX:X&X:X:XV.C.V.6XdXjXjXlXBXzXzXjXCXVX-X.Xc. X X X X X X.X.X.XXX.XXXXXXXXXXXXXXX Xl._ s.u.! ^ [ I 9 e e q e x j b ( v x c x x e e x x W [ _ D D D F l [ (.L.L.Y.[.'.I.{ { { ] ] ' U U B B B N n C V M c.-XnXBXNXjXhXjXlXjXhXC.C.<XBXAXZXBXZXSXDXb.M M V Y U B B B B A z F F F F F D D D D D J A b b N N N N n n n > > 6 #.=.:.c.*XmXAXDXZXcXcXvXZ.C.N.Z.eXzXcXzXlXZXNXVXVXnXiXiXiXiXtXtXtXtXtXtXtXtX-X*X*XtXaXtXFXyXx.3.x.x.|.|.@X|.( & . 9     $ n ) V 4 . 9 9 x x 9 j ( |.x.x.x.x.3.` 6.E.'.(.Q.Q.Q.E.{.+XFXFXFXFXFXFXmXiXMXwXwX4X2X:X:X:X0XwXwXMXjX,X:X:X:XrXrXZ.B.B.N.V.",
"BXNXNXlXlXzXzXzXZX6XJXGXv.%.%.m Y Y ' ' K.G.~ ~ ~ ' K.I.I.Y.Y.Y.).U.).[.'.l.z.oX%Xb.b.b.1.n c N c x c z G l.z.3.H k k c k w k ( a.a.g.a.a.a.l.@X@XXXXXXXXXoXoXoXoXXXXXXXXX X]. X7.z.7.9.:.9.2X2XMXCXBXNX>XB.b.M.&X6XNXDXDXlXlXNXBX0X,.,.,.,.9.;.8.5.E.E.I.[ W u s p p s s s u a Z F z z z b B ) 5.5.<.V *.M m #.%.$XCXMXMXNXCXNXkXkXBXBXkXkXkXkX6XjXBXNXCXMXJXv.V ) ) ) ) ) ) ] ] ] ] L.E.E.E.E.E.E.E.'.'.d.a.f.a.p.a.d._ i 9 x 9   i   j ` ( z   .   & . X 4 ` a.a.f.f.f.f.s.^ _.U.P.P.Y.P.[ { { { { { { ] ] ' ) ( ) ) V C C V b.JXHXNXAXAXLXZXSXSXZXZXDXDXAXSXSXZXcXSXAXJX-X6 6 V H ) ] 6.{ I.E.L.' W W W E Q S S S S S Z Z Z b ( ] ] ] ] Y N n m 6 #.%.#.:.v.&X4X0X&XV.&X6XhXhXxXlXlXjXjXdXjXhXkXjXNXJXGXtXtX*XyXyXyX*X*X*X=XyX*X*XoX*X*X*XoX*XoX Xl.d._ i.u.! [ W x e e q c x b { d.' ' T q I e e x v W _ W F J D l v [ ).L.] Q.+XUXUX*XoXoX+X+XXX X Xz.7.7.c.7.c.c.c.%XVXAXCXjX6XjXlXBXBXlXcXcXcXZXZXBXlXZXSXNXn.7 C B U U B B B B z F F F F F D D D D D D D A b b N N N N N N n n > > #.%.:.c.*XmXHXAXBXkXcX<XB.D.m.B.rXzXZXzXzXZXBXNXCXfXuXuXnXiXiXiXiX7X=X-X7XiX-X%X%X=XiX%X-XtXz.3.z.@Xx.|.@X|.] & . q q q q B ) z 2   x 0 9 9 x z ` x.x.x.x.x.l.` 6.{.'.E.Q.Q.!.!.XXyXFXFXnXmXNXNXnXfXqX1XrX,X4XeXwXwXwXpXMXwXqX6X1X,X<X<X,X:XV.V.:X<X",
"BXBXBXBXzXzXzXzXlXlXAXCXM.o.7 M M V Y ( ' ' ' ( { '.{ 6.W.E.!.Y.Y.).U.Y.'.l.x.b.M.M.M.b.z.B e c I x x k z G ` ) & k q q k w k ) a.g.g.a.l.l.z.@XXXyXyXtXbXbXtXtXtXtXyXyXyXyX*X*X*X%X.X.Xv.#X2XwXCXMXfXfX6X&XM.M.>X6XjXBXDXDXNXlXAX4X9.&.,.9.4.*.8.W.].'.(.(.W u h p p p s s s u u F z z z z B ) 5.1.<.1.*.C m m %.v.CXVXMXCX9XBXkXkXBXBXqX:X1XBXNXjXjXNXBXAXnX7X2.4.2.2.8.8.5.5.6.6.E.W.W.7.W.W.W.W.E.E.'.d.a.a.a.p.a.d.[ v 0 0 9 9 x i i b b .   q q & & - n ` p.f.f.f.f.s.^ [ U.U.K.).+X}.+X+X+XXXXX].].].].7.1.3.7. Xc.0.c.c.7XNXHXSXDXDXZXZXZXZXlX>XC.&XlXLXZXxXSXSXSXVXv.M *.H 1.) ] { { { Q.I.' W W E Q Q S S S S S D D A b ( ] { { ] Y Y V m , ..#.#.=.9.$X4X:X2X4X:X6XhXdXhXdXjXjXdX9X6XhXqXjXBXJXVXmXmXtXtXmXFXFXtXtXmXiXaXmXmXmXtX-X*X*XtXXXz.d._ p.S ! ^ W x 9 q e 9 c { '.{ ' I.L.I e q q x L W W ! F _ D l b [ I.I.E.6.*XtXIXFXFXIXFXFXFXFXFXFXmXFXFXIXJXFXGXJXJXMXMXjXjXjXjXNXBXzXcXcXcXZXZXBXBXBXNXSX>.7 n B U U V B B B z A A F F D D D D D D F D A b z N B B N N N n n > , #.%.:.c.#XVXHXNXZXZXkXvXZ.N.B.N.rXxXzXZXZXzXlXjXjXlXjXfXfXMXMX9X7X&X&X2X0X9X3X-X3X3X=X&X7X=Xc.3.x.@X@X@X@X@X{ j . w $ c U ( [ ` A 2 x 9 9 x i z a.x.x.x.b.x.x.3.7.].'.'.E.E.W.W. X*XFXnXjXjXkXNXkXkXeXeXeXeXeXqXqXqXeXeXwXjXjXqX1X,X<X,X1X<X:X:X<XqX",
"BXBXBXBXBXzXzXzXlXlXBXCX&X,.:.9.v.c.c.].].}.}.}.oXyXoXoX*X+X{.Q.Y.Y.Y.Y.'.l.l.x.M.M.M.b.z.Y c I I x c k k z B z & k k k c k c ` a.g.a.a.a.l.x. XXXyXbXFXFXFXFXFXFXFXFXFXmXtXtXtXtX-X=X=X&X&X2X4XMXMXCXCXjX3X>X3XjXjXjXfXgXgXgXlXCX2X9.&.,.9.:.*.1.6.E.'.I.[ W a p p p p s s s u l F l l z z B ) 7.1.<.V V n n m 6 b.mXCXCXCXdXCXkXkXwX,XN.B.V.6XBXNXNXCXBXCXnXiX%X*X*X*X*X*X*X*X*XyXyXyXyXyX*X*X+X+X].E.'.d.d.f.a.p.a.f.s.L i 0 e 9 9 9 i v b i 9     & & & B ` p.f.f.f.f.s.! [ P.P.K.OXyXyXaXFXFXFXFXbXbXFXFXaX.X.X*X=XtXiXtX=X9XNXAXAXAXSXSXZXSXSXlXV.M.C.dXzXcXxXSXSXSXNXb.M V V ) ) ] ] { [ I.I.( W Z Z S S S S S S S S D D G ( ( ] ] ] ) Y V m , 6 ..#.=.9.$X2X2X2X2X&X>X6XjXxXjXjXjXjXdX6X6X6X6XlXBXCXnXnXnXnXmXmXFXnXnXmXGXGXGXmXmX8X-X-X-XbXoXx.a._ p.! Q ^ E i 9 9 q q c ( d.{ { K.' I e q 9 x L W W W A _ G z A { I.L.5.5.oXyXGXmXmXKXGXGXGXGXGXAXAXAXKXJXJXJXJXHXHXBXNXjXjXjXlXBXBXzXcXcXcXZXDXBXBXBXDXJX>.7 C B ( ( V B B B G G A D D D D S D D D F D A A z z B B N N N n n > , m %.:.c..XmXJXCXZXZXZXzXhX<X:XrXeXzXzXZXlXlXjXhXhXxXdXdXwXjXwXqX0X4X2X4XwX6X>X>X>X2X4X2X0X=Xc.;.l.XXx.XX@X|.6.k $ w q B { { [ [ ! E x 9 q x j A x.x.x.x.x.x.x.z.z.].].'.E.W.W.7. X=XmXjXhXxXkXzXkXkXhXeXhXeXqXqXqXqXqXqX6X6X6X6X1X,X,X<X1X<X1XqXhXkX",
"BXBXBXBXBXlXzXzXZXlXNXBX4XN.&X0X2X=X#X*XyXyXtXyXFXFXmXFXaXyX+XW.I.Y.Y.Y.'.'.l.x.b.b.b.b.|.) c c I x x c z B ( B q k c c c k c ` a.g.a.a.a.l.z. X XyXFXFXFXmXmXGXGXFXmXFXmXmXiXiXiXiXiX8X3X2X:X&X3X9XNXCXNX9XwXMXNXNXlXlXgXgXgXfXMX&X,.>.,.9.:.*.1.) ] I.{ W v u h p p p s s u u F F l z z B V ) 5.1.V V C n n m 5 4.uXGXAXBXdXNXMXkXwX>XB.n.B.>XBXBXCXBXBXCXMXuXnXnXnXnXuXaXmXFXFXFXFXaXaXFXiX=XyXyXXX6.E.'.d.d.a.p.a.f.d.W x 9 e x 9 9 l v v v j     & . k H ` p.f.f.f.f.[ W P.P.I.L.+XaXaXFXVXFXFXFXFXGXGXGXmX%X=XiXVXCXCXMXnXjXlXlXBXAXSXSXZXZXSXZX>XV.dXZXzXcXcXSXSXSXnX9.5 V V ) ) ] ] ] [ I.[ _ W Z Z S a a a S S S S D A G G ( ' ] ] ] ) V m 6 6 6 #.=.9.$X0X4X3X:XV.&X>XjXxXjXNXNXNXjXdX6X>X<XdXNXNXnXnXnXnXnXVXmXnXmXVXAXBXCXmXfX8X-X-X-XmXoXx.a.J _ ! S i.! v i 9 q q j v ( { I.P I x x q 9 x W E W W A _ G z G { { ] 1.1.%X-XGXnXfXNXCXCXCXAXAXAXZXAXVXJXJXJXJXJXJXNXCXNXjXNXBXBXBXBXcXcXcXZXDXBXBXBXAXJX>.M C ) ) ) V B B z G G J D D D S D D D D D D A A z z B B N N N n k > > m #.:.9.v.mXJXNXBXBXZXZXZXzXxXxXzXBXBXzXjXdXhXhXhXqXhXhXjXqXqX6X4XqXeXeXeX,X,X,X,X>X4X4XuX-Xc.;.3. XXXc.|.|.z.B - w q U { P.[ ^ ^ ^ x x x j j J x.x.x.x.x.c.x.z.z.].].].W.W.W.7..X=XMXjXhXxXzXzXkXkXkXkXkXhXhXkXhXkXjXqX,X,X,X6XqXqXqX1X,X1XqXqXjXhX",
"BXBXBXBXBXlXzXzXZXlXlXNXwX3X0XCX0X3X=X=XtXmXmXmXKXJXCXGXGXaXyX].{ I.I.I.Q.E.{ l.x.x.x.b.XX6.L x I x x b ( 6.'.6.b c k j j j B ` a.a.a.a.l.l.]. X XyXFXFXFXuX8XnXCXmXmXmXnXfX8X8X8X8X9X9X0X4X2X:X>X5X9XjXjXjXjXMXjXjXlXBXDXlXgXgXNX&X,.>.,.9.:.*.1.) ] E.] v u u h p p s s s a u F F z z z B B V ) Y V C C C V V 5 :.iXJXAXBXjXNXjXNXNXjX>XV.&X6XBXBXBXBXCXMXMXnX9X9X9X9X9XuXuXiXiXmXmXiXuXpX7X#X$XyXXX7.E.'.d._ f.p.a.f.d.( x 9 9 q 9 x W W v W b 9 q q . k ` _ f.f.f.f.f.[ ' P.Y.I.L.+XaXaX0X4XuXmXmXnXmXMXuX7X%X7XAXJXMX9XMXCXjXhXlXlXZXSXZXZXzXSXSXZXZXSXSXcXcXcXSXSXHXnX4.5 V Y ) ] ] ] [ [ { [ [ ! Q S S a a s a S S D D D G G ( ' I.I.] ) V m , , 6 #.=.,.$XpXwX4X2XV.:X>X<X6XdXjXNXNXMXMX6X>X>X6XdXdXdXfXnXnXfXnXnXnXmXNXCXCXMXfXfXdX5X5X-XnX*Xc.l._ _ ! a i.^ E i       & 4 l ( ( x e x x j i v E E W A A G G z ( { ] ) 1.2.*X-XAXCXjXlXBXBXBXBXBXzXzXBXBXAXSXAXAXSXSXNXBXNXNXNXBXBXBXBXcXcXDXDXBXBXBXBXDXJX>.M V Y T ' ) V B z G G J D D D D D D D D F D A z z b B B N N N c k r > m m :.4.v.iXJXNXBXBXzXZXZXZXzXzXzXBXBXlXdXdXdXhXhX<XxXkXhXqX,X,X4X4X4XrX:X:X:X1X6X,X,X2X9X-Xc.;.4. X.XoX@X|.|.` k w w c L W ^ [ W L x x q i z ` x.x.x.x.x.z.z.z.c.c.].W.7.7.~.0..X-XMXjXxXxXzXzXkXkXjXjXjXjXhXhXhXhXkXjXqXqXqXqXqXqXwXqXqXqXqXqXqXqX",
"BXBXBXBXBXBXzXzXBXkXhXqX6X>X,XwXqXqX0X8XuXmXVXBXBXBXNXAXCXmXiX X3.E.E.E.!.E.5.3.x.x.x.x.@X'.U x L c b U ] '.].l.'.( x x j j G ` a.a.a.a.l.l.]. X XyXFXGXCXnX9XjXMXMXMXNXNXfXfXfXdX6X6X6X0XqXqX0X3X5X5X9XNXBXCXMX6XjXlXBXDXNXgXfXNXV.,.>.9.,.;.1.7.6.!.[.{ v u a h p p s s s a F F l z z z z B B Y Y Y V V V V V 5 ;.-XJXCXNXlXBXNXNXNXBXNXjXxXlXlXBXBXNXMXnXnXMX6X9X9X9X9X9XuXuX8XMXuX0X0XMX0X&X%X=X.X7.6.'.(.` a.a.a.a.f._ v   9 q i v [ ! Z W v 9 q & . z ` J f.p.f._.d.[ [ I.L.L.] XXFXmXjXqXCXCXCXMXMXMX9X3XM.&X4X6X9X9XjXjXdXhXhXzXzXzXlXcXZXcXZXSXSXSXcXlXcXcXSXSXHXiX;.n V Y ) ] ] ] ] [ [ _ ! ! Q Q S f a a S S S D ! _ G G b ( ' ' T U C m 6 6 ..#.=.:.$XCXMXwX4X:X6X6XV.&X>X6XjXNXNXNXfX5X3X6XdXdXdXdXjXfXfXdXdXnXNXNXBXBXNXnXfXfX9X9X9XGX=X Xl.` _ ! a Q ! E v   . . .   4 j x x e e x j j v E E Z A G G B C ) 5.] 5.1.2.*X-XJXBXlXzXZXZXBXZXZXcXcXcXZXAXSXAXSXSXAXAXBXBXNXNXBXBXBXlXcXcXDXDXBXBXBXVXAXJX>.M V Y T T ) H B G G G D D F F D D D D D D A F F z b B U B c c c k n n m m ;.4.c.tXGXCXBXBXBXZXZXZXzXlXlXlXCXNXjX6XhXhXhXqXhXhXqX4X,X:X4XeX4X,X:X:X,X1X,X:X:X:X2X=Xc.2.7.z..XoX|.|.|.` n - w q i v W ^ L x q q 9   z a.l.x.l.x.z.z.z.z.z.z.7.7.8.7.7.0..X-XMXjXxXxXkXzXMXjXjXjXjXjXjXjXjXjXxXjXjXqXwXqXeX,XwXkXBXBXwXwXjXjX",
"BXBXBXBXBXBXzXzXZXzXkXhX6X>X>X,XeXqXjXNXMXnXNXAXZXzXzXAXMXCXGX.X1.7.W.!.W.W.6.6.x.x.x.x.|.].( c c c b ) { '.|.l.}.( x x j j ( ` a.a.a.` ` 6.7.z.z.yXGXVXCXNXjXjXjXfXfXjXlXfXdXdXjXdX6X,X,X4XqXwX3X3X3X6XNXAXAXMXNXNXlXlXgXgXlXlXBXN.,.>.9.:.:.4.W.W.[.{.I.A l Z h p s s s a F F F z z z z z B V ) 5.1.) ) 1.) V n M *XJXVXNXNXBXBXNXjXjXlXBXBXBXlXlXlXjXfXfXnXMXjXjXjXjXfXfXnXnX9XnX9X9X9XjXwX,X3X7X#X8.5.E.I.d.a.a.a.a.a.` b 9 q q i v E E Z W i       & z a.p.f.p.f.|.d.{ I.I.L.L.] XXFXMXzXxXjXMXMX9X9X9X6X>XB.b.B.V.6XjXdX<XdXdXlXzXhXdXdXlXZXdXdXcXZXcXcXSXcXcXSXDXHXtX;.C V Y ) ( ' ' ] [ ( W W ! Q Q S f f f S S S D ! _ G G b z b I L B N m m ..#.#.=.=.#XpXpXwXqX4XwX6XV.V.>X6XjXNXMXCXMX9X5X6XdXdXdXdXlXlXjXfXfXNXNXNXVXCXMXfXfX6X6X7XCXGX*Xz.3.( ! S a f Q ! v j & . & & & q j x x x j j v E E E Z A A G B C ) 1.) 5.<.8.*XtXJXDXBXBXZXAXZXZXZXcXcXcXcXZXZXZXAXAXZXBXBXBXBXBXBXBXBXlXcXlXBXNXNXBXBXAXVXKX;.M V Y T T ) H G G G G D D F F F D D D D D F F F z b B U B B c c k n n m m ;.2.0.tXGXmXAXNXZXZXZXZXZXBXBXNXNXjXjXjXhXxXhXhX1X1X,X,X4X4X4X4X4X4X4X,X,X<X,X:X:X:X2X=Xv.2.7.z.c.b.x.x.|.l.C w w q q x v v x e 9 9 9 j ( d.d.l.l.'.].z.z.z.z.7.2.2.2.8.0.0..X-XMXjXxXlXlXNXMXMXNXgXjXjXjXjXjXxXjXqXqXhXwXqX,X:X4XqXMXMXwXwXjXCX",
"BXBXBXBXBXBXzXzXlXzXlXhXqX6X6X6XqXqXjXjXjXNXNXBXBXzXzXAXMXmXGX.X2.0.~.W.~.W.W.7.4.z.x.x. X|.] L x e c B ( { '.{ { x i j j j G ` g.a.a.` ` 3.7.7.7.yXFXmXMXMXeXqXqX6X6XdXhXdXdXdX<X<X<X<X>X>X4X6X>X3X3X3XwXCXBXNXNXNXlXlXgXgXgXgXAXN.,.,.9.:.;.7.W.W.{.{.'.W v u s h s s a a F F F F z z z B H ) 6.7.7.5.5.5.1.H n M *XJXmXmXNXNXBXCXjXfXfXlXlXlXlXlXjXfXfXfXnXMXdX9X9X9XfXfXfXfX9X9X3X3X6X6XqXhXhXwX$X7.6.E.I.d.a.a.g.g.a.a.G j q q 9 i i u u i         4 A J p.f.p.f.|.{ { E.L.I.I.{ XXmXfXxXxXjXMXMXfXjXjXjX6X>X&XV.>XfXAXVXfXdXhXxXzXhX<X<XdXlXdX6XhXcXSXSXSXcXcXcXDXHXtX;.C ) ) ) ) ] ] [ [ _ ! ! Q Q S i.t.t.i.i.S S D ! _ G G b b b L U U V V M #.#.#.=.=.M.9X9X0XqX6XwX>X&X&X5XdXNXCXMXMXnX8X5XdXfXfXdXdXjXlXlXdXlXBXBXjXMXMXnXfX9X6X4X4XCXCX.X4.` ( W Z S S Q ! W b k w & & & j j e e x x l v W E Z Z A G H V V 1.1.Y ) Y 8.yXtXJXAXDXZXZXZXZXDXDXcXcXcXcXcXZXZXZXBXBXBXZXDXDXZXZXZXBXNXDXlXBXNXCXVXAXVXAXKX;.M Y Y T ] ) G G G G G A F D F F D D D D D F F F z b U U U U B c N n n m m *.2.0.=XGXFXVXNXDXDXZXZXZXBXlXjX9XwXjXjXjXhXhXhX<X<X,XeX4X4X4X2X2X4X6X6X6X<X:XV.:X:X2X=Xv.4.4.3.c.b.x.x.|.l.) C w q q i x e e e q q q b { l.d.'.'.'.'.W.W.W.7.8.*.1.1.2.0.0.v.-XCXjXjXlXNXNXNXnXmXmXNXmXjXjXjXjXwXwXwXwXwXqX4X:X4X4XwXpXMXwXMXMX",
"BXBXBXBXBXBXBXzX6XhXhX6X<X6XhXhXkXhX6XdXjXNXNXlXlXkXBXAXdXMXGXv.:.0.0.~.~.~.W.7.3.z.x.x.z.].{ U c x j q j b ) { b     j j j _ d.J a.a.` ` 7.z.z. XyXGXmXCXBXqXqXjX6X6XjXjXdXdXhX<X6XhXqX,X,X,X6X4XwXwX6X0XMXBXMXjXjXNXBXBXBXgXfXZXN.,.,.b.2.;.7.W.W.{.{.'._ A Z u s u s a Z F F F F F z z B H 3.W.].W.6.5.6.5.1.5 5 #XJXmXmXNXNXMXBXAXBXlXNXNXlXNXjXdXdXfXMXMXMXjXjXjXjXnXnXnXnXnX9X3X5X>X,XqXNXqX9X%Xc.W.6.{ { a.a.g.g.a.a.G j & . 9 i   i i .   9     j A J p.f.p.f.l.{ { E.] E.E.6.oXmXfXxXzXjXMXMX9XdXjXjX6XjXjXdX6X6X6XfXjXlXxXxXzXxX<X<X<XjXzXzXlXzXSXZXzXcXcXcXNXHXtX;.C ] ] ] ] ] L.{ { [ _ ! Q Q i.i.i.i.i.i.S S D ! _ A G ( [ [ ' ' ) Y V *.m ..#.=.=.M.2X2X3X0X4X6X>X>X6XdXjXNXNXNXMX9X8X5X9XfXfXfXjXhXlXjXdXjXBXBXdXfXnXnXnXfXjXwXpXCXpX.X7.6.{ [ E Q S S ! W ( b z & ; & k c e q x j l A W E Z Z W ( ) 1.5.7.1.Y 5.<.8.yXtXJXHXSXSXZXZXZXAXDXDXDXZXZXZXZXZXAXZXZXZXAXAXZXAXAXZXDXBXDXDXBXNXCXCXBXAXJXKX;.V ) ] ' ' ( ( ( G G A A F D D S S D D D D F A A b b U U U U L c c n n n 5 <.2.0.*XGXFXVXCXBXBXDXZXDXNXdX6X3X0XjXjXjXhXhXxX1X1X1XqXqX4X2X:X&X:X4X4X6X>X:XV.,X2X0X=Xv.4.8.1.z.c.@X@X@X|.3.V n w     q c e w q x x ( '.'.` '.d.'.E.E.W.W.8.1.*.*.1.8.0.0..X-XCXNXlXlXNXNXNXnXnXmXnXfXfXfXfXjXjXjXjXjXkXwXqX4XwXwXMXMXBXCXMXwX",
"BXCXNXBXAXBXlXjXjXjXdXdXdXhXjXxXlXlXlXjXjXjXlXlXlXZXlXDXBXNXmXM.,.,.0.0. XW.W.6.3.3.z.x.x.x.x.` c x x x j q k c q q & & j b ( ` J ` ` ` 3.6.]. X XyXaXaXVXCXMXMXfXfXdXdXdXdXjXjX6X6X6X,X,X,X,XqX6X6XqXqXwXwXjXjXMXNXNXlXNXjXjXjXkXB.>.,.9.;.5.W.{.].'.[.'.{ G F Z a a a F F F F F F F z z A ` l.'.W.E.E.6.6.3.1.n 5 #XJXVXNXNXNXCXCXCXCXNXNXNXjXjXjXfX9X9XfXnXMXfXfXfXfXfXdX9X9X8X9X9X5X5X9XjX9X6X9X=X9.7.3.6.6.` ` a.a.a.J J G j q .           9 9     l _ p._ p.f.f.d.d.I.E.E.6.8.1..XVXMXhXcXNXNXNXMXMXjXjXjXjXjX6X6X6X6XjXjXjXxXjXxXhX<X>X>X6XZXBXdXlXZXZXZXzXcXlXSXHXbX1.V ] L.I.I.L.L.I.{ ` _ S a f f S D D D D Q S D ! _ J G ( [ I.I.L.] ) Y *.%.#.#.&.&.9.0XwXpX2X4X>X:XhXxXlXlXlXlXNXCXMXuX8X8X9XfXjXdXjXjXjXjXjXjXNXNXgXgXfXfXjXjXjXjXCXuX%X2.].6.{ [ Q S S Q ! E W b k k & z b q c j l v W W Z v A W ( { 5.5.5.8.1.V V 2.=XGXJXHXAXHXDXZXZXZXZXZXZXZXZXZXZXZXZXZXZXZXZXZXZXZXZXZXZXZXZXDXlXlXlXlXlXBXDXJX4.B ( T I.P ' ( ( ( G A A A F S S S S S S S F F A b U T U U U U b c N n 5 5 <.2.0.*XGXGXnXNXNXDXAXBXdX6X9X9XwXMXMXwX>X&X:X<X,X,X,X,X,X:X&X&X&X;X3X3X6X6X,X:X,X2X7X=X.X7.6.6.) 3.].XXXXXXc.7.1.n ; & & & $ & & x ( { d.d.d.a.d.d.6.].W.7.5.<.V <.<.8.0.c..XtXmXmXNXNXBXlXlXlXlXjXjXjXhXjXjXjXjXjXjXwXwXjXjXkX6X6XwXjXNXjXjX9X",
"BXCXCXBXBXNXjXjXlXjXjXjXhXjXjXlXlXlXlXjXlXlXlXlXlXDXBXDXBXBXlXM.,.,.9.0. X X].].3.3.x.x.x.x.x.` z x j j j q q w w w q 4 j z ( ` ` ` ` ` 3.z.].c.c.yXaXFXVXCXMXNXfXfXfXfXfXfXjXjX6X6X6X,X,X,X<X1XqXqXqXqXwXwXjXjXjXjXNXNXNXjXjXjXkXN.,.9.0.1.8.W.[.[.[.[.|.d.( b Z Z Z Z F F F F F F F l z A ` '.'.Q.E.E.I.{ { ) n 5 #XGXVXNXNXNXBXCXCXCXCXNXjXjXMXjXwX9X9XwXMXMXfXfXfXfXfX9X9X9X6X9X9X5X5X9XfX9X6X9X=X4.7.3.6.6.` ` a.a.a.` J J b x             .     j A _ s.p.d.d.d.s.d.I.{ 6.1.1.*..XVXMXdXlXlXNXNXNXMXMXjXjXjXjXqXqXqXqXqXjXhXjXjXqX<X>X:X:X<XBXzXhXlXZXZXZXBXZXzXHXHXbX1.B ] L.T.I.I.L.I.{ ) G S f f t.S D D D ! i.S S ! p.J A ( [ I.L.L.' ) Y V m ....&.&.,.=X2XMX3X:X&X>XxXlXzXlXlXlXlXMXCXuXiXuXuXnXfXdX6XdXjXjXNXjXjXjXgXgXfXdXdXhXhXjXMXnX%X3.].'.E.{ ! S Z Z E E ! ( G G z H G k b v v Z v v i l L W ] { 6.] 1.1.<.M *.2.=XGXJXHXAXHXZXSXZXZXZXZXZXZXZXZXZXZXZXZXZXZXZXZXZXZXZXZXZXZXDXZXzXzXkXxXzXlXDXJX4.B ( ' L.P ' ' ( ( W A A D S F F F F S S F F A b b U T T U T L b c N n 5 5 *.2.0.$XFXGXnXNXlXzXzXjX6X3X7X9XpXwXwXqX4X,X6XqX1X6XqX6X4X,X2X2X3X0X9X6X6X6X1X,X:X2XiX7XXX7.6.{ { 6.]. XXX.XXX Xz.H n = = - w k B ( { d.d.d.a.a.d.d.{ 6.E.5.5.<.V <.<.8.0.0..XtXmXmXNXNXlXlXxXhXxXxXxXhXjXjXjXjXjXjXjXjXjXjXjXxXjXhX6X6XjXjXjXjX",
"BXCXBXBXNXdXdXjXNXlXjXjXjXjXlXlXlXlXlXlXlXlXNXBXlXZXlXBXBXBXlXN.-.,.,.0.7. X].].6.3.3.z.x.XXx.a.G z j j j k q q & & j j z z G _ ` ` ` 3.l.]. X7.7.*XmXmXCXNXNXNXfXfXfXnXjXfX9X9XqXqXqX4X,X,X,X1XqXqXqXqXqXqXqXqXjXxXjXNXNXlXjXjXxXN.,.9.c.2.8.E.W.[.[.[.|.'.` z v Z Z Z F F F F F F F l z G { '.'.Q.E.E.E.6.3.1.n 5 #XGXNXnXgXBXCXNXCXNXjXjXjX6XwX9X9X9XwXjXMXjXfXfXfXfXfX9X9X9X6X9X9X5X5X9XfX9X6X7X$X:.5.3.E.6.{ ` ` a.a.a.` ` ` b j &   . .   .   j A _ _ s.s.d.d.d.s.[ { { ] Y <.*.v.CXMXdXdXlXNXNXNXNXMXjXdXjXjXqX6XqXqXjXjXhXjXxX6X>X&X&X&X>XlXBXjXzXZXZXZXZXZXBXHXJXbX1.B 5.L.L.I.I.I.I.{ ( G S f t.i.S D D D D i.! i.! _ J G ( [ I.L.L.] ] Y M m 6 ..&.&.,.$X=XCX4X&X&XdXlXlXlXlXlXlXjXfXCXmXnXnXnXnXfX9X5X6XjXNXCXNXjXdXgXgXfXdXdXhXhXdXnXmX*X3.{.'.[.'._ ! A Z Z W ( _ ) ` H H G z G b v v i i i v W ' I.E.6.] ) 1.Y C *.2.-XJXJXHXDXSXSXSXSXZXSXZXZXZXSXAXAXZXZXZXZXZXZXZXZXZXAXAXAXAXAXZXZXzXzXzXzXlXAXJXz.B ( ' L.' ' ' ' ( W A A F F F F F F F S F F A A ( U T T T T U L c n n 5 > *.<.9.#XuXCXjXlXxXxXxX<X>X>X4XwXMXwX9X6X6XqXqXqXqXqXqX6X6X4X4X4X0XwXwX6X6X6X,X,X,X2XuXtX.X6.6.{ { 6.7.]. XXXXX.XXXz.1.C C C V ) 6.'.'.'.d.d.d.d.d.d.l.E.6.5.Y <.V *.<.8.0.c..XtXFXmXNXNXlXlXlXxXxXxXjXhXjXjXjXjXkXjXjXjXjXjXxXxXxXhX6X6X6XhXxXxX",
"NXNXNXNXjX6X6X6XlXjXjXjXjXjXjXlXjXjXjXlXlXNXBXBXlXDXlXBXBXBXlXN.-.-.:.2.7.W.].].].7.z.z.x.z.|.x.l.` B k j & & & & 4 j z z G J _ ` ` ` 6.z.].z.7.4.*XFXmXCXBXlXlXfXfXnXMXMXfX9X9XjXwXqXqX,X1X1XqXqXqXqX6X6X6X6X6X6XjXjXNXBXNXjXjXkXN.,.9.0.2.8.E.W.{.{.'.|.}.{ A v F F F F a a a a F l F A _ l.{.'.Q.[.'.'.E.5.1.C 5 v.GXMXfXgXDXlXjXNXjXjX6X6X6X9X9X9X9XjXjXjXjXfXfXfXfX9X9X9X6X6X9X9X5X5X9XjXwX9X3X#X;.1.] E.I.{ [ ` ` ` a.` ` { ( b z j 4 & & k z A ` d._ p.d.d.d.s.[ [ { ] ) Y V M v.CXNXdXgXjXNXNXCXCXMXjXjXjXjXhXqXqXwXjXjXjXxXxX6X:XV.V.&X>XjXlXlXZXZXBXZXZXAXZXHXJXmX1.V ] L.L.L.I.I.I.{ ( A Z S i.i.D D D D D D ! ! ! _ G G ( [ I.L.L.] ] ) V m 6 ..&.&.9.2X2XCX4X3X4XlXNXlXlXlXlXlXlXjXMXMXMXMXMXfX9X6X5X6XjXBXBXNXMXfXNXgXjXfXdXhXjXfXnXmX*X3.].[.[.[.'.{ _ W W L L A G H G B z z b b v v v E ~ P.P.I.I.E.I.] Y Y Y C V :.-XJXJXJXDXSXSXSXSXSXSXSXAXZXSXAXAXAXZXZXZXZXDXZXAXAXSXSXSXSXSXAXZXZXcXzXzXlXDXJXc.H ( ' L.' ' ' ' ( W A A F F F F F F S S Z A A A ( U T T T T U L c n n 5 > *.*.9.#XuXMXjXzXxXxXxXdX,X>X6XjXwXjXwX6X9XjXjXjX6X6X,X,X4X4X4X0XwXwXqX,X>X,X,X:X4X2XiXtX X6.6.6.{ { 6.6.z.]. X X.XXXz.3.) 3.7.].'.'.'.'.d.d.(.(.(.(.'.E.5.Y Y Y V *.<.8.0.c..XtXGXmXVXNXlXlXlXxXxXxXxXxXxXxXxXxXMXkXkXjXjXjXjXxXxXhX6X<XdXhXhXhX",
"lXlXlXlXdX<X<X6XjXjXjXjXjXjXjXjXjXjXjXjXlXlXBXBXlXBXlXBXBXBXBXV.&.&.:.2.7.W.].].].].z.z.3.l.x.l.|.x.` G z 4 & & k z B G G ( _ ` ` 6.l.z.].].z.7.4.*XGXNXNXlXhXhXdXfXfXMXMXfX9X9XjXjXqXqXqXqXqXqXqXqXqXqX6X6X6X6X6XhXjXlXzXlXjXjXkXN.,.9.0.1.8.E.E.[.[.'.[.}.'.( b F F F F a u u u u u F W [ '.{.[.[.[.[.'.E.6.1.C 7 v.AXNXfXgXlXlXjXjXjXdX6X6X5X6X6X6XdXdXdXjXjXdX9X9X9X9X9X9X6X6X9X9X5X6X9XjX9XjX3X#XV ) ] I.I.P.[ [ _ ` ` ` ` { ` ( ( H B z z ( G _ { ` _ _ d.(.(.[ [ [ [ ' U Y V m 0.CXCXlXBXjXNXNXCXCXMXjXjXjXjXjXjXjXjXjXxX6XjXjX6X>X&X&X&X>XjXlXlXBXDXBXZXZXAXDXHXJXmX3.H ] L.K.L.I.I.I.{ ( G D S i.i.i.D D D D S ! ! ! D G ( ( [ I.L.L.L.] ) V m 6 ..&.:.v.pXuXMX3X9XjXNXjXjXdXjXlXBXNXNXnXMXMXMXfXdX5X5XdXdXjXNXCXNXCXNXNXmXfXdXdXjXfXnXmXmX*X6.].[.[.[.].].E.{ ] ( ( B B H G k 4 b A A ~ ~ ~ P.Y.).).).I.I.L.] ] Y Y V M :.-XJXJXJXDXDXSXSXZXZXSXSXZXAXSXSXAXAXAXAXAXAXZXAXAXAXSXSXSXSXSXSXAXZXZXcXzXBXAXJX XH ( ' ' ' ' ' ' ( W A A F F F F F F S S S A A W ( T U T T T U L c k n > > %.=.4.#X8XjXdXzXxXxXxXhX6X<X6XwX0XMXNXdX6X6XwXqXqX4X4X4X4X4X0XwXqXqX4X:X:X>X,X>X2X2X7X*X~.5.6.E.{ { { 6.6.6.6.7.]. X X7.6.z.].].l.l.'.'.(.(.(.).(.(.'.E.] Y Y Y V *.<.8.0.c..XtXGXVXVXNXNXlXlXxXxXxXxXjXjXjXjXjXkXkXkXkXNXNXNXjXxXhXhXvXhXhXhXhX",
"lXhXjXjXdX6X<X6XjXjXjXjXjXdXjXjXjXjXfXjXlXlXBXBXlXBXjXBXBXBXBXV.&.&.=.2.8.W.{. X].].].z.3.` l.d.l.x.l.3.3.) B z B B G G ( ( _ ` { '.].].].].7.4.2.=XGXVXlXlXlXhXfXnXnXnXjXfXdX9XkXjXqXqXwXjXjXjXqXqXqX6X6X6XqX6X6XhXjXlXlXlXjXjXBXN.,.9.4.1.7.W.Q.[.'.E.'.|.'.{ A A F F F a s 3 3 u u Z _ (.[.{.{.{.{.[.'.E.6.3.C 7 M.AXNXgXdXlXlXNXlXjXjXdXdX6X6X6X6XdXdXdXdXdX9X9XfX9X9X9X6X6X6X9X9X5X5X9XfX9XjX7X.XV ] ' T.K.U.P.[ [ ` ` { ` ` _ ` d.6.` ` ` ` ` ` _ _ _ [ d.P.I.P.[ ' ' ' R Y V m 0.CXCXNXDXNXNXNXMXNXMXNXNXjXjXxXxXjXjXxXxX6X6XdX6X>X&XV.V.>XdXjXjXBXBXlXZXBXAXDXAXJXFX3.H ] ] L.I.I.I.I.{ ( ( W ! i.i.i.D F F S S ! ! ! D G ( ( [ I.L.L.L.] Y C 6 6 ..&.&.M.CXpXMX3XNXNXjXdXdX6XdXjXNXNXNXnXMXMXjXdX6X6X6XjXjXlXlXNXCXCXCXMXMXfXdXjXjXMXnXmXFX*X6.].'.[.[.E.].].{.'.E.{ { ` 3.` z z _ [ [ (.Y.Y.Y.Y.Y.Y.Y.I.L.' ' T Y Y V M :.-XJXJXSXDXSXSXSXZXZXSXZXAXAXAXAXZXZXAXAXAXAXAXAXSXJXJXJXJXJXSXSXAXAXZXZXZXBXDXKX.XH ( ' ' ' ' ' ' ( ( W A Z F F F F Z S S D A W ( ( T U T T T L L c k n > > M =.9.#X9XjXdXlXvXhXxXxX6X6X4X4X0XMXCX9X6X6XqX6XqXqX4X4X4X0XwXwXeXqX4X:X:X>X,X>X:X&X=X*X7.1.6.E.{ { E.E.6.6.6.3.6.z.z.6.3.6.6.6.l.l.'.'.'.(.).).).Y.Y.I.] Y Y Y V *.*.2.0.0..XtXKXVXVXNXMXjXjXxXjXxXjXlXlXlXlXjXjXjXjXMXNXNXNXNXjXhXhXhXhXhXhXqX",
"lXhXdXhXhXdXdXdXdXdXjXjXfXfXdXdXjXjXjXjXjXjXlXNXjXBXjXNXNXBXBXV.-.-.=.2.8.W.{.{.{.]. X Xl.{ { ` ` l.l.l.z.z.3.) B ( ( ( ) ` { { '.{.{.{.].W.8.1.1.=XGXVXNXcXlXhXlXjXjXfXfXdXdXdXjXjX6XqXjXjXjXjXhXhXqXdXdXhXjXjXhXjXjXjXjXjXjXjXBX&X,.9.4.1.7.E.E.Q.Q.Q.[.[.'.'.( G b F F a s s 3 u u S [ [.{.[.{.{.{.[.'.'.6.3.C 6 M.SXBXlXlXlXlXlXjXjXjXdXdX6X6XdXdXdXdXdXdXdXdX9X9X9X9X9X6X6X5X9X9X5X5X9XfX9XwX7X.XV ] T K.G.U.P.P.[ [ { ] ` ` _ _ ` { { ` { ) ` ` _ _ [ [ [ [ P.P.K.' ' T R V V m v.GXGXCXNXNXCXMXMXMXMXNXCXjXjXjXjXjXjXxXxXhXjXdX6X6X>X&XN.3XfXjXMXNXNXgXDXNXAXBXAXJXFX3.) ] ] L.I.L.I.I.{ ` _ ! ! ! i.D D F F S D ! ! ! _ _ ( ' P.I.L.L.L.] Y C 5 6 6 #.&.$XCXuXCXMXCXMXjXdX6X5X6XfXCXNXNXnXMXNXjXdXdXdXdXjXlXlXlXNXNXMXMXnXfXfXdXjXjXMXMXmXmXoX5.].Q.[.[.E.W.{.{.[.[.[.'.W.6.6.z z (.(.(.).).).Y.Y.Y.U.Y.I.K.' T U U U V C >.-XJXHXHXDXSXZXZXZXZXZXZXZXZXZXZXZXZXSXSXSXHXSXSXJXJXJXJXJXJXJXSXSXAXAXZXBXAXVXKXoX) ( ' ' ' ' ' ' ( _ ! A D D F F F F Z D D W W ( ( T U T T T L b c k n > > m *.9.#XuXMX6XjXhXhXxXjX9X6X4X4X9XMXMX9X9XjXjX6XwXqX4X4X4X0XwXwXeXeXeX:X:X:X:X:X:X2X7X*X~.5.5.{ { I.E.E.E.E.E.6.6.6.6.3.3.6.6.6.'.'.'.'.(.).Y.Y.Y.Y.I.L.] U U Y V *.*.2.0.0..XtXKXVXVXNXMXjXjXkXjXxXlXlXlXlXlXlXjXjXjXNXMXCXMXMXkXjXqX6XqXhXjXjX",
"zXhXdXjXlXjXjXjXdXjXjXjXjXjXjXdXjXjXjXjXjXjXjXlXjXBXjXNXNXBXBXV.,.,.:.2.8.W.].{.{.].XXXX].'.d.` l.3.` ` 3.6.` B ) ) { { { E.'.{.OXOX{.{.{.W.8.1.;.*XJXVXNXDXcXzXlXMXfXfXdXdXdXdXjX6X6X6XjXjXjXjXjXdXhXhXhXjXjXjXjXjXjXjXjXjXjXjXBX&X9.9.4.1.6.E.E.E.E.[.[.[.'.'.` G z l F a s s s s a ! (.}.OX{.{.{.{.[.'.'.6.3.C 6 #XJXDXlXlXlXfXdXdXdXdX6X6X6XdXdXdXdXdXdXdX6XdX9X9X9X9X6X6X5X5X9X9X5X5X9XfX9XwX7X.X) ] T R.G.R.G.G.K.[ { ] ] [ _ _ _ ` ` ` { ) { { [ ' [ [ ' ' T.L.K.' ' T R C V m v.GXGXCXNXNXCXMXfXjXMXNXBXjXlXlXlXjXjXjXjXNXjXjXjXdX5X&XM.7XnXnXnXCXMXfXAXNXAXVXAXJXFX4.) ] L.I.I.L.K.I.I.{ _ _ W ! ! D D F F S D ! _ _ _ ( ( ' I.I.K.L.L.] Y V m 6 m =.=.sXpX0XJXGXCX9XMXfX6X5X8XnXNXMXnXMXMXNXjXdXdXfXjXfXjXlXNXNXNXnXfXnXnXfXfXjXjXMXMXmXmXoX5.].Q.[.[.'.'.[.[.[.[.[.[.'.W.6.k c E.(.Y.U.Y.Y.).Y.Y.Y.Y.Y.K.T L L N U B m :.-XHXHXSXDXSXZXZXZXZXZXZXZXZXZXZXZXZXSXSXHXHXJXJXJXJXJXJXJXJXJXJXJXSXAXAXAXBXVXKXoX) ( ' ( [ ' ' ' [ [ ! W D D F F Z A D A A W W ( ' T T T T P L b c k n > > M =.0.$XmXnX9XMXNXNXNXMXpX9X0X0XuXCXnX9XfXCXNX3X9X0X4X4X4X0X0XwXeXeXrX:X:X:X:X&X2X2XiXtX X6.5.6.] I.E.Q.Q.'.E.E.'.E.{ { 6.E.'.].'.'.'.(.I.Y.Y.Y.Y.T.I.L.] ( B V *.*.*.2.9.0.v.-XGXKXVXNXMXjXkXkXjXxXlXlXlXlXlXlX6XjXjXNXCXCXCXMXCXNX9X6X0XwXMXMX",
"lXlXzXNXlXjXdX6X>XdXjX6XjXjXdXjXjXjXjXjXjXjXxXjXjXNXxXBXBXAXNXB.&.&.:.2.8.W.{.{.{.}.}.XX}.}.}.}.@XXX].].].].E.{ E.E.[.{.{.[.{.[.OXOXOXQ.!.!.5.8.*.*XGXGXCXAXDXZXBXNXlXjXjXfXdXdXjXdXCXNXjXjXwXCX6X6X9X9XdXjXNXCXNXNXNXNXNXNXjXMXMX$X0.9.4.8.5.E.I.I.Y.Q.[.[.[.[.}.l._ A F Z s u 3 a u._.|.}.{.{.{.{.{.{.'.'.6.6.n M 7XAXdXZXdXdX6XdXfXfXfX9X5X5X6X>XfXlX6XjXBXdX6X9XfXfX9X6X9X9XfX9X6X9X9X9X9X6XwX9X.XV !.T G.U.R.G.G.K.' K.] ] [ [ [ [ { ' ' E.E.I.I.I.I.I.P.K.Y.T.K.' T T T Y Y t m 0.uXCXMXAXMXfXfXfXfXjXNXNXjXlXlXlXjXlXlXBXNX6XAXMXJX8X&X%XuXCXGXJXAXVXVXCXAXAXCXGXmX.X1.) ) ] L.I.I.I.I.I.{ _ W A A ! D D S S S S D ! _ A ( [ I.I.Y.Y.I.L.] ) V M , , #.:.0.&XGXJXGXMXnXnXCXMXMXMXVXVXVXmXCXNXnXfXfXfXgXgXdXgXfXlXNXNXnXfXMXMXMXjXdX9XMXMXJXGXyX].W.'.Q.I.[.(.).[.OX[.[.[.[.[.] c U L.Y.Y.Y.Y.Q.Y.Y.Y.Y.K.K.' T U U N B V M M #XHXJXDXLXSXSXZXZXZXZXZXDXDXAXlXSXZXAXAXLX9XnXnXCXAXGXnXuXmXnXnXMXnX9X9X6X8XmX-X X3.( ( ' ' ' ' ' ' ( _ _ ! A D D Z A D D W ( ' ' ' ' ' T P T L L c n n > > *.2.9.0.0.v.M.v.b.b.9.9.v.M.#X#XM.b.b.b.M.;XMX9X9XqXqX0X0XwXwXeXeXeXrXZ.V.&X:X:X:X2XiX=X X7.6.) I.L.I.Q.Q.Q.Q.Q.Q.E.E.E.] E.'.E.'.'.'.'.[.Y.Y.Y.K.T.I.] ( U B C M *.;.;.2.c.=XmXVXmXnXCXCXCXkXjXjXjXdXdXhXlXlXlXdXdXjXHXMX#X%X#X$X$X&X&X=X2X7X7X",
"BXBXBXBXNXNXjXdX5XdXdX9XNXjX6XjXjXjXjXjXjXxXjXjXjXNXjXNXBXBXlXB.-.-.:.2.8.W.{.{.{.{.}.+X@X+X}.}.@XXX}.}.{.{.'.E.E.Q.{.[.{.[.[.{.OXOXQ.Q.!.!.W.8.M #XGXJXGXDXNXDXBXBXlXjXjXfXdXdXjXdXNXjXjXCXNXCXMXnXnXnXnXMXCXCXAXAXCXCXCXMXMXMX2XM.9.9.4.1.5.6.I.I.I.Q.[.[.[.[.}.'.{ G F l u u u Z s.(.}.}.OX{.{.{.{.{.'.'.6.6.n %.uXHXfXDXdXgX9X9XnXMXnXnXfXfX9X5XjXNX5XdXNX6XjXjXMXjXfX9X9X9XjXfX9X9XjXjXfX9XwXpX#X1.E.T G.G.G.G.G.P.K.K.L.L.P.P.P.P.I.' [ Q.E.I.Y.Y.Y.Y.P.T.K.K.K.K.K.' T Y C m #.9.-XGXCXjXMXMXfXfXfXfXfXjXfXlXBXBXBXNXBXBXBXNXAX9XCX8X=X=XmXVXVXVXmXuX8X7X=X=X&X=X*Xc.H ) ) ] L.I.I.I.L.I.{ [ ( ( _ D D S S S S S D ! _ W ( { I.I.T.T.I.L.] ) V C > , #.:.9.v.=XiXuX7X7XuX8X8X8XiXmXVXGXVXmXnXMXNXNXfXgXdXgXgXgXNXNXNXmXfXMXMXMXjX9X9XfXMXVXGX*X7.6.E.'.{.[.).).).).).[.[.[.[.] c U L.Y.Y.Y.Y.[.Y.Y.Y.T.K.L.' T U U B B H 5 M %XHXDXNXSXDXZXSXZXZXZXDXAXDXZXlXZXBXAXSXJXM.:.:.,.9.9.:.:.:.>.>.:.>.>.>.>.>.4.2.;.V U ( ' ' ' ' ' ' ( _ _ _ A D A A A A W W ( ' ' ' ' ' T P T T L c N r > > M *.*.M m m m 6 %.6 6 6 6 m m 6 7 7 7 6 >.b.;X5X4X4X4X4X0X0XwXeXrXrX:XZ.V.V.:X:X&X2XpXiX*X.X X7.6.E.E.E.Q.Q.Q.Q.Q.Q.Q.I.] E.Q.E.'.'.'.'.Q.Y.Y.T.Y.I.] ] ) ) V M > 6 %.4..X=XiXiXGXCXCXCXBXBXBXlXlXjXjXjXlXlXlXlXdXjXjXMXM.%.o...%.%.*.;.:.:.9.9.",
"CXCXCXCXMXMXfXfX9XjX9XdXNXjX6XjXjXxXjXjXjXjXjXlXjXNXjXlXNXlXxXM.&.&.=.:.8.W.{.{.{.}.XXXX+X}.}.}.+X+X+X+X}.}.[.E.Q.[.OXOX{.{.{.OXOXQ.Q.Q.!.!.8.8.M .XGXJXJXVXNXNXBXNXlXjXjXjXfXfXjX6XdXfXjXCXCX3XM.M.M.M.M.M.#X#X%X%X$X#X$X#X#X#Xv.9.:.2.4.1.5.E.E.Y.Q.Q.[.[.[.{.{.|.'.[ A v l F Z ! (.|.}.}.}.{.{.{.{.{.'.'.6.6.n ;.iXJXnXnX5XfX9XuXuXuXuXuXnXfXnX9XCXNXfXfXfX9XjXjXfXfXfXfX9X6X9X9X9X9XfXjXjXjXjXMX$X*.5.] K.K.G.G.K.P.P.K.T.P.P.U.P.P.P.' ] Q.Q.Y.Y.Y.Y.Y.Y.T.K.K.K.K.' T U B V m , :.=XCXMXfXfXjXfXfXfXfXfXdXfXlXBXDXDXDXDXDXBXCXMXv.v.v.0.0..Xv.v.b.b.c.9.9.9.9.:.2.4.;.V ) ' ' L.L.L.T.P.K.I.[ ( ( ( _ D S S i.S D D ! _ _ [ { I.I.I.Y.Y.L.] 5.) C > > %.2.2.:.9.0.b.9.9.b.,.9.9.9.c.c.v.v.b.v.%X8XmXmXgXgXgXfXlXNXNXNXfXfXMXpX9X6X6XdXdXfXnXmX*Xc.3.6.W.{.'.(.(.).).).[.OX[.{.] c T L.Y.T.Y.Y.Y.Y.I.L.L.L.' ' ) ( B N n n @ %.%XJXNXDXSXSXZXZXZXZXZXZXDXDXDXzXZXlXAXHXBX>.1 : : 5 6 5 5 6 6 7 6 6 6 6 6 6 6 C C B ( ' ' W ' K.' ' ' _ _ _ _ _ _ A A ( _ ( ' ' ' ' ' ' T T ' T U b N n > > m m n > @ @ @ @ > > > > > > > @ : : : 7 6 9.-XMX3X4X4X6X0X4X4X4X:X:X:XV.V.V.:X,X:X3XCXCXiXtX*XXX X].W.W.!.E.!.Q.Q.Q.!.I.L.I.Q.Q.'.'.E.I.Y.Y.I.I.L.] ] ] ) B C C M :.v.*XtXiXmXmXAXVXNXNXBXBXBXBXlXlXlXlXzXzXhXdX6XjXCXnX,.1 1 1 @ @ : : > , 6 6 ",
"GXGXGXAXCXCXCXCXMXMXdXfXNXjX6XjXxXxXxXxXjXjXjXjXjXNXjXlXxXjXhXM.o.&.=.:.7.W.].].{.}.XX}.+X+X+X+X+X+X+X+X+X}.[.I.Q.Q.[.OXOXOXOXOXOXQ.!.!.!.5.8.8.4.*XGXJXJXAXNXNXBXNXlXjXjXjXdXdXdX6X5XfXfXMX9Xb.....M ..%.%.%.%.%.%.=.&.>.>.=.=.:.;.:.2.8.1.5.E.E.Q.Q.[.[.[.{.{.[.|.|.(._ A F Z W d.'.|.{.{.{.{.{.{.{.{.'.'.6.6.V 2.iXGXuXnXfXNXFXmXuXuXuXiXuXuX-X7X9XVXMXfXfX8X9X6X6X6X9X9X6X3X5X5X5X6X9X9X9X9XjXMX$X*.Y Y L.K.K.K.P.K.K.K.T.T.U.U.U.U.T.K.L.[.Q.Q.Q.Y.Y.Y.Y.Y.T.L.K.' ' U U V *.: 1 ,.0XCX9XMX9X9XfXjXMXMXNXNXfXlXBXDXDXDXDXAXNXCX7X%...6 6 6 M m 6 6 6 6 7 6 6 ..6 6 M M C ) T ' K.K.T.T.L.I.I.[ ] ) ( _ D S f i.! ! A W _ [ { I.I.I.Y.Y.Y.I.] 5.1.C > > *.2.*.m 6 %.#.6 6 6 7 6 6 6 m M M M 6 6 :.#XnXVXmXmXfXgXNXNXNXlXfXfXMXwX6X6X6XjXjXfXMXJXmX*XXX X7.6.{ (.).).).).[.[.[.[.] c T L.T.T.Y.Y.L.K.K.I.I.I.I.] ( B N n C M >.b.nXHXDXSXSXZXcXcXZXZXZXZXBXBXZXcXZXlXAXHXBX7 1 1 : 5 6 6 6 m 6 6 m m ....m M m V V V ( ( ' ~ ' ' ' ' ' [ _ _ _ _ ( G ( _ ( ( ' ' ' ' L.' ' ' ' ( U B N r > > > > > * * > > > > > > > > > > % > @ : : 7 9.=XuX9X0X0X6X4X4X:X:X:X:X<X:XV.&X>X6XqX4XMXMXuXmXFXtXyX*XXX XW.E.!.E.Q.Q.!.Q.L.L.Q.Q.Q.I.I.I.I.I.L.L.] ] ) 1.V C M 2.#X-XCXGXmXnXnXVXNXNXNXBXBXBXzXlXlXlXlXlXzXhXdXdX6XlXAXCX9.1 1 : : > > > > > > > ",
"=X&X%X%X%X%X&X&X7XMXMXfXNXjX6XjXjXjXjXjXjXjXxXjXlXNXjXkXjX6X6XN.&.-.&.=.8.W.{.{.{.}.}.XX+X+X+X+X}.+X+X+X+XOXQ.I.Q.Q.[.OXOX{.{.[.Q.!.!.E.W.~. X.X*XFXGXGXJXAXNXNXBXlXlXjXjXfXfXdXfXfX5XNXfXMX5X>.: : : : : : > > 6 5 6 6 6 6 6 6 #.#.*.2.5.1.5.E.E.Q.[.[.[.[.{.{.[.[.}.'.{ _ A A ` l.|.}.{.{.{.{.{.{.{.[.'.'.6.6.V ;.v..Xv.M.v.M.#X.X.Xv.v.v.v.v.b.b.M.-XnXnX8X8X8X3X3X5X9X9X9X5X3X3X3X5X6X9X9X9XwXMX=X:.V N ] R ' ' ' ' G.G.G.U.R.U.U.U.T.K.L.[.Q.Q.Y.Y.Y.Y.Y.Y.L.L.L.] ' ( Y V M m &.#XCXCX9XVXfXfXjXMXMXNXNXNXfXgXlXgXlXDXDXAXCXCX-X6 : > 6 > , > : > 5 6 6 6 6 6 6 5 m C B ) R T K.K.T.T.I.Y.P.I.] ] ) ( D S f i.Q ! W W [ [ I.I.I.Y.Y.Y.Q.I.] 5.1.C r t *.2.%., > 6 m 6 > 6 6 6 6 5 5 5 5 5 5 : M v.nXVXnXfXgXNXNXNXlXgXfXjXMX0X6X6XqXxXxXlXlXAXVXiXtX*XXX].6.l.'.'.(.I.Q.[.{.W.] c T L.T.T.Y.L.K.K.K.L.I.I.E.) B B V 1.c..X-XVXHXHXAXSXSXcXcXcXcXcXcXBXBXBXBXZXZXDXAXJXJX7 : : : > > > > > 5 6 6 6 6 6 6 6 m C V U U ' ' ' ' ' ' ' ' ' _ _ _ _ ( G ( ` ) ( ' K.' K.K.K.' ' ' ( L b N n r > * % % % @ * * * % + % + % % % % + O + : 6 0.-XnX9X0X6XqX4X,X:X:X:X:X,X:X&X&X>X6XkXqXqX0X5XnXKXmXFXtXyX*XXX].W.E.E.L.L.I.L.L.Q.I.Y.Y.Y.I.I.L.{ { 6.) H 1.1.4..XtXGXCXMXCXVXNXnXfXfXlXNXBXBXlXkXkXlXlXjXlXlXhXdXdXdXlXBXCX9.1 o + : * * * > > > > ",
"*.*.*.%.%.%.%.%.v.7XMXjXjXjXjXjXjXjXjXjXjXjXxXxXkXkXhXjXqX6XqXV.,.,.&.%.<.8.].{.{.{.}.}.}.}.}.}.}.+X+X+X+X+X[.I.Q.Q.{.[.{.[.[.Q.E.E.]. XXXyXtXaXGXJXVXNXSXAXNXDXBXlXlXjXjXfXdXdX5XdX9XNXMXCXnX%.# + + # @ : : > , 6 6 6 6 6 6 m 6 m *.1.5.5.6.E.E.Q.[.Q.Q.Q.[.[.OX}.}.'.{ _ B z ` l.].{.{.{.{.{.{.{.{.[.'.'.E.6.C m m %.%.%.%.%.%.%.M M M M M M M %.%.v.iXVXuX8X9X9X9X9XfXfXfX9X5X6X9X9X9X9XfXjXjXMXuXv.8.Y <.B U U ' ' K.G.J.G.R.R.R.T.P.' ' [.Y.Y.Y.Y.Y.Y.Y.Y.L.L.L.{ ' U B M %.v.iXCXGXAXCXMXCXCXNXNXMXMXjXfXgXgXgXlXlXlXDXDXAXGX-X7 + : > > r > > > 5 6 6 6 m #.m 6 M C N U U T K.K.T.T.L.I.P.K.] ] ) ( S S f f Q ! W W [ I.(.(.Y.Y.Y.Y.Y.I.] 5.) C n m *.<.m > > , 6 > > > : > > > > > > > 5 : m v.FXKXnXnXmXNXNXNXgXgXgXfXwXwX9XqXhXxXkXkXlXDXVXmXGXFXtXyXXX X].'.E.E.E.{.W.W.) c U K.K.T.L.L.L.L.I.I.{ ] ( ) 3.z.XX*XbXJXJXHXHXDXDXSXSXcXcXcXcXcXlXBXNXBXZXZXAXSXDXAXJX7 1 : : : : : : : 5 6 m m m 6 m m n C V Y ( ' ( P ' ' ' ' ' ' [ _ _ ( G G ( ` ] ( ' K.K.K.K.K.' ' ' ' L b N n r > * ; ; # # # + + = * * % % % % % + + @ 5 ;.v.uXCX3X4X4X4X,X,X,XrXZ.:X:X:X>X:X>X6XqXqXwXwX6XfXgX-X9XuXmXmXtXoXXX].W.] ] ] ] L.!.I.Y.Y.Y.I.L.{ { 3.3.H ;.c.*XtXFXGXCXMXMXfX9X5XdXfXgXlXNXBXlXkXkXlXNXlXjXjXlXhXdXdXlXlXCXCXb.1 o + + + + + * * > > ",
"6 6 6 6 5 : : : &.%XCXMXjXNXjXdXjXjXjXjXjXxXjXjXhXjX6XjXqX6XxX:XN.B.9.2.2.7.].].].{.{.XX}.}.}.}.}.+X+X+X+XOX[.E.Q.[.[.[.[.[.[.'.{.XXoXyXtXFXFXJXJXJXNXNXAXDXlXDXzXlXlXjXjXfXdXdX5XjXfXAXnXVXVX%.+ + + + + @ : : > > > , m m m m 6 m *.1.1.5.6.E.Q.Q.[.Q.Q.Q.[.[.OXOX[.(.] ( B B ) 5.W.].].].{.{.{.{.{.[.'.'.6.6.V *.m m %.M 6 M m m m m m m 6 6 > : 5 4.iXGXuXuXnXjXMXMXjXfXfXfX9XfXjXjXfXfXMXNXNXMXGX=X$X X X5.5.) ( ~ ~ G.J.J.J.R.G.G.K.' ' Q.I.I.Y.Y.Q.Y.Y.Y.I.I.I.{ ] ` 3.7.v.uXIXCXMXCXMXnXCXCXNXMXfXfXfXfXfXgXNXDXDXNXlXNXAXGX-X5 1 + @ + * * * * @ > > > m m 6 5 M C N B R T K.K.K.T.K.T.K.K.] 5.) ( S a s s S ! _ ' P.(.(.'.Y.Y.Y.Y.Y.I.] 5.1.C n m #.*.> > > : : : + + @ : > > * * > > > @ m .XFXGXmXVXnXNXDXNXfXdXdXfXwXMXNXjXxXxXxXxXhXZXBXNXJXJXGXGXtX*X.XXX].].W.].W.W.) b T ' K.K.' L.I.L.] { { 6.{ z.oXtXFXJXGXJXVXVXmXmXDXDXZXSXcXcXcXcXcXBXBXBXZXZXDXHXAXBXIX7 o 1 : @ : > > > > , m m m , , , M V Y Y ( ' ' ~ K.K.K.' ' ' ( _ ( G b B ( { { ( K.K.K.K.K.K.K.' ' ' U U N n r > * ; O # * # # * # * # + + O + + % O * 5 *.v.-X8X3X3X,X,X,X<X:X,X:X:X:X>X<X6X6XhXqXeXkXkX6X6XgX;X6X6XjXVXmXtXyX*X+XE.] ] ] ] E.I.Y.Y.Y.I.L.{ { 3.3.z..XtXFXGXGXuX9XCXAXMX>X;X5XlXfXfXjXhXhXxXxXzXBXNXlXlXlXzXhXhXlXlXBXAXv.: # : + + + % * = > > ",
"6 6 6 > : : 1 1 : v.CXMXNXCXjX6XjXjXxXjXxXjXjXkX6X6X<XxXhX6XlX,XrXrXsX#X X X X X].]. X{.}.}.OXOX}.+X+X+X+X+X[.E.Q.'.'.'.'.].].].oX*XtXFXKXKXmXnXmXNXNXNXAXBXlXSXBXNXlXlXfXfXdXdXdXNXfXBXgXVXDXo.+ + + + + + % % @ : > , m m m M m m M 1.1.5.E.E.[.[.[.[.[.[.OXOX[.[.).[ _ W G G B ) 8.7.W.W.{.{.{.{.{.[.[.'.E.6.V V m 6 M m M M m M M M m m 5 > 6 > : :.uXJXmXnXMXNXNXNXdX6X6XdX9XfXjXjXfXfXMXNXCX9XGXuXaXtXtXoX X6.( L P ~ H.U.G.H.G.G.K.' ' Q.Y.Y.Y.Q.Q.Q.Q.Y.E.6.5.{ 6. XyXFXmXGXCX0XwXjXdXjXkXjXjXjXjXjXjXjX5XfXDXDXDXDXgXgXVXCX=X7 + @ @ % O + % % % @ > > t m , , M V V R T T K.K.K.K.K.K.G.K.L.] ] ( A S a a Z W [ ' I.[.I.Q.Y.Y.Y.Q.I.L.I.6.1.C m m m m @ > > : @ : : @ + @ @ * * * * > > @ M #XFXFXnXVXfXNXBXlXgXdXdXdXMXCXBXBXkXhXxXkXhXZXZXBXAXGXGXJXJXFXtX*XoX X7.7.].W.) B T ' ' ' ' ] I.] ( ] ].{.yXtXFXIXIXJXJXJXAXJXDXDXSXSXcXSXZXZXZXZXDXBXBXBXAXDXBXHXAXNXIX7 1 : : + + @ : @ > > 6 m m m n n V Y Y U U ' ] L.' ' ' ' ' ( ( ( G b z z ( { { ( ' ' K.] ' ' ' ' ' ' T L N n r > > # ; ; # O O # # # # # % % % % % O * n *.v.-XuX7X3X>X>X:X:X:X:X:X:X>X<XdXjXlXxXhXqXkXkX6X6XlXdXhXdX6XdXfXiXbXbXtXXX6.5.] 5.6.E.I.Y.I.I.{ { 3.3.oXyXFXFXFXiXiXuXCXMX9X5X5XdXgXfXfXdXdX6X<X<XxXzXDXBXlXlXzXzXzXzXzXBXBXCXb.1 o # + + # # * * * * ",
"> > > : @ + o o 1 9.GXuXpXCXBXjXkXjXjXjXjXqXqXhXhXhXhXhXhXhXqX1XqXeX0X0X-X=X#X.X X].].].}.+XOXOXOXOXOX{.}.}.'.6.E.].].7.3.7.oXbXFXmXVXNXVXVXVXNXNXBXNXlXNXDXDXlXCXMXMXNXNXjXfXdXdXjXNXdXNXNXfX>.+ + + + + + + # + # = > n n n n k k C 1.8.5.] ] I.Y.).).U.I.!.Q.).P.^ / E Z ! d.` H V <.8. XXXXX}.}.}.[.[.[.'.E.5.Y V m m 6 6 6 n n n C n n > > > > @ :.iXKXmXgXdXjXjX6X6X6X6X6X9XjXjXjXjXjXjXjX9XpXMXCXGXGXFXFXtXyXXX6.( U ( ' ' ' ' P.K.K.T.Y.Y.Y.T.L.I.E.E.] 1.7..X*XyXtXFXGXVXVXNXjX<X<X1XxXqX1XqXhXhXhXhXjXjXlXNXDXDXNXnXgXNXNX;Xo.o # # + + % * % @ @ : > , > t m V <.Y Y Y ] ' K.K.K.K.K.G.H.I.I.] ] ( ( v Z Z W [ I.I.E.Q.E.E.E.Q.Q.Q.E.6.6.5.Y n > > > : : : : : : # # + # # # # + * > : 6 %.#XGXCXMXBXfXlXZXlXjXNXNXlXjXAXBXjXkXjXqXqXkXAXSXBXNXAXJXVXmXmXmXmXtXyX*XXX X5.U R ] T T ' ] ] U ] ].XXyXbXIXIXIXIXJXJXVXVXJXDXDXSXSXDXDXHXDXDXNXNXAXJXJXAXAXBXSXSXAXJXJX7 o + + @ @ * > > > > 5 5 > = n N Y Y ) ( ' ( ' ' ) ] ] [ ( W W G G G G G _ ` _ ! ^ [ ' ] ) ) ) ) ( ( L L c N N N w = - - - - - - $ ; # ; % % + + + % + n *.v.iXiX8X8X6X6X1X<X1X<X>X>X6XdXfXfXjXjXNXwX6XwXMXCXNX6XqXqX6XjXjXMXMXnXuX-X#Xc.4.2.2.3.] { { ] 5.7.XXyXbXFXGXVXuX8X8XnXnXnXnXnXfXfXgXgXBXlX<XC.n.B.>XzXDXBXlXlXhXhXzXzXlXjXBXVX9.1 1 1 + + + # * = * * ",
"> > > @ + + O o 1 9.GXuXuXMXBXwXkXjXjXjXjXhXhXhXhXhXhXhXhXhXqX1X,XeXqXwX9X9X-X-X*XoXXXXX{.{.{.OXOXOXOX{.{.{.].5.6.3.3.7.c.*XtXFXMXMXNXNXNXNXNXNXNXBXBXBXBXBXBXNXCXMXMXMXNXlXfXdX5XfXlX5XNXNXfX>.# @ + + + ; ; ; O ; - = r r r = k k B ) 5.5.] ] ' [ P.P.K.] L.I.~ / f g a s Q s.{ ) V C V 5.7.W.'.'.'.'.).'.I.E.] Y V m m 6 5 5 5 5 k 5 r r * * > > @ 2.iXGXmXfXdXdXdXdXhXhXhXjXjXjXjXjXjXjXjXjXwX9XMXMXVXVXKXFXFXFXyXoXXXz.) B ( ( ' ' ' ' T.Y.Y.Y.Q.I.] ] 6.]..X*XiXFXVXVXnXfXNXlXjXhX1X<X1X1X1X1XeX1XqXqXhXxXxXjXNXNXDXDXNXnXNXAX;Xo.o # # # * * > > > > > t m m m V <.1.) Y Y T T T T T K.K.~ ~ [ ] ] ' T ( W A W _ I.'.].{.W.E.E.E.E.Q.Q.E.6.6.5.V n > * * * * : : : : @ # # ; ; ; ; + % % : 6 *.$XGXMXNXBXlXcXzXhXhXjXCXNXjXBXNXjXlX6X:X&X4XNXAXBXNXAXDXNXmXmXmXFXFXaXtXyX*XW.Y B R ] ] T B ] W.XXyXFXFXIXKXKXJXJXJXAXJXAXDXDXAXSXSXDXDXSXAXAXAXAXJXHXJXAXAXBXSXAXDXSXJX7 o + % % % * @ @ # @ = - - = k c Y ' ] ' ' ( ( U ) ) ] _ ! A A A G G G G _ ` p.! ! ! _ ( ) ) ) ) ( ( W L L U N N k k k w - - - - & ; - $ ; % % % + % * m ;.v.iXiX7X7X3X>X<X6X<X<X<X6XdXdXfXfXfXfXfXjXMXMXMXMXMXNXjXhXhXqXjXjXjXwXjXpX7X=X.X0.4.2.3.) ) 1.7..XtXFXaXmXmXMXfX9XwXjXnXmXmXnXnXfXfXgXfXfX>XB.n.b.V.jXBXNXNXlXlXzXlXlXzXlXNXnX9.o o # # # # % * - = - ",
"* @ @ @ + + O o o 2.GXuX9XMXBXwXkXjXqXjXjXqXqXhXhXhXqXqXhXhXhXqX<X1XqXkXNXBXNXmXtXtXyXXX X].].}.}.+X}.}.{.].6.3.6.4.z..XyXmXFXmXNXNXlXlXNXlXlXlXlXBXDXNXjXlXBXBXCXNXMXNXNXlXfXfXdXdXlX5XjXNXfX:.: @ @ + + # # - ; $ - = w w w - k k B Y ) ) ] ] ' ' L.K.K.' ' ' / g g g s a Q u.d.` B N B B ) ] ] ] { { { [ ] ] 5.<.V C n 5 = = 4 = - - - * % % * > @ 4.mXJXmXfX6X6X6XhXhXjXxXjXxXjXNXlXjXjXjXjXdXdXdXfXmXmXVXKXGXFXFXFXbXyXXX6.) ( ( ( ' ' L.Y.Q.I.E.E.5.6. XyXFXGXGXGXGXBXMX6XNXxXhXvX1XA.A.A.rX1X1X1X1X1XhXxXxXjXjXNXDXDXNXNXNXSX8X%.o # # # % - * > > > n n C C C Y 1.1.) ) T ' ' ' ' ' ' K.K.' ' ] ] ) ( ( ( ( W _ { 6.6.6.] ] ] ] ] ] L.] 6.5.) V N n = = - % * % % @ # # # # # ; ; % + % @ 6 ;.%XJXCXNXNXlXzXzXlXxXlXCXNXjXjXhXkXlX:XB.B.&X6XBXBXBXAXNXnXNXmXmXVXGXGXVXaXaX*X8.V U ) ] U B ].yXFXIXIXFXKXmXNXDXAXAXAXSXSXAXSXHXSXAXSXAXDXAXAXAXSXHXHXHXJXAXBXSXAXDXSXJX7 1 + + % % + # * # # - - - w c N U ( ' ' ' ( ( ( ] ) ( _ W A A G G G G H ` ` a.p.s.u.! W ( ( ( ( ( ( ( ( U U R R N N k k w w w - - - - - - % % # % * * M ;.v.iXiXuX8X9X6X6X6X<X6XdXjXjXjXdX6X9XjX9XjXjX4X&X&X4XCXxXjXjXjXjXjXjXwXwXMXCXuX%Xv.4.;.1.;.1.c.*XtXmXmXFXCXMXNXjXkXkXjXNXmXNXmXgXdXfXgXdXlXdXV.B.B.;XlXlXNXNXBXlXzXzXlXSXZXDXgX>.o o # * % % % - - = = ",
"+ + + + + O O o o :.VX8XwXwXkXjXjXqXqXqXqX6X6XqXqXqX6XqXqXjXjXqX1X1X1XhXxXkXxXjXnXnXtX*X.X X X X X}.XXXXXX].7.3.7. X*XmXFXFXmXmXMXjXjXlXlXlXBXBXBXBXlX<X>X5XBXSXNXNXCXNXBXBXlXlXfXfXlX5XNXCXMX9.# + + + + % - - - - w w w w w w k c B U ( ] ] ] L.] ] L.I.[ ^ / g g g g g f Q i.p._ _ ( ( ( ( ( ) ] { I.{ ] ] ) 8.5.Y C n w - - = - - - - * % % % @ + 4.mXAXnXfXdXdXhXhXjXxXxXlXxXlXlXxXjXdXhXdXhXdXdXdXfXgXNXNXVXmXmXKXKXKXbXyX Xl.` ) ) ] ] L.E.] ] 6. XoXtXFXGXCXwX4X6XjXkXkXzXxXxXxXA.Z.S.Z.Z.rX1X1X1X1XhXxXxXjXjXlXlXDXDXBXNXJXnX>.o # # # # % - - * * > n N N B Y ) ] ] ] ] ] ] ] L.L.L.I.L.L.{ I.{ { [ _ _ _ _ ( ( ) ) Y ) ( U T ' ' ' ' ] ] ) Y B B n n w = - - * * * - - - - - - % % % : m :.*XJXCXCXlXjXlXzXZXBXBXNXjXhX6X<XjXlXV.B.B.&X6XNXBXDXAXDXmXVXmXnXnXCXVXCXCXFX=Xc.1.V Y U N 3.*XFXJXJXGXmXmXDXDXSXSXDXDXDXSXSXLXHXBXlXAXSXDXAXDXDXSXSXSXSXHXAXAXSXAXAXJXJX7 + # % - % % * * - - - = w k N U U U ' ' ' ' ( ( ( ( ( _ A A A G G B H 3.6.` a.s.s.u.! Q ! ! ! W W _ ( ' T R R R B B N c c k k w w w = - - - - % * * * M :.v.iXiXuXuX9X9X6X6X6X6XjXjXjXdXdXdXjXjXjXjX6X&XM.M.:XNXjXjXdXjXjXkXjXjXjXjXwX7X#Xv.9.9.c.c.v.#X-XnXnX9XCXMXkXkXkXxXhXjXfXnXmXnXgXdXfXdXlXZXZXdX:X>XhXZXlXNXNXNXlXzXzXzXlXZXAXfX>.o o + - % % % - w n n ",
"+ O O O O O o o o :.mX9XwXwXkXkXjXqXqXqXqX6XqXjXwXqX6X6XjXjXwXqX1X1X1X1XvXvX<X6X6X6X8X-X=X#Xv. X X X X X Xc.c.c.%XtXGXGXmXnXmXVXfXjXjXlXNXBXBXZXDXlX>XC.M.V.jXHXDXBXBXBXDXDXZXBXBXlXNXfXAXAXVX9.# + + + % - - - w w w w w k c c N N U ( ' ] L.L.] ] ] ] [ ^ Q g g d d g f Q i.! ! p.u.! ! ! ! _ ] 6.E.'.E.E.E.!.W.8.<.B N k k k k - - - - = * % * @ + 4.mXVXfXdXjXhXhXhXjXjXlXlXlXlXlXjXdXdXdXdXhXhXdXdXvXdXlXlXNXmXnXnXmXmXnXmXyX*X X3.) Y ) 5.5.1.6.XXyXtXFXJXCXqXZ.N.V.<XxXxXxXxXxX1XZ.m.m.m.Z.rX1XrX<X1XxXhXxXhXdXhXlXcXcXZXnXJXnX>.o # # ; - - = = = = k k k c B U ] ] ] ] ] ] L.L.I.I.Y.Q.!.E.E.(.(.(.[ ! ! _ _ ` ` 3.3.5.E.E.{ { I.I.I.I.I.] ] ) Y Y B N N c k w w = = = - & & - - * * * : M :.*XGXVXCXNXBXBXBXBXNXjXjXjXlXdX<XxXzX:XB.N.>X6XjXBXBXAXAXAXJXVXnXnXMXNXjXjX3X#Xv.0.2.V V V c.-XJXJXKXVXDXSXDXDXSXSXSXSXSXSXZXSXDX5X>XgXDXDXDXZXZXSXSXSXAXSXJXAXHXSXAXJXJX7 # # - - - - & - w w w k c N U U U U ( ' ( ( ( ( ( W W A A A G G B C H 7.z.l.3.d.s.i.Q Q Q i.Q Q / ^ ' ' T T R R U U U b c c c k k k k w w - - - - * > M 2.v.iXFXiXuX8X9XdXjXjXjXjXjXjXjXhXhXjXjXMXkXqX:XV.V.4XkXdXdXdXjXjXkXkXkXBXjX2XN.B.M.M.#X7X3X&X&X&X&XqXBXkXkXhXhXxXhX1XqXdXgXgXgXfXfXfXgXlXBXZXlXdXhXlXlXNXNXgXgXlXlXlXZXdXBXAXnX>.o # # $ & & - w k n N ",
"O O O O O O o o o :.mX9XjXjXkXkXkXhXhXhXhXqXqXkXkXjXqXwXjXjXqX,X1X1X1X1X1X1X1X<X<X<X6X6X9X=X%X.X X X0.0.0.c..X*XFXGXmXmXmXNXNXNXjXjXlXlXlXBXZXZXBXjX>XB.b.C.dXSXDXDXBXDXAXZXDXBXDXNXAXNXJXGXGXc.: : @ @ * = = - k w k k c c c B U U ' ' ' I.I.I.] ] ] ' ^ Q f d d d d g f u.s.! p.p.i.! Q ! ! ! ( { E.'.'.'.W.W.W.W.5.Y B c b b k k w w w w w * > > # 9.VXVXfXdXlXlXlXlXlXlXlXlXlXlXlXjXdXdXdXhXhXhXhXvXvXdXhXlXdXlXlXlXgXgXfXmXmXFXtXv.;.V ;.2.1.c.yXFXFXmXmXNXqX1XZ.N.V.Z.1X1XxX1XvX1XN.w.w.m.A.1X1XrXrX1XxX1XhXhXhXhXlXzXzXBXnXJXiX;.# * - % - w w w w w k k c b U ] { I.E.E.] I.I.I.I.I.Q.Q.!.!.'.(._.u.u.! ! _ ` { 6.l.6.6.'.'.'.'.'.'.Q.E.Q.I.L.] ] T U B B c c c w w w w 4 & & & - - * * > %.:.$XVXMXCXBXSXBXjXdX6X6X6XjXlXxXhXxXzXhX:X,X6XjXlXNXCXBXAXJXJXAXCXNXlXlXxXqXV.M.M.$X.X0.7..X#XfXVXVXAXAXDXSXcXcXSXSXSXSXSXSXSXSXDX5X;XlXZXDXSXSXSXSXSXZXZXSXSXAXHXHXAXHXJX7 # * - q q & q k w k c c c U U U U ( ( ( ( ( A A A A A A A A G K H H 3. X Xz.3.l.s.i.i.t.t.t.t.i./ / ~ ' ' T T T U U U U L b c c c c k k w w w - - > > *.2.0.yXtXuXuXnXMXMXjX9X6XNXNXkXjXqX6XqXjXqXqXjXqXqXqXqXjXdXfXdXdXhXjXkXhXkX,XN.B.B.N.;X6XqXhXqX:XV.N.:XqXkXkXzXzXxXxXxXhXdXgXlXlXlXlXlXlXgXlXlXlXlXcXlXfXNXmXfXfXfXlXlXBXNXSXJXiX>.o # # & q w w e c N B ",
"- - - % $ ; + # o >.mXnXMXjXkXkXxXvXqXqX1X1XqXhXkXhXhXkXBXBXjX1X1X1X1X1X1X1X1X1X<X<XqXqX6X>X&X#X#X#X.Xv.v.#X=XuXJXCXMXMXNXDXNXBXlXlXlXzXzXzXBXBXlXlX5XV.C.>XjXAXBXBXBXDXAXAXDXNXAXNXAXCXJXGXVX0.> : * > n n n c c c b U U U U U ] ] I.{ I.I.I.L.] ] ' W Q f p p d d p g ^ d.d._ _ ! ! S S Q ! ! W ( ( [ { I.'.W.W.W.!.5.) ( L L c c c N N N r r n > : 9.GXCX9XfXlXlXlXlXlXlXlXlXzXzXzXlXhXhXhXxXhXhXhXhXlXhXhXhXvXhXlXzXlXhXxXlXfXnX7XM.9.4.2.:.9.*XGXJXVXmXfXdX1X1XrXZ.Z.Z.<XZ.xX1X1X1XZ.m.m.B.rXeX1XrXrX1XeXqXhXhXxXxXzXzXzXlXVXJXiX;.+ = w w w k k k k k k c U ( ' { I.E.E.E.I.I.E.I.I.I.Q.Q.Q.Q.(._.u.i.t.Q Q ! _ ` { { { { E.E.'.'.'.Q.E.Y.Q.Q.I.L.] ' U U L L c c c c k k k k 4 - = w = > 5 %.:.#XuXnXCXBXCXdX6X6X6X6X6XhXdXlXhXdXlXkXhXlXjXjXlXNXNXNXBXJXJXJXNXNXxXvX<XZ.C.V.&X2X-X=XtXaX7XdXdXjXZXcXzXcXcXcXZXSXSXSXSXSXSXSXAXBXlXDXSXSXSXSXSXSXSXdXdXlXAXVXHXHXSXHXJX7 # - w w q j j k c c c L L U U U ( ( ( ( W A A A A W W A D G K H H M ;.c.c.1.;.3.a.p.i.f y.y.t.f / / ~ ' ' ' ' ' ' ' ' T U U L c c c c c k w w w = > > V *.;.c.v.$X=X-X7X8X9X9X9XjXjXNXjXwX6XqXjXqXqXkXkXkXkXkXjXjXdXdXdXhXhXqX1X:XV.B.B.N.:X6XqX<X1XeX1X:XZ.Z.Z.qXxXzXzXzXxXxXxXdXgXlXlXlXlXlXlXlXcXZXlXlXZXBXlXNXmXnXfXfXjXNXNXmXnX-X#XM # 5 # q e k c c c N U ",
"n k w w w = = * O :.FXnXMXjXkXzXvX<X<X<X<X<X<XvXhXqXhXkXZXZXzXhX1X1X1X1X1X1X1X1X1X1X1X<X<X:XV.V.&X=X=X=X=X&X7XuX9XNXBXZXBXlXlXlXZXZXZXZXzXzXzXBXBXBXBXdX6XjXBXAXBXBXBXBXDXAXNXNXAXCXAXVXJXGXFX9.: : > > C V Y U U T ' ] ] ] ' ' L.I.I.I.I.Y.Y.I.' ~ / Q s p p p d d g Q [ '.l.` _ J D ! p.p.! ! W W E E [ [ (.'.E.W.W.!.{ ' ( ( U U U U U N C n m 5 : c.GXVXfXfXlXlXlXlXNXlXlXlXBXZXBXlXlXhXzXzXhXlXlXzXzXhXhXhXxXxXxXxXxXxXxXxX6X&XM.M.M.#Xb.>.v.-XVXCXdXlXjX<X<X1X1X:XZ.<X<X<XxXxXeXxX1XV.N.Z.1XxXeXrXrXqXqX1XhXhXhXlXzXzXlXjXGXIXtX%.O k n k c c c b c b U U ( ' ] I.I.E.E.I.E.E.E.E.I.I.Y.Q.[.[._./.t.t.t.t.Q ! _ _ { { d.{ { l.'.[.'.'.Q.Q.Y.Y.I.I.L.' ' T L L U U U U B c c c k k k n r > 5 *.:.#XiXnXAXAX;X&X>X9XNXjX0X6X<XhXhX6XxXlXxXBXxXjXlXNXNXjXCXAXJXAXCXlXvX<XC.B.C.Z.<X,X7XmXGXGXjX6X>X6XzXcXcXSXcXcXZXZXDXDXDXSXDXAXSXSXSXSXSXSXSXSXSXSXcX<X>X5XAXVXJXJXJXHXJX5 - - w j j j x x c I L L U T ( ( ( ( ( W A A A A A ! ! _ G G K H 7 5 6 :.;.m 5 V ` _ ! f g d d g / / ^ ~ ~ ~ ~ P.' ' ' ' T U U L c c c c k k w w w r n V M m *.%.;.:.b.#X=X8XMXMX9XjXjXjXjXjXkXkXBXBXBXkXkXkXkXkXjXfXdXdX6XqX1X<XV.N.B.V.<XqXqX1XxX1X1X1X1X1X1X<X:X1XxXzXxXhXhXhXdXgXlXlXlXlXlXlXBXDXDXlXfXlXlXNXmXnXnXnXMXnXfXnXM.b.9.>.5 # 5 4 k c c c c c U U ",
"Y Y B B N k k 5 @ 4.tXGXMXdXjXhXvXvXvXvXvXvXvXvX1XvXvXxXxXcXzXxX1X1X1X1X1X1X1X1X1X1X1XrXZ.Z.Z.:X4X0XpXMXMXwX4X:X>X6XlXZXzXzXzXcXzXzXzXzXlXlXlXBXBXZXDXNXlXBXSXJXAXBXNXdXfXBXBXMXCXMXCXGXJXiX#X9.> > > > C Y 5.] T ] I.I.I.I.L.L.K.I.[.I.I.Q.I.[ / Q s p p y.p p g f E _ 6. X X7.H J J p.d.p._ A Z E a a a E ^ (.'.E.E.[.E.] ' ' ' T ] ] Y Y Y C M m 6 :.-XGXnXMXMXjXdXdXjXjXjXjXdXdXjXlXlXlXlXlXlXlXlXlXlXxXxXxXxXxXzXkXxXeX1X<XV.N.B.N.:X2X&XM.N.&X<XhXlXxX1X<X:X<X1XqXqX1X<X<XqXkXBXBXkXeXrXeX1XeXeX1XeXkXkXkXBXzXxXhXhXkXBXAXVX=X0.M > k N N B U U U U ( ' ] L.{ ] ] I.E.E.E.E.E.E.E.I.Y.'.).).P.H./.t.t.t.t.i.i.[ s.d.s.s.s.` { { '.'.'.'.I.[.[.Q.Y.I.I.I.L.L.L.] ] ] ] R U U U B N n n t t m %.:.9.v.7XGXJXCXMX9X9X0X9X9X9XdXjXjXlXNXlXjXjXdXjXNXNXNXNXjX3XCXAXNXqX:XZ.Z.Z.A.A.<XhXNXCXCXCXBXqX>X>XhXzXZXSXSXZXZXDXAXSXAXDXSXSXAXAXSXHXSXDXLXSXDXSXSX5XC.b.VXIXHXVXVXmX.XC = k c x x x c c L L T T U P ( ( ( W A A A W W ! ! ! ! J K H M M : : : : > , 6 n V ) s.u.t.g g t.f / / ^ ^ ^ ^ H.~ ' ' ' ' ' U U U U B c c c k k n n r n n C m m 6 6 %.;.:.b.#X=XnXMXMXjX9X9XwXjXwXjXjXwXwXkXkXjXCXjXdXjXxX1X:XV.m.C.Z.1X1X1XeX1X1X1X1X<X1XhXqX:X<X<XdXjXjXjXdXdXdXzXlXlXdXdXfXjXfXfXgXBXAXAXAXAXHXJXmXuX-X%Xb.:.%.6 7 5 5 5 5 k w c L L L U U U ",
"Y Y Y U B N N C * 2.tXJXJXCXdX6XvXvX<X1X1X1XvXvXA.1X1XvXxXzXzXxXeXeX1X1X1XeXxXxXxX1X1XrXZ.Z.rXrX4XqXwXkXkXwX4X,X,X1XhXkXzXcXcXcXlXzXzXlXlXlXBXDXfXNXBXMXjXNXBXAXCXMXNXCXBXCXMXnXAXmX7X=X#Xv.4.=.6 > > n V ) ] ] ] L.I.I.I.I.I.I.P.(.).I.I.I.K./ f s p p p p p p s Z W ) 1.2.2.:.M M K ` ` ` ` _ Z f f a a a E E (.(.'.{.E.] ] ] ] ] ] ] Y Y Y V m 6 6 :.=XGXCXGXMXMXCXCXCXCXCXCXNXBXBXBXBXNXlXjXNXNXNXNXjXjXxXxXhXxXzXzXxX1XZ.V.N.V.V.:X,X6X6X6X>X>X:X<X<X1XvXxX1X1XqX<X6X6X6X5XjXkXMXkXwX4X4XqXeXwXjXqXqXjXwXqX>X6XNXAXAXjX&X&X9.4.*.n 5 n B B U U U U T ' ] [ I.I.L.I.E.E.E.E.Q.Q.I.I.I.(.).)._.J.F.t.t.t.t.t.Q ! [ s.s.d.s.s._ { d.d.'.'.[.[.[.[.[.[.Y.Y.I.I.I.I.I.L.] ] ] ' T U U B N N n m M *.;.%.%.9.v.#X%X&X=X8X9X8X8X9XMXjXfXdXdXjXNXBXNXNXlXjXjXjX4X&XSXAXkX1XZ.V.C.Z.A.<XqXxXjXMXCXMXMXjX6X<X6XxXzXZXSXSXSXSXSXSXJXJXVXAXSXSXSXHXSXAXNXNXSXLXLXdXM.n.VXGX=Xv.b.4.;.4 4 k c x c c c b L L L L L L W W ( W W W W ! ! ! E E A G G M 6 7 7 7 , < < , , 6 5 C G ! Q f f f f f / / / / / / ^ ' ' ' ' ' T U U U U B c c c k n r > > r n n 5 5 6 6 m m %.:.9.v.M.-XnXCXMX9X3X9XMXBXMXMXjXkXwXNXNXBXlXqXZ.C.B.C.Z.rX1X1X1X1X1XxXeX1X1XqXhXhX,X>X<X6XdXjXNXNXNXlXcXBXlXfXlXlXlXAXNXfXfXfXnXnXnXKXiX%Xb.4.*.6 : 7 7 5 5 n n n k k c b b L U U B ",
") ) ) ) Y U V V n ;.c.=XiXnXCXJXvXvXvXvXvXvXvXvXvXvXvXvXvXxXxXvXhXeXeXeXeXxXxXxXxX1XrXrXrXrX1X1XqXqXkXkXkXhXqX1X1X1X1XhXxXzXcXcXzXzXzXlXlXNXDXAXBXAXBXMXfXMXCXAXJXVXVXAXVXnXuXnXM.v.9.:.%.M m %.m > * n Y 5.] ] ] I.I.I.I.I.I.I.P.(.(.I.[ [ / a s d y.p p p p s l B B M =.=.$.#.6 m M H H ` ` _ Q f g g f f f E ^ { '.'.E.{ I.E.I.] ] ] ) ) 1.V m m 6 *.v.#X$X&XmXVXGXGXVXnXnXnXAXBXBXNXNXNXNXNXNXCXCXMXMXjXjXjXjXkXkXhX1X:XV.N.V.:X1XqXhXkXNXZXxXqX,X:XZ.<X1XvXhXhXqX6X6X6X6X6XdXjXNXNXMXpXMXMXqXqXqX6XqXjXMXNXJXAXCXuX;XM.9.:.%.m m 5 n C B B U T T ' ' ' { I.I.I.I.E.E.E.E.I.'.(.(.(.P._._././.F.g g g g t.i.u.[ [ [ s.d.f.f.a.d.d.d.'.'.[.[.[.[.[.[.[.[.'.Q.(.I.I.I.E.E.] ] ) ) U U U N C C *.;.*.6 : 6 %.*.9.b.M.&X2X7XuXCX8X9X9X9X9X9XMXCXBXBXNXjXjXkX6X:XqX,X:XV.C.Z.A.<XvXhXxXxXjXMXMXMXMXMXjX6X6X6XjXzXZXAXHXHXSXAXJXHXHXHXHXJXSXSXJXJXAXVXAXAX8Xv.:.%.v.c.>.%.7 # 4 4 k k c b c b b b L U U T ' ' ( ( ( W W W ! ! ! ! S A A G C 6 7 7 ..7 < < , , , , < > n G ! ! Q f f / / / / f f / ^ [ ' ( ' ' ( U U U U U c c c c k = - * = > > > > 5 5 > < > 6 6 ..%.9.v.%X2XiXmX3XpXCXCXMXMXwX6X4XjXkXqX:XN.B.N.Z.rX1X1XeX1X1X1XhXhXqX1XqXxXjX6X6X6X6XfXgXmXVXAXlXlXBXlXlXBXVXNXnXNXVXGXJXGXFXmXc.4.;.M 5 : @ @ > 5 n C C C N N c b b b U U U b ",
"] ] ] ) U Y Y Y C = * 5 M %.:.9.N.V.:XqXxXxXkXxXvXxXxXvXvXxXxXvXhXwXeXkXxXxXxXvX1X1XrXrX1XeXeXeXqXhXhXhXhXhXqXqXqXqX1XqXvXxXzXcXzXBXBXlXlXNXBXAXBXBXCXnXnXCXJXJXGX=Xv.b.,.%.6 %.6 6 6 6 > > 6 m *.> * n <.5.5.E.I.E.E.I.I.E.E.I.[ P.[ ^ W E a s p p p p s s a F z C M m ..} | | X.#.%.%.V V H ( ^ Q f g s s f f E ^ { '.E.E.E.[.E.{ I.I.] ] 1.<.M M M %.:.=.>.:.9.v.#X=X-XiXGXJXJXGXAXCXMXMXNXCXNXNXMXMXMXjXjXjXlXhX,X:XZ.V.Z.Z.<X1XhXkXxXjXlXBXBXlXxXqX<X<XZ.Z.1X6X6X6XdXfXdXdXdXNXCXCXCXCXMXwXwXjXNXMXMX0X;X&Xv.9.&...6 6 7 6 %.%.m m C C U U ' ' ' ] ] L.I.I.E.E.E.E.Q.[.Q.(.(.(._.H.^ / / f ^.^.g g f / ^ s.d.d.` _ _ d.d.f.d.d.d.d.d.d.'.'.'.[.[.[.[.'.'.'.'.'.E.E.E.E.E.I.] ] ] ) Y B C C M *.%.m > > 6 6 : < 6 %.%.=.9.b.#X%X-X8XnXnXnXnXCXCXNXNXBXBXqX:X:XV.C.C.V.<XxXkXlXlXjXjXjXjXNXMXCXNXjXjXdXdXdXjXjXBXAXSXSXJXJXJXHXHXHXJXJXJXJXJXGX8X%Xv.:...7 : 5 5 # : @ o 5 n k c c c b b b b U U U ( ' ] [ _ _ ! W E E E E ! E A G B M 6 ........< , , } } , , , 6 C ( _ ^ ! / / / / f f g f ! ! _ [ ( ( ( ( U U U U U L c c k = - - * * > > > > > > > > , 6 6 6 6 6 6 *.:.9.#X&X7XuXCXCXpX3X&X&XV.V.N.N.Z.rXrX1X1XeXqX1X,X,X<X<X,X1XqXxXxXjXjXjXfXdXgXgXmXNXjXBXBXBXBXAXAXVXJXmX-X#X9.%.: 1 : : : > > > > > 5 n C C V B B c U U U U ( ( ( B ",
"] ] ] ) Y Y Y Y ) n * 5 6 6 6 ..&.,.9.B.V.>XqXkXqXxXxXxXxXxXxXxXqXhXkXkXxXxX1X1XA.A.<X1XxXkXkXxXhXhXhXhXhXhXxXxXhXhXhX<X<X1XhXzXBXBXBXlXjXjXNXBXfXfX9X9XCXGXGXmXtX.X:.;.%.7 7 7 7 : : : > , 6 5 *.> * n <.5.5.!.E.E.E.I.I.E.{ { [ ^ ! E a s s p p p p s S S F z m #...} } ..X.X.$.$...6 m V H ( [ ^ Q f s s s a a A _ { 6.E.W.'.Q.I.I.E.] ] 5.1.C m *.=.%.%.%.%.m %.:.4.0.v.%X=XiXmXGXJXJXVXVXMXNXNXNXNXNXlXjXjXqX,X:XV.V.Z.:X1XqXjXxXjXjXjXjXjXlXlXzXkXxXqXrXZ.:X:X,X6XjXjXjXjXjXNXCXjXMXMXwX4XCXCXCXCX3XM.,.&.%.6 6 6 6 m m m m 6 m m C V Y ] ] ] ] L.L.I.I.E.E.E.E.'.[.[.[.).P.P.H.J.f f g g t.r.g f ^ [ ` ) 6.3.` H G ` a.l.d.d.d.d.d.d.d.l.'.'.'.'.'.'.[.'.[.'.'.E.W.E.!.E.] ] ] ] ) Y V C m 6 5 , 5 m 6 > m 6 6 6 6 6 #.=.2.9.v.$XiXmXVXnXnXCXBXCXBXkX1XZ.<XZ.V.:X<XxXlXNXMXNXfXfXgXgXNXNXCXNXjXjXjXlXjXdXdXdXlXDXSXHXSXAXVXAXJXJXAXVXuX-Xv.9.%.6 5 : : : + * + @ # # n n k c B b L b B U U U U ( ( ( _ ( _ ! W E E E Q ! W A G V %.%.X.X.X...........e.} ....#.m V ) ( [ ^ / / i./ Q Q Q ! ! _ _ ( ( ( U U Y U U U L c c n r - * * * > > % * > > : > > > > > > > : > 6 6 :.9.v.$XiXVXuX3XN.B.B.B.N.:X1XeXrX1X1X1XqX,X,X,XV.Z.Z.<XqXqXhXjXjXjXjXjXdXdXdXdXBXAXAXCXCXMX9X-X#Xv.4.%.6 6 5 5 @ > > > > > > > n n N B V B B B U U U U ( ] ( b ",
"] ] ] ] ' ) ) ) B - O * > > , 6 6 ..o.&.:.9.M.&XwXkXBXzXzXzXxXqXqXxXxXxXvX1XA.A.A.A.1XvXxXzXkXxXhXhXhXhXhXhXxXxXhXxXxXqX<X:X1XhXlXlXlXlXjXjXMXCXMXMXnXuXuX7X%Xv.:.m , , 6 6 5 5 5 : : : > > > > M n > C Y 5.5.!.E.E.E.{ 6.6.6.{ [ ! E s p p p y.y.p s S _ ` H m #.X.......X.X.O.$. .| } #.*.1.{ W W / Q f s s a a Z W _ { E.].W.E.I.I.E.] 5.1.1.n n *.:.=.%.=.=.*.*.*.*.*.*.:.:.v.#X-XmXGXGXGXGXNXBXBXBXBXlXxXhX:X:XZ.Z.:X<X1X1XxXjXjXjXjXjXjXdXjXjXjXkXxXxXeX1X:XZ.:X,XqXxXjXxXjXlXjX6XwXBXBXkXCX5XN.b.,.%...6 6 m m m m , > : 6 5 m M V Y Y Y ] ] L.L.L.I.I.I.E.E.Q.'.[.).(.(.H.H.J.f t.t.r.r.r.r.t.Q W ) 1.*.1.;.V M C K ` x.a.f.f.f.d.l.l.'.6.6.6.6.'.'.].|.'.'.'.'.].W.!.E.I.{ { ] ) Y V C m > > : > > > > 6 6 6 6 6 , 6 6 m %.*.9..X=XiXmXnXVXAXNXjXqX:XV.:XZ.:X1XxXNXCXMXnXnXnXnXnXmXlXNXNXjXdXjXlXBXlXdXhXdXdXlXDXAXSXAXAXHXJXVX8X%Xb.:.6 6 : : > > > : * > # # # 5 M n B B U U U U ( ( U ) ) ) ) ( ( ( W W E E E E Q ^ W G G V %.&.X.X.X.X.X.X...#.#.#.......#.m V ) { ~ ^ / u.^ / ^ ! D D D G G G B U Y Y Y R U U L c n n r = > > > > * > > > > > > : > > > > 5 m m %.6 m ;.9.#X=X7X=XN.B.B.N.rXeXeX1XrX1X1X1XqX4X6XqXV.N.V.Z.<X<XqXhXqXqXqXjXjXjXjXdXAXBXnX7X=X%XM.b.%.%.6 : @ @ * > > > > * * * > r n N N B B B U U U U U ( ( ( G z ",
"E.E.L.] ] ' ) ] 5.N - + + @ : : , , 6 , 6 ..&.,.M.&X6XjXjXkXjXqXxXxXxXvX<XA.A.A.A.A.vXvXxXxXxXxXhXhXhXhXhXhXxXxXxXxXhXqX<X:X<X,X6XdXfXjXjXMXMXMXAXCX8X%Xv.9.>.%.m m > > : : # 1 : : : : : > > > m m C V Y 5.5.] L.I.I.{ 6.6.6.{ ( W a p p p r.r.t.t.i.d.6.4.*.#.X.X.X.X.o.X.X.X.X. . .#.#.;.3.l.( ( W E Q f f f a S ! _ ( { 6.W.I.I.I.E.] ) 1.Y m m *.:.%.%.=.%.%.M M %.*.*.;.:.%.:.0.v.%X-XiXCXNXzXzXzXlXhX<X<XV.V.:X<X1X1XqXqXjXjXjXjXfXfXfXfXdXdXjXqXwXeXeXeX1X:XZ.:X1XqXhXhXhXkXkXqXkXkXwX,XM.n.>.7 7 7 6 %.6 6 m m n n m m 6 6 m *.1.) Y ] ] ] I.I.I.I.I.I.'.'.'.(.(.(.P.P./ / g t.r.r.r.r.r.t.t.E G *.=.$.$.%.%.M M M ;.K a.a.a.f.d.l.'.|.6.6.6.6.6.l.'.].'.l.6.W.W.W.E.E.{ ] ] ] ) V V C m , > : > > > > > > > m m 6 6 m , m m %.*.4.v.%X;X5X9X6X>X:XZ.Z.Z.A.<XqXMXCXVXFXmXFXmXmXmXmXgXlXlXjXjXdXlXhXdXdXlXdXdX<XdXlXBXAXJXJXVX&Xb.%.7 : : : : : > > > @ * > % + # * C V V Y T T ( ) ) { ) 5.6.{ ) G G G A A ! Q E / / ^ W G V *.&.&.O.O.O.X.X...} } } #.....} } e.m Y ] W ^ ^ ^ ^ ^ ^ ! D D D G G G B B ) Y Y Y R U U B N n r r r r > > > > > > > > > > n r > * + + : > > 5 m %.:.0.v.M.N.N.Z.rXeXeX1X1X1X1XeXeXqXqXqXwX:XZ.Z.Z.Z.Z.<XhX1XqXqXqXhXhXhXjXMX4X&Xv.b.9.:.%.: : > > > > > * * * * * > r n N N N B B B U U U U ) ) ( ( ( b j ",
"E.E.I.] ] ) ] ] U n - % * > : : @ : > < < < 6 6 &.,.B.&X4XMXBXBXxXxXvX1XA.Z.Z.A.1XvXxXxXvXvXvXxXhXdXhXlXlXlXhXhXxXhX<X1X1X<X<X:X,X6XqXjXMXMXMXCXuX7X$X9.%.6 : : : > > : + : > > + : > > > > > > n C V ) ] 5.5.] ] ] ] 5.6.6.6.` _ S a s p p y.y.t.i.d.l.4.2.&...X.O.X.X.&.&.X...|  .X.....M ;.5.].I.W Z a f Q S Z D ! D G ( 6.E.I.{ I.E.] ] 5.Y V C *.2.*.%.=.#.*.V V *.*.*.*.%.%.%.%.%.:.9.#X=XMXlXNXlXhX<XV.C.V.Z.:X<X1XqXqXjXjXMXNXmXgXfXfXfXfXdXjXjXjXqXqX1XqX<XZ.Z.<X1XqXhXhXBXBXkXqX,XN.9.o.6 7 6 6 7 > > 5 6 m 6 > > > m 6 6 m M 1.1.1.5.6.E.!.E.E.E.E.E.'.'.(.(._./.u./ g g r.r.r.r.d d t.t.! G M =.$.$.$.&.&.%.o...%.K x.a.a.f.d.d.l.'.l.l.` ` ` 6.l.l.6.6.6.6.6.E.6.{ ] ] ) ( U B N C n > > > > > > > > : : > , > > , m m m 6 > 6 %.:.b.M.%XV.N.V.Z.:X<X<XhXxXCXCXCXmXmXmXFXKXmXmXmXgXgXjXjXjXdXdXdXdXzXhX6X:XV.>XjXSX9XuX=X9.7 1 # : : > > @ + % * * % - ; - ; ; C Y ) ) ] ] ] ] { 6.1.5.6.{ G F F Z Z Z ! ^ ^ ^ / W ( H V %.&.-.-.-.-.&.X.} < < , m 6 6 } } } e.#.V ' [ ^ ^ ^ ^ W W D D D G G G B B ) ) ] ] T R U U N n n k w w w = > > > r r r > > * > > > > = > > 5 m m 5 6 %.4.9.B.N.rXeXeX1XeXeX1XeXeXqXqXqXjXjXeX:XZ.N.N.V.rXeXeXeX1X1X1XhXxXkX:XM.9.:.%.#.6 : : : : > > > > > > * * > r r r w N N U U U U U U ) ) ] ) ( G z j ",
"{ ] ' ) Y U U U B k - ; # @ @ + > : : : : : : , 7 6 o.&.9.M.0XAXkXkX<XZ.1X1X1X1XxXxXvX1XvXvXvXhXkXjXjXjXlXlXgXdXdXhXxXvX<XvXvX1XeX1X1XrX:X&X2XuX#X9.%.6 6 : > 6 : : : : : @ : > @ : > > > r n C C Y 5.6.E.E.E.E.5.5.6.7.l.l.` _ D S S f f g f u.s.(.].7.:.o.....X.X.X.X.#.#.#.....X.X.X...#.=.<.8.W.[.P.^ H.^ W A D D D D _ { '.{.{.].W.W.W.E.5.6.6.5.1.*.*.#.#.C C n t t m m m m %.*.;.;.;.;.:.b.#X8XMX6X&XC.V.:X<X1XqXjXjXMXMXMXMXMXMXnXnXnXnX8X8X9X6X6XdXhXhXhXhXhX<X:XZ.<XeXrXeX2XN.B.,.%.6 6 m m m m 6 , , 5 > > : > 5 6 6 m #.%.*.*.;.1.3.5.5.8.8.5.5.] ] { { [ s.i.t.y.r.r.r.r.r.r.^.F.g J.~ G %.o.X.$.$.&.&.o.O.O.o.%.%.M K K a.d._._.(.d.l.x.l.l.` ` { 6.6.] ] 5.E.L.] ] ] ] ' T U B N N n n n n r = = > > > @ > > > > 5 6 m m m m m m M :.9.9.M.:X:X:X,X6XjXjXMXnXnXnXmXmXmXmXnXnXgXgXNXVXNXnXdXdXjXlXBX6XqXkXeX:X,X4XM.:.7 : : : : > > > * + + * * * ; $ ; - = k B U U ( ( ( ( ( ( ( ) ) _ Z a a a a a E / / ^ W ( ( ) ;.&.X.O.O.-.$.&.#.#.< , + % = > t #...} } 6 M ) ] ' P.P.^ ^ W W ! _ _ _ J G A ( ' ' ' ' T U L c c c k k w w = k w r r n n n , > : @ @ @ * = = * > 5 5 > < ..&.N.:XeXqX1X1XeX1XqXqX1X1XqX6X6X6X,X,X,X:X:X,XeXxXxXeX1X1XxXxX<XV.9.%.7 ....< @ > : > > : * > > @ * * = r n N N U Y Y Y ) ( ( ] ] 5.5.5.] W v u u ",
"' ( ( U U U B N B k & O ; + + + + + + + + + 1 : < , 7 6 %.,.v.M.&X:X,X<X1X1X1XxX1X1X1X1X1XvXxXhXkXjXjXjXlXlXdXdXdXhXxXvXvXvXvX1XA.rXrXN.N.sXM.9.;.M 5 > > : : @ @ : : @ @ @ : > > > > r w n N B ) 1.6.'.'.[.[.[.W.W.W.7.6.` J D D D S S Q Q ^ _.(.W.7.2.&.o...X.X.X.X.} e.m t , 6 ..X.X.$.$.=.=.8.W.[.U.U._.(.{ _ _ D S S ! [ { '.{.{.{.{.].W.!.E.E.6.] Y V m m m n r r > > > , 5 m M %.%.%.*.;.*.:.0.#X3X<X<X<XqXqXqX6X9X9XuXpXMXjXMXMXnXnXnXnX8X8X8X5X6XdXdXdXhXdX<X<X:X:XrXrXB.B.9.,.=.%.6 > , , t t t > > > > * @ @ : 5 6 6 =.=.=.*.;.;.1.1.2.2.2.8.5.5.5.5.{ ( _ ! i.y.r.r.r.r.r.r.r.F.F.J.P.( %.o.O.O.X.&.&.o.o.X.X.X.#.%.o.%.;.l.d.s._._.f.f.a.x.l.l.` ` 6.E.!.E.E.E.I.I.] ] ] ] ' T U B N N k k k n w = = = = = = * @ @ : 5 5 m m m m m *.m :.,.,.b.:XkX6XdXMXMXMXfXnXmXmXmXmXmXnXnXgXmXnXnXnXnXdXdXjXxXqXqXBXkX4X:XB.,.&.6 : : : @ @ @ @ * * * * = = - - - = k k N U U ( ( ( ( ( ( ( ) ) ` ! a s s s s a / / / ^ ~ ( ) <.=.&.O.O.O.&.=.m m , @ , % $ $ r t #.........m V ) ] L.P.~ ~ ^ W ! ! _ J J G A ( ' ' ' ' ' T L b b c c k k k w w w = = r r > > : : : * * - - - r + * 5 > : ..9.:X1XhXeXqXhXhXqXhXqX1X<X6XhXhXhX6XqXqXqX1X1XeXeX1X1XeX1XvX<XZ.C.,.o.< 1 < : : @ > > > > * > > * * r n n N B Y U ) ] ] ] ] ] { { 5.5.{ _ A a u i ",
"( ] ] U U Y Y B B c k - $ + % + + + O + + + + + : < < < 7 6 %.&.9.B.B.:XqX1X1XzX1X1X1X1X1XxXxXhXxXxXjXjXlXlXdXdXhXxXvXvXvXvXvX1XrXA.N.B.,.,.>...: : : @ : > @ + # # @ @ @ @ : > > > r n n N Y ) 5.5.6.'.|.}.{.{.{.{.].7.3.K J A J D D ! Q ^ [ (.].W.2.=.....X.X.X.X.#.#.t r > > , 6 #.$.$.$.=.=.<.5.E.).).).).'.` _ D D S D _ [ '.{.}.{.{.{.{.[.[.'.E.] Y V C m n t r r > > > > > > 5 5 6 m M %.m m %.9.M.&X>X<XxXxXhX6X9X9X9XpXMXjXMXnXnXnXnXnX8X8X8XdXdXdX6X6XxXdX<XqXkXhX,XZ.B.,.:.%...6 6 6 > > , > > > > * * @ @ @ > 5 m M =.:.2.2.2.3.4.4.7.7.7.7.W.W.W.E.{ _ W E Q f y.r.r.r.r.r.t.F./._.[ ) %.X.O.X.X.&.&.o.X.X.X.X.o.#.o.%.4.l.d.s.s.s.d.a.a.a.a.l.a.` E.E.Q.Q.E.I.L.I.L.L.] ] ] ' U U N N c k k k w = 4 = = = = * @ # @ @ > > > r n m m : 6 o.< >.,XBXjXfXMXMXnXfXmXNXgXmXmXmXnXnXnXnXnXnXnXnXdX6X6X6XqXkXBXrX:X:Xw...: : : : : @ @ % * * = - = 5 = - k k z z N B U ( ' ) ) ) ( ) ) ) ` ) A a s s s s a / / / ^ ( ( Y *.=.-.O.O.X.&.*.n r > % n ; .   % > , ........6 M Y ] L.K.' ^ ^ ! ! ! _ J J G G _ ' ' ' ' ' T U L b b c c k k k w w w w r r r > > > > = = - - - - % * : : : :.&XqXhXeXqXqXhXhXqXhXqXqX<X6XhXhXxXqXhXhXhXeXqXeXeX1X1XeX1XrXZ.C.V.&XB.&.< : , , : > > > > > * * > r n n B Y Y Y Y ' ] ] ] ] { { 6.6.5.] W Z u i u ",
"( { { ] ) ] ) U U B c k = - * * + ; ; + + # @ @ + : : < : , 6 ..&.+.,.B.hXxX1XxXxX1X1X1X1XeXeXqXxXxXxXxXlXhXhXdXxXxXvXvXvX1XA.A.A.V.N.N.B.&.7 7 : > > + + > > + # # * > > > > > r n N C Y Y 5.5.5.5.6.E.{.}.{.{.}. X].6.` G J J J J D ! ^ [ (.[.].7.*.#...X.X.X.$...m m t w w r > t #.=.=.=.#.=.*.<.{ [.).).Y.I.[ _ _ D D D _ _ (.[.}.{.{.[.[.[.[.'.I.] U B V C N N n n r r > > * > > > > > 5 5 M %.%.%.:.M.<XhXxXxXhXjXjXjXMXMXMXMXMXnXnXnXnXnXfXfXfXdXdXdX6X6XxX<X1XkXZXzX:XB.,.o.o.6 : > > 5 > > > > > * * * - * - > n M *.;.2.2.8.7.7.z.z. X X X X X XXX{.].{ _ W E Q f g t.r.r.t.t.i./._.(.` ;.o.X.O.X.X.$.%.%.X.X.X.X.o.o.o.%.4.3.d.d.s.s.d.a.a.a.a.a.a.` { I.'.E.I.I.I.L.I.L.] ] ] ] T U B c c c c k k w w 4 = = = - * # @ * * = = > > > > > 6 : < n.wX6XdXfXfXfXfXMXNXNXgXgXmXmXnXnXgXnXnXnXnXfX6X6X6X<XBXhX,XN.N.Z.B.o.< : 1 : : @ @ * * = = = = = = = z b B B B U ( ] ] ] ) ] ( ) ) ] { ( Z s s p s s f / / ^ ^ ( ) *.=.&.O.O.O.X.#.n w & - * n $ .   $ % > 6 ..X..., m V Y ] L.[ ^ ^ ! ! ! _ J J J _ _ ' ] ] K.' T T U L L b c c c c k k k k n n r > = * = = = - - - O > > o # &.#XMXkXhXqX1XqXhXqXqXkXhXqXqXhXhXxXxX<XqXhXhXxXhXeXeXxXeX1XZ.V.V.Z.,XpX2X0...: : > : > > > r n > = n n N B U Y Y Y Y ] ] ] ] ] { I.E.6.{ ( Z u u h h ",
"W ] { ] ] ] ] U U U U b k k w = $ ; ; ; + + + + O + + @ : : > < < o.,.N.kXzXqX1XxXxXqXqXhXhXhXhXxXxXlXlXlXhXhXhXxXxXvXvX1XA.A.Z.V.N.rXkXqXb.7 1 + : @ + + @ % O # # = 5 > > r w n N Y ) ] 5.6.E.5.6.E.{.}.}.}.}.XX Xz.3.K G J J G J _ _ { (.[.{.7.2.#...X.X.X.X.#.m n n n w w r w t m *.=.=.=.#.%.V ) E.).).Y.I.[ [ s.p.p.i.g._ d.[.}.}.[.[.[.[.[.(.I.{ ( U U Y N N N N n n n w r > = = @ @ @ * 5 m m 6 >.&XjXdXhXhXjXjXNXMXMXMXjXjXjXnXnXnXnXnXfXfXfXfXdXdX6X<X1XqXhXhX1XV.B.,.&.< 7 5 : : # > > > > > * - - - w n n n C V 1.8.8.8.7.7.]. X XXX X X X X XXX].'.{ ! E E E g g g t.t.t./._._.{ 3.:.&.O.O.O.O.$.=.=.%.o.X.X.O.o.o.o.&.;.;.6.l.d.[ a.a.a.a.a.a.s.d.d.I.I.I.I.I.I.L.L.L.] ' ' ' ' U U N c c c c k k k k k k = = - - = = - * * * = > @ > : 7 ,.3XjX>XfX9X9XfXfXNXNXNXfXgXmXmXnXgXgXgXfXdX9X6X6XdXhXhXhXZ.N.N.N.:XV.B.,.7 1 # > @ @ > r w = = = = k k c z b b U U T ] ] ] ' ' ( ( ) ( { W a s p p s h E / / ^ [ ( ) *.:.-.O.O.O.&.n w q $ - = C $ .   $ O @ > ......, m C Y ] ] [ [ ^ ! ! ! ! D D J _ _ ' [ L.K.' T T T P L L L b b c c c c N N n k w - - - - - - - - % # o 1 %.M.pXCXkXeXqXeXkXkXhXqXkXhXqXqXhXxXxXxXqXqXhXxXxXxXkXxXeX1XZ.V.V.V.,XqXqX0X&X0...1 + > > > > n n n n N n N B U Y ' ' T ] ] ] ] { { E.E.d.[ W a u h h s ",
"L ' { ] ] ] ] ' ( ( U U b k k k = = - - % ; O O O + + + + @ : : 1 o.N.qXBXkXqXkXhXxXxXhXkXkXkXkXxXxXlXlXhXhXhXvXxXvXvXvXA.A.Z.Z.A.<X1XkXAX9X9.: # @ # + * * + O - - = k n k n n N B ) 5.6.E.E.E.E.W.].{.}.}.}.}.XX].l.` G G J J G K ` { '.{.{.].1.=.#.X.X.X.X.$.m n n n N w w w w r C *.*.=.=.=.#.m V { E.Y.Y.[.P.d.s.s.p.p.g.g.d.|.}.}.[.{.[.[.[.[.).I.[ ' T R B N N N N N k w n n n - * # # # # @ : M v.MXNX>XhXjXlXlXNXNXnXnXjXjXjXfXfXnXnXnXnXnXfXfXdXhXhXqX1XxXzX<XB.n.B.N.,.1 < 5 : > @ 5 > > * * = w w w N N C V Y 1.5.8.7.W. X].]. X XXX X X X XXX}.|.d.s.! ! Q Q / f / J./.u._.(.l.3.;.&.o.O.O.-.-.=.=.*.#...o.X.o.o.&.o.&.%.;.3.z.'.d.` a.a.a.p.p.s.s._._.s._.(.(.I.P.L.L.] ' ' ' ' ' U U L L b c c c k k k k k w w = k = - - * * * @ @ : : :.7XCX6X6X9X9X9XfXnXNXmXnXfXfXmXmXnXgXgXgX9X6X6X6XdXhXhXvXV.B.N.:XrX:XZ.N.M.&.: : : @ * 5 k = = w k k k b c b b L U U T ' L.' ' ' ( ( ) ( _ E s h p s s a / / / ^ [ ) 1.=.&.O.O.O.-...w q e . - n ;.* . & . $ ; > 6 ....} e.m C Y ] K.P.^ ^ ! ! ! D D D _ _ ' [ L.K.' ' T ' ( P L L L L L c c c c c c k w - = = = - - - * n o X 6 M.9XNXMXqX1X1XqXhXhXqXqXxXhXhXhXxXxXxXxXhXhXxXxXkXxXxXeX:XZ.V.V.:X,X6X6XqXpXCXuXv.6 : > > > r n n n N N B B U U ' ' ' ' ] ] ] ] ] { I.E.d._ E u h h s s ",
"W ' { E.E.E.L.L.] ' ( ( U B k k k k k w = - % % % % + + + + @ @ ..B.wXBXBXhXhXzXhXhXhXhXkXkXjXhXhXhXxXxXhXvXvXvXvXvX1X1XA.Z.Z.A.1XxXxX,XjXAX-X9.5 @ + # * * * - = k k n N N B B U ) ] E.E.'.[.[.!.W.{.{.}.}.}.}.}.].3.K G K J J K ` { l.].}.].7.*.#...X.X.$.$.#.n n k k n N w w w w t C *.%.&.&.o.#.M ) { Q.[.[.Y.(._.s.p.i.g.g.s.(.|.}.}.{.{.[.[.[.[.[.Y.I.L.] R U U N N N c c c k k 4 = - - # @ o @ 4.-XAXfX>XjXlXlXlXjXfXnXnXjXjXfXfXMXnXnXnXfXfXfXdX6X6XhXqX1X1XrXN.B.B.N.:XM.: 1 # + > ; * = = = = k n N N U Y ) ] 5.5.6.6.W.].].].].]. X X XXX X X}.}.'._ i.i.u.u.^ / H.H.H._.(.(.l.3.;.%.o.o.O.-.-.=.=.V *.m , , ..o.&.&.&.&.%.%.;.7.z.l.a.d.a.p.s.s.s.s.s.s._._._.(.(.Y.P.K.L.' ' ' ' ' ' T U U U U U c c c c k k k k k k = - - - - * @ @ : :.=XVXMX9X6XfXfXfXgXmXmXfXfXfXfXgXmXfXgXgXgX6X6X6X6XhX<X<XZ.N.B.Z.1XrXZ.Z.N.$Xv.>.5 : @ > > n w w k c k c c c b L L L T ' ' ' ' ' ' ' ' ] [ ! Z s p p s s f / / ^ ^ ( ) ;.:.O.O.O.O.o.6 w q c $ > %.b.6 # O . . O @ > ......e.e.t V ] L.P.~ / ^ ! ! D D D D W ( ' ] L.' ' ' ' ~ P P P L L L L L c c c c c w k w w w - - - # > # 7 v.MXCX9XqX1XrXrX1X1X1X1XqXhXhXhXhXxXkXxXhXxXxXxXxXkXqXrXZ.N.V.:X:X6XqXqX6XwXwXMXCX2X9.6 : > n n n n N B B U U U ' ' ' ] ] ] ] ] ] ] ] { { d._ Z u h h s s ",
"W W { E.E.L.L.E.] ' ' ' ( U c k k k k k w w w = & $ O O + + + + b.4XAXMXwXhXkXkXxXxXhXhXhXqX6X<XvXdXxXxXvX1XvXvXxX1X1XA.Z.N.A.1X1XxXzXkXjXjX8X=X%.5 + + # % - k k k N B B U U ) ] ] E.E.[.[.{.}.{.{.}.}.}.}.+X+X}.z.` K G J J J K ` l.].}.}.].8.#.#.X.X.X.$.#.m n c k n n V n - w w r n m #.o.o.o.o.%.V ] E.Q.Y.Y.P._.s.u.i.g.g.p.(.|.|.}.{.{.[.[.[.OX[.[.Q.Q.!.] ] Y U U U U B c k k k 5 = - * = o 5 .XVXnXfXAXlXjXjXfXfXfXNXNXjXdXdXfXnXnXnXnXfXdX9X6X6XqXqXhX1XV.B.m.B.V.:X2XGX..: : @ 5 # - = = 5 n n B U U ) ] ] 6.6.E.E.W.].].{.{.].].}.XX]. X X].|.|.d.! Q t.i.u.^ ^ H.U.U.).'.'.3.;.%.o.o.X.O.-.=.=.t r V n > : > ..%.=.&.&.&.#.*.4.z.z.l.d.p.s.f.f.s.u.u.u.s._.s._.(.).I.P.L.L.L.' ' ' ' ' ' ' T U U U U B c c k k k k w = - - - = * # : M %XJXnXnXJX8XNXfXnXNXNXmXfX8XfXfXfXgXfXgXgXdXjXjXjXxXhX<XV.B.Z.Z.1XrXZ.N.Z.Z.&X=Xv.%.: > 5 = n k k c c c x b b L L P T ' ' K.K.' ' ' ' ] ] { E a s p p s g / / ^ ^ ^ ( H :.-.X.O.O.-...> q x L & 5 ,.N.&.: o . . ; % > 6 #.$.e.e.t V ) L.P.~ ~ ^ ^ ! D S S D W _ ' ] K.' ' ' ' ~ ~ P P P P L L L L L c c c x c c w w - - - # o 6 v.nXBXjX6XqXqX1X<X1X1X1X1XhXqXqXhXxXlXxXhXhXhXhXxXxXxXrXN.B.N.V.:X4X6XjXjXNXBXwXwXCXCX=X0.%.> m n n N U U U ( ( ' ' ' ' L.L.L.L.L.] ] ] I.I.{ ^ Z u u s s s ",
"W b [ '.E.E.E.L.I.] { [ ' ( U c c c c k k k w w w w = % O O > %.&X0XBXBXwX1XqXzXxXxXkXhXhXqX6X1X<X<XxXkXxX1X1XxX1XA.Z.Z.Z.A.1X1XvXxXkXxXdX9X9XuX%X;.+ # 5 = - n k c B B U ) ] 6.E.'.[.[.[.[.[.{.{.{.{.}.}.}.}.}.}.l.` G J J J J J ` |.}.{.+XXX<.#...X.X.$.#.#.t w B k 5 >.c.4.* % % w r > #.o.o.o.&.#.m V E.Q.Y.Y.Y.P._.f.i.i.i.u.s.(.|.}.{.{.{.{.OXOXOXOX{.[.Q.!.E.] ] ] ' T U N U B k = k n n O > 4.iXJXuX5XBXjXjXjXfXfXmXNXNXNXjXjXdXdXfXnXMX7X9XjXjXqX1X<X:Xm.B.B.N.V.,XwXBXCXM.6 # # 5 5 5 = n C C B ) ) ) ] { E.E.E.E.E.'.E.{.{.}.}.}.}.].].XXXXXX}.|.p.! t.t.t./ ^ H.P.Y.Y.[.].6.;.%.o.X.o.O.&.&.*.t r r C n - n > > *.#.&.&.$.$.%.;.4.z.l.'.(.d.s.f.s.u.u.u.s.s.s._.(.).I.I.P.L.L.L.L.' ' ' ' ' ' ' T T U U U U B c c c k & & - = * + + %.#XVXGXVXVXAXmXgXmXmXmXmXgXgXfXnXNXnX5XfXVXVXfX6XBXBX<XC.N.V.V.Z.A.A.Z.N.N.Z.Z.:X2X$X9.M @ > C n k c c b c b L L L P ~ ' ' ' K.K.K.' ' ' [ { { Z s p p s s f / H.^ ^ ^ ( ;.:.-.O.O.O.o.6 = e x b n %.B.m.w.| o X . . ; # , } } } } t t Y ] P.H.^ ^ ! ! ! ! D Z W W ' ' K.K.L.K.K.G.~ P P P P L L L L L L c c c q U q & k - = + # b.9XMXNXBXxX1X1X1X1X1X1X1XqXqXkXkXhXhXhXxXxXxXhXzXzX<XN.B.V.Z.:X,XqXqXjXMXNXjXjXNXjX6XpXCX*X9.6 n C C B B U U ( ' ' ' ' ] L.L.I.I.I.L.I.I.I.I.{ ! Z u i u a a ",
"W W _ '.'.E.E.E.L.I.I.I.{ ] ' U U U U U B N c c w - = > % + =.$X0XwXBXBXkXhXhXhXxXxXkXkXkXqXqXqXdXxXhXvXqXxXxX1XA.Z.Z.Z.Z.rX1XxXzXxXhXdX6X6X9X9X8Xv.;.5 * 5 n k k B U ) ] { E.E.E.'.[.[.[.[.[.{.{.{.{.}.XXXX}.}.|.d.J G J J J J J a.|.}.'.+X X*.#.X.X.X.$.#.m t N N 5 M n.M.v.%.* % w r > ..o.o.X.&.#.m *.5.E.Y.).Y.Y._.s.i.i.i.u.s.d.'.}.{.{.OX[.[.OX[.OX[.{.{.Q.E.E.E.I.I.] ] T U U N n n n = 5 ;..XmXGXnXfXNXfXfXfXfXfXfXmXmXjXdX9XdXjXjXfX5XAXjX>X6XkXqXC.m.B.B.N.Z.<X1XjXBXAXuXM.%.@ @ > * 5 n C B B B ( ) { { E.E.E.Q.[.{.'.{.{.}.}.}.}.}.]. X}.}.|.d.s.i.t.t.t.i./.P.U.Y.I.'.].8.%.o.X.X.X.o...m N w w w n - O = - O n m $.$.$.$.#.=.2.7.l.'.(.(.f.f.f.s.u.u.u.u.s.s.(.(.I.I.L.L.L.L.L.K.K.' ' ' ' ' T T T U U U U c c c c k k n n * 5 M #X7XVXnXnXVXVXmXgXgXgXnXgXgXgXgXdXfXfXfXfXgXfXdX6XqX,XV.N.N.V.Z.Z.A.A.N.B.N.N.N.&X&X$XM.:.> * n n k c c b I L L L L P ~ ~ ' K.K.' K.' ' ' [ { [ a s p s s g Q ^ H.H.^ _ H ;.-.-.O.-.-.&.m w e x c n &.B.m.w.o.1 X   . $ ; > , } | } } t Y ] P.P.H.^ ^ ! ! p.D D ! ! [ K.L.L.K.' K.G.G.~ P P P P L L L L I I c c c c k & w = + # >.%XfX6XqXxXhXqX,X<X<X,X1X1XqXqXqXkXzXzXxXhX<X<XqXqX<XV.N.V.Z.:X>X6XqXjXjXNXNXjXjXBXNXjXCXAXiX$X:.M n C V U B U ( ' ' ' ] L.L.L.I.I.L.I.I.I.E.I.[ W v u u a a Z ",
"W A W { {.W.E.E.L.I.I.I.I.I.] ] ] ] ] ] Y U B B k w = > 5 %.#XJXCXCXMXkXlXkXhXqXxXxXkXxXxXhXhXhXxXxXqX,X1XxXeXrXZ.Z.Z.rX1X1XxXzXzXhX6X<X6X6XdX9XnXmX#X%.@ 5 M n B U ] 6.E.E.E.E.'.'.[.{.[.[.{.{.{.{.}.}.XXXX}.}.|.` G A J J J J J d.}.}.{.+X~.#.#.o.X.o.#.m N t N n 5 >.B.C.C.9.6 * - r > , X.O.X.&.$.#.*.1.E.Q.).).)._.s.i.i.i.u.s.d.'.{.}.+X+X{.{.[.[.[.{.{.{.W.Q.E.E.E.E.I.I.] ] ) Y V C n 5 ;.v.iXmXmXCXCXjXdXdXdXfXjXfXfXfXlXjXjXlXNXNXfX3XfXjXjX6X<XV.B.m.B.C.Z.<XqXhXkXlXCXJXmXv.%.: 5 m C B V ) U U ( ' ] { I.E.E.'.'.'.[.{.{.}.}.{.].}.XX}.}.|.'.s.! i.t.t.t././._.(.'.E.W.7.:.#...X.X.X.&.m r y e w r 5 5 # - = $ - m #.#.$.$.#.#.=.1.7.'.'.(._.s.f.s.u.u.u.s.s.s.P.I.P.I.I.I.I.L.L.K.K.' ' ' ' ' ' ' ' T T R U U L L c k k n * # M c.GXGXCXnXnXmXmXgXgXgXgXgXgXgXfXfXgXfXMXCXfX9X6XjXjX:XN.B.N.V.Z.Z.Z.Z.Z.N.B.N.V.Z.Z.V.&X$X9.%.> 5 n N B b L L L L L P ~ ~ ~ ~ G.G.~ K.' ' ' [ [ ^ a s s s f f / H.H.H.^ ( H *.-.-.-.-.-.#.n w e x q n ,.m.m.m.O.1 X   . . & > , } | | } e.V ] L.P.P.H.^ ! ! p.g.! ! ! [ [ P.K.K.' K.G.G.~ P P P P P P L I I I I c L e c q = 5 # %.&X9X9X:X<X<X1XxX<X<X,X<X<X1XqXqXqXkXBXzXxX<X<X6XkX1XZ.N.N.:X:X:X,XqXjXjXjXNXNXfXjXlXlXjXNXCXCXmX#X4.M C V Y ( ( ' ' ' ] L.L.I.I.L.L.L.I.I.I.I.{ _ A v l v v Z E ",
"! A A [ }.'.{ Q.I.L.I.I.I.I.I.{ 6.6.6.] ] ) U U B C 5 @ %.$XCXCXAXBXkXkXlXkXhXvXxXxXxXxXxXhXhXhXxXhXqXqX1X1X:XZ.Z.:X<XeXhXkXzXzXxXdX6X<X6XdXdXjX9XVX8X9.6 5 C C Y ) 5.E.E.6.I.I.E.'.[.{.{.{.}.}.{.}.}.XXXXXXXX}.l._ A A J J J J _ l.}.}.{.+X~.#.o.X.X.o.#.m N N N n 6 ,.C.S.C.B.%.= % w > < ..&.X.&.$.#.#.<.6.[.).).).).s.i.t.i.u.s.s.(.}.}.+X+XOXOXOX{.{.{.{.{.[.W.E.E.E.Q.I.I.I.] ] ) Y C C *.v.-XmXnXfXCXNXjXdXjXjXjXjXjXfXdXNXjXjXjXjXfX9X5X>X6XjX>XB.m.B.V.V.:X1XhXxXkXlXlXNXCXAXCXv.%.6 ;.V H ) ) ) ( ] { { { I.I.'.'.'.'.{.{.}.{.{.].{.XXXX}.}.|.(.! Q i.t.t.i./._._.(.E.W.7.2.=.#.X.X.X.X.=.C e e e = 5 %.>.7 # = - % r t #.#.$.....%.*.7.].[.(._.d.f.f.f.u.u.s.s.s.P.P.I.I.T.T.I.T.L.K.L.K.K.' ' ' ' ' ' ' ' T U U U U U U B n = 6 9.-XJXCXfXMXNXmXfX8XgXgXgXgXgXgXfXmXNXmXfXfXfXfXjXjXqX:XB.N.N.V.Z.Z.Z.Z.Z.N.B.N.Z.Z.rXrX:X&XM.9.*.n n B U U L L P L P ~ ~ ~ ~ G.G.G.G.G.' ' ' [ [ ! s s p g f / ^ P.H.G.^ ( H %.-.-.-.,.-.#.r q e x & 5 ,.m.S.w.o.1 ;       & = , ..| | } e.C R L.P.U.P.^ ! ! ! ! ! D ! ^ [ P.K.' ' K.G.G.G.~ P P P P P L I I I I I L e c k = 5 %.M.CXjX,XZ.:X:XrXxX<X<X<X,X<X1XqXqXkXkXkXhX6XhXxXzXqX:XN.N.V.:X,X:XqXjXjXjXjXNXlXfXlXjXjXjXjXjXMXCXuX#X2.M C V ) ) ' ' ' ] L.L.I.I.] ] ] ] ] { { { ` A v l v v E W ",
"! S v ( '.'.E.[.I.I.I.I.I.I.I.E.E.6.E.6.] ] ) ) Y V n m c.uXGX0XMXNXkXxXxXxXxXxXxXxXxXhXhXhXhXhXhX1XqXkXqXZ.N.Z.:X,XeXkXBXlXlXlX6XdXdXdXdXdXxXNXdXMXnX%X:.7 5 V ) 5.5.E.E.{ E.E.'.'.[.{.{.{.}.}.}.}.}.}.XXXXXX}.l._ F D J J J J a.|.}.}.OX+X~.#.X.X.X.o.#.C N N N N #.n.S.S.S.C.>.= $ w w > #.$.$.$.$.$.#.V ] [.Y.).).Y.P.i.t.t.i.u.s.(.|.}.+X}.+X+XOX}.{.{.{.}.{.{.[.'.'.[.Q.Y.I.{ 5.5.Y V 8..X-XdXgXfX9XdXjXjXjXjXjXjXjXjXjXdXdXdXdXdX9X6X9XfXNX6XV.B.B.B.N.N.<X<XhXxXxXxXlXlXZXjXBXHXnXb.%.M H H ) ) ] ] { I.I.I.I.'.[.[.'.'.{.{.}.}.{.{.{.XXXX}.}.}.(.! Q i.t.t././._.(.(.E.].8.*.%.$.$.O.$.$.#.N e e q @ 7 n.b.>.# $ w w % > m #.&.X.X.#.%.7.].[.'.(.(.d.s.f.u.u.s.s.[ [ ] I.I.T.T.Y.Y.Y.T.P.K.K.K.' ' ' ' ' ' ' T T U U U U Y B k 5 ;.$XCXnX6X6XMXNXgXgXgXmXnXgXgXgXgXgXmXmXmXfX5XjXBXNX6X:XN.B.N.Z.V.N.Z.Z.Z.V.N.N.N.Z.Z.rX1XeX:X&X$X0.M = N U U L L P ~ ~ ~ ~ ~ ~ G.K.G.G.G.~ ~ ~ [ ! Q s s p g f / H.P.K.P.[ _ H &.O.O.-.-.-.#.r e x x j 5 &.m.Z.,.7 1 $       $ - , #.| | | } m R L.T.U.P.^ ! ! D D ! S ! ^ ^ G.K.G.G.K.K.G.G.P P P P P P P L I I L L c c k N = 5 b.fXNXqX:X:X1XrXrXeXrX<X<X,X<X1XqXhXzXxXhXhXxXkXlXxXV.N.B.N.V.:XeXqXqXjXxXjXjXlXlXfXDXlXjXNXNXjXMXMXmXiXv.;.n C H ) ' ' ' ] L.L.L.L.L.] [ ] ] ] { { ` W v l v Z W W ",
"Q S Z A { '.'.Q.E.Q.Q.E.I.I.E.!.E.E.E.!.E.{ ] ] ) H ;.c.=X9XjXxXwXjXkXxXhXhXhXxXvXvXvXvXvXvXhXhXxXqXqXeX:XV.Z.rX,XqXkXBXNXjXjXfX5XdXlXlXxXhXkXBXNXjXMX9Xv.>.6 ;.1.5.6.E.E.E.E.'.'.'.[.[.{.{.}.}.}.}.}.XXXXXXXX].l._ A D _ D J J d.|.}.OX+X+X~.$.X.X.X.o.#.m N R y C #.,.S.S.S.C.%.= $ e e r m #.$.$.$.$.#.M ) '.Y.).Y.Y.P.u.t.t.i.u.s._.|.}.+X}.+X+X+X+X}.}.}.}.{.{.{.[.[.[.Q.Q.I.E.6.5.1.8.XXtXmXdX5X5X6X6XhXjXjXjXkXjXjXjXjXdXdXdXfXfXdXfX9X9X9X&XB.B.C.:XrX:XhXxXxXxXxXhXlXlXlXNXBXBXAX9Xv.;.1.) ( ) ] ] { I.I.I.'.'.'.[.[.'.{.{.}.}.{.{.XXXXXX}.}.[.s.^ i.i.i././._._.(.'.6.z.1.%.#.$.-.-. .$.m y e e & 7 +.S.C.n.7 # n w % > 5 #.%.o.X.#.%.8.W.{.[.(.(.d.d.f.s.s.s.(.(.P.[ I.I.I.Y.Y.Y.Y.I.P.P.P.L.K.' ' ' ' ' ' T T R R R N B N n *.c.=X9X9X6X6XdXdXfXdXgXNXnXnXgXgXgXgXgXfXNXCXNXjXfX5X&XB.N.N.:XZ.Z.Z.Z.V.N.B.B.B.B.N.N.V.rX1XrX0X7X#X1.C N B U L L ~ ' ' ' ~ ~ ~ G.G.G.G.G.~ ~ ^ ^ ! E s p s g f / H.P.P.P.[ ( ;.&.O.O.-.-.-.6 w e x x x - ..,.B.o.# O & &   & & - > #.| | | } m Y L.Y.Y.P.P.^ ! S D ! S Q ^ ^ ~ G.G.K.K.K.K.G.G.G.~ ~ ' P P L L L L L c B k N 5 6 &XCX6X1XZ.1X1X1XrXeXrX,X<X<X,X1XqXhXhXhXxXkXkX<XV.B.B.B.N.:X,X,X4XqXqXxXxXjXjXlXlXgXDXlXfXlXBXNXMXMXMXCX-Xc.;.V H ) ' ' ] ] ] ] ] ] I.L.{ ] ] ] { { ( A v v v Z W ! ",
"Q Z Z A ( '.{.E.Q.[.[.Q.E.E.!.!.W.W.!.E.E.6.{ ] ) 3..X-XuX3X6XkXqXhXjXxXxXhXxXxXxXvXvXvXvXvXhXhXkXkX,XB.B.N.1XkXeXkXkXjX6X6XdXgXdXfXlXlXlXkXzXzXlXNXCX9X;X#Xc.;.1.5.!.W.W.E.E.'.'.[.[.[.{.{.}.}.}.}.}.XXXXXX X].d.J D ! _ D J ` l.|.}.+X+X~.q.$.X.X.X.X.#.n y y y N 6 +.m.S.S.D.8 ; q e e e C #.=.$.$.$.#.m ) I.).).Y.Y.P./.t.t.i.i.u.s.(.}.+X+X+X+X+X+X}.}.}.}.{.{.{.[.[.[.[.[.[.Q.E.6.].oXaXFXgXdXdXdXdXdXhXxXkXjXjXjXwXwXjXfXjXjXjXlXNXfX&XM.M.N.N.V.<X1XxXzXkXlXlXlXxXhXlXlXdXBXNXjXCXAX9X#Xz.3.) { { { { I.I.I.'.'.'.'.'.'.[.{.{.}.}.{.}.XXXX+X}.(.^ u.i.i././._._.(.'.l.6.7.;.%.$.$.-.-.-.$.t e y x - o.m.S.S.C.>.> r r r > 5 6 #.&.&.$.#.<.6.[.{.'.'.l.d.f.s.s.s.(.(.I.] I.I.I.Y.Y.Y.Y.T.L.P.P.P.L.L.' ' ' ' ' ' T T T T U B Y  X*X-XuXCX9XjXjX6X6XfXgXgXgXnXgXnXgXnXgXgXfXfXCXMX%Xn.9.M.N.sX:X:XZ.Z.Z.Z.N.B.B.B.B.B.B.B.B.Z.rXeXwX0X*X.X7.) B U T L ~ ' ' ' ' ~ ~ ~ G.G.G.G.~ ^ ^ ^ E a s p s g f ^ K.P.P.P.[ ) ;.&.O.O.-.-.&., w x I x x & 5 7 :.5 $ . & $       & > 6 | | | , m Y L.Y.Y.U.P.^ ! D ! i.S Q Q / ~ ~ G.K.K.K.K.K.K.G.' ' ' ' T T P L L L c c N n C c.8XjX<X1X1XA.1XrXA.eXrX<X<X<X<X<X1XqXqXhXkXkX<XB.,.o.,.9.N.4XwXqX4XqXqXxXxXdXfXlXlXgXgXgXhXhXxXlXkXjXCXCXVXtX.X4.) ) ) ] ] ] ] ] ] ] L.I.I.{ { { ` ` ( b v A W W W W ",
"! Z A F A '.}.E.W.'.[.Q.E.E.E.W.Q.E.E.E.E.6.] ` 3.XXtXnXnXxXhX1XqXqXhXhXxXxXxXvXxXxXvXvXvXvXhXhXkXBX&X,.,.N.BXCXMXMXjX6X>X>X6XfXBXlXlXlXzXBXlXxX6XBXNX;X-XnX;X9.2.7.W.W.E.E.E.E.'.{.{.{.{.{.}.}.}.}.}.}.XXXX X|.a.J D _ _ D J a.|.|.}.OX+X~.q.$.X.X.X.X.6 t y y y N > o.m.S.m.+.# ; q e q e N *.=.$.$.$.#.m V I.[.).Y.U.U././.t.t.i.i.u.(.@X+X+X+X+X+X+X}.}.}.}.{.{.{.{.{.{.{.{.{.W.6.7..XaXFXFX5XdXlXdX6XxXxXhXxXhXhX6X6X9X9XdXNXfXdXjXMX-Xb.>.M.N.:XqXkXkXxXhXkXzXzXzXlXlXlXzXZXZXBXNXlXjXNXGX.Xz.3.6.6.6.I.'.I.'.[.[.'.'.'.].[.{.{.}.}.}.}.}.}.+X}.{ ^ u.i.i./._.`.).[.'.l.7.4.*.#.$.$.$.-.-.$.t e e x 4 +.S.S.h.A.n.7 * % t w 5 6 #.&.&.&.#.*.5.W.[.[.'.'.d.f.s.s.s.(.(.I.L.Y.Y.Y.Y.Y.Y.Y.I.L.L.L.L.L.K.L.L.' ' ' ' ' ' T T B n 1.*XGXmX8XMX6XjXjXdXdXjXfX5XgXdXgXnXnXnXgXfXNX8X9X-X,.1 7 9.:X:X:XN.N.Z.N.B.N.B.B.N.N.B.B.B.N.N.rXeXeX2X7XGXyX7.B U ' ( P ' ' ' ' ' G.G.G.G.~ ~ ~ ^ ^ ^ E a s s g f / H.H.T.P.P.[ ) ;.o.O.O.O.-.$.t w x I 0 x k > + m #   9 & .       $ = m ..| | , m Y L.Y.Y.U.P.[ ! ! p.i.Q Q Q E / ^ ^ P.K.K.K.' K.K.G.G.~ ' ' ' T U L L B k C n ;.-XMX,X1X1X1XA.A.Z.A.1XrX,X:X:X:X<X1X1X1XhXkX6XN.,.7 1 7 &.b.2XMXMXwXjX9XjXjXfXdXlXlXgXdXlXcXhXhXkXNXjXCX9XCXJXiXc.;.) ) ] ] ] ] { ] ] ] ] { { { ` ) ( b z b A ( ( W W ",
"Z ! ! D A _ { '.E.W.W.!.E.E.E.Q.Q.[.[.Q.] ] 6.V c.*XnXMX6X1X1X1XqXqXhXhXhXxXhXvXxXxX<X<XhXkXjXjX9X&X,.7 7 9.2XJXuXMXMX9X6X6X6X6XjXNXBXBXNXNXNXBXDX6XBXNX>X5XNX=X0.1.7.].6.'.}.'.{.{.{.{.{.{.{.{.Q.{.+X}.XX@X|.x.J J J J J _ _ d.|.}.OX{.+X~.<.$.$.$.X..., r w e q L N > &.N.B.7 ; & 9 9 q q n m $.X.$.$.#.#.<.6.[.).U.H.H./././.i.i.i.u._.|.}.+X+XXX+X+X+X+X+XOX{.[.[.OXOX{.{.{.].7.7..XtXiXiXnX9X6XdXdXhXhXhXhXdXhXhXdXdXfXjXlXgX5XmXnX7XM.%.: 0.=XCXNXhXzXcXvXlXlXlXlXlXlXlXlXlXBXZXZXZXlXlXNXmXoX3.H ].'.E.[.[.[.[.[.[.[.].{.+XOX[.{.}.}.}.}.+X+X'.[ [ u./ i./._._.).(.'.6.4.:.%.X.X.X.O.-.$.#.r y y q 5 +.S.j.k.S.D.: @ w w = - 5 #.&.&.o.&.m 1.].{.'.'.[.(.f.s.s.f.f._._.(.U.Y.Q.Q.Q.Y.Y.Y.I.L.L.L.I.L.L.K.~ I.K.T ] ] T B C *.c.#X=XGXHX5XdXjXjXjX9X9X9XMXnXgXgXgXfX9X9XfX9X8X%X4.7 o @ 6 9.4XBX:XN.N.N.B.B.B.B.B.B.B.B.B.N.m.B.rXkXkXMXJXJX*X) z ) ] ( ' ' ' ' G.K.K.G.G.G.~ / ^ s.^ a u h p s f J.J.J.R.R.P.[ ) ;.o.+.O.O.-.$.r e I I 0 x e w w - $ $ q .         & > , , } } , t Y L.Y.U.U.P.P.[ [ _ ! ! Q Q / E E E [ { ] ' ' ~ ~ ~ ~ G.P P ~ T U L N N C C 2.*XuX4XqXZ.A.A.A.A.A.rX:XqX4X,X<X<XqXvXhXxXhXjXN.,.7 o : : 6 :.v.iXGXVXnX9XMXdXdXlXjXfXZXlXhXhXhXhXxXlXlXlXCXnXnXVX=X0.M 1.5.] ( { I.{ 6.5.3.` J G G G B z z G ( ) ( ( ( ",
"W _ ! A W _ { d.6.6.W.E.!.E.!.Q.[.[.[.Q.{ 5.3.;.*X-XCXjXqX,X<X<XqXqXxXhXxXhXhXvXhXxXxXxXNXBXjX6X7Xv.%.: : %.v.iXGXuX8X0X0X4X,XqXjXlXBXBXBXNXBXBXlX6XBXlX&X>XBX9Xv.2.2.].6.'.|.'.[.{.].{.{.{.].'.{.OX+X}.XX|.x.x.J J J J _ _ d.|.[.OXOX{.XX X=.$.$.$.$.#.t r w x I I c r #.0.2.* &   9 9 q q w m $.X.X.$.#.#.<.!.Q.Y.U.H.J././.u.i.i.i.u.s.(.|.}.XXXXXXXX+X+X+X+X+XOX{.OX{.{.{.].].W. X*XiXuX9XdX6X6X6XdXhXhXdXdXdXdXdXdXdXdXjXlXgX5XnX8X#X:.< : :.#XCXAXNXlXxXxXhXlXlXzXlXlXBXlXBXlXlXlXhXhXhXlXDX-Xv.4.6.].E.[.[.[.[.[.[.[.{.{.OXOX{.{.}.}.}.}.+X+X'.[ ^ ^ i.i./._.).).(.'.6.7.:.o.X.X.X.X.X.$.m w y y q 5 +.S.k.k.S.D.8 - w w w = 5 #.&.&.o.&.#.*.7.{.'.[.[.(.(.s.s.s.f._._._.).Y.Q.Q.Q.Y.Y.I.L.L.I.I.I.Y.P.K.G.K.' T ] ] U V ;.v.-XiX-X8XfX3XdXjXjXjX9X0XwXMXgXgXgXgXfX8X8X9XnX=Xc.%.@ o # 5 >.=XCX2XN.Z.Z.B.B.B.B.B.B.B.B.N.Z.B.B.Z.rX1XqXAXHXiXc.V B ( ' ' ' ' ' K.G.K.K.G.G.~ ^ s.u.Q a u s s f / H.J.J.R.U.P.[ ) ;.&.+.+.O.-.#.r e I I 0 I e q w n = % $ $ 9 9     & > , , #.e., r Y ] Y.U.U.P.K.{ ` _ _ _ ! Q Q Q Q ! _ { ] ] ' ' ~ ~ ~ ~ P P T U U N N V V *.v.7XMXqX1XZ.A.A.A.A.rXrXrX4X,X,X1X1X1X1XvXzXqX2X9...: o : : > %.9.#XtXFXGXMXCXMXjXBXNXjXBXlXlXhXhXxXzXzXlXjXjXMXCXGXuX#X:.;.1.) _ [ { ] 5.1.H G G G G B B z G ) ) ) ) ) U ",
"_ _ W A W _ _ _ { 6.6.E.5.E.E.[.[.[.Y.E.E.6.1.2.tXmXCXjXqX1X1X1XhXhXhXhXxXxXxXxXqXkXlXxXjXBXjX>XM.>.< 1 1 : %..XGXuXuXMXMX6XqXjX6XjXNXBXBXBXBXBXlXdXBXfX&X>XBXMX=X9.2.z.z.l.'.'.[.].].{.}.}.{.[.{.{.}.}.|.a.` K J J J J _ ` d.|.|.OXOX{.XX X=.$.$.$.$.#.m n e x I x e r t #., + & q 9 9 9 q w m #.X.$.$.#.#.<.!.!.Y.U.U./._._.u.i.i.u.u.s.d.'.|.@XXX+X+X+X+X+X+XOX}.{.[.[.{.].W.W.XX*XtXnXfX6X6X6X6X6X6XdXdXdXdXdXdXdXdXdXdXfXgXmXfXVX=X9.6 1 < , 9.=XCXAXlXlXzXhXlXlXlXlXBXBXBXBXlXlXdXdXhXlXlXJXmX-Xc.3.6.'.E.[.[.[.[.[.[.{.{.{.OXOXOXOX}.}.}.+X}.{ ( ^ u.t.i./._._.).(.'.W.7.:.o.X.O.X.O.O.$.m w c e j 5 o.m.S.j.S.+.8 4 w c w = > #.&.&.X.$.#.*.7.].].{.{.)._.s.s.s.f._._._.(.Y.Q.Y.Y.I.I.I.I.L.L.I.Y.Y.P.P.K.K.' ' ] Y U V c.=XmXuX8X8X8XdXdXjXjXjX9X9X9XjXgXgXgXgX9X8X9X8XiXv.%.# o O + # 7 M.MX4X:XrX:XN.N.B.B.B.B.B.B.Z.1XZ.B.N.Z.Z.1XBXJXKX*X3.z B ' ' ' ' ' ' K.G.G.~ [ [ _ _ ! Z a a u a Q ^ P.H.G.G.P.K.{ 1.;.&.+.O.O.-.%.r e x I 0 I q % C *.M > O & q q   . $ = m m #.} , r V 5.Q.Y.Y.I.I.{ { ` _ _ ! ! Q ! Q ! W ) 3.5.{ ' ' ~ ~ ~ P T U B N N V *.*.9.*XuXMXqX<XZ.Z.A.A.rXrXrX1X,X4X6XqX1XqXqXhXhX&Xb.o.1 + o + @ > 5 M 4..XiXJXmXVXCXNXAXBXjXlXlXlXlXlXlXzXlXcXjXdXNXAXCXCX=X9.*.1.` [ [ [ ] ) ) V z z z z B B G G ` 3.3.) ) ) ",
"( ( A A A _ _ ( ( ) 6.6.E.E.Q.{.[.[.Q.E.].5.1.c.iXnXMXjXhXhXhXhXhXhXhXhXxXxXxXxXhXkXxX6XjXNX6XN.>.7 : : : o : *.=XiXmXCXjX9XqXwX6XdXjXNXNXNXNXBXDXlXBXfX>X5XlXMXGXv.2.z.].l.'.'.{.].].{.}.}.{.{.{.{.}.|.l.J G J J J J J ` d.'.|.}.OX+X}.XX X=.$.$.$.$.#.m n c I I x c n t #., @ = q 9 9 9 q e C #.$.$.&.#.#.<.8.!.Y.U.U._._._.s.u.u.u.s.s._.(.l.|.|.@X@X+X+X+XOX{.{.[.E.'.].].7.c.%XtXuX9XdX6X<X6X6X6X6XdXdXdXdXdXdXdXdXfXfXfXmXNXnXnXv.%.: o : + 6 9.7XAXAXBXlXlXlXlXlXBXBXBXZXZXZXcXlXzXzXlXBXDXmXmX*X4.6.].'.[.[.[.[.[.[.[.{.{.{.OXOXOX}.}.}.}.'.] [ u.i.t.t./._.).).(.'.W.7.=.o.X.O.O.O.X.#.m w x x x k 7 +.S.S.m.o.5 k e c w = , #.$.X.X.$.#.*.8.].{.{.{.)._.s.s.s.f.f.f._.(.Y.Y.Y.Y.I.I.I.I.I.I.I.Y.Y.P.P.T.K.' ' ] U U 8.*X-X=X%X7XuX9XNXdXjXjXfX9X9X9XjXgXgXgXdXfXfXuXiX#X:.: o o O + + : 4.%X2XqXeX:XZ.Z.N.B.B.B.B.B.N.rXZ.B.B.B.N.<XkXAXVXmX.XH B ( U ' ' ' ' ' ' ' ~ [ _ _ D F v Z Z Z ! [ _.P.P.K.K.L.{ 3.1.;.&.O.O.-.-.=.r e y I x e $ * *.9.:.7 + $ $ &     $ = m 6 ..} , m *.8.!.Y.Y.I.E.6.6.6.` _ ! ! ! E E E W ) 1.5.6.{ ] ' ' ' T T U B n C V *.*..XiXpX6XqXrXZ.Z.Z.Z.<X,XeXeX,X6XqXhXqXqXhXhXqXb.&.: o + o + + * > 5 M 9.%XFXnXCXMXjXBXBXlXlXlXlXlXlXlXzXlXlXlXdXBXBX9XCXuXc.*.V ) { [ ' ] ) ) V B z z A G G G ) 3.3.1.1.1.1.",
"B U ( ( ( ( _ ( B ) 6.E.E.I.E.[.[.[.Q.E.].5.2..XiX8X9XjXkXxXxXxXkXkXxXxXxXxXxXxXxXlXjXjXNXjXN.,.7 < : : : + @ > 2.$XVXCX8X9XqX4X5X6XfXMXNXNXNXCXBXCXNXfX9XjXMX9XGX#X4.z.z.l.].].{.].W.W.].{.{.{.}.{.}.|.d.J G K J J K K a.l.|.|.}.}.+X{.XX X=.$.&.$.$.#.m N c I x x N n , &.=.m = & 9 9 9 q e C #.#.$.&.#.#.<.8.!.I.L.P.Y.(.(.s.s.p.s.s.(.(.d.` d.l.|.}.}.OXOXOX[.{.{.].].].z.7..X=XmXfX6X<XqX1X6X9XdXdXjXjXdXdXdXdXlXlXgXfXfXnXVXiX%X=.: + + + : : 6 v.nXHXAXNXBXlXBXlXBXBXZXDXZXZXZXZXZXZXcXlXNXnXmXtX X3.].'.[.[.[.[.[.{.{.}.[.{.OXOX}.}.}.}.{.'.[ [ u.i.g t./.`.`.).).'.W.7.=.o.X.O.O.O.O.#.m e I x x k 5 o.B.Z.,.7 = e e c w * > #.$.$.X.$.#.*.8.].{.{.{.[.(._.s.s.f.f.f.s.[ I.Y.Q.Q.Y.Y.I.Y.I.I.I.Y.Y.I.T.L.] ' ] ) B 1.XXtX7X$X#X7X9X5XMXfXjXMXfX9X9XfXfXgXgXdXdXfXnX8X=X>.6 o o o O O o # 6 4.#XpXpX:X:X:XZ.N.N.B.m.B.B.N.B.m.B.B.N.Z.qXAXnXGXaX X) Y B ( ' ' ' ' ' ' ( G J J F l F A _ _ ` { { { ] ] ] 5.5.2.2.=.-.-.-.-.-.*.r e e x x - * 6 ,.w.,.o.< + $ $ $ & & - n 6 } } } #.*.<.5.] ] ] ` ) ) ) ) ( _ [ [ ! E ! _ ) ) ) 3.6.6.] ' ) ) Y V C C %.*.=.9.=XGXwX4XqX1XZ.Z.Z.:X,X1XqXwXqXqXqXqXqXqXqXjXwX>.: 1 o + O + + * > > m ;.v.%XuXVXVXfXNXBXlXlXlXlXjXjXlXlXlXlXBXfXAXBX8XCXMXM.:.*.) { [ ] 5.5.Y V B b A G ( ) H H H V V V *.1.",
"c U ) ( ( _ ( ] B ) E.W.E.{ I.I.Q.'.Q.W.6.8.c.*XiX8X9XjXkXkXhXxXkXxXxXhXhXxXxXxXxXjXNXAXAX3X9...: : + + + + + @ m c.iXmXuXMXMX0X5X6XdXjXjXjXNXCXMXNXjXdXNXBXNXnXMX&Xc.4.7.z.].].].{.W.W.{.{.{.{.'.'.'.d.` G G G K K K ` l. X X].{.{.XX X Xv.=.&.X.$.$.#.C N I I I c N > , -.9.,.> &   q e q e t m ..#.&.$.#.<.8.W.E.L.I.Q.'.'.d.p.p.s.s.(.(.d.[ d.d.d.d.{ '.[.[.[.'.'.'.6.6.7.z.*XiXMXdX6XqXvXvXqXwXdXjXjXjXjXhXdXfXlXlXgXmXmXNXVX=Xc.5 o @ O o > + : =.#XCXJXBXDXNXNXBXBXBXZXDXBXcXZXZXZXZXzXzXZXlXVXmX*Xc.z.'.'.[.[.[.[.{.{.OX{.{.{.}.}.}.}.}.].{ _ [ u.t.g t./.`.`.).).'.W.7.;.o.X.O.O.O.O.#.m w x x x c > 6 ,.B.&.= w e x x w = > m $.$.X.$.#.*.8.].{.[.[.[.(.(.s.s.s.f.f.f._ [ I.Y.Q.Y.Y.I.I.I.I.I.T.I.K.K.' ] ) ) Y ) W.yX*X=X=X=X3X3X6XCXfXNXNXfXfX8XfXgXgXgXdX5XfXuX%Xb.: 1 o o O O O O # : 6 9.=X0X2X4XrX:XZ.Z.N.B.m.B.B.B.m.B.N.Z.1XkXJXCXJXIXyXz.H B ( ' ' ' ' [ ' _ A G A F A G ` { ` ) ) Y Y Y Y Y Y *.*.%.$.X.O.X.$.$.m r e e e w = 6 ,.,.w.w.+.o.: % ; & & $ - n 6 , } } } m m C N B C C n m n C B ] I.(.[ [ [ [ ) ) ) ) 6.E.{ ) ] ) Y Y V %.*.:.:.v.uXCX4X:X1X1X:X:X:X<X,X6XqXwXjXqXqXqXqXqXqXqXwXo.1 1 o + + * % * > > n M 2.c.-XVXVXNXBXBXjXlXlXjXjXjXjXlXlXlXBXjXBXBXfXCXCX-Xv.1.) { ` { E.5.V V B G A ( ( ) ) H V m 5 6 m m ",
"c U ) ] ] ] ' ( B ] ].}.{.E.I.I.E.I.E.E.6.7.*XiXnX9XwXjXxXhXhXkXkXxXxXxXhXhXhXxXkXxXNXAXMXM.%.: : : + + O O + % > *..XiXCXCXMXwX6X6XdXdXdXfXMXNXdXNXjXdXMXNXjXMXwX9X#X9.4.7.7.].].W.W.W.].].].'.{ { { ( G G G G K K 3.3.z.c.c. X X X X0.v.0.&.X.X.X.$.#.m N R I I c n 6 o.,.B.b.%.5 & q q q e n #.#.$.&.$.#.=.2.8.5.5.E.W.W.6.6.` ` ` { ` _ _ ` d.d.d.{ { { L.I.I.] { { ] ) 4. XtXuXfX9X<X1X1XqX6X9XdXjXjXjXjXhXdXlXlXNXNXmXmXmXiXc.M + + @ O + % + + 5 :.#XmXJXAXAXNXNXNXBXBXZXcXZXZXcXcXcXlXlXzXZXBXmXmXoXz.7.'.'.[.[.[.OXOXOX}.{.[.{.}.}.}.{.'.{ ( [ u.f g /./.).`.).).'.W.7.:.o.X.O.O.O.-.#.C q x 0 I I = 6 &.:.6 w x e I e e - > 6 $.$.X.$.#.*.8.].].[.{.{.[.)._.s.s.f.f.f._ [ { I.Y.Y.I.I.I.I.L.L.I.L.K.' ' ] ) Y ) 5. XtX#X$X2XpX9X9XMXBXMXNXNXnXfX8XdXgXdXdX5X5X8X;Xc.6 o o o O O O O O O : 5 %.0.%X2X0X,XrXrXZ.Z.B.B.B.m.m.B.N.Z.Z.1XBXAXAXGXJXFX*X3.V Y T ' ' [ [ ` ` G J J J ` { 6.5.V C n n m m m m m m 6 ..} | | | } #.m r e e w = 6 ,.w.w.@.@.@.+...> % ; & $ = n 6 , } } } , , , r n n 5 , : > 5 C ) E.(.I.I.P.{ ` ) ) ) { 6.{ ] ] ) Y *.*.*.:.:.9.&XpX4X,X,X<XrX<X<X,X,X6X6X9XwXjXqXqXqXkXjX6X>X$X7 o 1 o + + + + % * > n m %.;.v.-XmXmXNXNXlXlXlXMXMXlXlXlXlXNXBXNXNXBXNXNXlXMX=X9.1.6.] { W.5.V B B A W W ( ( H V n > , , , , ",
"n B ) ] ] ] ( ( b ] {.+X+X{.'.'.E.] 6.6.3.c.-XuXMXwXqXjXhXqXhXzXkXxXxXhXhXhXhXxXBXxXNXNX&X9.7 1 > @ + @ % O O + % * *.%XFXuX7X9X9X6X9X6X9XdXjXNXdXBXMX6XdXdX9XjXjXAX7X9.:.4.7.7.7.6.6.E.E.E.6.] ] { ) G G J K K K 3.z.z.0.0.0.0.0.0.0.0.0.0.O.O.O.X.X.#.m N R I c w 5 %.,.m.B.B.9.M - & & & w C =.$.&.&.X...$.:.2.<.<.8.7.8.;.;.H H ) ( b b A _ ( _ { d.'.E.I.L.L.' ' ] ] ) z.*XtX8X8X6X6X<X<X1X6X9XdXdXdXfXdXdXfXlXNXNXNXNXVXVX%XM o o + + O + O + @ # 6 9.7XJXJXAXVXCXNXNXlXlXZXZXcXlXcXcXZXZXdXZXBXgXKXtXc.6.].'.'.[.[.OXOXOX}.}.[.{.}.}.{.].'.{ ( ^ u.f f /._.).).).).'.W.0.:.o.X.O.O.O.-.#.n q i 0 I I w , ....@ w c e I q e - * 6 #.$.X.$.#.%.8. X].E.{.{.[.).I.{ d.d.f.f._ _ [ { I.I.I.I.I.L.L.L.L.K.' ' ] ] Y V ) 7.XXyX-X$X&XMX9X9XCXnXMXNXNXnXdX5XdXgX5X5X5X8X8X%X>.o o O O + O O O O O 5 5 5 ;.#X7XuX,XrXrXrXZ.N.B.B.m.m.m.B.B.Z.1XzXjXAXCXmXGXtX0.;.Y T ] ] ] [ ] ` ` ` a.l.l.].E.) C > > , , , , , , , , } | |  . ., m C N e w w > &.w.m.@.@.h.h.@.&., + ; $ $ 4 C 5 , , } } } } m > 5 6 6 , , , 6 m Y 6.E.[.).(.[ _ ) ( ' ] { { ] ] ) Y <.;.;.:.:.M.pXMX2X4XqX1XrX1X1X1X6X6X0X9X9XjXqXqXjXkXMX4X&X9.: 1 # o @ # O % % % * > m m m :.#X8XnXNXNXlXBXNXNXNXNXNXNXBXBXDXBXjXlXBXjXdXCXCXv.1.3.) 6.W.<.N B B W ! ! ~ ( V C n > , , , , ",
"N n Y 6.{ ( ' ] { E.{.}.}.{.[.{.E.E.5.V 3..XiXMXjXkXhXhXhXhXhXhXkXxXxXxXxXxXxXxXNXjXJX7Xb.6 7 < : @ + O O O % + O > 5 2.-XmXmX9XnXfXfXMXfX9XfXMXMXfXdXjXjXdX9XdXjXNX9X#X9.;.1.5.1.] ] ] ] ] ] ] ) { 6.6.3.` ` 3.3.4.4.9.2.:.:.:.,.,.,.,.,.-.O.O.O.O.O.&.#.t y R k 5 7 ,.m.m.m.m.C.9.@ O - & $ C %.&.$.X.X.X.$.$.=.=.*.=.=.=.#...m *.;.V B b b z l b _ { 6.{ E.E.Q.' ] { ) 3.*XFX-X7X9XwXqX<X1XqX9XfXdXfXjXfXfXdXBX5XNXJXmXJXVX%X%.> + + @ + O % % + @ > > %.b.7XGXJXJXBXAXBXlXZXlXzXcXcXcXcXBXlXzXzXlXlXAXFX%X3.6.'.'.'.[.OXOX[.[.}.}.}.XX{.{.].E._ [ d.u.Q i.u.`.).).).'.'.7.4.=.&.X.O.-.-.X.#.n c i 0 x x > , -.&.6 r c x 9 x j w = m #.o.o.o.#.*.7. X{.{.{.{.[.[.'.{ ` a.a.f.d.[ [ [ [ { I.I.I.I.I.I.L.L.L.] ] ] ) C 3. X X-X7X3X3X9X9XMXMXNXNXCXNXgX5X5XgXgX-XmXfX8X%X%.o # + + O O O O O O ; # > C M :.#XmX0X4XrXrXZ.N.B.B.B.B.B.B.B.Z.1XkXBXCXCXCXnX-X#X0.Y ] L.] ' ' { { { ` d.l.l.].E.Y > , , , } #...} ........} |  .e., t n r q & 5 6 ,.@.@.h.@.@.@.h.,.&.6 + O ; 4 n 5 , , , , , , , , , , , | } } , t V 5.E.(.I.P.[ ( W W [ I.] ' ] ' ] Y V 1.2.4.9.7X0XwXqX,X,X1XeX<X<X,X6X6X0X9XfX6X>XqXjXjXCX2X9.7 : : + + # # ; % % * * * r C *.M 4.=XnXAXmXDXfXBXBXNXNXNXBXBXBXBXBXlXlXlXlXhXjXwXiX XH ` W.7.5.V V ( _ E E ^ W ) *.m > , } } ..",
"C N ) 6.) ( ` { E.E.].}.}.}.[.'.'.W.6.4.c.=XuXMXkXhXhXxXhXhXhXhXkXzXxXxXxXxXxXxXBXBXAXM.:.: 5 : @ % + % % % % % % > @ M v.-XGXMX9X9X9XfXdX6X9XfXNXjXfXMXMXdX9XdXlXNXMX=Xv.:.;.1.1.] ] ] ] ] ] ] { 6.].z.6.3.3.3.4.2.4.:.:.-.-.-.-.-.-.-.-.O.O.O.O.O.O.&.#.t y N 5 6 o.w.m.h.h.m.m.n.7 o - ; $ C %.$.&.-.O.O.X.$.$.&.=.=.=.&.X.X.#.%.*.C n c b b l A _ { { 6.E.!.I.L.I.] )  XyXFXiX8X9XwX9X6X6X9X9XfXfXfXfXfXfXfXDXfXNXDXVXJX-X9.5 @ + @ * + O O % % + * > 6 :.v.mXJXJXCXAXBXlXlXlXzXcXcXcXcXBXlXcXcXzXlXAXVX-X X3.6.E.'.[.[.[.[.}.}.}.].].].W.E.'.{ d.d.[ ! s.s.'.'.'.'.'.W.7.9.=.&.X.O.O.-.X.#.n e x I x & 5 o.w.,.%.> k x j q j w = m #.o.o.o...=.4. XXX].].{.{.{.].l.l.l.l.d.d.d.{ { { { ] ] L.I.L.L.K.' ' ] ] Y Y V c.*X*XiX9X6X0X9XMXMXMXMXNXNXMXgX5X5XdXgXfXnXmX-X4.5 # O O O O O O O O O % % - 5 m *.0.*XuX0X4X:X:XZ.N.N.B.B.B.B.V.:X<XqXjXNXNXMX9X7X%X.X5.] ] ] ' ' ] { d.` l.l.E.W.E.Y , , } } } } } } ..6 , , } } } e.t m N n - - 6 >.m.h.@.@.@.@.h.@.w.,.o.: O ; k n n , , ..#.#.m , , , < < | | | , t *.5.E.'.(.P.^ ~ W ~ P.P.K.' L.] Y Y 1.2.;.:.v.9XqXwXqX,X,X,X1X1X1X1X6X9XwXMXMXxXhXhXjXMXuXM.:.: : + + # # - - O % * * * > m M M ;.v.=XJXmXNXDXlXlXlXNXNXNXBXBXBXBXlXlXlXhXhXxXwXuX.X3.3.6.8.8.V Y ( ! E / ^ W ) V m , 6 } } } ",
"C C ) 6.` ( { '.'.'.'.{.{.}.[.'.].7.7.c.%X7XpXjXkXxXxXxXhXxXxXxXkXxXxXxXkXkXlXlXNXJXnX,.6 : : : + + + + % % % % = * + > ;.#XGXCX9X9X9XfX9X9X9XMXMXnXMXMXMXfXnXjXlXlXNXuX#X9.*.V ) ] ] ] L.L.L.5.5.l.].].l.3.3.3.4.:.:.&.-.-.-.-.-.-.-.-.O.O.O.O.O.O.O.-.#.m t C 6 &.,.m.h.j.h.h.m.m.o.: @ ; ; n #.#.&.&.-.O.X.$.$.&.&.&.&.$.X.X.X.&.%.M n c b b v W _ ` { E.!.!.] !.L.Y 7.*XaXVXnX8X9X9X9X6X9X9X9XfXfXfXfXjXfXfXNXVXVXmXKXnXb.6 # @ @ * * ; ; O - ; # * : > 6 *.=XGXJXAXAXAXBXlXzXzXzXcXcXcXlXlXcXcXzXlXNXAXmX*X7.6.6.].}.{.[.[.[.|.'.6.6.6.6.6.'.d.d.d.p.d.l.l.'.'.'.'.].].0.0.:.-.-.-.-.&.$.#.n e e I z - 7 ,.m.B.,.6 = k k j j q w n #.o.o.o...=.0. X X X X XXX X Xc.z.z.l.l.|.(.(.(.'.{ ] ] L.T.K.K.K.' T T Y Y V 4.%XFXiXCX9X9XjXMXMXMXMXMXMXMXMXfX5X5XdXgXnXuXmX.X5 o @ O O O O O O O % % % + % > 5 C :.v.iXuX0X:X:X:XZ.B.N.B.N.Z.:X,X,X>X6XjXjX6X2X&X&X=X7.] R ' L.L.' [ I.{ l.'.6.W.6.Y , } } } } } } , ..6 , , , } } e.t n n n = 5 %.,.m.h.@.@.@.k.k.h.w.w.,.7 # - k n > > , , m m , > > < < < < | | , t <.6.E.(.P.^ ^ / E / P.U.K.' ' ' R Y 8.2.*.2.%XMXwXqXqX1X,X,X1X<X,X,X,X6X9XfXjXxXxXhXqXMX=X9.6 : @ + + # # # # O % * * - * n n M M :.v.JXVXmXAXlXlXlXlXlXNXNXBXBXBXBXlXzXxXhXxXMXpX=Xz.` 3.7.5.V ( _ ! E Q ^ ^ ) V n > 6 ..} } ",
"5 n H 3.` { '.'.'.'.'.[.{.{.[.'.].7.z..X-XuXwXwXxXxXxXxXxXxXxXxXxXxXxXxXkXkXkXlXdXGX-X%.6 : : + @ % + % % % % % - * # @ 6 9.uXnXfX9X9XfXfX9XfXCXfXfXMXCXCXMXMXNXgXdXNXCX7Xv.2.1.) ] ] L.L.L.!.E.{ 6.].].6.3.3.3.4.2.:.&.-.-.-.O.-.-.-.-.O.O.O.O.O.O.O.&.#.m t n 6 ,.m.h.j.k.k.h.h.m.,.7 @ O ; n %.%.&.&.-.-.-.&.$.&.&.&.&.X.O.O.X.$.=.%.C N b v A _ ` _ { '.{.!.] E.] ) XXaXFXCXCX9X6X6X9X9X9X9X9XfXfXfXfXjXlXmXgXAXAXmXnX.X%.1 + > 5 = # ; - ; ; ; # * @ : > m v.iXJXJXAXAXBXzXzXzXzXlXcXlXBXBXzXzXzXlXNXDXmXbXc.3.3.].}.{.Q.[.'.d.6.{ 3.5.6.6.l.{ d.d.` l.].z.z.z.z.7.7.7.0.9.:.-.-.-.-.&.&.#.N e e x 4 8 +.m.S.S.m.o.7 4 4 k j q w m #.$.X.X.X.&.2.0.0.4.4.4.0.0.0.0.4.2.3.6.'.(.(.[.'.{ ] ] L.L.T.K.K.' ] ] ) Y <. X=XVXiX9X6X6XdXjXMXMXMXMXMXMXMXfX9X5X6XfXnXiX=X:.+ o - % $ & % % % % % * % + # * > n *.2.#X-XuX2X&X:XZ.B.N.N.Z.:X,X6X4X>X>X6X6X>X&X&X&X&X X6.U ' L.L.' ' P.[ { l.6.W.6.V < | | | } } } , 6 6 6 , , , t m t n n n n C >.D.h.h.@.@.k.j.j.h.w.m.,.o.: * 5 = > > > * > * - * * > < < < < < , > V { { [ ^ Q f E / / H.U.K.' ' T Y 5.8.2.;.c.iXMXwX6X6X,X1X1X,X<X<X:X,X,X6XjXjX<XxX<X,X9X#X%.: : @ @ # # ; O O ; # * * * * > > M M *.4.FXGXVXDXlXlXlXlXlXlXNXNXDXBXBXlXlXzXxXlXBXMXmXoX3.` 3.5.V G _ ! f f J.^ { ) n > 6 ......",
"5 5 H 3.l.l.|.'.{ '.'.[.[.[.[.}.].7.c.*XiXMXwXkXxXxXxXxXxXxXlXlXxXxXxXxXxXlXlXNXCXCX#X7 6 > : + * * + % O ; % % * - * > : %.-XCXnX9X9XfX9X9XfXCXnXnXMXCXNXfXfXfXgXgXlXCXuX#X0.1.) ] ] L.L.L.I.I.{ { { 6.6.6.3.3.7.4.:.&.-.-.O.O.O.O.-.-.-.O.O.-.-.-.$.$.#.> r r o.w.m.h.k.k.k.k.h.S.m.&.> # = C *.*.=.&.&.&.&.&.#.$.&.&.$.X.X.X.X.$.#.%.C b b Z ! s.s.[ { '.].!.E.6.) 7.yXGXVXCXNXjX6X6XdX9X9X9XfXfXfXfXfXgXNXNXnXAXJXmX%X>.# o @ > 5 @ ; ; - = ; - - * @ @ > m :.$XCXJXJXAXlXcXcXcXcXlXcXlXBXlXlXzXcXcXlXDXNXmX.X7.1.6.].E.!.[.{ { 6.3.5.6.6.6.{ { l.l.3.3.7.2.2.2.2.2.2.2.:.:.&.-.X.X.&.&.#.#.t e e w 5 o.h.j.j.j.m.D.>.7 # 4 j q w m #.$.X.X.X.X.&.=.%.%.*.=.%.=.=.=.%.*.1.6.'.I.(.[.E.) Y ) I.Y.Y.I.L.L.] ] ) 1.1.*X=XuX7X7X6XdXfXlXCXCXCXCXMXMXnXdX9X6X6XfXnXiX9.> + # % - - - - - % % + @ * + + * > n M *.9.$XuX7X&X:XV.N.N.V.:XrX,X6X6XjX6X6X>X:X:X:X&X&X%X7.) ( ] L.' ~ P.[ ` l.l.z.6.M , | | } } } , , > > > > > > > > > r r = - 7 >.m.h.h.@.k.k.j.h.h.h.m.,.8 1 # - % % = > > - & & & $ * > , < < < < > B ( [ ^ Q f g f / / H.P.K.' T U 5.8.1.;.9.$XCXjX6X,X,X,XqX1X<X<X<X,X,X6XqXjXjX<XxX6X>X;Xb.6 @ > > * - # O O O ; # # * * * * = n V *.;.tXJXJXNXlXlXhXlXlXlXNXNXBXBXBXlXlXzXzXkXkXkXDXtXz.3.3.3.) G W Q f f /.^ { ) C 5 6 6 , ..",
"M M K l.x.|.|.(.[ (.[.{.[.'.[.}.z.c..XtXmXNXkXkXeX1XxXxXxXxXlXlXhXxXxXxXxXlXlXBXJX7Xb.: > : > % > * * # % % % - * = * : # 7 #XGXfX9X9X9X8X5X8XnXMXMXCXCXfX5X3X5XlXlXlXMXpX=X X8.] ] ] L.L.I.I.I.{ { { { l.l.6.3.7.:.&.&.O.-.O.O.-.O.-.-.,.-.-.-.-.-.&.=.m r w n -.m.m.h.k.k.k.k.h.m.m.,.6 > r C V V m m ........6 m m #.....X.X.X.X...m N b A ! u.s.s.[ [ E.E.!.W.5.3..XFXGXMXNXlXhXdXdXfXfX8XfXfXfXfXfXfXgXNXNXmXAXJXiXc.5 1 # > > * # ; ; - 4 - - - * + % > 6 m 0.=XmXJXAXBXZXcXcXcXzXlXlXBXBXlXcXcXDXDXDXNXKX*Xc.1.) 6.L.L.E.{ 3.6.6.6.6.6.{ d.d.'.l.1.;.=.#.%.%.%.*.%.%.%.&.X.X.X.X.o.#.#.m t t r n M D.h.k.k.k.j.m.D.8 1 5 w q w m #.$.X.O.O.O.$.X.....#.#.....&.&.#.m 1.W.{.[.[.[.I.( B ) Y.Y.Y.Y.I.I.L.5.1.1.8.tX=XuX5X5XgXdXlXBXBXVXCXCXMXMXfX9X9X6X6X9XiX%X%.+ * - O w w - - % % # @ + @ + + % * 5 M M ;.v.-X7X2X:X:X:XN.:X:X,X4X4X9XNX6X5X>X>X,X6X,X;X=XXX3.) ' K.P.~ (.[ _ d.x.x.z.H ..| | } } } , m + % ; $ ; % + + O O O O O # o.w.h.h.j.k.k.j.h.h.h.h.+.8 : 5 n w $ % w w w q q q $ - > > : : : > n G ! ^ Q f t.g g / ^ H.K.' ' T R 8.8.*.2.#X7XCXfX6X>X>X,X1X1X<X<X<X:X,X,X6XwXjXxXxX6X>XM.:.< : > > > - - $ ; ; # # # % * * = = > C *.M #XFXJXNXzXxXlXhXlXlXNXCXBXNXBXBXlXlXlXkXxXzXDXbXoXl.3.1.) B A Q f g t./ [ ) z 5 6 6 < 7 ",
">.;.x.x.x.|.|.(.{ (.[.[.[.[.[.{.7.XX*XaXVXMXkXxX1X1X1XvXxXxXjXlXxXxXxXxXzXzXBXBXCXv.:.: : + > : @ * = = = - - - - 5 @ : : : n.uXnX9X9X9X8X7X8XnXnXMXMXMXfX3X-X5XgXlXlXMXCXaX*XW.] ] L.L.T.Y.Y.L.{ d.(.(.(.'.l.6.3.:.&.+.O.+.O.O.+.O.X.X.$.$.$.$.$.$.$.#.m = w m ,.w.m.h.k.k.k.k.h.h.m.B.=.> - w r r r > > : < : > > > , , ....| X.....M G ( ! u.u.u.u.s.d.I.E.W.6.6. XyXmXmXNXlXhXvXhXhXfXdXdXnXfXfXfXgXnXNXNXNXVXAXVX#X7 # : @ > @ # @ - # - 4 5 5 = * @ * > > > %.b.=XAXAXBXZXcXcXcXzXzXlXBXBXlXlXlXcXDXDXNXVXmX.X3.) 5.E.E.I.6.3.3.3.3.{ { { '.d.'.z.1.#.#.$.....#.#.m #...X.X.X.X...X...6 t t t N H n.m.k.k.k.k.j.S.m.>.8 5 w e r m $.$.O.O.O.O.-.O.$.$.$.$.X.X.$.&.$.#.1.W.}.[.[.}.I.B C ) Q.Y.Y.Y.I.I.E.!.) 1.2.FX-X8X9X6XdXgXlXBXNXNXCXMXMXMX9X9X9X6X6X0X*X2.> + * - - w w - - % = = * @ * * * + * > m M M 4.#X-X7X2X:X:X:X:X:X4X4X0X9XfX9X6X<X>X6XhXqX3X-X*Xz.) ( [ P.^ P.[ _ a.a.x.x.>.o...< < } } , t O O $ ; ; O O O O + > n 7 7 o.+.h.h.j.k.j.h.h.h.j.h.+.+.:.0.8.<.r w w q q q 9 9 & & = = > : 5 5 G ( ! Q f t.y.g f / ^ H.' ' T R Y 8.8.*.0.-XMXMXdX6X6X>X,X,X,X,XrX:X:X:X:X,X6XqXxX1X<X&X,.6 : : > r r = - ; - - # # # * * = r r = n M M c.*XGXnXzXxXlXzXlXlXBXBXNXNXNXlXlXlXlXxXxXzXDXbXyXz.3.3.1.G Z Q f g g f W G B C M 6 < , ",
"x.x.x.x.x.|.|.(.I.(.'.[.[.[.'.].7..XtXFXCXjXhXxX1X1X1XvXhXxXxXxXxXxXxXkXzXzXZXAX2X,.%.6 > + > > @ * = n n k = - - n - 5 5 # ;.%XCXnX9X9X9X5X9XnX8X9XnXMX9X3X3X5XgXlXgXnXCXGXtX X1.] ] L.L.Y.Y.I.[ (.'.[.'.d.d.l.3.>.%.o.+.+.O.O.O.X.< : < > : > > > t t > + - 6 ,.w.h.h.j.k.k.k.j.h.S.B.>.> O $ - = = > > * @ + + + + @ , ..} } 7 7 M H ` _ s.u.u.u.u.s.(.'.'.].6.7.*XmXnXgXBXhXvXvXhXlXfXdXdXnXfXfXgXgXnXNXNXVXVXVXnXn.1 # 5 # > # # 5 n 4 4 k n n = - > > > : > 6 ;.#XVXJXNXDXcXcXcXzXzXlXBXBXlXdXdXlXlXlXNXNXJX*X7.1.6.!.Q.I.{ 3.` ` { { { d.'.d.l.z.;.m #.$.....#.#.#.#.#.$.X.....o...#.m m t r m 4.m.S.k.k.k.k.k.j.S.m.o.8 = w r m $.$.$.-.O.$.$.$.$.$.$.X.X.X.O.$.$.#.=.7.[.).).).[ b B ) Q.Y.Y.I.I.!.!.5.<.1.2.FX-X8X9X6XgXgXlXBXNXNXMXnXnXfX9X9X9X9X9X9X.X5 + > - $ w k n w - = n n 5 = > > = @ % = n m m ;.v.*X7X2X:X:X:X:X:X,X0XwX9X6X9X9X6X>X,X6XqX6X8X=X X) ( [ P.^ ^ ^ _ _ J a.x.x.%.6 : , 6 , , , % $ & & & & $ $ - C 7..Xv.n.D.m.h.h.j.j.h.h.h.m.m.h.m.B.;XtX*X X<.N % $   9 i i q q w 4 4 5 z G ! ! Q f g t.y.g f / ^ ~ ' ' T Y 5.8.2.:.v.8XMX9XjXqX6X,X:X:X:X,X1X,X,X<X,X1XqXhXvXZ.:XN.&.: : > n n n w - ; - - # # # % * > > r > > M M 4.v.iXnXBXlXzXzXlXlXBXBXNXNXlXlXlXlXlXxXxXZXDXKXbX.X1.3.3.G A Q f f g s Z ! D G G C 5 5 ",
"x.x.x.|.|.|.'.(.).).[.[.E.].].7.c.*XiXmXfXjXhX1XxXxXxXxXxXxXkXxXhXdXcXZXhXlXAX4Xn.>.6 6 > * > r * 5 C C n k w k k k k w = 5 V 2.-XGXMX-X6XfX5XnX9X8XmXuXuX9X&X9XgXNXNXfXNXAX8X.X9.;.1.5.I.I.Y.I.L.I.'.'.'.l.l.x.x.3.>.o.o.O.O.O.&., 1 1 o ; O $ w & % % o o , o.h.h.h.j.j.j.j.j.j.h.h.m.,.%.M V C 4 # > * % % % 4 ; O * 6 #.} } 5 z J a.p.p.u.u.u.u.[ (.'.{.{.W.1.c.=XmXnX9XfXBXdXdXdXfXdXfXfXfXMXNXfXfXBXNXfXAXVXVXb.7 @ = 5 n # - - 4 4 k k n k n n n = * * > > > m 4.%XJXHXAXDXZXBXlXlXlXNXNXlXlXlXDXZXcXhXdXfXNX.XH 6.I.L.I.{ 3.{ [ [ s._.(.'.]. X0.*.%.#...6 ..........#.........#.#.m m m r , o.w.j.k.k.k.k.k.k.k.k.h.+.8 > - n r t =.$.=.$.$.=.=.&.$.$.$.O.X.O.O.O.$.=.3.(._./.i./ ~ Y ] Y.Y.Y.Q.L.E.W.<.<.2. XtXVXfX5XdXhXhXlXgXnXgXfXfXNX>XBX>XfXMXuX=Xm 5 = % - w w w w w k k n n n w > > = * @ @ > 5 M %.:.v.=X7X&X&X:X:X,X,X6XqX6X6X6X6X6X5X6X6X6X6X7X7X#X7.) ' ' ~ ^ ^ ^ ! S i.i.f.p.` K C 5 5 6 m O % $ . . 9 i . z  XtXtXuXdXZ.S.m.h.@.h.j.j.h.h.h.m.B.Z.>X3X=X#X0.5 O & $ & q   & & 4 j v ! ! Q t.g g f f f g f H.H.G.[ ' U Y 1.2.2.:.2.$XCXCX:X4XqXeX:X:X4XqXwXwXqX6X>XV.&X>XhX1X,X&X9.7 : m n n N n = - 5 5 # # - - - * * > > > m m M ;.4.#XFXJXNXlXlXlXlXlXlXlXlXlXlXlXlXlXNXlXBXNXnXmXtXc.H ) ` _ ! ! Q a s s g t.Q Q A z k ",
"x.|.|.|.|.l.'.(.).).).Q.E.W.W.7..XtXFXVXmXlXzXxXvXvXvXxXxXxXxXxXlXgXlXzXhXBXjXN.&.o.6 m m > = w 5 n C C n k w k n k k k = - n M v.8XVXfXmXgX5X5X9X8XiX-X7X7X%X>XMXVXNXgXNXAXnX&Xv.2.1.5.] L.P.K.I.I.I.'.|.|.x.x.x.x.>.>.>.&.o.&.#., + O ; .     . q 5.XXyX-X3XZ.m.h.h.h.j.j.j.j.j.h.j.S.1X9XFXIXFX*X;.@ % = w - $ & ; ; @ m =.=.K J p.p.p.p.p.u.^ ^ [ (.[.{.{.W.0.#XuXVXnX9XfXjXfXfXfXfXfXnXnXnXMXNXfXfXBXCXMXAXVXb.7 > 5 - ; 4 - 4 4 k k k n n n N C C n = = = > > > M 9.;XmXJXDXDXBXlXlXjXlXlXlXlXlXNXZXcXlXhXxXNX%X4.{ I.P.P.6.6.{ [ ^ u.u.u.d.l. X4.%.#.o.......#...6 ..#.#.#.#.#.#.m m #.%.> 6 ,.m.j.k.k.k.k.k.k.k.k.j.m.+.7 # > > t m , e.t t t m , , ..X.X.X.O.O.-.$.=.3.s.i.t.t.Q ~ ] !.Y.P.Y.Y.] ] 5.Y 1.0.%XiXnXfXgXgXdXhXlXlXnXnXfXfXdXdX5X>X9X-X&X9.5 5 - - w k k k k k w k N N N n 5 5 = * * * > > 6 M %.9.#X7X8X&X,X,X,X,X,X4X4X>X9X9X9X9X6X6XdX9X0XiXyXXX6.( ( [ ' [ ^ ^ Q i.t.i.u.p.p.` K M 5 @ O % $ q 9       ` oXFXtX-X>XZ.A.S.m.h.h.h.h.h.h.m.V.Z.:XV.:X>X7Xb.5 O ; . .     & j v Z Z f f g d d d g g / / / H.H.P.' ' U Y 1.0.2.:.v.2XCXMX6XqXeX,X:X:X,XqXqXwXqXqX,X:X:X<XhXeX:XB.o.: 5 C C N N k k 5 5 5 # - - - - * * * > > 5 5 m M 1.c.*XGXAXDXNXNXBXDXlXlXlXlXlXlXBXNXNXlXNXNXNXGXmX#X4.3.6.` _ [ ! ! Q p p p f f E W W ",
"|.|.|.|.l.l.'.'.).Y.Y.Y.E.E.7.7.=XiXVXMXdXjXlXhXvXvXvXvXxXxXxXkXhXdXlXhXxXlX:X,.o.6 6 m m r r r n C B C N k k k N N n n w - * > ;.#XVXVXNXgX5X5XnX8XiX-X8X8X&X3XMXAXAXmXNXAXDX9X#X9.;.1.] L.P.K.I.{ { (.|.|.|.l.x.x.x.4.>.>.&.>.<.m % $       9 q B XXFXKXgXdXA.A.S.m.h.h.j.j.j.j.j.S.A.xXNXFXFXIXIX X- $ N w $ $ & $ O - H 3.3.x.a.p.p.p.p.p.u.^ [ (.[.}.{.{.W..X-XGXCXuXfXfXfXfXfXfXfXfXnXnXnXnXmXNXNXNXAXVXCX=X6 o = n - ; = 4 4 k k k k k n N N B C C n = - > * @ 5 %.b.-XHXDXDXBXNXlXlXxXlXBXlXlXlXDXcXzXzXlXBXgX.X) ' P.P.6.6.{ [ ^ Q / / ^ d.z.4.%.#.$...#.%.#.6 6 6 6 6 m m m m m m *.*.*.%.m.S.k.k.k.k.k.k.k.k.k.j.S.D.6 # * > > > + @ < @ + + 1 < } X.X.O.O.-.-.&.;.` p.i.f f / [ ] E.Y.Y.Y.Q.] 5.5.Y 8..XiXmXnX8XgXlXdXdXlXjXnXnXfXfX5XDX;XfXfX=Xv.6 * = = k n n k k N k & w n B N n n 5 = - - * * * > m M %.9.-XuX2X>X:X:X:X:X>X>X>XwXjXdXdXdXdXdX9X0XuXiXyX].) ( P.[ [ [ ^ i.i.t.t.Q S ! p.a.` z 4 $ .   &   . .   ) oXFXmX-X5X1X1XA.S.m.h.h.h.h.m.C.Z.:XZ.Z.:X>X3X:.: o ;   . 9 9 i Z E Q f s s p d p g f / H.H.H.P.P.P.' ' Y 1.8.0.:.:.$X9X0X6XjXqXqX,X:X:X,X4X6XqXqXqXqX1X<X6XhXqXN.>.: > M V B B z k k n 5 4 # = = = - * * * * > n , n M *.2.v.uXAXHXVXfXNXDXgXlXzXlXlXBXBXBXBXlXlXmXNXVXGX=X.X;.3.6.{ ` [ [ ! s p p s a Q ! ! ",
"|.|.|.l.l.'.'.[.[.Y.Y.Q.'.W.7.c.-XuXMXfX6XdXhXvXvXvXvXxXxXxXkXlXxXlXhXdXkXjXM.&.&...6 6 r r r n C C B C N k k k N k k n n w - * 5 b.nXVXmXfXfXfXnX8XiX7XuX9X&X>XnXVXDXmXlXDXDXMX%X9.;.Y ) L.Y.T.I.[ [ I.|.|.|.x.x.x.x.x.x.4.>.2.8.R e q 9 9 9 9 q ) oXKXPX;XPXvXvXA.S.m.h.h.j.j.h.S.S.A.hXnXnXtXyXFXXXw w e q $ % $ O ; z a.f.! f.a.p.p.p.s.s.s.[ _.(.[.{.{.{.W.%XiXVXnX8XnXMXfXfXfXfXfXMXMXMXMXmXnXNXNXNXAXAXnXn.7 : 5 = 5 n k k k z B N z k k B B B B C n k - - > > 5 M 4.%XHXAXDXBXBXlXlXxXlXlXlXlXlXBXcXzXzXlXNXmX*X) ( P.L.5.5.{ [ ^ Q f i.i.u.d.3.*.#.$.X.$.#.#., > > > 5 > > > > > n m V %...m.S.k.k.k.k.k.k.k.k.k.j.m.D.7 = @ @ * + + O + O O o o 1 , X.O.O.X.X.$.%.H _ u.Q f f / [ { L.Q.Y.Q.E.E.5.5.1.0.*XmXmX8XfXmXlXdXhXlXlXnXnXfXfX5XBX>XjXnXiX4.@ * = n n n n n k k & $ & k N B N C n = - - = = * > 6 m 6 :.#X7X7X&XV.N.V.&X:X>X>X6X6X6X6X6X6X6X0X0X0XiXtXXX) ( I.[ [ [ [ u.i.i.i.f a S S p.p._ A j   . .   . . ; ; 4.=XiXnX9X6X1XA.Z.m.m.h.h.m.S.Z.V.V.V.Z.Z.N.n.7 o o ; & 9 9 i a a f s p s d d g g f / H.H.P._._.P.K.' ( Y 5.8.2.:.9.&X9X4X>XwXqXqX,X:X:X,X4X4X,XqXqXqXqXhXhXqX2XB...: M V C B B z k B C n 4 4 4 4 = - * * * * > 5 > m M *.2.c.%XmXHXVXfXlXNXgXjXlXlXBXBXBXBXBXlXlXgXmXVXVX-X#X;.3.7.3.) ` { _ i.f s s s a Q Q ",
"|.'.{ { { '.'.[.[.[.Y.Q.{.7.7..XuXMXNXjXxXxXxXvXxXxXxXxXxXxXkXkXhXlXdXdXjX,Xb.o.o...6 5 > r n C C B B C N k k k N k k k n k w = > 4.-XVXNXfXmXNX9X7X7X7XiX7XM.N.9XNXDXNXNXDXNXMX=Xc.2.1.] L.T.T.I.L.[ { (.'.|.|.x.x.x.x.x.x.x.3.5.N q 9 0 0 9 q . C oXKXgXPXPXgXhX<XC.m.m.h.m.S.h.S.A.vXxXNXVXKXFXFXW.w e e q w w % O j _ s.i.t.p.p.p.p.s.s.s.[ (.(.'.[.[.{.Q.W.=XnXVXnX8XnXMXfXfXfXfXfXMXMXMXMXNXgXNXNXnXAXGX-Xo.7 5 5 # = N k k z B B z k k j B B B B B N n n * * > 5 5 %.v.VXAXAXDXBXBXzXlXlXjXlXBXBXDXcXlXzXkXjXmXbX) ] P.L.5.5.] [ / Q f f t.i.s.d.;.&.$. .#.#.#., : > r n r w w = w r r r : : D.S.k.k.k.k.k.k.k.k.k.j.h.+.7 M M 5 @ + # O ; O O o o 1 , $.X.X.o...%.H _ ! Q f f f ! [ { ] Y.Y.E.E.6.5.1.2..X=XmXuX8XfXNXgXgXgXlXMXnXnXfXfXdX<X5X5X7XuXM @ = w n n n k k k & & & $ & k N B C n = - - = > > > > m m =.9.$XuX&XV.N.V.&X>X,X6X6X6X6X6X6X6X6X6X4X2X-XtXoX6.) { I.[ [ [ [ u.u.i.i.i.t.t.i.i.i.u.! v 9 . . ; # o o o.b.N.3X4X>X:X:XZ.B.m.m.m.S.Z.<X>XZ.Z.Z.S.w.+.o.8 o ;   9 i h g d p p p d d d g f / / H.P.U.Y.Y.P.{ ' Y ) 8.8.:.2.v.2XwXwXjXjXjXqX6X>X>X1X6X,X:X,XqXqXjXkXwX4X$X9.5 6 ;.V n ) B z c B B z 4 4 4 4 = - - - - * > > > n M *.*.4.v.-XJXVXgXNXNXdXfXjXlXlXlXlXlXBXDXDXDXNXDXVXnX-X4.2.4.5.) ) 5.( u.i.f a a s s s ",
"(.{ { ] { { I.Y.Y.[.Y.Q.].5.4..XuXjXjXkXxXxXvXvXxXxXxXxXxXkXlXlXhXzXdXdXjXV.,.o.7 6 m m n n N C V V V B N k k k c k k k n k w w * M v.VXAXNXNXgX9X8XuX7X8X=Xv.M.9XMXVXDXDXDXNXNXuXv.4.2.) ] L.K.I.P.I.{ { d.|.|.|.x.x.a.x.x.a.a.6.U x e 0 0 9 q & 5 n.;XPXPXPX;XnX9X:XC.m.m.m.m.m.Z.1XhX6XdXdX-XnX.XC O q e q w w w c _ u.t.y.t.u.s.s.s.s.s.[ [ ).'.'.[.[.Q.Q.7.FXCXCXnXfXfXfXfXfXfXfXfXfXMXMXNXNXfXNXNXnXVXnXv.6 : @ 5 5 k N N N b b b c x j j b B U B B B N C n = * > 5 6 c.-XAXAXAXZXZXBXBXBXjXlXBXDXDXlXzXlXlXlXnXFX3.{ { I.!.5.] ' W E f g t.t.u.s.` *.=.$.#.#.#., * = k k k k w - - w r n M o.D.m.k.k.k.k.k.k.k.k.k.j.m.,.b..X.X0.M # ; X ; ; ; ; o 1 , %.....%.H K a.p.Q f a a E ! [ { { I.E.I.] 6.1.1.4.#X-XuX8X8XNXNXgXgXlXlXNXMXnXfXdXlX>XjX&X-X-X> > n n N n n k k k & & & & & - k C C n k = = = r n > > 5 %.*.;.v.iX3X&X&X&X:X4X6X6XjXjXdX6X9X6X6X0X4X:X=XtXyX].5.] { ] ' ' [ _._./.i.i.i.t.t.t.t.i././ v   X o o 1 o.+.D.B.N.V.:X,X,X:XV.m.m.m.B.A.V.A.A.S.m.m.h.h.m.D.7 ; . i h g p p p p d t.g g g g / ^ H.P.P.Y.P.I.{ ) ) 1.8.8.=.9.$X4XwXjXjXjXjXhX6X,X,XqXqX,X:X,XqXqXwXkXqX2XM.;.5 M H B N ) B b b B B z z z 4 4 4 - = = - = = > > n M M M :.9.%XKXJXNXNXBXlXjXlXlXlXlXlXlXlXlXgXlXlXNXCXCXuXb.;.;.1.V Y 5.) [ ^ Q Q Q f s s ",
"{ I.I.{ ] ] ] I.L.Y.Y.E.].5.4.*XjXhXhXhXxXvXvXvXxXxXxXxXkXlXlXlXhXzXhXdX4Xb.o.&.7 6 M m n n N B B V B B B c k k k k c c c k w w > > 4.iXAXNXNXfXfX9XMX8X8X;XM.M.8XnXNXNXNXDXBXCXVX$X0.8.1.] ] K.P.I.I.L.{ { '.'.|.x.l.d.f.f.f.a.x.a._ ~ x 9 9 q 5 8 >.n.C.gXlXnXuX9X<XV.m.m.m.m.m.:XkXwX6XhXvXA.B.&.: + - - $ & q B ` s.i.t.y.t.i.s.s.s.s.[ I.I.(.'.'.'.E.E.E.6.GXNXMXNXMXfXfXfXfXdXdXfXfXnXMXMXNX5XNXVXnXVX=X=.7 5 @ 5 C N N B B b b b c j j j c b U U B B B C C 5 = 5 5 7 :.%XVXBXBXDXDXZXlXzXlXBXDXDXNXlXzXzXzXZXmXGX7.6.] I.E.5.{ [ ' / f g t.t.t.i._ 3.2.#.#.#.m r = - w k q q q & q N 1.~.$XM.B.h.k.k.k.k.k.k.k.k.j.S.A.V.nXKXmXtXc.- ; X . .   ; O O > %.6 M H J _ i.i.f f a E ! [ { I.I.E.E.6.5.6.3.2.c.tXiXuX9XdXlXlXgXgXgXlXNXNXMXfXdXNX>XmX;XiX.X> n N N N N B c k j 4 4 4 4 & & 4 k C C N k k w w r > > 5 M %.*.0.=X8X6X3X3X6X6X6X6XjXjXdXdXdX9X9X9X4X:X=XiXyXXX6.] ] ] ] ' [ P._._.i.i.i.t.y.t.t.t./.i.Q l 4 o : o.m.m.m.m.m.C.V.<X:XrXZ.B.m.m.N.Z.C.C.S.S.h.j.j.S.S.A.,.4 4 u f f p p d d r.t.t.g g / H.~ ~ G.K.K.L.L.{ ] ) 1.2.2.=.0.&XwXjX9XdXdXdX6X6X6X6XhXqX,X,XqXqXqXwXeX4X&X0.V C V V V ) ( z b B b z z z z k k 4 4 4 4 = - > n n m M M M ;.:.v.nXJXAXVXNXDXBXlXlXlXlXlXlXlXgXgXgXgXfXMXMXmXM.%.M 1.V V 5.) [ [ ^ ^ i.Q f s ",
"{ Q.{.[.I.] ' L.' I.I.E.].5.7.iXBXxXxXvXvXvXvXvXxXxXxXxXxXlXlXlXlXlXhXqX>X,...&.#.%.*.m n n N B B B B G B B B b j j c B N c k n n + %.=XVXNXNXgX9X8XnX8X8X-XM.&X8X8XfXgXgXNXNXNXJX=Xv.4.Y Y ] L.L.L.L.I.I.I.6.6.'.l.l.d.f.f.f.f.a.f.f.s.E 9 q k 5 8 o.D.m.V.6X9XiXiX5XZ.C.m.m.m.N.,XMX0X<XvXA.S.m.+.o.7 # O ; & l _ s.i.t.t.t.t.i.u.s.s.P.I.Y.[.Y.Y.Q.'.E.E.E.6.GXfXfXNXNX9X8XMXfXfXdXdXfXfXfXMXNX5XVXJXCXVX#X5 5 M n = n N c B B B b b x x j j j c U U U B B C C = - 5 5 5 %.c.VXCXNXBXDXcXlXzXZXZXDXDXlXlXlXZXzXSXCXJXz.6.( '.E.E.E.I.[ [ ^ i.g d t.i.u.d.` V m M C n - & q q   q q q w Y XXFXaX7XN.m.j.k.k.k.k.k.k.k.j.S.1XxXMXmXiXJXoX5 ;   .       . ; n H B K _ ! f f g s f Q ! [ { I.I.E.6.W.5.1.7.2.2.v.iXnXMXnXfXjXlXlXgXgXlXNXMXMXfXdXdX5X8X;XiX0.> n N N N B B b k 4 k z z k 4 4 4 4 N C B N n w = = n r n m m %.0.$XuX8X9X4X9X9X6X6XjXjXdXdX9X6X9X6X>X:X3XiXtXXX7.Y ] L.L.L.K.P.P.P._.u.i.i.t.t.t.t.t.t.u._ 4 ; 8 m.S.S.S.S.S.m.m.C.Z.A.:XN.B.B.Z.A.A.S.m.h.j.j.j.j.h.S.D.8 z ! Q g p y.y.d d g t.J.J.H.H.G.~ ~ ~ P ' ] ] ] ) 1.2.:.:.v.2XBXMX6X6XjX6X6X6X<X6XhXqX<XqXhXwXqXeXwX,X$X;.V V ) ) ) ` b z b G z z z F z z k k 4 4 4 = - % > n n C m M ;.;.c.-XGXJXVXNXAXBXBXlXlXlXlXzXBXDXlXlXlXlXjXNXCX%X%.C 1.Y Y 5.] ] [ [ [ u.i.f s ",
"Q.Q.Q.Q.!.I.L.L.' ' ' ] 5.1.c.=XkXxXxXvX1X1XvXvXvXxXxXkXzXzXlXlXlXkXlXjXM.>.o.%.#.M m n n C V B G G B B G G G G k z k c B N c k r + 5 c.nXJXNXfXfXnXCX7X3X;XB.N.7X9XnXgXgXNXNXNXAX7X.X0.8.) ] L.L.L.L.L.E.E.5.6.6.{ d.d.f.f.f.f.g.f.f.(.(.( z ; 7 +.h.m.S.S.A.xXMXfXlXvXA.m.D.B.:XqXkXkXvXA.S.m.h.S.m.,.8 o ; A _ i.i.t.t.t.t.i.^ ^ [ P.P.P.Y.Y.Y.I.E.I.E.E.{ z.JXBXlXfX6X6XfXfX8XfXfXfXMXMXjXjXNXNXnXVXJXuX9.@ m 5 - k N B B ( ( ( b l j i x v x x b B ( U B B C C n n 5 5 M *.=XJXAXHXlXSXSXcXZXcXZXDXDXDXlXzXzXZXMXKX*X) { { { I.I.{ { [ [ ^ f g y.t.i.i.i._ ) C k & & 9 9 9     q q - 7.FXIXiX2XeXA.m.h.k.k.k.k.k.j.S.A.1XqX6X8XnXmXtX# - .             b ` s.p.i.f s p d g f Q [ (.'.'.E.6.W.5.5.7.3.;.9.%XVXnX9XfXjXNXlXjXgXdXfXfXMXnXfX6X6XfX-XmX*X;.n n N U U B c z j 4 j 4 4 4 4 4 4 4 k B V C n N n - n r r m M %.2.v.iXuXuX9X9XjXjX6XdXdX6XdXfX9X5X>X&XqX3X7XaX*X XY ] L.L.L.L.L.I.P.I.[ u.u./.t.t.t.t.t.i.s.A 4 >.C.S.k.k.j.j.h.m.S.S.A.A.V.B.N.Z.S.S.h.h.j.k.k.k.k.j.S.m.+.K D S f g d g g f f J.J.J.J.G.G.G.G.G.~ T T Y 5.5.2.2.:.:.N.0XqXqX6X6XdX6XjXjXxXqX<X,X<XhXkXeX,XpXCXrXv.<.Y Y ) ) ) B b G A A A A F F z z z z j k 4 = = = = > n n m V *.:.9.#XFXJXVXNXNXDXBXlXlXlXlXzXBXlXlXlXjXjXlXNXmX-Xz.H H ) ( ' ' ' ' [ [ ^ ^ / Q ",
"Q.Q.Q.Q.Q.!.I.L.K.' ' ' V H c.&X>X1X1X1X1XvXvXvXxXxXxXkXlXlXlXlXkXkXkX6XB.&...%.%.#.C C C V Y B G G G G G G G G b b k k c c c c n = 5 4.-XAXNXlXMXMXCX9X4X;Xb.B.7X9XnXgXgXlXNXBXAXuX#X0.8.5.) ] ] L.L.L.E.E.E.5.6.{ (.(.(.f.f.f.f.f.f._._.{ G 7 ,.m.S.S.S.S.S.A.1X5XhXvXA.S.D.m.1XkXkX<XC.S.S.S.j.S.S.m.+.8 z p.i.i.t.t.t.i.i.^ ^ [ P.P.P.P.P.I.I.L.I.] { 6.{  XKXBXlXdXfXdXfXfXfXfXfXnXMXNXNXjXmXgXNXVXJX%X:.: n n k N B B U ( ( b v j j l v v x x c b ( ( U B B C n n 5 5 m %.v.GXJXJXlXZXcXlXcXzXBXBXNXBXlXlXkXZXNXVX*X8.3.{ I.I.I.E.E.I.{ s.i.t.t.y.y.t.t.i._ ) b j     9 i i   & & k  XFXFXiX7X0XrXS.h.k.k.k.k.j.S.A.1X1XqX>X6XMXnX*XO &   i 9   i i i W s.Q t.y.y.y.y.y.g i.u._.'.'.'.E.6.W.5.6.7.4.2.b.-XVXnXfXdXlXBXNXlXgXgXfXfXjXjXfX6X6X9X-XtX.XC C N B U U B z z z 4 z 4 4 4 4 4 4 4 k B B B N N n w r r r m m M :.0.7XuXnX9X9XjXjXdXdXdXdXdXfX9X9X>X&XhX3XuXuXyX XY ] L.L.L.I.I.T.I.I.I.P._././.t.t.g f i.u.D F a.n.S.k.k.k.k.h.S.S.S.S.A.A.S.Z.Z.S.h.h.j.k.k.k.k.k.j.S.D.+.g.g.D Q s f f f J.J.J.J.J.J.J.G.G.G.G.~ ' R T 5.8.2.2.:.,.$XeXqX6X6X<X6XjXjXjXxXhX<X<X<XqXqXeX1XwXpX:X0.<.Y ) ) ) ( B b G A A A A A F F z z z z k k 4 4 = = > > n m V *.;.2.v.tXVXmXnXNXNXNXlXlXlXlXlXlXlXlXjXjXjXlXlXNXPXc.H J ( ( ' ' ' ' [ [ [ ^ ^ / ",
"Q.Q.[.[.Q.Q.!.I.I.' ] ] B 1..X-X&XrX1XxXxXvXvXxXxXxXxXlXkXkXkXkXkXkXjX:X9.&...%.%.%.C C V Y Y U G G G G G G G G G b z k c c c N N n = M %XAXDXNXNXMXCX9X9X2Xb.n.3X8XfXgXgXgXDXNXBXCX$X0.8.8.Y ] ] ' L.L.L.E.E.E.E.I.I.(.(.(.d.f.f.f._._.(.'.l.>.n.S.S.j.j.j.j.S.S.A.A.A.A.C.D.D.xXhX<XC.m.S.S.S.k.j.S.m.n.>.g.f.i.i.t.t.i.u.P.[ P.P.P.P.P.K.K.K.I.K.L.] ] ] 6.oXVXlXlXfXdXfXfXfXfXfXnXnXNXNXNXlXgXgXVXnXGXb.M 5 n n N B Y U U ( ( b j j v v v l l x x b U ( ) V V C C n 5 > 6 %.4.GXJXSXlXDXlXcXlXlXBXNXNXNXlXlXxXAXNXCXtXc.1.{ { { { { E.6.{ { s.i.i.y.y.y.t.t.p._ _ A u     9 9 . & & 5 0.aXGXmX9X0XqXA.m.h.j.j.j.h.S.A.1X1X1X<X1XhX&Xb.X & & 9 9 i h g / ^ u.f s d d y.y.g f /._.(.'.'.].W.W.7.8.8.7.4.9.#XnXmXfXfXjXNXNXNXjXgXdXdXfXjXfX9X6X6X3X;X*X4.n C N N U U B b z z 4 4 4 4 4 4 j 4 4 4 z H B B B N k r r r r n m *.:.=XiXVXnXfXfXjXdXdXdXdXdXjXjX0X4X>X6X3XuXFXtXXXY ] I.I.I.Y.I.Y.I.E.I.I.P._./.i.t.f t.i.i.! D p.n.D.k.k.k.k.j.S.S.S.S.S.A.S.S.S.m.h.k.k.k.k.k.k.j.h.D.+.>.x.a.g.p.a Q / H./.H.J.J.J.J.J.J.G.G.G.~ ' U U ] 8.8.2.:.9.:XwXqX6X6X6X6XjXjXxXhXhXqX1X<X1XqXqX4XwXwXN.9.Y ) ] ) ) ( G A G A A A A A F F A b b z z k k k 5 = = > n C M M *.*.9.*XiXiXuXMXMXlXlXlXlXlXxXlXlXNXjXjXjXlXgXNXKX.XH G ( ^ ~ ' ' ' ' ' [ [ ^ ^ ",
"[.[.{.[.Q.Q.Q.Q.I.' L.] V 7.tXnX>X1XkXkXhX1XqXxXhXxXxXxXxXxXkXkXkXxX6XN.,.&.#.%.=.V C C Y ) ) ( G G G G G J J G ( G b b b c b B N C = 5 b.mXDXNXfXfXMX9XMX4XB.n.7X8X8X5XgXgXlXNXNXGX=X9.8.8.<.Y ' ' ' L.L.L.I.I.L.I.I.(.(.(.(.(._._._._.(.|.x.n.n.S.S.k.k.k.k.k.h.S.A.A.A.A.m.C.xX1XS.m.S.S.S.k.k.h.S.m.n.x.f.f.i.i.t.t.u._.I.L.P.P.U.U.P.T.T.K.T.K.] ] ] ) 6.yXmXlXlXlXfXdXfXfXnXnXnXMXNXNXlXlXNXgXDXnXmX>.5 C n N B ) ) ( ( ( B z j j v v v l v v l v b ( ) Y V B C n > > 5 m *.GXJXAXDXSXlXcXlXlXBXNXNXBXlXlXqXZXNXMXFX.X1.` { { { ] ] 5.6.{ [ ^ i.i.t.y.y.y.i.u.s.[ W l   . . & 4 * # %.#XuX9XjX0X4X1XS.h.h.S.h.m.A.1X1X<XA.A.A.Z.B.>.o ; & . i h f f f g g g y.d d y.t.t./ _.(.I.E.E.W.W.W.8.8.2.4.4.c.%XnXnXgXfXNXCXCXNXfXdXgXgXfXfXfX9X6X5X;X-X#XV n Y U U U U b b z z z 4 4 4 z l l j j 4 z G H B B N n n n n r m V *.*.#XtXFXCXnXfXjXdXdXdXdXdXjXjX0X6X>X6X3XpXCXaX*X) ] L.I.Y.Y.Y.Y.Q.Q.I.I.P.P._./././././.i.Q i.i.g.D.D.h.h.S.S.S.h.j.h.S.S.S.m.m.m.S.k.k.j.S.S.h.h.+.+.+.x.x.a.g.p.Z / / H.H.H.J.J.J.J.J.J.G.G.G.~ ' U U ) 8.2.2.:.M.2XwX4X4X6X6XjXkXjXjXhXhXvX1X<XqXqXwXwXwX0XM.:.Y ] ] ] ( G G G G G D A D D A A A A A b z z k k k = * > m C C C *.*.2..XtXiX8XnXNXNXBXBXcXzXzXlXNXNXNXjXjXlXlXNXKXoX3.G W ^ ~ ~ K.K.' ' ' ' [ [ ",
"[.[.{.{.Q.E.!.Q.L.' ] ] V c.aXmXqXhXzXkXhXqXeXkXkXxXxXxXxXxXxXxXhXhX:XB.:.%.%.=.=.M C V ) ) ( G G G G G G G G J _ ( G b b b b N N C > @ 4.-XNXlXfXfXMXpXCX0XB.n.7XuX8X8X5XgXgXfXjXAX2X0.4.8.1.Y ' ' ' K.K.I.T.Y.I.I.Y.I.(.(.(.(.(.(.d.d.d.l.x.n.D.S.S.k.k.k.k.k.k.h.S.S.A.A.C.A.vXA.S.h.j.j.j.k.S.S.m.n.x.a.u.u.i.i.i.i./.(.Y.L.I.T.T.U.T.U.U.R.T.K.' ] ) ) 7.tXgXvXdXjXfXfXfXfXnXnXnXMXMXNXNXlXNXmXAXnX=XM > C n N U Y ) ) ( ( b z j j l v v v v v l l b B Y V V B N n n > 5 m %.mXVXNXDXSXcXcXcXcXDXDXDXBXBXzX<XZXBXMXKX*X1.) 6.{ { { ] ] 5.{ ` _ [ u.i.t.y.y.f i.i.u.u.A j   & & 5 @ o : ,.M.V.hXjX4XeXA.m.h.S.m.S.Z.qX6X<XA.A.S.m.D.,.7 @ ;   i Q i.t.g d d d d g g f / /._.).(.I.I.I.E.E.E.8.8.2.2.2.c.%XnXfXfXjXNXCXNXMXfXfXgXgXdXfXdX6X6X5X;X8Xv.n n Y U U U B b z z z z z z l z z z l l j B H ) B B N n k n n n m V *.*.v.*XFXmXnXfXfXdXdXdX6XdXjXjX0X5X>X5X3XpXaXaXyX) ] I.I.Y.Y.Y.Y.Q.Y.Y.L.I.I.(.(._._._./.f f t.t.i.x.+.o.+.m.S.S.S.S.h.h.h.h.h.m.h.j.j.j.S.S.h.+.8 8 K x.a.a.a.g.p.W ^ H.H.H.J.J.J.J.J.J.J.J.G.G.G.' U U ) 1.2.2.,.M.2XwX4X4XqXwXjXjXkXkXhXxXhXvXqX1XhXjXjXqX&Xb.;.Y ] ] ) ( G G G G G D D D D D A A A A b z z k k k = - > m m C C *.*.;. X=XiXiX8XNXNXBXBXZXzXzXzXNXMXNXjXjXlXgXNXKXyXz.B ( ' ~ K.K.K.' ' ' ' K.K.",
"OX[.{.{.Q.E.E.I.L.L.L.] ) XXmXnXqXhXkXkXqXqXkXBXkXkXjXhXhXhXxXxXqXqXV.,.&.%.=.=.*.M C V ) ) U ( G G G G G G G J _ _ ( ( G b b N N N n * %.%XNXlXNXMXCXpXCX6XB.b.8XuXnXgXdXgXgXdXjXCXuXM.2.2.8.Y ' ' ' K.K.P.T.Y.Y.U.Y.I.(.'.'.'.(.(.d.d.a.a.x.n.n.m.S.S.k.k.k.k.k.k.j.S.S.A.C.A.A.S.S.j.k.k.k.S.S.D.n.n.x.p.i.t././././.P.U.Y.I.I.I.T.U.U.U.U.U.T.K.K.' ) 1.z.aXgXvXdXdXfXfXfXfXMXnXnXfXnXjXlXNXNXNXVXnXb.M 5 C C B Y Y ) ] ' ( z z z l l l v v v v l l z B B V V B N N n r r 6 m =XnXNXNXDXcXcXcXcXZXDXDXDXBXzXxXzXBXjXGXtX4.) 5.] ] ] ] ] { 3.6.{ { [ i.i.t.y.y.y.f i.i._ A z - ; o : 7 o.,.n.B.A.6X4XqX1XS.h.h.m.Z.:X6XdXvXA.S.S.m.m.m.,.7 ; j E u.t.g d d r.d g f Q ^ P.(.[.[.[.Q.L.] ] ] ] 8.8.2.2.4.b.%XnXfXfXjXMXNXMXMXfXgXgXdXdXfX9X6X6X5X3X8Xc.n N Y U U U b z z z z F z z z z z z z z k z B G H V B N n n n n m m *.*.4.#XiXmXfXfXdXdXdXdX6X6X9X9X0X5X>X5X4XpXiXaXyX5.] I.(.).Y.Y.Y.Q.Y.U.P.I.I.(.(.(._._./.f g t.t.t.f.z # 8 +.+.m.S.S.h.h.h.h.h.m.h.S.S.S.m.+.8 o o 4 g.x.a.a.f.a.p.[ P.P.U./.J.J.J.J.J.J.J.J.J.G.G.' T U ) 1.1.2.9.$X4XwX4X4XwXjXMXqXwXkXhXhX1X1XvXvXhXjXqX3X$X9.*.) ] ] ) ( G G J G G D D A A A A A A A b z z z k k k = > m m C m *.*.2.c.*XiXuXuXnXjXlXlXlXlXlXlXMXMXMXjXjXlXlXmXmXbX XB U ' P K.K.G.K.~ ' ' K.K.",
"{.{.{.[.Q.!.!.E.I.Q.I.U 3.*XFXmXwXwXkXjXwXwXkXkXkXkXhXqXhXhXhXhXhX1XN.,.o.%.=.=.*.M C Y ) U ( ( J K K K G G J J J J ( ( G B b B N N C 5 7 b.VXlXNXMXCXMXCXqXB.B.7XuXnXdXgXgXgXdXlXjXpX$X2.*.8.Y ' ~ ~ G.H.U.U.U.U.Y.Y.I.).'.'.'.l.l.x.a.a.a.a.x.n.n.D.D.h.j.k.k.k.k.j.j.S.S.m.m.S.S.S.k.k.k.k.j.+.>.x.x.f.i.f g /././._.P.U.U.Y.Y.L.T.T.U.U.U.R.R.K.L.T ) 8. XFXgXvXdXdXfXfXfXnXMXnXnXfXfXfXjXlXlXNXnX8X>.M C C V Y Y ) ) ] ( b z z z l v v v v v v v l z B V ) ) B B N n n r m 6 $XuXAXlXDXcXcXcXzXBXDXBXBXlXzXzXhXBXNXVXmXc.1.1.) ) ( ( ` { 3.6.7.6.{ [ i.i.t.t.y.s f i.p._ G k # o ..,.n.D.m.D.C.>X6XeX1XA.S.h.m.A.<X6XdXA.S.h.k.j.S.S.m.%.5 G ! i.g d r.r.r.d f Q ^ I.[.{.{.{.[.[.I.I.] ] ] 8.2.2.2.4.v.-XNXNXNXNXNXMXMXMXfXgXdXdXdXfX9X6X6X>X5X-X:.n V R R U U b z z z F F z F F F z z z z z z B G H H B C n n n m m m M *.*.v.-XuX8X8XdXdXdX6X6X6X6X9X9X5X5X5X9XpXiXaXaX5.] { (.).Y.Y.Y.Y.U.U.U.P.(.'.E.E.(._./.i.t.r.r.t._.W l 4 5 8 +.h.h.h.j.h.h.h.S.S.S.h.+.o.1 o o 4 D d.f.f.d.f.p.d.[ P.P._./.J.J.J.J.J.J.J.J.J.G.G.~ T T U ) 1.2.9.$XwXpX4XqXkXjXkXqXkXkXxX1X<X1XvXxXxXjX6X2XM.9.*.) ] ] ) ( G G J G A D D D D E E W W A A b z k k k n n n m m m M V *.2.0.#XaXGXnXnXfXfXdXhXhXxXlXCXCXMXMXjXjXlXNXnXGXoX) Y T T K.G.G.G.G.G.K.K.K.",
"{.[.[.Q.W.Q.Q.!.L.E.] B 6.*XFXCXMXkXkXkXkXkXwXwXkXkXjXqXqXhXhXhXjX4XB.,...%.=.#.*.M V Y ) B G ( J J J J J G J J J J J G A b b B N n C 5 # c.AXVXfXfXMXMXCXeXN.N.3X8XfXfXgXgXfXgXCX0XCX=X;.*.8.Y ' G.G.G.H.U.U.U.U.Y.Y.Y.Y.Q.[.'.'.l.l.x.x.a.a.a.x.n.>.8 +.h.h.k.k.k.k.j.S.S.h.h.S.h.j.S.S.j.h.+.8 8 g.f./.i.^./././._._.U.U._.).U.T.T.U.U.U.R.J.G.K.L.U ) 7..XFXfXdXdXdXdXfXnXmXnXnXfXfXfXfXjXjXfXNXfX8X6 *.V n Y ) ] ] ] ] ( c z l l l v v v v l v v l z b B ) ) B C C C n r 6 6 #XuXHXNXlXcXlXzXlXBXBXBXBXlXlXZXqXBXNXmXFXc.;.1.) ) ) ] { 6.E.6.W.{.'.{ _ i.i.i.t.y.i.i.! _ G M 7 7 ,.C.S.m.m.h.D.Z.xX1X1XA.S.D.S.1X1X<XA.S.h.k.k.k.j.S.m.>.M J ! f g d y.r.d f / u.(.[.{.{.{.Q.Q.[.[.[.I.I.] 1.2.2.2.9.v.8XVXNXNXNXNXMXMXMXfXdXgXdXdX9X9X6X5X3X8X=XH k Y U U U B b z z z z F z F z z z z z z z k z B ) ) V C C n C M m , m ;.m 0.=XiX8X8X9XdX6X6X<X6X6X0X9X5X5X6XwXMXiXaXaX7.) { (.(.Y.Y.Y.Y.).U.U.Y.(.'.E.I.(.(././.t.d r.t./.H.! l ; # 8 o.+.h.m.h.h.h.S.S.S.+.8 1 o X   4 f.f.s.s._.f.p.d.P.U.U.U.J.J.J.J.J.J.J.J.G.G.G.~ ' T U Y V *.2.9.&XpXMXeXqXkXjXkXqXkXzXxX1XrX<XvXcXzXkXqX:XM.9.;.3.] ) ) G G G J A A A D D D ! E ! W A A b b z k k n n n n m m V V *.2.2..XaXJXVXnXfXfXdXdXhXxXlXNXNXMXMXjXlXlXNXnXIX*X1.Y T T K.K.G.G.K.K.K.' ' ",
"OX{.Q.Q.Q.Q.Q.!.E.] W.B 7.FXFXGXpXMXMXjXqXqXkXBXkXkXqX,XqXNXBXjXjXqXB.&.o.%.#.m M *.V V ) H G G J J J J J J J J J J _ _ _ G b b c B k 5 5 ;.iXmXmX8XgXMXBXqXB.B.4X8XfXfXfXgXfXfXMXmXGX=X2.*.8.Y ' G.K.K.T.R.T.T.Y.Y.U.Y.Y.Y.Y.[.I.'.'.|.x.x.f.a.d.|.K 4 o 8 +.S.S.j.k.k.k.k.k.h.h.S.S.m.m.,.o.8 4 _ f.i.i./.^.^././.`.).U._././.U.U.U.U.U.U.J.H.G.' L ] ) ) *XFX8XdXjXfXfXdXgXgXgXgXdX9XfXNXMXjX6XdXnXv.m *.n V V ) ) ) { ( b v l l l l v v v v v v l v c b B ) B B C N C n t , m 9.iXJXVXgXlXcXzXZXZXZXBXzXlXBXBXAXNXCXVXmX=X;.V ) U 5.E.E.}.[.{.[.E.E.'.(.[ ! D p.f.p.! J _ 3.x.>.+.m.S.j.k.j.j.h.S.S.A.A.A.C.m.C.A.A.S.S.h.j.k.k.k.k.h.D.D.g.a.i.i.f f f f Q Q s._.[.OXOXOXOX[.[.[.[.[.Y.I.] Y *.*.;.0.#XuXJXDXDXmXgXgXfXjXjX6XjXNXjX9X9X9X8X-XmX.XV N U U U ( b z z z z z z z z z z z z z z j k z G ) H V V C n n m m m V *.*.0.#X=X-X9X9X>X>X<X<X6X6X6X6X6X6X5XCXMX7XGXaX7.) ] { I.I.I.Y.Q.).).Y.).).[.[.Q.I.I._./.u.t.r.r.d /.^ i 2 & ; # 5 >.n.V.m.m.S.m.+.8 o O ; .   A d.a.a.f.f.f.s._.`.U.J.J.`.`.J.J.G.G.G.G.G.G.G.P ( B B ) ;.*.2.0.pXpXeXeXrX,XeXhXvXvXvXxX1XZ.<XxXzXzXeXeXrXv.>.;.1.3.) G G G _ J D D D D D D D D D A W _ G z c B N n k n n m m #.V *.;.2..XiXGXGXVXNXlXlXlXlXlXBXMXCXCXNXlXjXNXVXmXFXyX7.B U ' T ' ' ' ' ' ' ' ' ",
"Q.Q.Q.Q.Q.!.!.E.E.6.W.H c.IXFXiXCXMXMXkXkXkXhXkXBXkXkXqXqXMXMXjXjX6Xb.&.#.%.#.m V *.V V H G G G J J J J K K J J J J p._ _ A b B B ( C n * M *XmXmX-XfXfXNX:Xw.9.0XfXfXjXgXfXfXfXmXnXGX=X2.*.<.Y T P K.K.K.T.Y.Y.Y.Y.Y.Y.Y.Y.Y.).I.I.'.'.|.(.f.f.s.(._ A ; 4 : o.D.m.j.j.k.k.k.k.j.S.m.,.&.6 5 4 l s.`.i.t.t.^././._.).U.U._././.U.U.J.J.J.J.H.H.G.' ( ) V 1.yXFXuXfXfXfXdXfXfXgXgXfXfXdXfXMXMXjXjXjXCXc.n V N Y V 1.) ) { ( v l u u v v v v v v v v l v b b U ) H B C C C n n , 6 2.iXJXAXgXlXDXZXZXZXZXzXzXBXBXBXAXBXAXVXVXtX2.H 5.) E.].Q.OX[.{.[.[.'.'.[.'.` _ _ _ _ G _ a.x.z.n.D.m.j.k.k.k.j.h.h.S.S.A.1XV.B.Z.A.S.S.j.j.k.k.k.k.k.S.m.n.g.g.i.i.i.Q Q ^ s.[ (.[.[.OXOXOXOX).[.[.[.[.Y.I.] V V *.2.c.%XnXJXKXKXKXNXgXdXqXqXjXjXwX6X6X9X8X-XtXtXc.C N U U U ( b z j z z z z z z z z z z z z k k z G ) V B C C C n m m m M *.*.4..X%X7X8X6X>X,X<X<XhXqXqX6X4X6X6XCXMX-XmXtXz.1.3.6.E.E.E.Q.[.[.[.Q.[.[.[.[.[.'.'.(._./.t.t.r.d i.i.a i 9 q w 4 5 M 9.B.N.m.O.: ; X . 9 9 x ( a.a.a.f.f.s.s._.U.U.J.J.U.H.G.P.~ ' ' ' K.' K.' B N C V ;.:.9.v.wXpXeXeX,X1X1XvXvXvXvXxX1XZ.>XhXxXxXeXeXrXv.;.H 1.1.) G G G J D D D D D D D D S D A W ( B z z B N k k n n n m #.M *.*.2.v.-XGXGXVXNXNXNXlXlXlXlXfXMXNXlXjXlXNXDXmXGXtXz.V U ) ) ) ' ] ' ) ' ' ' ",
"{.{.].W.W.Q.!.E.6.) 1.V c.GXGXnXCXMXMXkXkXkXkXhXeXkXkXwXqXjXjXjXBX>Xn.&.%.%.#.m V <.1.) H G G G J J J J J J J g.g.p.p.p._ A ( ( B B B C = 5 .XGXiX-X-X5X9X&X,.9.9XnXNXlXfXdX5X5XfX8XmXtX0.*.2.<.] ' ' ' ' L.L.I.I.I.I.I.I.I.I.I.Y.I.'.'.'.'.f.d.s.d.p.J ; ; # : 8 +.m.S.S.S.h.h.S.m.,.7 7 = = z W _.`./.t.t./././._.U.U.U.U.`./.U.U.H.H.H.J.J.G.~ ' ' ) V 7.tXGXnXfXfXdXfXjXlXlXjXlXlXlXjXfXfXjXjXfXVX2.n C V ) Y 1.1.` { ( v v u u v v v v v v Z v v v b b B ) H V B C C n n , > :.*XGXAXmXDXDXlXBXzXlXkXkXlXBXNXlXCXAXnXVXmX4.) 3.] W.].Q.{.[.[.[.[.[.'.'.'.d._ _ _ _ _ d.|.|.c.b.n.m.S.j.j.k.j.j.k.h.h.S.1XZ.:X1XA.S.k.k.j.k.k.k.j.S.m.D.x.g.g.i.i.i.i.u.s.(.|.}.}.OXOXOXOX[.OX[.[.[.Q.Q.I.6.Y *.*.4.v.=XmXAXDXDXNXlXgXdXhXjXkXjX6X3X3X9X8X-XiX*X4.n N U T ' ( b z l z z z z z z z z z z z z j k z G ) V V V V C n m m m M M ;.:.c.%X7X8X3X>X>X,XqXhXjXqX6X>X6X6XCXMX7XFXiXc.H 1.3.5.6.6.E.E.E.E.E.E.E.E.E.E.5.3.{ p.u.i.t.t.t.t.i./ i 9 q q & - 5 7 >.,.o.1 o o X & 9 9 v _ a.p.a.a.f.s.s.(.`.`.).U.U.K.' I.( ( ( ( U U ( U C n n M :.:.,.9.wXpXpXeXeXqXhXhXvXvX1XeX1X:X:XdX<XqXeXrX:X0.;.V ) ) ) B G G G D D D D D D D D S S D W ( G b c c B c k n n > m #.M *.*.:.0.*XmXGXVXDXNXBXNXlXgXgXdXfXMXjXlXlXBXDXVXJXtXc.H V ) ) ) ) ) ` 3.3.5.5.",
"7.7.7.6.8.3.5.5.7.1.;.;.b.mXVXCXMXkXBXkXkXqX1X1XV.rXeXeXqXjXkXBXBX&X,.o.%.%.M M *.<.1.1.H H K ` J g.J J J J g.g.p.p.p.p._ ( ( ) ( B V V 5 5 c.KXmX-X-X-X5X&XB.B.wXnXNXNXfXdX5X5XgX8XmXiXv.;.*.*.Y ' ' ' ] ] ] ] ] ] L.I.E.E.E.E.Q.I.E.E.'.(.(.(.f.f.f.d.z 4 5 : 1 8 o.+.m.S.S.m.m.,.7 : 5 k w x P.`.`././././.`.`.).Y.P.P.Y.U.U.U.U.P.K.K.G.G.~ ~ ' ( U V  XaXFXmXgX9XdXjXlXlXkXhXjXkXlXjXfXfXjXjXfXVX%.n n V ) ) 1.1.` { ( v v u u v v Z v v v Z Z v b b b B Y H V B C C C n m > %.#XVXAXNXDXDXlXlXlXlXkXkXBXBXNXjXNXAXnXVXKXc.H ` 5.E.].[.{.[.[.[.[.'.E.'.'.'.{ _ _ d.l.|.|.|.x.b.n.n.D.D.h.h.h.j.k.k.h.S.A.N.rXA.S.k.k.k.j.h.h.m.m.D.>.>.K g.g.i.u.u.u.s.(.|.|.[.[.[.[.{.[.[.{.[.Q.E.E.] ] ) V M *.9.#X-XCXAXDXNXgXgXdXdXqXqXqXjXwX6X6X9X8X7XiX.X;.n B ) ] T B z z z b b z l z l z z z z z z j j z B ( ) Y Y V C n n C M M M ;.;.9.$X7X-X>X>X:X>X6XhXjXqX4X>X6X6XjXfX8XmXiX#X;.H H 1.1.5.6.6.7.7.6.6.6.6.6.8.z.z.3.` p.u.i.t.t.f u._.v 9 q q & - 5 # 7 &.< 1 o O ; & 9 9 b [ f.p.a.a.a.a.{ (.P.P.K.' K.] ] 6.6.6.6.6.6.6.6.7.z.3.;.4.c.b.0.9.0XpXMXeXkXkXkXxXhXvX1XeX1X:X>X<X<X1XeXrXsX9.V B B B B B G G J D D D D D ! D S S S D W _ ( B c c B B N N n n m %.V *.*.*.9.#XiXGXVXNXDXBXlXgXgXgXgXjXlXlXlXlXZXDXNXKXmX.Xc.z.].].XXXXoXoXoX*X*X*X",
"-X-X-XyXyXyX*X*X*X.Xv.b.M.fXlXNXjXBXkXqXZ.N.N.N.B.V.1XxXkXkXBXBXBX&X>.o.%.%.m V <.V 3.3.H G ` ` g.g.g.g.g.g.g.p.p.g.! ! _ _ ( ( ) B V V n > ;.tXKXnXfX5X6X&X,.B.9XnXMXNXfXdXdXdXNXnXCXnX#X:.%.M V Y ) 5.6.6.W.].].].].].XXXXXX{.E.I.I.{ { d.d.f.f.f.@X@X` k = ; V 5 : : 8 +.D.D.o.7 # - c e e I `.`.`./././.`.`.).).I.L.L.I.Y.K.I.L.L.K.K.' ' ' T U U C 1..XtXiXnXfX5XdXxXkXhX1XrX<XqXlXlXdXdXgXjXjXVXM C n B Y Y ) ) ) { W v v u a v v v v Z v Z Z Z F b b B B H B B C N C C m > m 0.uXJXDXDXDXBXZXZXZXBXBXBXBXBXBXBXSXmXVXJX.X3.3.6.6.W.{.[.{.E.Q.[.E.E.E.'.'.6.` ` d.|.|.|.|.@Xx.n.n.>.8 8 +.@.h.k.k.k.j.S.m.w.m.h.k.k.k.h.h.+.+.7 8 M x.x.D i.i.u.f._.(.|.|.'.].'.'.].{.{.].[.W.W.E.6.5.5.1.V %.;.9.#X7XMXVXNXgXgXgXdX<X:XV.&X4XjXjX9X8X8XiXtXc.C N U T T U B B B b z z z l l l z z z z z z l j k z B B B Y B N n n C M V M ;.;.0.$X-X&X&X>X:X:X<XqXqX6X3X>X>X6XdX9X8XnXnX-X-X-XyXyXyXtXbXFXFXaXaXbXFXFXaXtXtXtXoXz.a.s.u.t.t.g i./.W 9 q q q $ ; # ;.v.>.7 o X .     i ! s.p.p.g.a.a.a.{ E.I.I.{ '.+XyXyXbXFXFXFXFXFXFXFXFXIXKXmXFXGXGXpX0X4XqXwXjXjXlXlXlXhXvX1XeXeX,X>X<X1XeXeXeXsX9.V B B B B B G ( _ D D D D D S S S S D ! ! ( ( ( U U U B B N n n m *.*.*.*.*.2.v.-XGXnXNXNXNXgXgXgXlXBXNXlXlXlXlXBXZXlXNXnXtXtXtXaXaXFXFXFXFXmXaXaXiX",
"8X8XnXnXnXmXmXmXnXnX8X5X5XdXhXhXkXzXkX<XB.m.,.,.B.Z.eXxXkXkXkXBXMXM.&.o.%.#.m V <.V 1.3.B K 3.` g.g.g.g.g.p.p.p.p.i.S ! _ _ ( ( ( b B B C 5 %.=XKXnXmXfX9XV.,.,.9XnXMXNXjXdXdXdXfXjXVXCX=Xv.9.0.c. XXXoXoX*X*XoXyXyXyXyXyXyXyXoXE.E.] ] { d.d.f.f.f.|.|.{ k k k Y n = 1 o 8 >.>.: @ & e I 0 x G.`.`./././.`._.`.(.I.!.E.!.!.E.E.E.!.E.E.E.E.E.6.5.) 1.1.4.*XiXiXnXdXdXdXhX1XrXZ.N.N.<XxXlXgXgXgX6XNXFX6 C B B U Y Y U ) ] b l v v Z v E v v Z v Z Z Z A A b B B ) ( B B V V C m r 6 :.-XAXAXDXDXDXZXZXZXkXhXhXqXlXAXNXNXCXVXVX;X4.1.3.5.5.E.5.E.6.E.E.6.6.].].].].z.l.l.l.l.x.@X@Xx.x.b.x.8 o 1 8 +.h.k.k.j.S.m.@.h.j.k.k.h.@.+.: : @ 4 K x.|.p.u.u.f._.(.|.}.}.+X+X+X+X+XyXyX+X+X+X+XXXXX.XXX.Xc.v.v.M.&X3X8X9XgXgXlXlXhX<XB.D.M.&XjXjX5X3X7X-X=X4.C B U U R U U G B b b z l l l l v z z z l l z j j z z b B B B B N n C V V M *.;.0.$X-X=X;X>X&X:X:X,X,X,X>X>X>X5X6X6XfXnXnXnXmXiXtXtXbXFXFXFXFXmXmXFXFXFXFXmXCXGX-Xc.a.p.u.i.f g i./.W x q q q $ k ) oXbXoX4.5 O ;     v s._.p.g.g.a.` ` 6.W.] ) ) 6.oXyXbXKXmXnXnXfXfXnXnXnXKXmXiXuXuX9X0X2X2X4XqX6XqXxXjXdXdXdXeXeXeX4X5X5XhXkXeXeXsX9.V V ( ( ( ( ( _ _ ! D ! D D ! S Q S S ! ! ( ( ( ( ( ( U U B N C M *.V *.*.*.:.v.=XGXnXmXNXgXgXgXgXlXDXNXlXgXlXlXzXzXlXjXfXnXFXGXGXFXuXuXuXuX9X8X8X8X",
">X5X6X6X8X9XfXnXgXgXdXlXlXdXhXlXkXkXhX<XN.B.B.m.B.Z.eXxXxXxXkXkXwXB.&.#.=.m m V 1.C ) ` C K l.K g.g.g.g.p.p.p.p.p.i.! ! ! _ ( ( ( b B V V C %.=XKXnXNXfXjX:Xb.B.9XnXMXMXjXdXdXdX5XjXNXCXfX;X&X-XiXmXFXFXFXmXiXtXtXFXmXaXmXFXaXyXW.!.6.5.6.l.l.x.|.f.f.d.{ b ( !.N q - - * :..Xv.V n q x I 0 I U.`.`././.`._._._.I.'. X XXXXX+XXXXX+X+X+X+X+XXXXXoX X.X X#XiXiXuXgXgXgXdX1XZ.B.m.m.m.N.qXlXgXgXgXdXCXuX6 V ) Y Y ] ] ) ) ] b x v E E E v v v v Z Z Z Z A A b B H ) ) ) Y Y V V M m > :.=XVXAXBXBXlXlXlXlX6X:XV.C.6XSXjX9XVXNXmX8Xc.4.7.3.8.7.7.W. XXXXX XXXXXoXXX*XoXoXoX Xx.x.x.x.x.x.oXx.K 4 o o 1 +.h.j.j.j.j.h.h.j.S.h.+.o.6 # & k G ` d.f.f.s.f.f.(.|.|.].XXyXyXaXaXaXFXFXaXtXtXtXaXaXaXaXtXtX-X7X2X2X4X3X5XdXgXlXdX<XC.B.,.B.&X6X9X5X-X-X-X=X;.C Y Y U ] ] ] ( b z b b l l l l v v z l l l z j l b b b b B U U B n n C V V *.;.9.#X7X8X3X:X:X&X&X:X:X>X>X>X>X6X6X6XfXfXnXVXnXuXiXiXmXFXGXFXnX9X9XnXmXmXuXuX0XMX-Xc.` p.s.i.s g t.i.^ v 9 e q w Y XXyXbXbXXXV - & &   v s.f.p.p.g.a.` ` 6.].7.7.3.z.*XtXnXNXNXjXjXdXdXdXdXfXmXVXVXMXMXjXwXwX4X6XqX6X6XdXdXdXdXhXwXeX4X4X6X6X6XkXeXeXsX9.V ) ( ( ( ( ( _ _ _ ! ! ! ! ! Q Q S ! ! ! W ( ' [ [ ' ( U B B C C *.V *.*.*.:.0.=XGXVXNXNXfXdX5XfXgXNXgXgXdXlXzXzXzXlXjX6X9X9X8XiXuX9X9X9XwXjXjXjXMX",
"<X<X6X6XdX6XjXMXNXdX<XdXdX5XhXlXhXhXqX1X<XZ.Z.A.C.Z.1XeXeXeXkXBXqXB.&.#.%.m n V Y C H ` z K x.J g.g.g.p.p.f.p.p.u.i.i.i.! ! ( ] { ( ] ) V M M *XKXmXnXfXMXwXV.,XMXMXCXNXjXdXdXdX<XlXlXdXdX5X5XMXnXmXmXnXiXiXuXuX-XiXuXiXuXFXiX=X X].7.6.7.z.|.|.@X|.@X|.|.( ] {.] e $ % C .XIXFX XY q q I 0 I H.`.`././._._.s.'.'. X.X*XyXyXtXtXaXaXaXaXaXFXFXFXFXyXiX=X-XCXuXfXdXgXgXdX<XN.m.,.,.,.B.<XzXgXgXgXdXAX8Xm V 5.) ] E.] ] { { W v v E E E E v v v a a a Z D A A G G 6.{ ] ) Y Y V C C > %.=XVXAXBXlXNXDXBXjX<XC.B.B.6XHXjX6XSXBXNXVX%X.X#Xv.v.%X.X*XyXtXtXyXtXaXaXtXaXaXmXbXoXz.x.x.x.x.x.x.|.a.z X O o 8 +.h.h.j.j.j.h.h.h.+.7 : = k   & ( '.d.s.f.f.f.f.'.'.]. X X*XtXaXaXaXaXmXaXtXtXiXiXuXuX8X7X8X8X0X0X4X0XwXjXdXgXgX<XC.B.B.B.M.&X6X9X8X8X-X-X-X;.C ) ) ' I.E.I.( z j l b l l l l v F v l l l l l z W ( ( L U U U B n n C V C V ;.4.#XiXmX9X&X:X&XV.V.&X:X>X3X>X6X6X6XfXfXfXAX9X8X9XnXnXmXmXnX9X6X9X8XnXnXnXuX4XCXuXv.` ` s.i.p t.t.i.u.E i x x e R +XyXyXFXoXH & $     Z f.s.f.p.p.a.` 3.7. X7.7.4.c.*X-X8XNXjXxXxXhXhXvXhXdXdXmXNXjX6X6XjXjXjXjXjX6X6XdXdX6XdXjXkXeX4X0X9XdX>XqXeX2X$X2.V ) U U U b A ( _ _ ! ! ! ! ! Q S S ! ! ! W W [ I.L.' ( L B B C C M V *.*.*.;.9.*XVXVXNXNXfX5X>XdXgXgXgXdXdXdXlXzXzXzXxXqX6X6X9XfXCXwX6XqX6X6X6X6X6X",
"6X6X6X6XqXqXwXwX6X4X6X6XjXlXlXlXxXxXkXxXxXxXxXxX1XA.rX1XeXeXkXkXwXb.&.#.m m C V V Y ) ) K K K K g.g.g.g.p.p.i.i.i.i.i.u.! W _ { ' { ] 3.V M m .XKXnXVXdX6XjX,X6XjXMXMXfX6X6XdXdX6X6X6X6X6X6X6X6XnXfX9X9X9X9X9X9X9X5X9XfX9XMXfX;Xv. Xc.z.z.].x.x.x.@X@X|.@X` x x q q w 1.oXIXIXFX+XyXq x i i I _./././.u.s._.d.` z.*XtXiXiX-X=X7XiX-X-X-XiXiXiXtX8X-X-X7X3X6X9XjXgXgXdXdXqXB.,.m.m.N.rXhXjXgXgXgXNXCX=Xm V ] ] ] E.E.E.E.E.( v v v v v v v a Z a a Z Q A F z G ) 6.6.{ ] ) Y V V C m %.v.VXAXfXZXgXlXBXlXhX<XV.C.hXlXDXZXBXCXNXCX3X3X7X7X7X-X-X-XiXiXiXiXuXmXFXVXCXpXmXVX-X4.x.x.x.x.|.@X|.l.G . & ; + : o.h.h.h.h.S.m.+.: * r N w   j { '.f.f.f.x.a.l.].].~.~.*XiXuX8X8X8X9XnXMX5X6X9X9XdXdX9X9X5X5X4X4X4X4X6X6XlXgXdXdXvX1X<X<X6X9X3X3X7X7X8XiX-XH C ) ] ] ] E.{ ( b z l l l l l v Z A F v z l z b b L W ( ( T U U B N C C V V M ;.2.v.mX7X9X3X:X&X&X&X:X:X2X>X;X>X6XdX6X6XdXjX9X5X6X9XfXMXfX9X<X6X5XfXmXnXnXuXpXuX-X%XH G ^ i.y.d d t.i.E i 9 q e N 5.XXIXXX) $ & $ . u ! s.s.p.p.a.` ` 6.7.7.8.4.2.c.=X8X7X6X6XhXxXxXxXvXvXdX6XdXjXNXNXNXjX6X6X6XwXjXdX9XfXdX6X9XeXeXeXwX9X5X>XwXeX0X#X<.Y U ( ( ( ( ( ( _ _ ! ! ! ! Q Q Q Q Q ! ! W ( I.I.K.K.' L b B C C C m m *.*.;.4.#XuXVXnXnXgXdX5XdXNXNXgXgXgXlXzXkXxXxXhXqXqXqXjXjXjX6X6X6XjXjX6X6X6X",
"hXhXwXqXqXqXqXqXqX6X4X6XjXjXjXjXjXxXxXxXxXxXxXxXeX1X1XeXxXxXkXBX4X9.&.#.m m C V Y ) ` ) G K K K J J J g.p.p.u.i.i.i.i.u.! ! ( { ] I.] 5.1.V 6 v.GXnXmXdX6XjX,X6XMXMXMXfXfXjXjXdXdXdXdXdXdXdX6X6XjXjXjX6X6X6X6X6X6X6X6XqX6XjXjX;Xc.c.0.c.].].x.x.x.@X@Xx.|.` j q c q n z.aXIXIXFXaXyXq c i i E `.`./.u.u.f.f.l.3.c.*XuX9X0X3X&X3X3X3X3X3X3X9X8X9X9X3X>X>X>X>X6XjXgXgXdXjXqXB.,.w.Z.A.1XxXjXgXgXlXNXCX=XM V ] L.I.E.E.E.E.'.( v v E E v v a u a a a a Q ! A A G ) { { { ] ] ) Y V C m M b.VXSXfXDXNXBXDXZXBXlXhXhXxXkXBXBXBXBXNXjX6X4X4X4X3X3X3X3X0X0X9X9XwXwXpXMXpX0XwX9X-X>.>.3.x.x.x.|.|.|.` 4 & & $ O : o.+.h.h.h.+.> - w w q q   b d.|.f.f.f.x.` l.].~.~.~.$XpX9X9X6X6X6XdXdX6X6X6XdXhXdX6X6X6X6X6X4X4X4X6X6XjXgXdXdXdX<X1X1X6X9X3X3X7X8X8XtX*XH C ) ] ] L.E.6.] b l l l l u u v Z A F v z l v b L L W W W T U U B B N C C V M ;.2.v.VXuXpX6X>X:X&X&X:X2X3X3X3X5X6XdXdXdXdXjX6X6X6X9XjXjXdX6X6XdXfXfXnXnX8X8XuXuX-X*XH ( ^ ^ t.p p g i.E i 9 q e w r Y XX1.w & & .   l _ f.s.p.p.p.` ` 5.8.8.2.2.2.c.=XuX8X6XhXhXxXxXhX<X<X5X6XdXjXjXlXjXjX6X6X6XwXjX9X6X9XdX9X9XwXeXwX0X5X5X3XwXeX2X#X<.) ( ( ( U ( ( ( _ _ ! ! ! ! Q S Q S ! ! ! W ' P.I.P.' ' W L B B C M M V *.*.:.4.#XuXmXnXnXnXfX5X5XgXNXlXlXlXzXlXlXxXkXhXqXqXqXqXqXqX6X6X9XdXjXdX6X6X",
"jXjXjXwXqX6X4X4XqX4X0X0X9XMXMXjXjXjXxXxXxXxXxXxXxX1X1X1XeXeXwXkX:X,.o.%.m m C B Y ) ] ` G J K J J J J p.p.p.u.i.i.i.i.u.^ _ [ { { I.] 5.1.*.m v.GXnXmXdXfXNX6XqXjXMXfXfXNXCXjX6XjXjXjXhXdXdXdXdXhXhXqXhXqX6XqX6XqX6XqXhXqXxXqX&X4.4.4.c. X].z.l.f.@Xx.f.x.d.b j k - k 8.yXIXIXFXaX}.  x i i ^ `.`.u.i.u.f.l.l.4.c.=XpXwX4X>X:X:X,X,X,X,X,X,X6X6XdX<X:X:X:X<X<XjXgXgXdXdXqXN.B.B.eXxXkXkXjXfXgXNXNXMX*XM Y ] I.I.Q.E.E.I.I.' v v E E v v a a a a a a Q ! W A ( ` { { ] ] ] ) Y Y C n 6 b.VXHXjXBXNXNXNXlXlXzXcXcXkXkXkXBXZXDXNXdXqXqX,X,X,X,X4X4XqXqXqXqXqXqXqXeXeXrXeX4X&X>.>.4.x.x.x.x.l.|.d.z 4 4 $ $ > < 8 +.+.+.6 r e y j 4 4 4 G l.f.f.f.f.d.` 3.7.0.0.0.#XpXhX6X6X<X<X<XvXvXvXvXvXhXhXqX6X6X6XwXwXqXqXqXdXfXgXgXdXdXhXvX1X6X9X3X7X7X8X8XtX*XH V 1.] ] L.E.E.{ L v v i u u a Z Z Z Z v l l b b L L W ~ P P L U U B N C C V C *.2.v.GXuXMXwX4X4X>X>X,X4X4X4X9X5X6X9XdXdXdX6X6X6X6X6XqXjXqX6XjXdXnXmXnXtX-X8XuXuXtX*XH ( ^ / t.d p s f / E i q w & % - Y w $ $ $ . 4 A d.f.p.p.p.p._ ) ` 5.1.1.1.2.v.tXmX9X9XdXjXxXhXdX5X>X>X6X6XdXjXjXjXdX6X6X6X9XwX6X6X6XdXfX9XwXwXeX4X5X>X6XjXrX2XM.*.) ( T ' ( ( L W _ _ _ ! ! ! Q Q Q Q ! ! W W ' K.P.K.~ ' ' U B B C V V *.*.*.;.4.#XiXmXnXfXgXfX5X5XdXNXlXlXlXlXlXxXkXkXjXqXqXqXqX6X6X9X9X9XdX9X9X9X6X",
"jXjXjXwX0X6X4X4XqXqX0X9X9XnXMXMXMXlXjXxXxXxXxXxXeX1XrX1XeXqXqXwX:X,.&.%.m m C B Y ] ] ` ( G J J J J J p.p.s.u.i.i.i.i.i.! _ ` { { I.] 5.1.*.n c.mXiXnXgXfXNX>X>X9XMXMXMXMXCXNXjXlXjXjXjXdXdXdX6XhXhXhXhXqXqXqX6XhX1XqXhXqXxXhX&X>.>.4.7. X].].l.a.x.f.a.x.|.( j & - & - 3.yXIXaX].U . x i v s._._.i.i.s.f.l.4.0.b.=XpXqXeX,X:X,X,X1X1X1X,X,X1XqXhX6X>X>X<X>X<XdXfXdX5XdX6X:X:X1XkXzXzXkXdXfXgXNXlXMX%XM Y ] I.Y.I.Q.I.I.I.' v l Z Z v v u a a a a a S S Z A ( { ] ] ] ] ] ] Y Y C n m c.CXJXlXBXDXNXlXgXlXzXzXzXkXzXzXBXZXBXjX6XhX1X1X<X<X1XqXqXqXqXqXqXqX4X4XeXeXrXeX4X&X>.4.4.x.x.z.x.l.x.d.z 4 4 & q r * 1 o.,.&.n y y y j 4 4 z ` l.f.f.f.f.a.K 3.4.2.q.0.#XpXhX6X6X<X<XvXvXvXvXvXhXhXhXqX6X6XjXjXkXwXwXwXdXgXgXgXgXdXhXvXqX6X9X5X7X5X8X8XtX%XH V 3.] ] L.I.E.{ ( b v i i u a a Z Z v l l v b L L W ~ P P P L U U B N n C V M ;.2.v.GXuXMXjXjXwX6XqXwXwXwX9X9X5X3X5X6X9X6X3X6X6X6X6X6X6X6X6X9XdXfXnXmXmXnXuXuXuXiX*X) ( ' ^ Q t.f s f Q E v 9 q w w - B - $ $ & & z _ d.d._ p.p.` ` ] ) ) ) 1.1.2.c.tXmXnXnXdXjXjXdX6X<X>X>X5X6X6XdXjXjXdX6X6X6X9X9X6X6X6X9XfX9XwXwXeX4X6X5XdXwX,X2XM.*.) ( T ' ' U L L ( _ _ _ ! ! ! Q Q Q ! ! W ' ' K.K.K.K.K.' ' U B C V V V *.*.*.2..XiXnXnXfXnXfXgXfXdXlXDXDXBXlXjXjXkXjXwXqXqXqXqXqX6X9X9XfXfX9X9X9X8X",
"fXfX9X9X0X0X6X6XqXwXwXwXwXfXMXMXmXgXgXlXjXxXkXxXqX<X<X,XqX4X6XqX:X,.&.%.m m N R ] ' ] ] _ G J J g.g.g.p.p.u.i.i.t.t.Q Q ! ( ` E.I.I.] 6.1.*.m c.FXiXmXnXNXjX&XV.6XjXCXCXNXNXNXNXNXjXjXjXhXdXdX6XjXjXjXjXjXqX6X6XjX6XqXjXqXjXqX&X>.>.>.7.W.].{.'.f.x.x.f.x.|._ j & k & X - 1. X].B x 9 v i ! _._.u.i.u.f.d.3.4.0.0.&XpX0X4XqX,X1X<XhXhXqX<X,X1XqXhX6X6X6X6X6X6X6XlXdX6XdX6X6XhXzXkXxXxXjXjXfXfXjXjX9X%XC ) ] L.I.Y.Q.I.I.I.[ b v v v a a Z a a a a s a a Z A ( ] ] ] ] ] ] ] Y Y n n M 9.nXAXjXDXDXDXDXDXlXzXxXxXkXzXcXZXlXjXfXjXhXhX6X<X1X6XhXhXhXhXqX6X6X6X4X4XqX1X4X0X;X>.4.4.3.z.|.x.l.x.a.F 4 4 q q $ % %.M.-Xv.V y y e q & 4 z ` f.f.p.f.f.` H 1.1.2.2.0.#X9X6X6X6XvXvXhXdXhXhXhXhXjXdX9X9XdXhXjXkXwXwXjXjXgXgXgXgXgXdXvXqX6X8X8X5X5X-X-XtX.XV V 5.] I.L.I.E.{ ' L v i u u a a a u u u l v b L ( ~ ~ P P P P U U B N n C M C ;.2.v.VXuXMXwXMXkXjXjXMXMXMXMX9X9X3X3X9X9X5X3X5X6X6X6X9X6X9X9X9XfXfXmXmXmXnXMXuXuXiX*X) ( ' ^ ^ u.i.f a Q Q Z i q & - & N & $ & j k G ` a.a._ p._ _ _ ( U U Y 1.1.2.c.-XmXnXMX9XdXjXdX6X5X5X5X6X6X6XdXfXfXdX6X6X9XjX9X6X6X6X9X9X9XwXeXeXqXdXdXdXqX:X2X#X*.) ( R T ' T U U ( _ _ _ ! ! ! ! Q ! ! ! W ' ' K.K.K.K.P.L.] U N C V C C *.*.*.2.v.-XuXuXfXfXmXNXmXfXlXNXDXNXjXjXjXNXwXwXqXqXwXwXwXwX9X9X9X9X9X9X9X9X",
"fX8X9X9X9X9X0XqXqXwXwXwX9XfXMXMXmXmXmXgXjXjXxXkXqX1X,X4XqX4X4XqX&X,.o.#.m C Y ] ] ' ] { ` ( G J a.g.g.p.p.u.i.i.t.f f Q ! ( { E.I.I.] 6.1.*.5 c.GXmXVXmXmXfXM.B.3XNXAXCXjXjXNXCXNXjXjXjXjXdXdX6XjXjXjXjXjXhX6X6XjX6XjXjX6XjXqX&X>.>.;.8.W.{.{.'.f.f.f.f.f.|.d.A j 4 & & & - k B q e x v i ^ `._.u.u._._.d.3.2.9.9.sXpX0X4XwXqXqXqXdXdX6X<X1X1X6XqX6X9XjXjX9X9X9XMX5XMXNXdX6XdX6XdXdXjXjXMXMXMXMXjX9X#XC ) ] I.I.Y.Q.I.{ (.{ W v u u u a Z a a a a s s a Z A ( { { ] ] ' ] ] Y B n n m 4.8XAXjXZXDXNXNXDXBXzXlXxXkXzXZXzXxXhXjXlXdXdXdX6X6XhXjXjXhXhX6X6X6X6X6X6XqX,X6X9X=X:.4.3.3.l.z.x.x.x.x.K 4 & & q w *..XuXmXyXXX5.c e q j 4 z p.f.s.s.f.f._ G ;.;.=.:.9.#X9X9X6XdXdXdXdXdXdXdXjXdXjXnXnXfXdXhXjXjXwXwXMXMXmXnXgXgXgXdX<X6X5X8X8X8X8X8X-XtX.XH H 3.] I.L.I.E.I.[ W v i u u a u u u u u l v b L ( ' P P P P P T U B N n n m M ;.2.v.VXuXMX9XjXwXwXwXMXMXMXwXwX9X9X9X9X9X9X6X9X6X9X9X9X9X9XfXjXfXnXmXnXnXnX9XwXpXuX*X) ( ~ W ^ s.s.Q Q Q ! W b z w - $ k & & c B ( ` ` a.a.a._ _ _ ( U L U U 3.2.2.b.-XmXnXMX9XdXjXdX9X9X9XfXfXfX6XfXdXdX9X6X6XdXjXjXwXqXqXwX9XwXwXeXeXwXhXdXdXqX:X0X#X1.Y ( T T T T U U ( _ _ _ _ ! ! i.i.Q ! _ ' [ K.K.K.K.P.Y.I.] U N C V C C *.*.*.:.v.=XuXnXnXfXgXNXNXmXlXlXNXmXjXjXMXMXwXwX0X9XpXpXpXwX9X9X9X9X9X9X9X9X",
"fXfXdX9X9X9X6X6X4X6XqX9X6X9XfXnXnXnXmXgXlXjXxXxXjXqX,X6X6X4X4X4X:X,.o.#.m C Y ] L.' ] I.{ _ G J a.g.g.p.p.u.i.i.t.f f Q ! [ { E.I.I.{ 6.1.*.5 c.JXmXmXnXfXdXC.b.6XjXCXNXjXjXNXMXMXNXjXjXjXjXhXhXjXjXjXjXjXdX9X6XNXdXjXjXwXjX9X&X>.>.;.8.~.OXOX[.d.f.f.f.f.l.|.{ j & & j k & & w e q I I E /._./././._.s.{ 5.2.2.9.sXpX0X0XwXwX6X6X6X6X6X6X6X6X6XwX9X9XMXpX9X8XuX9X7XfXBXfXdXgX5XdXdXfXjXMXMXMXMXNX9X#XM ) { I.Y.Y.Q.I.I.'.(.[ W v u a Z Z a a s a s h a Z W ' { I.L.] ] ] ] ) B N n 5 4.8XJXNXDXNXDXNXlXlXlXlXzXzXzXkXlXxXhXlXlXfXgXfXgXgXfXgXlXdXdXfXfX9X9X9X9X6X6X9XnX-X2.3.3.3.{ l.|.x.x.x.a.b & $ k C c.tX8X=XaXaX XR e e c j A p.d.s.s.f.s._ G H V %.:.9.M.fXfXfXdXdXdXdXdXdXfXfXnXnXmXuXnXdXdXhXqXqXwXMXCXnXnXnXgXgXgXdX6X5X8X8X8X8X8X-XtX.XH ) 5.] E.I.I.E.E.{ ( b u i u i i u u u u l v b L ' ' ~ P ~ ' ' T U B N n n n M ;.2.c.FXuXMXwXwXqXqXwXwXMXpXwX9XwX9X9X9X9X9XfX9X9X9X9X9X9XfXMXMXjXfXfX8X8X8X9XpXpXuX*X1.U ( ~ ( _ [ ! ! ! ! ! _ ( B z & z j z ( ) ` ` ` ` J ` ` ( ( ( L L L U 1.;.:.v.iXCXMXNXjXjXjXjXfXfXnXnXnXgXfXfXfXfX9X9XdXjXjXjXwXqXqXwXjXwXeXeXeXqXdXdXdXhX,XwX$X1.Y U T T T T U U ( ( _ _ _ ! ! ! i.! _ _ ( [ I.K.K.T.T.Y.L.' U N C V C V *.*.*.:.v.=XuXnXnXfXdXgXNXmXgXgXgXfXMXMXMXMXuX9X9X9XpXpX9X0X9X6X9X6X9X6X9X9X",
"fXfXfX9X8X6X6X6X,X4X6X6X6X6XdXfXgXgXgXgXgXjXjXxXxXqX,X,X,X>X:X,X:X,.o...m n Y ] !.L.L.I.{ _ G _ ` J J p.s.u.i.i.t.f Q ^ [ { { E.I.I.] 5.1.V 5 c.GXnXnXdXfXlXV.M.6XjXNXjXjXNXjXjXjXjXjXjXjXjXjXjXdXjXjXjXjXdX9X6XNXdXdXjX9XjX9X&X>.;.;.8.~.{.{.Q.(.d.f.f.f.d.l.{ b j &   4 k k q x 9 I ~ /././././._._.s.] 5.2.:.0.2XpX0X0XwX0X6X9X5X3X6X6XjXwX9XjX9X9X9XuX8XuXuX9X;X9XNX5XfXAXNXdXdXfXfXfXfXfXjXCX9X#XC ) ] I.Y.I.Q.I.I.[.[.{ _ l l v Z Z a s s s s s a E _ { E.E.I.] ] ] ] ) U B n 5 :.iXJXBXBXAXDXDXlXlXzXzXcXZXzXxXhXxXkXlXlXdXdXgXgXfXgXgXgXfXfXfXfXfXfXfXfX9X9XnXFXtX4.3.3.6.{ l.|.x.x.x.x.B & w k 5 4.tX-XtXaXyX7.N e e e j A d._.s._.s.^ W B H V %.:.9.#XMXMXjXfXfX9X6X6X6XfXfXfXnXnXmXnX6X6X6X6XqXwXNXCXmXnXgXgXgXgXdXjX5X8X8X8X8X8X7XtX.XH H 5.] E.I.Q.I.I.I.] W l u u i i u a a u v v L L ' ' ~ P ~ K.K.' U B C n n 5 C *.2.c.FXuXMXjXqX6X6XjXjXMXMXpX9X9X9X0X3X3X9XfX9X9XfX9X9X9XnXMXfX9X9X8X8X8X5X6XjXMXuX*X1.U T P L ( _ [ [ s.s.[ ` ` ` H z H B ` ) ` ` ` ` ` J _ { ( ( ( L L L Y ;.;.2.v.iXVXMXNXjXjXkXjXjXnXnXMXNXfXfXfXfXdX9X6XjXjXjXjXwXqXqXwXjXwXeX4X4XqX6XvXvXqXrXwX$X1.V U T T T T T ( ( ( _ _ _ ! ! ! Q ! [ _ ' P.I.T.K.T.T.L.K.' U N C M V V *.*.*.:.v.=XuXnXNXdX5XdXfXfXgXgXgXgXjXNXMXwXwX9X9X9X9X9X8X4X0X6X6X6X6X9XwXwX",
"fXfX9XfXfXfXjXwX6X6X6X6X6X6XqX6XlXgXdXgXhXlXlXxXhXhXhXqX1X,X,X,X:X,.o...m n Y ] !.] I.E.'.{ ( G ` ` p.p.u.i.t.t.t.i.^ ^ ' ] 6.W.I.E.] ] 1.;.n c.mXmXnXfXfXdX<X:XjXjXqXhXjXxXjXhXjXjXjXjXjXfXfXfXfXfXfXfXjXjXjXjXjXCXjXNXwXwXMX;X>.*.*.8.W.W.{.[.'.d.d.l.l.|.|.|.{ ` z & & ; & j j L [ _._./.u._._._.[ [ ] 1.1.:.9.2XpXMXwX>X6X5X9X6X4X6X9X9X6X6X6X6X9X6X0X9XpXMX8X5X5XdXfXgXfXfXNXfXfXfXfXdXfXfXwXCXv.V ) E.L.Q.Q.Q.E.E.'.].'.{ b b v Z a a s s s h u Z [ I.!.!.!.I.L.L.L.] T U N m : :.uXJXAXBXcXlXlXlXBXDXDXZXBXBXlXlXhXhXhXdX6X6XdXdXdXfXfXjXfXfXdXfXfXfXfX9XwXwXpXuXyX2.5.` 6.{ l.x.x.x.x.x.) k & - w n 8.yXFX*X1.k q x e 9 v J d.d.s.s.[ W W ( B V *.2.0.#XCXMXfX9X9X9X6X6XjXdX6XdXfXfXfX9XjXdX6X<X,X6XjXjXBXlXlXjXjXjXjXjX8X8X8X0X0X2X7X-X.X4.H 3.{ ] !.Q.Q.Y.I.{ ( b l u u u u s a u u v ~ ~ ' ' ' T P P P P U U N n 5 m m *.2.v.FX8XfX6XhXdXdX6X6X6X9X9X9X0X9X3X3X3X6XfXfXfXjXnX9X9X8X8XfXfX9X8X5X5X6X6XfXnXtX*X3.b ' P ~ W W W ^ [ [ { d.` 6.l.3.3.H H H ` ` ` ` ) ) ' ] ' ' ' U L L B 1.1.4..XiXmXuXMXwXqXqXjXNXCXCXCXNXlXjXdXwXwXwXwXwXkXkXqXqXqXkXqXjXwX0X6X6XqXqXeX1XxX1X:X-X4.n ) U T T T T T ( ( ( _ _ ! ! ! ^ ^ [ P.P.P.L.T.T.T.T.K.' ( B C m m C V *.*.;.:.v.-XmXnX9X3X>XdXfXdXgXgXlXlXlXjXjXwXjXqX6X0XwXwX0X4XwXwXwXwXwXwXwXwX",
"fXfXfX9XfXfXjXjX6X6X6X6XqXqXqXqXdXdXdXdXdXdXdXvXxXxXkXhXqX1X<X,XrX,.o...m C Y ] !.L.E.E.E.{ ( H ` ` s.s.u.i.t.t.i./ ^ [ [ 6.!.W.E.E.] 5.3.1.m v.JXVXNXlXlXhX<X>XlXkXjXjXxXxXlXhXlXlXlXlXlXgXgXfXfXfXfXfXjXjXjXjXjXCXjXjXwXwXMX&X&.*.*.8.W.].[.[.'.'.d.a.d.l.].|.}.|.l.) B k & j v W P._._._._._._.P.[ ' ] ) <.:.2.=XpXwX4X:X5X>X6X3X3X4X6X6X6X>X6X6X6X6X0X0XwXMXfXdXdXdXfXdXdXdXgXfXgXgXfXfXfX6XwXCXv.V ) E.L.Q.Q.Q.E.!.].{.'.E.) L v v Z a s p p h a E [ E.Q.Q.Q.!.L.I.L.] ( Y N m : :.uXAXAXDXlXlXcXDXDXDXNXBXBXBXlXlXjXhXhXhXdXdXdXdXdXjXjXjXdXdXdXdXfXfXfX9XeX0XpXiXyX1.3.) ] ` { l.x.x.x.x.` j . $ - - V 7.XX8.N q q q q   F J d.(.(.s.[ W W ( B B *.2.0.$XpXnXfX9X9XdXdXdXjXjXdXdXjXjXjXdXjXjXjXdX6XhXjXNXlXxXxXxXjXjXjXfXfX8X8X4X4X4X2X2X#X2.H 3.{ ] !.Q.Q.Y.I.{ ] G l u u u s s s i a E ~ ' ' ' ' T T P P P ( U N n > m m *.2.c.mX8XjXhXdXvXvXvXdX6XfXMX9X9XMXMXMX9X6X6XdXfXjXfX9X9X9X8X8XdX8X9X9X9X9XdXfXnXbX*X3.b ' P ~ ~ ~ ~ ^ [ [ [ d.{ { 6.3.H H K H ` ` ` ) ] ] ] ' ' ' T U L L B 1.1.4..XiXVXnXMX9XqXqXjXNXNXCXMXlXlXjXjXjXwXwXwXqXwXwXeXqXqXqXqXjXwX9X9X6XqXhXxX1XxX1X,X=X4.n ) U U T T T ' ' ( ( _ _ ! ! ! ! ^ P.P.Y.Y.Y.T.T.T.T.L.[ ' U C C m V V M m *.:.c.=XiXnX9X6X6XfXjXdXdXdXfXjXjXhXjXqXqXqX6X4X4X4X6X9X6X6XqXqXwXwXwXwX",
"fXfXfXfX9X9X9X9X6X6X6XqXqXqXqX6X6XdXlXzXlXlXjXxXjXhXqXqXqXeX,X:XrX,.o...m V Y ] E.E.E.I.{ { ] ( ( _ s.s.u.t.t.t.i./ / ^ [ E.E.E.E.E.] 6.5.V n .XJXVXNXlXlXdX<XV.jXjXjXqXjXhXdXdXdXfXfXfXfXgXgXdXjXjXjXjXjXjXjXjXjXNXwXjX9X6XkX&X&.%.*.8.W.].{.'.'.'.d.{ ` ` { l.|.}.XX].z.1.G ) (.(.`.`.`._._._._.P.[ ] ] Y <.:.:.&XpX0X>XV.<X5X3X3X4X4X6X6X6X,X,X6XwX6X6X4X9XMXfXdXfXfXfXfX9X9XjXjXjXNXNXfX6X5XwXCXv.*.) E.I.Q.Q.E.E.!.'.{.[.E.I.( v v Z a s h 3 s E ^ (.[.Q.Q.Q.I.L.L.] ] ( Y N m : :.uXAXBXDXlXlXDXZXDXDXNXlXNXNXlXjXjXdXhXhXfXfXjXjXjXjXjXjXdXdXdXdXdXdX9X9XqX0XpXuXyX1.3.) ] ] { l.|.x.x.|.l.B $ $ $ O % n V r & & & & j j G p.d.f.f.s.! W W ( B C V <.0.$XpX9X9X9X9XdXdXjXjXdXdXdXjXjXjXdX6XqXjXhXjXjXxXlXjXjXjXjXjXjXjXjXmXnX9X9X4X4X2X2X#X4.H 3.6.I.!.Q.Y.Y.I.E.{ ( A u u u u s h i E ~ ' ' ' ' K.G.G.P ~ ~ W U B n > n M 1.2.c.mX8XNXlXhXdXhXdXhXjXjXMX=X7X9X9X9X6X5X>X9XdXfXjXfX9X9X9X8X8X8X9X9X0X9XjXfXfXtX*X6.b ' P ~ ~ ~ ~ ~ [ [ [ { ` { { ` ) H H H ) ) ] ] ] ] ' ' ' T U U L L B ) 1.4..XiXmXuXfX9X9X6XjXjXNXMXMXjXjXdXjXjXwXwXwXqXqXqXwXwXkXkXkXjXwX9X0X9XwXqXeXxXkXkXwX-X4.C ) L P P ' ' ' ' ' ( ( _ _ _ _ _ [ P.P.Y.Y.Y.Y.Y.Y.Y.Y.I.] ( B C m M V m M *.2.v.tXiXuXnXnXjXNXjXjXfXlXlXlXNXlXjXjXjXjXwX9X6X4X4X9X6X6X0XqXwXwXjXMX",
"fXfXfXfX9X9X9X9X6X6XqXqXqXqXqXqX>X5XdXfXdX6X6X6XkXhX6XqXjXkXqX,XrX,.o.6 m V 1.] E.!.E.I.I.I.{ ( A _ s.s.i.t.t.t./ / / ~ { E.E.E.E.E.] 6.1.C 5 .XJXVXNXNXBXdX&XM.6X6X9X9XwXdXdXdXdXdXfXfXgXgXgXdXjXjXjXjXjXjXjXjXjXNXwXjXwX6XjX&X&.%.*.8.W.].].'.'.'.'.'.{ { { { { '.].].].z.6.'.}.OX)._.H.^ ^ ^ P.P.' ] ] Y <.:.2.2XpXwX,X:X6XdX6X4X6X6X0X6X6X6X,X6XwX6X4X4X0XMXfXdXdXdXfXfXjXfXjXjXNXNXNXjX6X3XwXCXv.*.) 6.L.Q.E.E.!.E.Q.{.[.E.'.` W Z Z a s u u a ^ _.).[.Q.Q.Q.I.L.L.L.] T Y N m : :.uXBXBXDXlXlXcXDXDXNXlXfXNXlXlXjXjXdXhXhXlXlXlXjXjXjXfXfXfXfXfXdXdX9X9X9XwXqXMXmXyX2.5.] { ] { l.|.|.|.|.XX) w & & O ; * C - & & & & j b a.a.d.d.[ _ W W ( ( B C V *.0.$XpXfXnX9X9XdXdXdXdX6X6XdXdXdX9X6X4X6XqXjXjXjXjXxXjXjXjXjXjXjXjXjXmXnXfX9XqX4X2X-X#X4.) 6.E.E.Q.Q.Q.Y.Q.Q.'.{ W Z u u u u a v E ' ' ' ' ' K.G.P P ~ ~ ~ U B n n n V ;.2.c.mX8XjXdXhXhXhXhXhXjXwXwX8XuXuXnXnXMXjXjX6X9XfXfX9X9X9X9X8X8XfX9X8X0X9XjXnXfXtXyX6.b ' P ~ ~ ~ ~ ~ ~ ' [ ' ( [ { { ) ) ` ( ] ] ] ] [ ] L.' ' T U U c c B V ;.2..XtXnX8X9X9X9X6XdXjXMXMXjXlXjXjXjXwXqXqXqXqX,X:X4X6X6XqXkXBXCXCXMXMXMXkXkXeXeXqX8X=Xz.V ( L P ~ ~ K.K.' ' ( _ _ _ _ _ ` [ P.U.Y.Y.Y.Y.T.Y.Y.Y.I.] ) V C m n m M *.:.2.v.=X7XiXuX9XfXjXjXdXfXfXjXjXjXdX9X6X6X6X9XwXjXwXwX9XqXwXwXwXwXjXjXMX",
"9XfX9X9X9X9X6X6X6X6XqXqXwXqXqXqX6XfXBXAXAXBXCXCXjX4X:X:X4XqX4X4XrX9.&.6 m V 5.5.E.Q.Q.I.I.E.I.[ W _ s.u.i.f f i./ E / [ I.E.E.E.E.E.] 5.1.V n *XGXVXMXCXCXdXV.B.6X9XjXMXMXNXNXMXlXlXlXlXlXlXgXgXfXfXfXjXjXjXjXjXjXNX9XjXwX6XwXN.>.*.;.8.W.].].'.[.|.}.|.'.'.'.'.d.l.6.3.6.3.) { '.P.P.^ ^ ^ ^ ^ P.' ' ' ) Y <.<.9.2XpXpX6X:XvXdX4X0X0X0X9X6X6X6X6X6XwX9X6X4X0XMXfXfXfXfXfXfXfXfXfXfXMXCXCXMX9X3XjXCX.X*.) { ] Q.E.E.E.E.E.Q.[.Q.'.{ ( W Z Z u a a ! s.(.[.'.Q.Q.Q.L.L.I.L.] U U N m : 9.uXCXBXDXDXDXDXlXlXlXNXNXNXNXlXjXjXhXhXjXNXNXNXMXjXjXfXfXfXfXfXdXdXdX6X6XqXqXMXmXyX1.) ] ] ' ( { l.].|.|.}.{ N - ; ; % = C = $ & & & z G x.x.d.d._ ( W W ( ( B C M ;.9.$XMXMXnXfXfX6X6X6XdXdX6XdXdXdX9X6X6X6XjXjXjXjXjXlXjXjXMXMXNXNXNXnXnXgXjXjXwX0X7X=X#X4.) 6.E.I.!.!.Q.Q.E.Q.'.E._ A a u i u Z E ~ ' ' ' ' ' T P P ~ ~ ~ ~ U B n n m m *.2.v.mX8XjXdXlXlXkXxXjXjX9X9XMXmXuXuXnXnXnXfX5X9XfXfX9X9X8X8X8XfXnXuXuX8X0X9XMXnXbXyX6.c T P ~ G.G.G.~ ~ ~ [ ~ ( ' ] [ ' ] { ' ] { [ [ L.L.L.K.' T U U c B B V ;.2..XiXmXuXfX9XdXdXjXjXnXnXnXlXlXjXjXjXqXqX4X,X,X,X4X6X4X6XwXwXMXMXMXMXMXMXjXqXqX0X-X*X7.( ( L ~ ~ G.G.K.K.' ' _ _ ` ` ` { E.I.).[.Q.Y.Y.Y.Y.Y.Y.L.] ( B N n r m M *.*.2.v.=XuXmXmXnXMXMXMXMXnXMXMXMXMXMXMXMX9X3X3X4XwXMXMXMXjXjXjXjXjXjXjXjX",
"9XfX9X9X9X9X6X6X6XqXqXjXjXjXqXqX5XfXnXNXMXMXMXMXMXqX2X2X4XwXwXwXsX9.&...m V 5.!.E.!.Q.Y.Y.Q.E.I._ ^ u.u.i.i./ / / ^ ^ [ I.I.E.I.E.E.] 5.1.H M *XGXGXVXVXBXfX>XN.9X9XMXMXMXMXMXMXNXNXNXlXlXlXgXfXfXfXfXjXjXjXjXjXjXNXwXNXjX9X9XM.>.%.;.5.7.].].'.'.|.|.[.'.[.}.OX}.|.l.3.6.3.) { ' ' G.H.H.H.H.G.P.' ' ' ) Y <.:.2.2XpXwXqX,XvX<X3X4X9X6X6X6X6X6X6X6X9X6X0X0X9XwXMXfXnX9X9X6X5X5X9XfXfXMXNXMX9X6XMXCX.X*.) { ] Q.E.E.E.E.E.Q.Q.Q.'.{ { _ W Z F A A _ (.[.[.[.[.[.I.I.I.I.I.] U U C m : 9.MXCXNXDXDXDXDXNXNXNXNXNXCXNXNXjXjXjXlXlXNXNXNXMXjXjXfXfXdXdXdXdXdXdXdX6X6X6XuXuX*XH ) ) ] ] ' ] I.[.}.}.}.'.) N - ; ; * 5 - O & 4 z ` l.x.x.l.d.{ ( W L ( ( B C M ;.9.#XMXMXMXfXfX6X6X6XhXdXhXjXjXjXjXdX>X6XhXjXjXjXjXNXMXMXCXCXVXNXNXnXgXgXfXjXwX0X7X=X.X3.) 6.6.{ L.!.Q.!.E.Q.'.E.{ _ Z u u u E W ' ' ' ' T T T P ~ ~ ~ ~ L L B N n m m ;.2.v.GXMXBXBXAXZXAXBXCXCXMXMXuXuXuXnXnXnX9X5X5X9XfXnXfX9X8X8XfXnXnXnXuX8X0X0XnXfXmXtXz.B T L ~ G.G.G.G.G.G.' ~ ' ' ' ' ' ' { ] K.P.P.K.K.T.I.K.' T U N c B V V ;.4..XiXVXnXMX9XdXjXjXfXfXnXnXlXlXjXjXjXqX6X4X:X4XwXwXwXwXMXMX0X9XpXCXCXVXCXCXAXCXmXiX.X6.( L P ~ ~ G.G.K.K.' ' _ ( ` ` ` { E.I.).[.[.Q.Y.Y.Y.Y.Y.L.] ( U N n > n m M ;.4..XaXaXuXiX7X7X8X8X9X9X9XnXnXnXMXMXMXCXMX9X0X4X0X0X9XMXMXMXMXjXjXwXwX",
"jXjX9X9X6X6X6X6X6XqXjXjXjXjXjXwXMXMXMXCXCXCXCXCXpX0X2X2X4X0X0XeX0.,.&.#., C 5.!.Q.Q.Y.Q.Q.Y.I.I.[ [ ! ^ ^ u.^ ^ ^ [ P.I.I.E.I.I.I.E.] 5.5.1.M .XFXFXFXVXCXMX8X-X8XuXMXMXnXnXnXnXnXnXfXfXfXfXdXdXgXgXMXMXNXNXjXjXjXNXdXNXjXjX9XM.%.%.*.1.7.W.W.'.'.'.'.'.'.[.[.{.}.}.|.].].6.5.E.' P.U.U.U.H.G.G.K.' ' ' ] Y <.:.:.sXwXwXqX1XqX,X3X0X0X9X6X6X6XjXjXqX6X6XwXwXwX9XMXMXMXfX9X9X9X5X9X9X9X9XfXMXMXwXMXCX.XV ) { ] Q.Q.E.E.E.E.Q.[.[.'.'.E.{ _ G G G _ d.'.[.[.[.[.[.Q.Q.I.I.I.] ' Y C m > 0.CXBXNXDXDXDXNXNXVXVXVXNXVXNXNXNXlXlXlXNXNXCXNXMXjXjXfXfXdXdXdXdXdXdXdX6XjX6XnXiX*XV V ) ] ] ] ] I.I.[.{.|.].6.) B n 5 5 n n 5 n G ` l.l.l.` ` { { ' T T T T B C M *.9.M.uXnXnXjXfXdX6X6XjXjXjXlXlXlXjXjX>X,X6XjXjXjXMXNXCXCXCXAXVXVXVXmXgXgXfX9X9X9X7X-X.X4.) 6.{ ] L.L.E.!.!.E.E.I.{ { ! W Z E W W ( ' ' ' ' T T G.G.G.~ ~ L U U N n n #.:.2.v.GXnXCXNXNXNXNXNXMXuXuXuXuXiXiXiXnXCXVXNX9XfXMXMXnX9X8X8X8XfXnXnXuXuX9X9X9X8XnXmX XB Y U ~ G.G.K.G.G.G.K.G.G.K.K.' ' ' I.P.P.L.P.K.K.T.T.K.' U U N c N B V ;.4..XiXGXMXCX9XjXjXjXfXfXnXnXfXfXjXjXhXqXqX6X>XwX4XM.b.b.M.M.M.#X$X%X=X=X&X=X=X#X$X.Xz.) ( P P ~ ~ G.G.G.G.' ( ( ( G G G ) { I.P.Y.Y.Y.Y.Y.Y.Y.Y.L.] ) Y B n > r n V 2.0.v.*XGXGXGXuXuXuXuXuXMXnXmXmXmXmXmXmX=X-XuXMX9X4X4X0XwXwXjXjXwXwXwXwX",
"jXjX9X9X6X6X6X6X6XqXjXjXjXjXjXwXb.v.b.b.v.v.v.v.M.b.0.9.0.b.0.9.-.&.&.#.> n 5.!.Q.!.I.Q.Q.I.I.I.(.[ ! ! ^ ^ ^ ^ [ P.I.Q.Q.E.I.I.{ E.5.5.1.1.5 4.FXFXmXmXmXmXmXnXmXCXGXGXVXmXmXnXMXMXMXMXjXfXdXdXgXmXMXNXNXNXjXjXNXNXdXNXjXjX9XM.o.6 M 1.7.W.W.].'.'.'.'.[.[.Q.E.'.}.}.}.].6.] I.' K.T.T.G.G.G.K.K.' ' ] ) Y *.:.:.$X4XwXkXqXhX,X4X0XjXjXwXjXjXjXjXhX6X6XMXMXpX9XMXMXMXMXMXMXMXnX9X8X8X9X9XMXMXMXpXCX.XV ) 6.L.E.E.Q.E.E.E.Q.[.[.'.'.'.6.{ ) ( ) l.].].{.[.'.'.[.[.Q.I.Y.E.] ] ) C m > b.GXAXNXDXNXNXDXAXAXAXVXVXCXCXCXCXCXNXNXCXNXNXMXMXMXjXfXfXdXdXdXdXdXdXdXdXxXjXMXiX%XV H ) ) ] ] ' ' ] L.I.{ 6.].].z.7.4.3.4.3.3.3.3.l.3.J ` ` ( ( ( T T ' U R B C M *.9.M.9X9XfXfXjXdXdXdXdXdXhXjXjXjXdX6X6XqXjXjXNXNXCXBXCXVXGXGXGXVXmXmXmXgX8X5X0X8XiXiX*X7.` 6.E.I.I.E.!.E.E.E.E.I.(.(.[ _ W W W W ( ' ] ] ' ' ' ' G.G.~ ~ W W U N r , #.=.;.0.iX=X7X7X;X;X;X;X&X&X=X%X*X#X.X.X$X=X8XnXfXnXCXCXMXfX9X8X8X8XnXnXuXpXpXfX5X5XnXFXc.V ) T T ' ' K.~ ~ ' G.~ ~ K.K.K.' K.Y.P.P.P.K.K.K.K.T.K.T U B c k N C M ;.2.v.uXVXnXMXdXjXNXjXjXfXnXMX9XdXdXjXjXjXqXqXwXwXN.o.1 1 : : 7 7 7 6 6 6 5 5 7 7 M V B B ( ' P P ~ G.G.G.~ ~ _ W A A A b G ( ' ' L.I.Y.Y.Y.Y.Y.U.L.] ] U B n n m m *.2.2.*.:.2.4.:.:.>.>.>.%.6 6 6 7 7 5 5 : %.c.=XMXMX9X9XMXqX9X9X9XwX9XwXwX",
"jXjXqXqXqX6X6X6X9XjXNX9XNXjXBXb.7 7 7 7 7 6 7 6 6 6 6 7 7 6 6 6 7 %.&.m > C 5.!.Q.Q.Q.Y.Q.Y.I.] [ { { [ ! ^ [ ' I.E.E.E.E.E.E.I.] 6.6.5.1.V V V c.c.v.v.#X#X#X#X#X#X#X#X#Xv.v.b.#XM.nXBXdXfXdXdXgXNXNXNXNXNXfXfXjXNXNXjXjXjXdX5X>.%.M ;.3.7.6.W.].l.'.'.'.[.Q.Q.'.}.@X}.].6.6.] ' K.G.G.G.T.T.K.K.' ' ' ) 1.;.;.%.M.4X4X:X,XkXkXwXpXwX9X9X6XjXjXxXhX6X6X9X0XwXMXCXmXmXuXuXuXuXMX8X7X7X8XnXMX8X-X7X=X.XV ) ] E.I.E.E.E.E.E.E.[.[.E.E.6.].].) ) ) 3.6.].}.{.E.E.[.Q.[.[.I.] { 5.Y C > m b.uXJXJXAXAXAXAXJXJXJXKXVXVXJXVXVXHXBX9XVXBXNXCXCXCXCXMXjXjXjXjXjXjXfXdXdXjXfXMXuXv.;.C V ) ] ] ] ] ] L.I.] ` 3.6.6.3.3.1.3.3.3.3.3.` ` H ) ( ) ] ] ' T ' R R Y V n 6 :.M.CXMXfX9X9XdXjXjXjXdXdXdXjXjXjXjXjX1XjXNXjXAXHX9XnXnXnXuX-X=X=X*X%X%X%X&X#XM..X.X4.3.3.{ { I.I.] E.E.I.I.I.I.{ [ W _ _ W L W W W ' ' ] ' T P ~ G.~ ~ ~ ( B k > n *.:.2.:.:.,.,.>.>.>.>.>.%.%.%.%.m m : 5 %.b.uXmX9XnXMXnX9X9X9X9XnXnXuX8XuX8X9XfX6XfXNXnX*X X5.Y ' T P ( ' ' ' ' ' K.K.K.K.K.L.Y.Y.P.T.K.K.K.K.K.' L c B B C n n M ;.c.%XuXVXMX9XkXxXjXjXjXNXMX9X5X5X6X6X6XhXkXkXMXMXN.1 1 : : : < < > 5 6 m m 6 6 M M V V ( ' ' T T T K.K.K.~ ~ E Z F A A A G W W W ' K.Y.I.Y.Y.Y.U.I.{ ] ( B N r n m *.*.*.m 5 > > 6 6 6 > : : : : : # # # # 1 5 4.-XVX8X7X9X3X4X4X6X9XjXjXjXjX",
"jXjXjXjXjXqX6X6X9X9XjX9XNXjXNXn.7 : : : : : : 5 6 6 6 6 6 6 6 6 6 ..%.m m C ) E.E.I.I.I.I.Q.I.I.I.(.(.[ _ ( ( ( { E.W.W.!.W.E.{ 6.6.5.5.1.V C C 5 5 6 m M %.M M M M M M 6 6 6 5 6 >.&XVXfXlXlXlXgXNXNXNXNXNXjXfX9XjXNXNXNXCXjX9X-XM.c.4.7.7.7.z.].z.'.'.'.'.E.I.'.}.}.}.].].6.] ' K.G.G.K.T.T.T.I.' T ) 5.1.*.#.,.#X0XeX:X4XwXwX4X9X9X9X9X6XjXjXjX6X6X6X0X9X9XMX7X-X=X%X#X#XM.#X%X#XM.M.#XM.v.9.9.9.4.V 5.] E.] E.E.W.E.E.E.'.'.'.].E.].6.) 1.1.3.) ) 6.].'.E.I.[.[.[.I.] { ] V n > m 9.$X=X;X-X;X;X;X-X=X=X=X%X#X$XM.v.%X%X=XHXAXVXCXCXCXNXjXfXdXdXjXjXjXjXdXdX6XdXNXnX;Xc.2.1.V ) ] ] ] ] L.] { 3.5.3.1.3.3.3.3.3.3.3.` ` ` ) ] ] ' ] ] ] T ] T R N n 5 %.9.%XCXMXMXjXfXdXdXdXjXjXjXjXjXjXjXjXjX1XjXBXNXCX;X,.%.>.>.>.;.%.%.;.6 7 o.%...6 m M H ) ) { { I.E.I.!.E.E.I.I.[ [ ! ! [ _ W W W _ W ( ' ' ' ' ' ~ ~ ~ ~ ~ ( B k = n %.=.*.m 6 7 7 : : : : : : # # + > > @ : 5 :.=XuXnXnXfXfX9X9X9X9XfXfX8X8X8X9XwXfX<XdXNXVXmXtX*XoXW.{ ) U U ' ' ' ' ' ' ' ' K.L.L.T.K.K.P P P T T ' U c k C 5 5 5 .X%X-XiXMXMXjXjX6XqXqXhXjXjXwX9X6XdXhXhXqXhXjXkXMXCXM.1 1 : # + < < < 5 n n m m m M M V B ( ' T T T T ' ' ' ~ W E Z F F A A A W W E W ' K.I.Y.).Y.Y.I.[ ' U B N r n m m m n > > > > > > > : : # : # + + + # # # 5 4.-XVXuX8X9X3X4X4X6X9X9XjXjXjX",
"jXjXhXqXqXqX6X6X9X6XjX9XCXNX9X,.: # + + @ # @ : > > 5 5 6 6 6 6 6 6 m m C V Y 5.E.L.L.L.L.I.E.I.E.'.'.{ ( ( ( ( ) 5.E.W.W.W.W.6.6.6.5.5.1.V C 5 > > : : > > > : : : : : : @ # + o 7 %XAXNXlXhXlXlXNXNXNXNXNXNXjXfXjXNXCXBXBXMX9XAXVXiX-X*XoX X7.7.z.z.z.].].'.Q.{.{.}.].].].6.] K.K.K.K.K.K.K.' ] ] ] ) V V *.:.M.2XwX0X4XqXwX4X3X4X9XwXwXjXjXjXjX6X6X6X0X0X0XpX>.%.%.%.....%.%.%.%.%.%.%.%.6 7 6 m V V 6.6.E.E.E.E.].'.'.'.'.'.'.{.6.) B B ) ) 3.) ( ) 6.'.'.'.Y.Q.I.L.{ 6.] Y r m #.:.:.>.>.>.>.;.%.%.%.%.M M 6 M 6 6 6 6 9.mXAXCXCXCXCXMXfXdXdXdXdXjXjXhXhXhXdXjXNXVXmX-X*X.Xc.7.5.) ) ] ] ] 6.5.5.5.3.3.1.3.3.3.3.3.` ` ) ) ] ] ] ] ] ] ' Y B B V V ;.v.=XuXCXCXCXNXMXjXdXdXhXjXlXlXjXjXjXjXjXhXBXBXAXAXM.1 o 1 1 # # # @ @ : : : : : : 5 n B H ) { { E.E.E.E.E.I.I.[ [ ! W [ [ ( ( ( ( _ ! W W ( ' ' ' ' ~ ~ ~ ~ ( B k 5 n *.*.*.6 > : : @ : : @ # # + + + + @ + @ : %.%XnXnXnX9X9X9X9X9X9X9X8X8X8X9XfXMXjXdXfXNXNXVXGXFXFXyX+X].6.) ) ( U ' ' ' ' ' ' K.K.' T P P P T T T c B B C 5 5 4..XmXGXJXVXnX9XhXkX1XqXqXqXqXqXwXwXjXjXxXjXhXhXjXjXCXCX$X1 o + + + : : : > r n n n n M M V V ( ' T T T T ' ' ~ W E Z Z F F D A A W E E E W ~ ' I.I.).(.I.I.' U B B w r n n > * * * * * > > @ @ + + + + + + + + # # 5 2.-XGXuX8X9X4X6X6X6X9XdXjXMXNX",
"qXqXqXqXqXqX6X6XjX6XjXfXAXNX6X>.: + + + + + + @ * > > > 5 5 5 5 6 > 5 M V V Y 5.E.L.L.L.I.E.E.E.E.6.{ ' ( ( ( ( ( ) 5.6.W.].W.E.6.6.5.5.8.1.C n > > : @ @ @ @ @ @ @ @ @ @ @ + + o 6 =XAXfXfXdXlXNXNXNXNXNXNXNXNXNXBXBXBXCXNXdX5XdXNXJXJXGXFX*X Xz.z.4.l.z.].{.}.{.{.|.].].].6.] ' K.K.K.T.K.K.' T ) ) V V ;.v.%X7XpXpXqXqXMXpX4X4X0XwXjXjXjXjXjXjX6X6XwXwX0XwXMX1 1 + # : : : : @ : : : 5 5 5 > 5 5 n V 6.E.E.[.E.E.'.E.'.'.'.'.(.'.[ ( b z ) H ) ` ` ) ( ( I.[.'.Y.I.{ { 6.) V r m %.%.m 5 5 5 7 5 5 5 5 > : @ : > : > : @ %.-XGXBXCXMXMXMXfX9XdXdXfXjXhXhXhXlXlXBXBXNXVXJXKXiXtXyX.Xz.6.5.] ) ] ] 6.6.6.5.) ) 1.3.3.3.) ) ) { ] ] ] ] ] ) Y Y V 3.c..X*XiXCXmXCXMXCXNXNXjXdX6X6XdXjXlXjXjXjXjXlXkXBXMXAXHXM.1 1 1 @ # # # @ @ # # : : : > n C V ) { { { { E.E.E.{ [ [ [ ^ ! ! [ ! W W ( _ _ ! ! W W ( ' ' ' ' ' ( U U B n n n M M m > @ @ @ # # # # # + + O O O + + @ : %.%XmXCXnX9X9XfXjXfX9X6X8X8X9X9XMXjXjXlXlXlXgXmXmXFXFXFXaXyXXX X7.` ) ) ( ( ) ] ] T T T U U L U U T T B k n H z.%X-XmXmXVXVXNXdX6XhXxXhXxXkXkXqXqXjXkXjXjXxXjXqXqXjXjXCXCX$X: 1 @ @ @ @ : > > r n C C C M V V ) ) ] ' ' ( ' ' ~ ~ E E Z Z F S D A A A E Z Z E E W ~ ' I.(.(.I.] ( U B w = = - * % * * * * * % % + + + + + O O O % # % 5 2.=XGXmXuXwX9X6X6X9X9XfXMXNXCX",
"1X1XqXqXqXqX6XqXjX6XjXfXAXMX5X>.@ + + + + O + # # * = > > 5 5 5 6 > 5 V 1.Y Y ] ] ] L.E.E.Q.W.E.E.] ( ( _ _ _ ( ( ) ) 3.6.].].W.W.6.6.7.7.5.V n > > @ + + + + + + + + + + + + + o 5 #XnXfXlXlXZXNXNXNXNXNXNXNXNXAXAXAXNXjXjXdX5X5XnXVXFXGXGXFXtXoX.Xc.z.z.z.].}.'.[.{.|.].E.{ ] ' ' K.T.Y.K.' ] ) ) 1.7..X=XuXCXMXMXMX9XjXMXMX0XwXwXwXwX0X6XjXxXjXqX9XjXwX9XwXmX1 + # @ : @ @ @ @ : > > > : : > > > r V ] ] L.{.E.E.6.6.'.'.'.'.)._.W W W A _ ` G ` ` _ A b ( { '.'.I.{ { 5.) C n #.=.=.%.m 6 6 6 5 5 5 5 5 > > > > > > 5 @ %.-XGXAXMXMXMXjXfXdXjXjXjXjXhXhXhXlXjXBXBXdXdXCXVXnXmXFXFXaXyXXX7.1.) ] ] 6.6.6.5.) ) ] 5.] ] ] ] ] L.L.] U U ) ) 3. X*XiXmXCXGXCXuXpXMXMXNXCXjXjXdX<XdXjXjXjXjXjXjXkXkXNX9XMXJXM.1 1 1 # # # # # # # # # @ @ % > n ) ) { { { { { { ] [ _ ! ! ^ ^ ! ! W W W _ ! ! ! ! ! ! W ( ' ' ' ' T U U B C C C M M > * + + + + + O O O O O O O O O O @ > %.*XmXnXnXfXnXMXMXjX6XdXdXfXfXnXMXjXlXhXhXvXdXfXmXVXGXVXuXiXtX*XoXXX X1.) ) Y U Y T T T T U U U U U U B H 7..XbXVXNXdXnXnXfXjXxXxXhX1X<X1XxXzXkXkXkXkXjXjXjXhXqX6XqXjXMXCX%X: 1 : * > > > r r n n C V V *.;.1.) ) ] ( ( ( W W W E E a a a S D _ _ A v Z a a Z E I v v [ [ I.I.{ ) U U k = % $ - - - - * % % + + + + + + + O O O % % % 5 2.*XFXmX9X9X0X6X9X9X9XjXNXCXCX",
",X,X1XqXqXjXjXjXjX6XfX9XBXMX5X>.@ % O O O O O % % % - - = = > 5 5 5 n V 1.) ) ] ] ] { E.].{.].W.W.] ( ( _ _ ! A _ ` ) ) 3.W.].W.].W.7.7.7.2.V n m 5 > * * * * * @ # @ @ % % % + o 5 #XVXNXDXzXlXNXNXNXNXNXNXNXNXBXBXNXfXjXjXjX6XfXgXnXmXFXGXGXGXFXtX*X.X Xz.z.].'.'.'.].].6.] ] ' ' K.K.K.T T ] 7.W.XXyXtXiXuX7XwXMXjX9XMXMXMXuXMXpXwX0X4X6X6XqXjXqX9XwXjX9XwXmXo O + + + + + + + + + + + + + + + * w Y 5.E.L.[.'.].].'.'.'.'.(.[ ^ Z E W Z _ _ _ _ d.{ [ _ W L { { { { 6.6.1.V m *.=.%.m m m 5 > > @ @ @ @ # + % + O + @ @ *.-XGXAXCXMXMXMXjXfXlXlXlXlXlXhXlXlXlXZXBXjXdXdX8X-XnXmXKXGXFXtX*XXXW.E.] ] 5.5.5.5.) ] ] ] ] ] ] ] ] ] Y U ) z..X*XbXmXVXMXMXpXpXpXpXMXMXNXCXlXjXjXdXdXjXlXjXjXNXNXkXzXBXjXwXAXM.1 o o # # + O ; + @ @ @ * * * r N ) ) ] ` ] ] ] ] _ _ ! Q Q Q Q Q ! W W _ _ ! ! Q i.Q ! W W ( ' ] ' ( U U B B C C C m r > * * * # # # % # % $ O O O O O * > ;.%XmXnXnXnXMXMXMXjX6XfXgXjXNXMXMXlXlXhXvXvXvXdXgXNXVXCXMX9X8X-X-X*X*X Xz.5.) B V Y ] ] ] Y U B B U ) 3..XFXKXmX5XdXlXfX9X6XjXkXhX:XC.B.C.A.eXkXkXwXqX9XdXjXdX6X6XqXqXwXMX$X: + @ * > > r n n N N V 1.2.2.2.1.1.) ) ( A A A E E a a a a a D p.d.` ( b a s a Z E v v v W W ( [ ' ( U B n w - % - - % ; * - * % % % % % + + + + $ $ - - n 1.*XFXuX8X9X0X6X9X9XMXNXCXCXCX",
":X:X,X,X6XqXjXjX9X6X9X5XMXfX5X:.* # O O O O O ; % % % - - = = > 5 5 C H 1.) ) ] ] ] ] 5.E.E.E.6.6.] ( [ s._ ! D _ _ ` ( ) { 6.W.].W.7.7.8.1.V n n > > * * * * * + # + + + + + + + 6 $XGXCXBXlXlXDXNXNXNXNXNXNXAXNXNXNXfXjXjXfX6XfXfXNXGXGXFXmXmXKXKXbXtX*XoX X].'.E.E.'.].6.] ' ' ' K.K.T T ] W.XXyXFXIXiX%X%X&X4X0XjXjXnXMXMXMXuXwXwX9X6X6X6X6XxXhXwXjXMXwXwXmXo + + + + # @ @ + + + @ @ * * * O r r Y ] E.] E.E.].'.'.'.'.d.[ E Q a Z Z Z p.p.! p.s.s.s.s.[ W W ( ( { { 6.5.1.m *.=.m > > > @ * @ @ # # % + + + % O + @ > :.iXJXAXCXMXMXMXMXjXNXlXlXlXlXzXlXcXzXBXlXjXdXdX6X5XfXnXmXmXFXmXFXbXyX+XW.] ] 6.5.] ] ] ] ] ] ] ] ' T ' ) 3. XyXmXKXNXgXfXjX6XqXwXBXMXMXCXCXCXNXjXjXlXlXhXhXjXjXNXkXkXBXBXjXwXCXM.: o 1 # # # # # % + + * * * - r N ) ( ( ' { { ] ) _ ! E Q Q Q f Q Q ! _ [ _ ! S S i.i.Q ! W ( ] ] ] ) U B B B C n > * * * * * % % ; ; ; O O O O O $ % ; = 5 %.%XmXnXnXnXnXfXdXjXdXNXBXBXBXNXlXlXhXxXxXvXvXvXfXfXfXBXkXwX6X9X8X-X=X*X*X.Xz.1.Y 1.5.5.) Y V Y 5.].XXFXbXtX-XgXDXlXdXjX9X6XjXhX<XN.m.m.m.B.Z.rXeXeXeXjXjXjXdX6X<X6X6X0XMX%X: + * * * r r n n N N Y 1.2.8.2.1.1.1.) ( A Z Z Z a a a u a Z D p.l.l.) b a s s a Z Z v v v b W W ( ( U B B n k = w = - % - - - - % % % % % % + % % - - = n 1.*XFXiX7X9X0X6X6XfXNXCXCXCXCX",
"V.V.Z.:X,X6X6X6X6X3X6X3XfX9X8X:.> % O O O O O $ % % % - - = w w 5 n V ) ) ) ] ] ] ] ) ) ] ] ) ) ( ( { d.d.[ ! ! _ a.d._ G ( { 6.6.6.6.6.5.1.V C n r > = = w w = * * % % % % + + o 5 #XVXnXlXlXlXDXDXNXNXNXNXDXAXfXMXNXjXjXjXqX>XjXdXfXMXCXuXnXGX8XnXKXKXFXtX*XXX].E.6.W.].6.] U ' T ' ] ] E.+XyXFXIXGXFX7X&X&X&X>X6XjXjXwXwXjXkXqXeXkXkXwXqXqX6XCXNXMXCXCXMXMXCX# + + O O O ; ; * # % % % % % O $ n w R Y 5.Y ) ` { { { { [ ! E h / Q a u Z s.s.D p.p._ ! u.s.s.W ( [ [ { ) ) Y C <.2.#.n n n n = - * % * - - - O % + O + + *.=XGXCXCXMXMXNXNXNXlXlXlXlXlXcXZXZXBXhX>X>X6XdXjXNX5X9XnXmXmXiXmXbXIXUXXXW.6.5.) Y ) ) ] ] 6.5.] ] ] 5.6.XXyXKXKXgXgXdXdXlXkXqX4XwXCXCXCXCXNXNXlXjXBXlXdX6XdXjXjXjXxXhXjX>X3XMX#X7 o + # # ; ; ; $ - - = r r r N U ) ( ' ] { { ( ( W ! ! Q Q Q S Z ! ! _ d.a._ D D S Q i.! ! W ' ] ] ) U B B B B n n n w = w - - - $ $ $ & ; $ $ $ O O ; = > M %XVXuXnXfX9X5X6XdXjXDXDXBXBXNXNXlXhXcXxXvXvXdXlXBXBXqXqXqXjXjXjX9X-XmXFXiX*Xc.2.1.1.*.V V V 2. XyXFXFXmXuX-X5XgXgX5XMXjXjXjXhX<XB.m.m.m.m.m.N.rXeXkXNXNXjXhX6X<X,X<X6XMX=X5 @ * * * = w r r r N U ) ) 5.5.1.) ) ( W Z Z Z Z a a a a Z D J l.z.z.5.( E a a a a Z Z Z Z Z Z A W ( ( U B C N n n k w w - - - - - $ $ $ * % % % % - w w n 1.*XFXiX7X8X9X3X6XjXCXBXBXCXNX",
"V.Z.rXZ.V.:X,XjXjXdXdX5X5XnX&X9.> O O + + % - % - - w w w k c c N N B ) 5.E.!.E.{.Q.E.{ { ` _ _ s.[ [ { { { { ` _ J a.a._ J G ( ( { 6.3.5.3.1.V C C n k e w w q & - & & % - % % # 5 *XJXfXgXNXgXlXNXDXDXNXNXNXCXNXjXMXBXeX:XV.Z.6XjXqX6XfX9X8XnXnXnXNXKXKXKXmXFXyXXX7.3.6.6.) B ) U Y 6.XX*XyXFXuXfXnXnXnXMXMXjXdXBXhX<XxX1X1XA.S.S.A.1XkXeX4X0XuXmXVXAXCXMXMXCXo O + % % % ; ; & & $ & & & & q e c U Y 1.1.H V ` G A Z E g g h g d g g Z W d.x.` ` _ _ i.i.i.i.u.s.^ E E W ( U Y Y <.C t r r n = - & & & - & & ; - ; # @ @ ;.=XCXCXCXCXMXNXMXMXNXBXNXDXDXDXDXlXAX,XN.N.:XwXMXBXNX9X9X9XnXnX8X-XbXtXtXyXyXXX7.) H ) ) 1.) Y ) 1.4.c.*XbXKXKXmXgXgXgXgXgXfXjXjXjXBXwXwXjX6XjXNXjXlXBXBXNXjXfXjXlXdXZXlX6XfXJX-X5 o O ; ; ; $ & & & & = w w c N N U U ( ( _ G D D ! S S Q ! Q S A ( G H 7.3.H G J ! i.Q f Q i.u.^ _ ( G B B c c N k w w w w w & & & & & & & & & & $ O % - 5 ;.#XGXnXfX8X5X5X5XdXdXDXDXDXDXNXBXlXlXzXzXlXlXlXlXlXlXxXhX<XdXjXlXBXCXNXCXmXmX-X#X4.%.%.M %.:.M.=X3X2X0X6X9XfXNXNXnXgXmXnXfXjXlXqXC.m.m.m.m.,.m.:XxXhXjXjXjXhXqX6X<X6XjXMX%XM * = = w k k n t N R ' K.I.{ { ) ( A Z Z a s a a a a F F A z C ;.;.*.m C B b v v u u s s S a a Z A W ( ( B B B B k k k n n w w - - & & & % % % - - = = n r 1.*XFXVXiX8XuX9XfXMXNXjXfXfXfX",
"Z.rXrXZ.V.V.:X,X>X6XdXfXfXNX-Xb.5 + O * * % - - - - w e c c c c N N U Y ] E.Q.{.{.{.E.{ { [ s.s.u.p.[ { 5.6.7.7.` J g.g.g.J _ _ _ { { { 6.6.3.3.) ) B N c c c x k w w w w = = - * 5 %XJXnXNXDXgXlXlXDXDXNXNXCXNXMXMXkXeXZ.B.B.Z.qXjXqX6XjXdX6XfXmXmXmXNXmXmXmXmXFXtX.Xc.7.8.V N V 1.7..XyXtXtXuX0XqXjXjXjXjXfXfX6XlXxX1XxXA.Z.m.m.m.S.A.rXeX4XwXuXmXmXCXVXCXMXCX+ + + # # ; ; ; & & & & & q q k I U Y 5.8.4.1.H G A Z a g g d d d d g f E ( l.z.3.H ` _ u.i.i.i.u.u.u.u.^ E W L R R R N t e r w w - & & & & & & & - O ; # @ ;.=XCXMXMXNXNXCXCXBXNXBXNXDXAXDXDXlXBX:XB.B.N.>XwXMXNXjX0X9XfXMXfX8XtXtXaXtXtXtX*Xc.4.1.H H H ;.1.3.=X-XnXnXDXKXDXKXmXgXgXgXfXfXhXxXkXqXjXjX6X6XMXlXlXBXBXBXlXjXlXlXzXZXlXBXAXJX=X6 O ; $ & & & & & & - w k c c N B U U L W G D D D D S S D ! D G ( z n M ;.;.m 7 C A S Q f f t.t.i.Q ! ( G B b b c c k k k k w q & & & & & & & & & - - - - > %..XGXuXdXdXdXdXfXlXNXDXDXDXBXNXNXlXlXBXlXlXlXlXzXBXZXlXhXhXhXhXlXlXNXNXCXMXMX8X&XM.b.9.b.b.v.B.N.Z.rXeXqXqXwXfXnXnXmXnXfX8XfXlXxXA.C.m.m.m.m.B.1XkXkXMXCXMXkXxXxXhXhXNXVX%XM - n k c c b N N R R ' P.P.[ [ ( W Z a s s s s a S S A A z 5 : 5 5 < : > n c b v l a a f f a a a Z A L ( b U B B b c c c n k w w w q q & - % $ - - - = n n 2.#XiXiX-X7XuX9XfXfXjXjXjXjXlX",
"rXrXrX:X:X:X,X6X>X6XjXnXfXnX;Xb.5 + + * * - = w w k c N B U U U U U U ' ] E.{.{.{.'.E.{ ` [ s.s.p.s.d.` 5.7. X Xl.` J g.p._ _ _ [ [ [ { { l.l.6.7.5.) U U U L c c k k k k w = - > n #XJXmXVXDXlXlXlXNXDXNXNXNXNXjXBXBX,XB.,.m.N.6XjXjXdXjXdX6XfXmXmXNXNXVXNXmXmXJXFXtX%Xv.4.1.*.1.4..XtXFXiX7X0X6XqXjXjXjXfXdXdX6XxXxXvXxXS.m.m.m.m.m.S.A.eXBXCXMXnXnXnXMXNXjXCX+ + % - - ; ; & 4 & & q w k c c U U ] 6.6.6.) G A Z a s d d d d g h g E b G 3.4.;.H G J _ u.i.i.u.u./.u.u.^ / W L U B N N N r e k w & q q q q & & - $ # * # ;.=XCXCXMXMXCXCXBXBXNXBXBXDXDXDXDXNXZX,XM.B.V.,XjXNXNXjXjXfX9XfXfXnX-XmXmXnXGXJXmX*X9.:.%.*.;.2.c..XnXNXnXfXgXgXnXgXmXgXlXgXlXlXxXxXjXjXjX>XC.V.6XlXlXzXBXBXzXlXzXzXcXzXlXSXJXGX%X6 + # - & & q q j k k k k c N B U U L b A W W D D S Z D D J G G B 5 5 6 6 6 5 5 5 F D i.Q f g t.i.Q ! ! W W W b b b c k j k k j q j q w w w q q q & - = = 5 *.#XJXnXnXfXfXNXNXNXDXNXNXNXNXNXNXBXlXlXlXlXlXlXzXZXZXzXzXzXxXhXhXlXNXjXMXMXnX9X=X&X#X#X#X$XM.B.B.B.Z.rX1XqXjX9XfXnXmXmXfXfXfXhXxXvXvXZ.Z.Z.Z.:XqXkXjXqXwXwXjXhXhXhXhXMXVX*XM = C B B U U U Y Y ] [ _.^ ^ W W Z a s s s s a S S D F z 5 @ # : : : 1 : = k b b v Z S Q f s a a Z v v b L ( U U B B N N N c c k k k w q - - % - - - = n n ;..XtXiX7XuXCXfXfXjXfXdXdXdXjX",
"1X<X:X:X:X4XwXqXqX0X0X5X8XuX=Xb.5 # + = - = n k N B U U ( ' ' ' ] ] ] ] I.E.'.'.I.{ { [ _ [ [ p.p.d.d.) 1.7.c.c.3.K J J p.p._ _ ^ ^ _ _ _ { { 6.'.6.] ) Y U U U c c N N N n n n n M #XGXnXNXNXlXlXlXNXDXNXNXNXNXjXBXBX,XB.,.m.B.6XjXjXjXlXjX6XfXfXmXmXNXVXVXNXNXCXMXuX7X&X#X#X.Xc.v.#X=X0X9XwXMXqXqXwXjXdXdXdXdXhXxXhXvXvXm.m.m.m.h.h.m.S.A.eXBXCXCXMXMXjXdXjXMX+ % % - - = - & k j j k c c B U U T ] { ] ) A Z a a s p d d d d g a E b z C *.%.M 6 5 C G _ p.u.u.u.u.i.i.u.u.^ W L L c N N c c k k k w q q q q q w & - = : ;.%XCXMXCXCXCXCXCXBXNXBXBXDXDXDXDXlXBXhX,X,X6X6XjXNXNXNXNXjXfX9XnXMX9XfXMXNXAXGX8X%Xb.b.9.9.9.9.v.=X7X9XMXNXNXNXNXgXNXDXlXlXlXlXlXlXlXjX6XC.n.n.>XBXlXlXlXlXlXzXzXZXzXzXlXAXCXmX*X5 # * - - w j k k k k k c c B B B U L A A A ! ! ! A A J J G B 5 5 > 6 6 , , 6 , 5 4 A ! Q f f f f f Q Q ! / E E E b c c c k k j j c c k k w w q q & - = n 5 *.#XGXuXnXnXNXNXNXNXNXNXNXNXNXNXNXBXBXlXjXjXjXjXlXlXzXzXcXZXzXhXdXjXNXjXjX9X9X3X&X&X&X&X$XM.B.B.B.N.N.N.Z.,XjXNXMXnXfXmXmXnXfXhXxXxXxXxXxXxXxXhXkXkXqXMXCXMXjXxXjXlXlXnXmX*XM n V U B ( ( Y ) ) ' [ ^ ^ ! E Z Z a s s Q S Z S A F z 4 5 : < , 6 , < < * = n z b Z Z E a a a a Z v v v L L U U U B B B c c c c k k j w - - - - - - = n > *.c.=XiXuXuXCX6XdXdXdXdXdXhXlX",
"qXeX:X&X:X4XqX4XMX0X0X9X8XnX=Xv.6 @ # = = 5 n n B U ) ] { I.I.L.I.E.E.E.E.{ { { _ _ _ [ [ [ [ _ _ ` K M M *.:.>.M K K J a.p.s.! ! ! ! ! ! _ _ ` { 6.6.{ ] ) Y Y U U U U U U B V n M *XGXCXCXjXNXlXDXDXNXBXBXNXNXjXNXBXqXV.B.B.B.dXBXNXjXCXjX9XjXfXfXnXNXNXNXVXCXjXqX6X6X0X9XuXuX$XM.B.M.&X,XeXkXkXwXqX6X6X6XdXdXhXxXvXxXxXm.m.S.m.h.h.h.m.C.1XzXjXBXBXNXjXhXxXCX+ % - = k k k k k c c U U U U Y Y ] 6.{ ' W E a s p p d d d d g Z v b B n 6 6 6 #.6 5 n B G _ s.u.u.u.i.i.i./././ W L I L L c c c c k k c c k q w k - - 5 > %.%X9XfXNXBXBXBXBXBXBXBXBXDXDXDXDXlXlXkXlXlXdX<X6XjXjXNXNXjXfXfXnXNXjX1XqXzXBX,XV.M.&X&X2X&Xb.n.b.N.N.&X3XfXNXDXNXgXBXNXNXlXlXjXjXxXxXxX6XC.n.B.1XZXlXlXlXlXlXcXlXlXlXZXZXCXMXGX=XM * - w w w k k c c c c c B B B b A A A W ! ! Q E A G G G C 5 5 < } ....} } } } , 5 4 F D S Q f f f f f / Q Q Q E W L b b x x x x c c c k k e q w w = = > > %.#XJXuXnXMXNXVXVXNXNXNXNXNXNXBXNXNXDXlXlXjXhXhXlXlXlXcXZXDXBXjXfXjXlXNXNXwX4X2X:X2X2X=X&XM.M.N.N.N.N.B.N.Z.1XjXNXMXfXmXmXNXNXjXhXkXzXxXzXzXzXzXBXkXjXCXMXwXwXwXjXjXNXJXJX*XV n Y B U ( ( ( ) ) ( ^ ! Q Q Z a u s s s Q Q A A A z 5 : : < < } .., < < : : * 5 z b A Z Z a a a a a u v b L L U ( U B B b c c c c c x q - - - = r = > > 5 %.0.$XiXuXuX8X6X6XdXhXjXlXzXZX",
"wX6X4X2X4XpXMXMXGXCXCXpXuX7X$X9.6 @ @ > > n C N Y ) ] { I.I.I.I.Q.'.[.'.I.{ _ _ _ _ [ d.d.d.[ _ ` K H M M %.%.%.7 8 K K ` d.s.! ^ Q Q Q ! ! ! _ _ { 6.6.6.] ] ] ' ' ' Y U U Y Y n *.*XGXJXJXBXZXBXDXDXDXBXNXCXCXdXNXZXlX1X:XV.C.jXDXBXlXNXMXfXNXfXfXnXMXMXMXMXjXqX1X<X,XqXqXqX0X:X&XB.B.N.:X1XeXeXqXqX6X6X6XdXdXvXxXxXxXxXm.m.m.m.m.m.h.m.C.1XzXhXjXCXBXjXjXhXMX@ - = k k k k k b B U ( ] ] ] ] ) ] ] ' L v h h p d d d p p d h b n C M 6 ....} ....6 6 n C G _ _ u.u.i.i.i.i./ / / E L L L L L c x x x c c c k k k = = 5 > %.$X8XfXMXBXAXAXAXDXDXDXNXBXDXDXDXlXlXzXZXlX6X>X5XlXjXlXNXNXfXfXfXjXxX<X<XxXxXZ.N.V.1XkXBXkX&XB.n.B.B.V.&X>X6XjXjXfXBXNXlXlXjXjXjXjXhXxXkX<XV.:XzXZXlXlXlXlXlXcXBXlXlXSXSXAXVXIXaX;.> w w w k k c c c c c b B B b A A A A ! ! Q Q E W G B n 5 7 6 ..| | | | | } } , : 5 4 z D Q Q f f g g g f f f Q W W L b b c c b c c c c c x e e w w = = 5 ;.$XIXJXJXJXJXJXVXnXfXmXmXmXNXNXNXNXNXBXBXlXlXjXlXlXlXlXDXDXBXlXjXjXjXjXwX6X>X2X2X2X2X&X2X2X:XN.N.N.Z.N.N.N.V.,XjXNXNXnXmXNXNXlXlXzXcXzXzXzXlXNXjXNXjXqXqXwXwXMXCXBXAXJXFX*XV n B B U T ( ( ) ( ( ! Q a a u u u s s s S A A G z 5 > < < < < < < < < < < < : 5 C ) _ _ W Z a a a a a Z A b L L W ( L L L L c c c c c x = - = k n = > > m *.0.#XiXmXmXmXMXjXlXjXjXdXdXjX",
"wXwXwX0XwXpXpX0X0X2X=X$Xv.0.9.%.6 : @ > 5 n C B ) ) ] { E.E.'.'.[.'.'.I.{ [ _ _ _ p.s.s.d.{ [ ` H M M %.&.&.o.o.o.7 7 M K _ [ ^ i.i.i.i.u.! ! ! _ ` { { { 5.5.6.] ] ] T R U R Y V V 0.*XuXCXCXAXBXDXAXAXAXBXVXNXjXBXDXlXlXxXhX6XlXDXNXNXNXgXfXCXfXjXMXNXMXjX9X6X1X1X1X1XqXeX,X,XeX,XZ.N.B.N.Z.Z.,X,X1X6X6XdXdXdX<XxXxXxXcXC.m.m.h.h.h.@.m.C.<XhXjXjXMXMXCXjX6X-X* = w k N N B B B U U ) ] ] ] ] ) ( ( L E h h d d d d d d s s Z n 6 6 ......X.} ......6 6 5 n B _ [ s.u.i.i.i.f / ^ ^ W L b b b b b b b I c c c c c w = 5 > %.#XmXNXCXDXAXAXAXAXDXBXBXBXDXDXDXlXZXcXZXlXdX>X6XlXfXjXNXNXmXfXgXdXqX1X1X1XrXZ.Z.:XeXxXBXBXqXV.B.n.N.V.:X>X6XNXBXNXNXlXjXjXfXdXdXdXhXxXzXxX<XlXZXlXlXlXlXlXBXZXDXBXBXAXAXJXGXVX=X*.r n n c c c c c c c c B B B A A D A D D Q Q Q ! ( G C 5 : 7 ..X.| | | | | } } } , 7 7 C G ! / f g F.g g g g g f E W ~ L L b I L b b b c c c c c w w r n m *. XiXuXmXGXGXGXVXnXuXnXnXnXnXNXNXNXNXNXlXlXfXlXlXlXlXlXlXlXNXNXNXlXjX6X4X>X:X>X:X:X:X&X>XqXeXZ.N.B.N.Z.Z.V.V.Z.,XqXjXnXmXNXNXNXlXBXzXZXZXBXNXNXjXfXMXMXBXCXCXMX9X7X-X.Xv.7.C B U U ' T ' ' ] ` _ D S u s u u s a g f D J G H M m ....} } | | < < < < } } , m *.1.6.I.[ W E Z Z a a Z Z A b b W W ( ( L L L L I I c c k = = = = = > 5 m M :.0.#X$X=X-X8X9X9X9X9X9X8X9X",
"CXCXCXpX0X=X$XM.9.9.,.%.6 6 #.6 #.: : , n m V V ) ) ] { E.'.'.[.'.'.I.] ( _ [ d.p.p.s.s.[ ` ` ) ;.6 6 %.&.&.X.&.o.&.o.7 C G _ ^ i.i.i.u.u.Q Q ! _ _ _ ` { 5.5.5.I.I.] ] R R R Y Y n *.:.M.2X3XCXAXAXAXAXAXAXAXAXCXAXAXBXlXZXZXcXNXAXNXgXNXgXfXNXMXMXNXjXjX9X6X4X<X1XxXkXkXkXwXwXkXqX:XN.B.B.N.N.Z.:X,XqXhXhXhXvXhXxXxXvXzXZ.Z.C.S.m.m.m.m.Z.eXBXCXMXuXMXCXpX&X#X# - w k N B U U U U U ( ] ] ] { ) ( b v E g g d d d d g g a Z B 6 7 ..X...X.X.| | X.$.#..., m M ) [ [ u.i.i./././ ^ ^ W L b b b I I I I L I c c c c w w n 5 *.#XJXJXAXAXVXVXVXVXAXVXNXNXDXDXDXDXlXlXlXlXlXdXdXfXfXjXNXNXNXfXfX6X<X1X1XZ.Z.Z.1X1XzXxXxXzXzX:XB.,.B.B.N.V.:XqXjX6XjXjXjXjXdXdXdXdXlXlXlXxX6XlXBX6XBXBXNXBXDXZXDXDXBXjXMXGXuX=X Xn n n N c c c c L L b B B A A A A D D Z Z E Q ^ ^ A G V M 6 ..| | | | | | | } } $.X.X.&.%.H ( ! / J.F.F.F.g g d s E W W E L I I L I b b c c c c c k r n n n 5 %.2.v.#X*X-XuXFXFXmXnXmXmXnXnXmXNXNXgXgXdXdXfXjXlXBXlXlXfXlXBXBXNXxX9X4X,X>X4X,X:X&XV.:XeXeXrXZ.N.N.Z.Z.Z.Z.Z.:X,X6XBXVXNXCXNXlXBXBXNXMXMXMXMXnXMXCXMXpXwX2XM.9.>.M 6 n C C Y ] U ) ' ' ] ] { _ ! D a a a a a f Q Q _ ` 3.;.%.#.$.$.} X.X...} } } } | | } ..#.<.5.E.{ [ W E Z a a Z Z Z Z A W W W ( W L L L L L I c c w = = = * > n , 5 6 M %.%.:.9.M.#X&X-XiXnXVXVX",
"GXCX0X%Xv.,.%...6 6 6 6 6 6 , , 6 , , , m M V Y 1.1.5.6.E.'.'.'.'.{ ' [ { { [ _ _ p.p.s.` ) H V 6 ..&.&.&.$.$.X.o.o.o.%.M C ) { ^ i.i.i.u.i.Q Q ^ ! ( ( { 6.6.6.{ L.L.] ] ] Y Y Y C n > 6 %.,.9.%X;XnXJXJXJXJXGXAXAXAXSXSXDXlXgX5XNXJXAXNXmXMXMXCXNXjXwX9X6X6X,X:XhXzXqX1XqXkXkXeXqXeX:XN.B.B.B.N.V.:X,XqXqXqXhXxXhX1X1X<X1XvXxXxXA.A.Z.:XqXpXMXCXpXiX=X$Xv.,.%.= w n N B U U U U U U ' { { ` ( z z A E E g g g d d g / [ ` 3.;.o.X.X.| | | | | } } ..} } } #.#.7.6.` ^ ! ^ u.u.^ ^ ^ [ W b z x L L L L L I c c c w k n n m *.4.b.v.%X8XmXVXVXVXJXAXVXNXVXJXAXNXAXDXDXDXlXdXjXDXlXlXjXlXlXNXNXlXqX:XV.V.:XhXkXzXBXkXkXBXZXlX>XC.B.B.B.N.:X,X,X,XkXjX6X6XdXdXdXdXlXlXlXjXlXBXBXfXMXjXMXNXJXJXVXNX;X&Xv.9.>.%.m m C N N c c c c c b c b b A A D A D D D ! E ! / W ` H M m ....| | X.X...X...#.#.$.$.-.&.&.%.H ( E / g g g g g g f Q / / W E I I L L L L L c c c c w n n n r > > > > 5 M ;.4.v.$X=XnXnXmXmXKXVXmXnXmXgXdXfXdXfXlXNXfXNXBXNXjXjX6X6X4X4XqXwX,X&X&X:X:X:X,XqXeX1XZ.B.B.V.:XZ.V.V.Z.:XCXAXBXMXNXAXAXNXBXVXNXVXCXmXuX7X2X$X9.&.7 : : > 5 C V ) ) Y ) ] ] ] ] ( ( _ _ p.F F u Z E E / ! ` 3.;.%.#.$.-.$.$.$.#...} , } ..X.X.| } , M 1.8.E.'.(._ Z Z a a ! W W W W W W ' W P P L L L I c c k w = w r r > > > > > > 5 5 7 %.%.:.9.v.$XiXuX",
"-X$Xv.:.%.6 6 6 6 > , > > > : > < , , m m *.<.<.5.8.6.W.].l.l.6.{ [ ` { { { { [ s.s.s.a.` H V m ..X.X.$.$.&.$.$.X.o.o.%.%.M V { ! i.i.i.u.i./ Q ! ! _ _ ` ` 3.5.{ I.{ ] ] ] ] ) 5.Y n > @ : 7 7 %.>.9.M.-XGXJXIXJXJXVXVXDXNXlXfXmXNXVXmXmXCXBXBXNXNXwX9XwXqX6X6X>X6X6X6X6XjXjXqX4X4X4X4X>X&XV.V.Z.Z.Z.Z.<X1X<X<X<X<XhXkXkXhX1X,XeXeXeXkXCXCXpXuX=X#X0.:.#.6 6 6 > k n N B Y R U ) ( ' ] { { _ _ A F Z E E g g g g g / [ 6.4.9.,.,.,.-.-.-.$.X.} , } #.e.} e.e.#.*.1.3.{ [ s.^ / ^ ^ ^ [ ( ( b b ( L L L L L L L U B N N C C V ;.M %.>.9.v.%X-XnXVXVXGXVXVXGXJXJXnXfXNXAXBXCXNXNXNXNXNXNXNXlXjXjX6X,X>X,XdXlXzXzXNXlXNXBXDXNXdX6X>XV.N.N.V.:X,XqXkXjXqX6X6X6X6XdXNXNXjXdXNXAXAXBXHXJXAXVXnX=XM.b.o...6 7 > 5 n n C N N N c L L L b b b A A A D D D D D D W W W ( G H M 6 } | | X.X.....#.#.#.#.$.$.-.-.$.&.*.) ( ~ J.J.F.g g f Q / / / E E L L L L L U L L c c c k n n w = * * : @ : : : > 5 m M 4.v.=XmXJXJXVXmXVXnX8X8XnXBXAXNXjXNXNXdX6X6X6X6X6X6XqXwX,X&XV.&X&X>X,X4XqX1XrXZ.N.V.Z.Z.Z.Z.Z.:X&X9XAXAXNXNXVXAXnXVXGXJXGXiX$Xv.>.%.6 7 : > 5 n C C H ) ) ) ) ] Y ] ( ( _ _ _ _ G D ! ! ! ^ [ { 3.;.%.%.$.$.$.$.$.e., < : < , } ..X...} } m *.<.5.6.'.d._ D S S ! A W W W W W _ W ~ P P L L I I c c c k n n r > > : : : : : : > > > 5 m *.:.4.0.",
"*.%.m 6 > : : : : : @ @ % % % @ : > , m *.<.<.Y 5.7.7.W.l.6.3.` ` ` ` { { { { [ [ p.p.` 1.;.=.&.-.O.X.$.$.&.$.$.X.X.X.....m *.) ! ^ ^ ^ ^ ^ ^ ^ ! ^ _ _ ( ) ) 3.E.E.I.I.L.L.] ] 5.Y N r > : : : # 1 1 : 6 %.;.;.v.#X=XnXJXJXAXNXmXVXAXAXAXAXBXNXdX9X6X6XqXqXqX6X5X;X;X5XfXjX6X4X4X4XqXqX6X3X>X>X:XV.N.N.Z.:X:XZ.<X,X6XqXjXjXMXMXAXwX&XM.0.,.=.#.6 , , > > > 6 m n n N V Y Y ) ] ' ] { ] [ _ _ _ D A Z E E E E / / P.(.l.4.9.,.w.w.w.w.,.,.&.} < < , e.#.#.$.e.} , *.1.3.{ d.[ ^ ^ [ [ [ [ ` _ ( ( ( U ( T L U U U U B n n C M M 5 : : # : 5 6 6 %.%.2.b.#X=XFXIXJXBXMXCXCXCXBXAXNXNXNXNXjXjXdX6X>X6XdXNXNXBXNXNXNXBXNXNXNXNXNXBXlXhX1X:XV.V.:X,X,X6XqX6X6X6XjXjX9XjXMXCXAXJXCXnX,.>.%.7 7 7 : 1 7 : : > 5 m C V N B N B B U L L B b G G A A A A ! D D A W ( ( ( V M 6 6 ..X.$.$...6 6 n n r m #.$.-.-.O.$.&.*.Y ' K.G.J./ / Q ^ / / E E E W ~ L L L U U U c c c c k k = - % * @ > > > @ @ @ * > * @ : : 5 M 4.b.%X8XVXVX8XfXmXCXjXjXjX<X>X,X6X6XwXwXwXwX4X:X&X&X:X,X6X,X,X<XqXxX:XV.N.Z.<X<XZ.:XV.&X2X6XCXAXBXCX%Xb.>.7 : : : : : : : # @ > 5 n C V Y ) Y Y ) ) ) ) ( ( A A b G _ { { _ _ [ { 5.;.6 ..&.$. .e.$.e.< + + + + : > , } ..#.#.t m m 1.3.l.'.d._ _ ! ! D D ! ! W W W W ~ P P L L L I c c c N N n n > > > * @ @ @ @ @ * * % * > > > n ",
": : : : : @ @ + @ @ @ @ + # % % : , m V *.<.<.Y 1.5.5.6.3.3.3.` ` ` ` { { { { [ ! ! _ ` ;.:.-.-.-.-.-.$.$.#.#.#.} ..X.....#.%.V ( ! ^ ^ ^ ^ ^ ^ u.[ _ ( G G H ` ` ] ' ' T U U U B N n w = = * > 5 > @ @ @ > > 5 6 %.4.v.=XnXVXJXnXBXJXSXAXAXNXfX6X6X6X6XqXqXqX9X5X&X&X5X9X3X2X2X0X0X4X4X3X3X6XqX:XZ.V.V.Z.Z.V.V.,X,X4X9X9XMXnXpX&Xv.:.#., : : @ + : > > > > : > C C V Y Y 1.] ] ) ] ] ( ( W _ _ p.u.! E E / ~ P.(.'.].7.9.,.-.w.w.w.w.,.-.#.> * > > t e.#.$.$.} #.#.*.1.` { I.{ [ [ [ [ { d.` ` ( ( ( ( ( U U U b B N k k C n 5 m m 6 5 5 5 5 5 : : : 6 %.:.v.=XJXGXGXGXGXAXAXAXMXNXNXlXjX6X,X>X>X6XMXCXNXNXNXNXNXNXNXmXmXmXmXlXlXzXzXxX1XV.V.V.:X,XqXqX6X>X6X6X9XMXVXGXCX7XM.b.6 7 : # # : : 5 5 5 > 5 5 n C N N N N c L L L L G G G ( _ D D D ! A A _ ( ( ( B M 6 o.#.$.$.$.$.6 5 4 4 = = > t $.$.-.O.X.X.%.V ) ' G.G.~ ^ / / Q Q f E E W W W L L U U U b c c c k k k = - * * # # @ * * = > > = > > @ @ 5 6 M %.b.-XmXmXnXnXfX6XqXqX,X:X,XqXqXjXjXwXwXwX4X;X&X>X6XqX,X>X,XhXkXqXV.B.V.<X:X:X,X:X&XV.&X6X5X&XM.>.%.7 : : : : : : : : : * = w r B V Y Y Y Y ) ) 5.) ( W A b b B { 6.d._ ( { 5.<.%.o.o.$.-.$.$.$., % O & - % % + : < , #.#...6 6 m *.3.z.l.d.p.p._ D D ! ! ! W W W W P P L L L L c c c N B N n n > > > * * * * * = = * * * * * * ",
"6 > : @ + @ @ * * @ * % % - - * > > m V <.1.1.5.5.5.6.3.3.` 3.x.a.a.` ` { 6.I.[ [ [ _ ) ;.=.-.-.-.-.-.&.#.m t t t #.$.$.#.#.#.m ) ' [ ^ ^ ! ^ ^ ^ ^ ! _ G G J ) ] ] [ ' ' U U U U U N n w - - * - = = = * * * > > > 5 6 =.9.#X=X9XCXAXBXMXMXNXNX6X6X>X6X6XjXhXjX9X-X3X9X0X2X:X2X6X6X4X4X3X3X9XqXeX1X:XZ.V.V.Z.:X:X6XMXCXmX=X#X0.%.6 6 > > > > > > > > > @ @ : > V V V Y Y 1.5.] ] ] [ W A _ p.s.s.s.s.! W ( I.'.].z.4.4.,.-.w.w.w.,.,.:.#.> > = - r r t e.$.$.$.$.$.#.V 1.6.'.E.{ { { d.d.d.a._ _ ( ( ` ' ( U U b B N k n C n = # @ * = > > > > m 5 > > > > 6 =.v.$XiXJXJXGXCXMXMXCXBXlXqX,X:X&X3X9XMXCXCXMXMXNXNXmXfXnXNXNXgXfXdXxXcXzXxX<XV.B.N.V.>X,X,X>X>X;XCXmX7X&Xv.4.%.: : : : : > : @ @ @ @ > 5 n n N N N N c b U L L L A G J _ _ ! ! E W W ( ( ) ) V C 6 o.&.-.-.=.#.m n k j j k = = r #.$.X.X.X.X.X.#.<.R T P ~ ~ W Z E f f E / W W ( U U U U U U U B c N N N n n = = - * * * * * - * O + * 5 5 > # o : 7 :.v.-XGXVX7X>X<X1X<X,X6XqXjXjXwX0X0X0X9X3X&X>X6X6X6X6X6XjXjXjXV.N.V.:X:X:X1X:X:X:X&Xb.,.%.6 1 1 @ : 5 5 : @ : : @ * = n n N Y Y Y ) ) ) 1.1.3.` A D Z Z ( ) E.'.I.[ ] 6.5.*...o.o.X.$.-.$.t * ; . 4 k & $ O + : , 6 ....6 6 5 m ;.7.].l.{ d.p.! D ! ! ! ! ! W W ~ P P T T L L L I c N N N n n n > > = = - - - * - * * - * * ",
": : : : @ @ # # * * * - - - = = = n C V 1.5.6.6.].].l.6.` ` ` x.a.a.` ) ` 6.I.' [ [ _ ) ;.-.-.O.-.-.-.=.m n r r t t #.$.$.$.#.m Y ' ' ' W W ^ ^ E ! _ _ ` ` J H { I.'.[.'.E.E.E.E.E.] Y B n k n n n C C n > > > r > : @ : 6 %.>.v.&XMXBXBXCXMXfX6X6X>X6X6XjXhXdX9X9X9X9X4X:X:X:X:X:X4XwXwX0X9X4XeXeXrXZ.N.N.Z.:X,X4X0X7X$X0.%.> > : @ @ @ @ + + + + @ : > > m M M V V Y Y ) ] ] { { _ W ! p.f.f.f.s.s._ ( { E.].].7.4.,.,.w.@.w.w.,.:.#.5 = w k w w w > , #.$.$.$.$.#.#.*.3.6.6.E.I.d.d.d.d.p._ ` ` ` { { ' ( ' ' ( U B N C n 5 n n > = * * * * * + % > > > > > 6 %.9.#X=X7XuXMXMXNXkXxX1X:X:X:XwXMXMXCXNXMXCXNXNXfXfXNXNXDXNXfXdXhXhXhXxXxX,XV.B.N.V.:X,X6X6X3X7X#X9.>.6 : : : : : > > > > > > 5 5 n n n N N B B B U U U U ( ( A A J _ ! ! ! W W W ( ) 3.1.V M ..o.&.-.-.$.e.t N k j x j w w r , ....X.X.O.X.$.=.Y R T ' ' W v E f f E E W W ( ' ) ] ] ] ) ) Y B B B B C n n = n n 5 > > = - - = * # # @ @ @ @ : : 5 6 :.v.#X%XV.Z.rX:X<X1XqXwXqX0X6X7X3X7X7X&X&X>X6X6X6XjXjXqXjX:XV.V.Z.Z.<XeXeX:XB.&...7 : 1 6 5 @ # # @ : : @ * > > n N Y Y ) ) 1.5.1.1.1.1.` G F Z Z Z ( E.W.E.{ ' ] 5.<.#...o.o.X.X.$.#.: - .   j j & $ $ % * > > , 6 ....7 7 %.4.z.z.l.l.a._ D ! ! ! ! ^ W W ' ( ' T T T T T U N N N N n n n r > = = = = % % % % % % % ; ",
"o + @ : > * # % * - - = = w k k k C V ) 5.6.W.'.].].'.6.` K K a.g.a.x.` ) ] I.' ' ' ( 1.:.-.-.-.O.-.&.%.C n c c N t t #.$.X...#.Y ' ' ' ( W ^ ^ / ^ s.d.a.` ` ` ` { '.[.[.'.Q.E.!.E.] Y B N k n - = w w w w r r * > > > : : : : ..>.M.&X3X9X4X>X6X6X6X6X6XhXdXdX6XfX9X3X:X:X:X:X:X:XeXeXqX0X4X,XeX1XrXZ.Z.Z.V.V.:XN.b.:.*.m : + * @ + + + * > > @ > > 5 6 6 6 m *.*.1.1.8.5.5.5.E.{ _ W _ f.f.p.p.s.s._ { ].].7.7.4.,.,.,.w.@.w.,.-...> 5 k j j q e w = > , $.$.$.$.$.#.V 1.6.6.E.E.d.d.a.p.p.p.` ` ` { { ] { { { ] ( U B N n n n r w = - * > > > > > r r > > > : : 6 #.:.9.M.&X&X:X,X,X:X:X<XqXkXNXNXjXjXNXNXBXjXjXlXlXNXNXNXlXdXlXdXdXxXkXhX1XV.N.B.N.V.&XC.M.9.*.6 : # + : > @ @ % % * > n m 5 5 n n n N N N U U U ( ( ( ( ( F A D D ! ! ! ! W ( ( ) 1.1.*.%.o.o.-.-.$.e.t r c x i x x w w = * , ..X.X.O.O.X.=.V R T ' ' ( W E f f Q E W ( ' ] ] ] ] ] ] ] ] U B B B B N n 5 = - * - - = = - - * > > = @ + + @ @ : : : 7 >.b.N.Z.Z.Z.Z.,X1XqXwXwX0X7X-X7X7X=X;X6XjXjXdXjXdX6X6X<X:X:X:X<X1XeXMX:X,.1 1 < : 1 # # # : > 5 > > > > n C V Y Y ) 5.5.5.5.8.8.2.1.K F l a a Z ( E.E.{ ] ' ) ) *.#.o.o.X.X.X..., + &   i v v q $ $ $ $ % > : 7 7 ....7 6 ;.7.z.].l.d.p.D D ! ! ! _ [ [ ' ' K.L.L.K.L.' T U U N N n n n r w = = = = - * * * % # + ; ",
"> @ + + + % - = = = w k k k k k z B ) 6.E.W.W.'.'.'.l.` J J J g.K x.l.` ( ] L.K.' [ ) ;.:.-.-.-.-.&.#.m n N N N N r r #.#.....=.V Y ) ] ' ~ ~ ^ /._._.s._ J ` a.` { [.{.[.[.Q.Q.Q.!.E.] U B N B N n w w w n r w r r > > @ @ @ : 1 < 6 %.9.M.&X3X9X6X6X6X6XdXdX6X3X9X3X&X&X:X:XV.:X:X,X4X4X2X3X2XqX1XeXeXxX1X:XN.b.,.%.6 : : @ + @ @ # @ @ @ @ + > > > 5 n C V V 2.8.7.7.W.W.W.W.E.{ _ ! ! s.p.D p.p._ ` '.XX X0.9.,.,.,.w.w.@.w.,.%.> - k b b x x x w w * , #.$.$.$.$.#.m *.8.W.E.6.d.d.p.p.p.f.a.` ( ( ] ] { E.] ) U ( B c k N k n n n n r w r * > > * % * > > > : : > 6 #.&.:.v.M.N.V.:X<X1XzXkXNXjXjXjXjXNXNXjXlXNXjXdXdXjXBXdXlXlXhXhXzXzXhXkX:XB.b.n.,.&.o.6 : : : : : @ : : > > n r > = - n n n n N B R Y U U U ( ( ( ( ( F F A D ! ! ! ^ ~ ' ] ) 1.*.=.&.X.O.-.$.$.t t r c x i x x j w w = n #.X.X.O.X.X.#.*.Y ] ' ' ' ' E f Q Q Q E ^ [ { { ] ] ] ] ] ] ) U B B b z k k 5 = - - w k k k - = = * + + # @ @ + + : : : 6 ,.N.Z.Z.V.V.:X,X,XkXMXMX3X-X7X7X-X5XjXCXNXfX9X6X6X6X6X6X>X,X1XqX,X,X:Xb.7 1 1 : 1 : : @ @ : > > > > n n C Y Y ) ) 5.5.6.7.8.5.1.H H F u u u u W ] L.] [ { ] <.=.$.O.X.X.X.$., : % .   v ! W x   $ . $ $ * > 7 ....o.< , %.4.7.W.l.d.p.D D ! ! ! ! [ [ [ [ P.I.L.L.L.K.' T T U N N N n k k k k k k - - = = - - - # ",
"@ @ @ # * - = - w w k k c c c B ( ` 6.'.[.W.W.!.W.].6.` a.g.D J 3.3.{ [ H.H.H.G.] ] ;.=.-.-.-.-.=.N w N B c k c N N r > , #.&.$.$.#.V Y L.P.H.J.H./._.s.d.a.a.a.` { '.{.{.[.[.{.Q.!.Q.L.] ) U U B B c k k = - - r r r r > > > > : , : : 6 o.,.4X>X,XqXxXjXdX5X>X6X4X2X&X&X&X:X,X:X:X4X4X4X3X2X0X4XqXqX4XeXwX2XM.&.1 7 : : : @ + # # * * @ @ @ * = > n n N B Y 1.W.W.].'.[.'.6.6.{.'._ D p.s.p.p.f.Z ! |.}.XX.X0.,.-.,.w.,.,.w.,.%.n w B x j L x 9 x c k w > n m $.$.$.$.$.#.*.7.6.{ { [ _ d.l.a.a.a._ _ _ { { I.] ] ] ] T U b b c c c c k k k k = = = = * * * * > + * > : : 6 ..#.v.B.B.qXAXqXqXjXMXNXMX9X9XjXNXMXMXjXfXfXfXfXdXfXgXfXlXlXlXlXNXBXkX:XB.,.o.< < : @ # # # @ : > > > > = = = = w k k N B U U U U T T T ' ( W W A D D D A A W ~ ~ T.K.' ) *.%.o.o.O.O.$.$.m r w N x 9 i W L j & w w = , #.X.X.X.X.o.m V ) ] ' T K./ f f Q Q a E ^ [ { { ] ] ' ' ' ' ' ( U b b z k k k 4 4 = = = = = = - - = * * # + # 5 o 1 # >.%XqXrXV.B.B.N.Z.:XeXqXqX9X9X8X7X-XnXMXMXMXMXjXjX9X3X>X:X,X1X1X1X6X6XfX&X>.: o + : + @ > * > > n n n N C V ) ) ] ] 5.5.6.3.3.3.1.H A Z u u 2 l [ ^ P.P.T.L.1.*.&.X.O.X.$.&.m > - $ & u Z ^ W v j . q & $ % > m .., | o.....4. X].'.d.s.p.p.p.p.p.u.! ^ [ P.P.Y.I.I.I.K.K.' ' T U U L c c c k j k j - - & - - - - ; ",
"@ @ @ % - = w w w k c c c L U ( { { E.[.{.Q.Q.{.].].l.` a.g.g.J ` ` [ P.H.J.J.H.] 1.=.&.-.-.-.=.Y L c N N k k c c c k w r #.$.$.$.$.#.Y ] T.J.J.J././.s.f.d.a.a.` { { '.[.[.Q.Q.Q.!.Q.I.] ] ( ' U U U B N k k k w w w w > = * * * * > : 1 >.$X&X&X:X6XhXhX6X>X>X0X4X4X:X:X:X:X,X:X>X6X6X4X3X0X0X3X0X0X4X0XwX4X&X,.1 : 1 : @ @ + # * = * * * * = n n C V Y ) ] 6.W.].[.[.[.'.'.6.}.l._ ! u.u.u.s.f.Z [ |.}.XX.X0.,.,.w.w.,.,.,.:.C N w b x x ' I q e e w w w n n #.$.X.X.$.$.=.2.7.6.d.[ [ d.l.a.a.p._ _ _ { [ ] ] L.L.' T U L L L L L c c k k k k 5 = = - - - - * * * > @ : < < ..0.M.B.:XwXwXBX9X9XnXMXMXMXMXMXMXMXjXfXfXfXfXnXmXmXMXMXlXlXlXlXjXkXwXN.,.< 1 < # # @ @ : > > > > > = = = 4 k k k c B B U R R T ' ' ' ' ' ( W W D D D A W W ^ G.H.G.K.' *.%.o.O.O.-.$.#.n w w c x x v W W c q w q - r m #.X.X.X.X...M ) ] ' K.K.^ / E Q Q a E ! [ [ [ ] ' ' ' ' ' ' ' ( U b b b k k k k k k w = 5 = = - - - * % # + @ o 5 >..XuX4X,X:XV.N.N.N.Z.1X1XjXjXwX8X7X-XnXnXMXMXMXMXwXwX4X>X>X6XqXqX1X6XjXnX9X%X9.6 : : : > > r r n n N B B B Y ) ) ] 5.] 5.5.5.3.1.) B b Z u l 4 F s.P.P.P.T.L.<.=.o.O.O.O.-.=.C w w $   j Z ! Z Z v     $ $ $ = m m } | ......4. X].'.'.d.s.p.s.s.p.i.Q u.s._._.Y.Y.Y.K.K.K.K.' ' P P P L L b c c k j k j & & - = - - ",
"# * * * - w k k k c c B U ( ] { 6.'.'.[.Q.Q.{.{.W.'.` J p.p.g.J ` ` [ H.H.J.H.P.] *.=.-.-.,.-.=.N L B c k c N N c c k w r m #.$.$.$.#.V T P.H.J.J.J.u.s.f.d.d.d.` { { '.[.[.Q.!.Q.Q.!.E.I.] ] ] ] ] ] ) V B N N k k w w w - - * * * > + : M.pXV.V.V.:X<XhX6X5X>XqX4X4X:X:X:X,X1X:X,X6X9X0X0X0X0X3X9XwX0X0XwXwX4XM.o., o + + : @ 5 5 5 = = = > n C C Y ) ] 5.E.W.W.{.}.}.[.'.].].}.{ ! u.u.i.i.u.s.! _.}.}.XX.X9.,.w.w.w.w.,.-.o.C N k c x v ' ~ v q q w k n w r #.$.$.X.$...#.*.7.'.(.d.s.d.d.d.a.p.p._ [ [ { ] L.L.L.' ' T L L L L L L c c c k k k k k = = = - % = * + > > : 1 #.M.$XM.sX:X,XBXjXjXjXjXMXMXMXjXNXjXfXdXdXdXfXjXmXmXjXMXlXlXlXlXkXMXBXwXB...1 1 # @ @ @ @ > > * > > = 5 k k k k c c b U R T T T ' T ' [ ' ( W A D D A D W W ~ G.G.G.' Y *.&.o.O.O.-.#.m w w e x c v E E W W c w w w w m #.X.X.X.o...%.1.] ' K.K.H./ / / f a a Q ^ [ [ ] ' ' ' ' ' ' ' ' ( U B B b N N k k k k k k = = - - - - * * O o # 4..XKXJX6X,X:X:XZ.Z.Z.Z.Z.:X,XqXwX9X3X3XfXfXMXMXMXjXjXjX4X>X>X6XqXqXqX6XjXfXnXMX=X9.7 1 : > r m n n n N V V Y ) ] ] 5.5.5.5.5.5.3.5.H B v Z u l l A (.P.P.T.L.!.<.=.X.O.O.O.-.=.n - & &   l Q S a Z W j   $ $ $ * r 6 } < ..| 6 :.z.].'.'.l.d.d.f.s.p.i.! ! s._.).Y.Y.Y.K.K.K.K.K.K.K.' P P L L L b b c k j q q - - - - ",
"% * - - w k c c c B U U ' ] 6.6.E.'.'.Q.!.Q.W.{.E.l.` J g.g.g.D _ [ [ H.H.H.H.' ) *.&.-.,.,.&.#.c U U c k B ) B k c k w r m #.$.X.$.#.C U K.H.J.J.J.^ u.s.f.d.d.d.{ { '.{.{.[.Q.Q.Q.Q.Q.!.I.L.L.L.L.] ] ) ) B B N N N N k k = - + > + : v.mX0X:XV.V.V.:X<XjXjXqXeXqXeX,X:X:X,X,X:X,X6XjX9X9X3X3X3X9XpXwXwXpXMXpXpXM.:.: o o > * = 4 = = = n n C V Y 1.5.6.E.W.W.].{.[.[.[.'.{.}.|.[ ! u.u.i.i.u.u.[ (.@X+XXX X9.-.w.w.w.w.,.&.6 n N c c v v ~ ~ ~ x q k N n w r #.$.$.$.$.$.#.*.7.'.(.d.s.d.d.l.d.s.s.s.[ { I.L.L.L.L.' ' T T P L L L L L b b b c N k k k w w = $ w - % > : + < 9.$X2X&X&XN.V.:XBXNXNXjX9X6X9XdXNXjXfXdXdXfXjXNXNXNXNXNXlXlXjXjXNXjXBXAXwXB.o.1 : : @ + + * > * > > k k k k c c b b L U T T T T T T ' ' ( W A A D D A Z W E ~ G.G.K.' Y *.&.O.O.O.-.#.> w j x e x v E Z E W b q j k = > ..X.X.X.X.#.%.1.] ' K.K.H.^ / / f a a E ! ^ [ ' ' ' ' ' ' ' ' ' ' ( U U B B B B N k k k k k - - - - - - - O # %.*XtXIXVXjXqX,X:X:XZ.Z.Z.N.N.V.:X4XwX9X6X9XfXjXMXMXjXjXjX>X>X>X1X6X1X1X6X6X3X3XMXuXM.>.6 : : > m C C C C Y ) ) ) ] 5.5.5.6.6.5.6.6.6.) B b Z u l l A d.[ K.L.L.5.<.$.X.O. .O.-.%.> $ $     v Q a s Q E l q & & % - > , } < | } 6 :.7.].'.].'.'.d.d.p.i.! Q ! ^ _.).Y.Y.L.K.P.K.K.K.K.K.K.' P P P L L L b c x j j k k w w ",
"- - = w k c c c c U T ] ] 6.6.6.E.'.'.W.Q.Q.!.W.6.l.` J p.p.g.D _ [ H.H.H.H.[ ( ;.=.-.-.,.-.$.m N U c k N ) 6.) c k k k r r m $.X.$.#.C B ' H.J.J.J./ u.s.s.d.d.d.{ { '.{.OX{.{.OXOXQ.Q.Q.Q.I.I.E.E.E.6.{ ) ) ) Y Y U U N k k 4 # > 6 0.GXJX3X6X:XV.B.C.:XqXhXqXqXeXeX,X:X:X<X,X:X,X6X9X9X6X7X3X3X9XpXpXwXpXMXCXCXMX$X%.: o @ # - - 4 k n C V V Y ) 5.5.6.E.W.W.].{.[.'.'.'.{.{.]._ ^ /.u.t.i.u.u._.}.@X+X.Xv.,.+.w.w.@.w.,.&., n N c x I E E E ^ I x c N w w r #.$.$.$.$.$.#.m 6.'.'.(.(.d.` d.s.p.p.s.[ P.P.I.K.K.K.' ' ' ( P P P P L L L L b B B B N c k w w w w & % * O @ *.=X0X4X:XZ.V.N.N.,XqXjXjXjX6X6XdXjXjXfXdXdXjXjXNXNXNXlXNXlXlXjXjXjXjXjXBXGXwX0.6 : > > @ * = > r n k k c c c c b L L L L T T T T T ' ' ' ( W A A D D Z Z E E ~ G.G.K.' Y *.&.O.O.-.&.m = q x x q x v E Z Z W b j j q - > , X.X.X.X.$.%.<.] L.K.H.H.H.^ / a h s a Q ^ [ [ ] ' ' K.' K.K.' ' ' T U ( U U U B B N N k k w - & - - - * O %.#XGXmXJXnXNXjXqX,X<X:XZ.Z.V.B.B.B.:XqXkXjXdXfXjXjXdXdXjXjX6X>X>X<X6X1X1X6X<X<X,X9XMX9XM.:.6 5 5 m C V V Y ) ) ) ] ] 5.5.5.6.6.6.6.6.6.) z A Z l v l A [ [ L.L.L.5.=.$.O.O. .O.-.#.* O & &   v Q f s Q Q i q q $ & - > , } } | ....*.7.].].].].'.d.p.! ! ! Q Q ^ (.Y.Y.Y.L.P.P.T.G.G.G.G.G.G.~ ~ ~ ~ ~ L L I c x c k k k k ",
"w w w k c B U U U U ] ] 5.6.6.6.E.'.[.{.Q.W.W.W.6.` J J p.p.D D ^ P.H.H.H.P.[ ) ;.&.-.-.-.=.#.N B L c k V 3.l.6.B c k k r r m #.$.$.#.m B ( [ H.J.J./ ^ u.s.d.d.d.{ { '.{.OXOXOXOXOXOX[.Q.Q.Q.Y.Q.E.E.E.{ { ] ] ] ] ] ] U B B n 5 5 c.GXGX8XjXjXhX:XC.B.V.:X:X:XrXrXeXeX1X,X<X<X>X>X6X6X6X5X7X3X;X3X9X0XqXwXpXMX7XGXuXb.;.1 # # - k k N N V Y ) Y 1.5.6.6.6.W.W.].].'.(.'.'.{.{.[.^ i./.t.t.i.i.^ (.@X@X+X.Xb.,.+.w.w.w.w.,...> t N c x E / a E ^ E x x c w w r , $.$.$.$.$.#.m 1.'.'.(.'.{ ` d.p.u.! ^ [ P.P.P.P.K.K.K.' ' ' ' P P P T P L U U U U U B B c c c k w - = % o 6 b.GXwX,X:XZ.Z.Z.C.B.V.,XhXkXxXjXxXjXjXjXjXjXjXjXMXNXNXNXlXlXjXjXjXjXBXBXwXMXBX:Xb.> @ # > > > = k n c c c c c L L L L P P P T T ' ' ' ' ' W A A A D D S E E ~ G.J.K.K.] Y %.&.O.O.-.#.m w q x x x x W E Z Z W b j 9 & & * , X.O.O.O.$.#.*.] L.P.H.G.P.H./ a s s a Q ^ [ I.I.L.L.L.K.K.K.K.' ' ' T ' ( U U U U U U c c k k k - - # ; # v.GXIXmXnXfXjXjXjXjXqX<XZ.N.rXZ.B.B.V.rXeXkXjXjXjXdX6X6XwXjXjX6X>X,X1X1X1XqX:X<X6X6XMXCX7XM.:.M n C V V Y ) ) ) ] ] 5.6.6.6.6.6.6.6.6.{ H z A Z u Z Z W (.[ L.L.!.<.=.$.O.O.O.O.-.#.% $ q q   v Q f s Q E i     $ $ % * , ..} | ....%.4. X].].].].d._ ! ! ! Q ^ ^ (.).Q.Y.Y.P.U.U.H.G.G.G.G.G.G.~ ~ ~ ~ P P L L b c c c k w ",
"w k N N N U T T R T ] ] 5.6.E.W.W.W.[.{.Q.W.W.].{ ` J D g.p.S Z ^ H.H.J.H.[ { H =.-.-.-.-.#.m N b b c b H 3.l.3.B b k k n r m #.$.X...m C b ~ U.J.J.J./ ^ _.d.d.d.a.d.'.{.}.OXOXOXOXOXOX[.Q.Q.Q.Q.E.E.E.{ { { I.L.L.L.] ] ( U B H 4.tXIXnX-XjXdXhX<X:XV.C.C.V.V.:XrX1XeXeX1X1X,X,X6X6X6X6X9X5X7X3X3X3X3X4X4X0XpX3XMXnX-X#X5 # = n N B B Y ) ) 5.5.5.6.E.E.E.W.W.].W.E.'.'.[.{.{.[.^ u./.t.t./.i.[ }.@X+XoX.Xb.,.+.h.@.w.m.,.6 t t N c x E ^ a f ^ E x j k c w w > #.$.$.$.$.#.m H l.'.'.|.{ ( l.s.u.u.^ u.P.P.U.P.L.K.K.K.K.' ' ' ' ' ' ' ' ' ( T T T U U L c c c q w k % 5 9.=XCX4X,X<XZ.A.A.Z.B.B.V.:X,XhXxXxXjXjXjXjXlXlXjXjXNXNXNXlXlXjXjXxXNXAXAXMXwXMXMXuX9.M @ * 5 = = n N c c c L L L L L P P P P P ' ' ' ' ' ( W A A A D D ! E E ~ H.H.K.K.] V %.&.O.O.-.#.n w x x e x x W ! Q ! W b q 9   & % , X.-.O.O.$.$.*.] L.P.H.K.P.H./ a s a f f / [ P.I.I.L.L.K.K.K.K.K.' ' ' ' ' T T U U R U U B c c k k - # # 5 FXJXVXVX9XNXfXNXjXkXhX1X:XZ.Z.Z.Z.Z.N.Z.rXeXjXjXjX6X5X<X6XjXjX6X>X>X>X>X>X,X<X1XqXjXkXMX9X2Xv.:.m C C V Y ) ] ] ] { 6.6.6.6.5.6.6.6.{ ) B z Z Z u Z Z W (.[ ] L.5.<.=.X.O.O.O.O.$.m % & w q   u E f a Q E 9     $ $ $ % , ..} < ....m 2. X].].].].l.p.! ! Q i.^ ^ P.).Y.Y.Y.U.U.U.R.R.G.G.G.G.G.G.G.G.G.~ P L L L I b c k w ",
"c c N N U T ] ] T T ] ] ] !.W.W.W.E.W.Q.!.!.W.'.6.d._ J p.p.D Z / J.J.J.^ [ { ;.&.-.-.-.-.#.N N c x c B ) 3.6.3.( b k k n r t m $.| } m C k L P.J.J.F.J.H._.(.(.l.d.d.|.{.}.OXOXOXOXOXOX[.[.Q.Q.Q.Q.E.E.E.I.I.I.I.L.L.L.] ) ( H 4.tXGXmXVXnX>XdX6XxXxX1XV.C.N.V.Z.:XrXeXkXqXeXqX6X6X6X6X9X6X6X5X6X7X2X3X3X4XwXMXMXnX8XGXnX7 5 M B B ) ) ) ] ] 5.6.E.!.W.W.W.].].{.'.E.'.'.{.{.{.[.^ /./.t.t./.i.P.}.+X+XXX.Xn.,.@.@.@.w.B.,.6 m t y c x W /.a Q u.E i 9 k N N w * ..#.X.$.$.#.m V 6.'.'.}.{ ( l.s.s.u.u.s._._._.P.P.K.K.K.K.K.K.K.K.K.K.' ' ' ' ' ' ' T U L L c c q k k - V *XGX3X:X1XxX1XA.A.Z.:XN.B.B.V.,XqXhXhXjXjXlXlXlXjXjXNXNXNXlXjXjXjXjXkXjXMXNXMXMXCXGXmX4.: @ 5 = w N N c L L L L L P P P P P P P K.K.' ~ ( W b v F A D S S E W ~ G.G.K.L.] V %.-.-.O.-.#.r k c e e x x L ! ! ! W z & j q & % , $.O.O.O.$.$.*.5.L.P.H.K.T.U.^ f s g f a Q [ P.I.I.I.I.L.T.K.K.K.K.K.' ' ' T T T T ' T U U B B c k = # 5 M IXKX-XVXfXBXMXMXjXjXjXhXhXxXV.Z.rXZ.N.N.Z.eXjXlXjX6X>X>X6XjXdX>X&X&X&X&X&X>XkXqXqXkXwX4X0XCX=X0.*.C V V Y ) ] ] ] 6.6.6.E.6.6.6.6.6.{ ) G z Z a u Z Z E P.~ L.] 5.1.=.X.O.O.O.O.$., ; & w q   u Z Z E ! L 9 q q q q & % > m } < ....m 1. X7.].].].|.d._ ! Q i.Q ^ [ P.Y.Y.I.U.U.U.H.R.J.R.R.G.G.G.G.G.G.~ ~ P P L L L c k w ",
"c k N Y U T ] ] ] ] ] ] !.E.6.W.].E.E.Q.{.{.'.E.6.` _ p.a.p.! Q / J.J.H.H.( ) *.-.-.-.-.$.#.N c x b z z ` 3.) 6.G b k k w r n m $.X...6 m N b ' H.J.J.J.H._._.(.d.d.l.|.}.}.{.{.OXOX[.[.[.[.[.Q.Q.Q.E.I.I.I.E.Q.I.K.L.I.{ ) ) 7.tXbXmXnXmXgXdX5XlXhXdXhXqX,XV.N.Z.:XrXeXeXeXeXqXwXwX6X4X6XjX9X3X3X&X&X>X4X4X4XwXwXMX9XmXmXb.6 C V B Y ] 5.] 5.E.!.!.W.W.].].].].}.{.{.[.'.'.[.[.(._./.t.t.t.^./.(.OX+X+XXXb.,.+.h.@.@.w.w.-.t t e c c x v E / E u.Z i 9 q e N r > , $.&.$.$.$., V ].E.'.'.'.` d.(._.s.s.s._._.(.[ P.Y.P.K.K.L.K.K.K.K.K.K.K.K.K.' ' ' T T U L b c k w n n *XGXuX3X,X,X<X1X1X1XA.rXZ.N.B.B.B.:XqXjXjXjXjXjXNXMXdXCXMXjXjXlXlXlXjXlXlXlXjXNXNXMXMXJX-X9.m = n n c N L L L L L L P P P P ~ G.P P K.' ' ' W v v A ! Z Z Z E ~ ~ G.G.P ( ) *.&.-.-.-.-.t r w e e y e q v ! [ W b j . 9 q & - 6 #.O.O. .-.$.=.5.I.P.H.K.K.P.H./ f f f f ^ [ P.I.I.I.Q.T.I.T.T.K.K.K.K.' ' ' ' ' ' ' T U ( U B B n - # ;.*XGXVXNXCXjXjXfXfXjXjXjXhXxXhX1XvXV.V.N.m.B.:X>XfXCXdX5X5XfXjX6X3X3X3X&X&X&X>X,XqXhXqXqX6XwXMXuX#X9.;.V C Y 6.3.{ { 6.6.6.6.6.6.6.6.6.) G z b u a a u E ^ [ [ [ { 5.1.=.X.O.O.O.O.=.m & $ w q .   l W [ W x q q q q q $ % > , #..., ..6 *. X].].].].|.d.s.p.! Q i.u.! ^ (.).U.U.U.U.U.U.R.U.U.R.G.G.G.G.G.G.G.G.P P L L b c k ",
"N N U U U ] ] ] L.L.] ] !.!.E.W.E.E.Q.Q.[.'.'.l.l.a.a.a.p.p.! ! H.J.J.H.H.[ ) =.-.O.-.-.$.*.N I x b z b ` 3.` 3.B b k k k n n m #.X.....m C B [ H.J.J.J.H./._.(.'.l.'.|.}.}.}.}.}.{.[.{.OXOX[.[.Q.Q.Q.E.E.I.I.I.I.I.L.L.] ) z.XXbXgXnXnXnXgXdXgXfXdXdXhXhX1X:XZ.B.N.Z.:X,XqXqX,XqXwXjX6X2X>X5X9X3X2X&X3X4X4X4XqXwXMXnXnXmX-Xb.:.H ) ) ) ) ] 5.E.W.W.W.].].].].].].{.{.}.[.[.[.[.(./.t.t.t.t././.).+X+XXX.Xb.,.+.w.@.@.w.w.:.t r y N I x v E / ^ ! u     q e N r > , $.$.$.$.&.m V W.E.'.'.'.) { (._.f.s.s.s._._.P.I.P.K.' L.L.L.T.K.K.K.K.K.T.T.K.' ' ' T L I x c B k n 4.mXKX9X9XqXqX<X:XZ.A.A.1XrXZ.Z.V.N.V.V.qXkXNXNXjXjXNXBXCXMXMXjXlXlXlXjXlXlXlXlXjXNXMXMXAXGX=X2.n 5 n c B L L L L L P P P P P ~ G.P P K.' ' ' W v Z A D Z Z E E E ~ ~ ~ ~ ( ) *.&.-.-.-.-.t r e e y y y x c W [ W z j & q q q - 5 #.-.O.O.-.$.#.1.L.P.H.K.K.P.^ / f f f Q ! [ [ { I.I.Q.Y.Y.L.K.K.K.K.K.K.' ' ' ' ' ' ' U U U B B 4 * C *XFXJXnXfXNXlXNXMXMXMXjXlXlXxXxXhXzX1X<XZ.B.B.N.&X5XnXnX9X9XfXfX9X6X6X6X3X&X&X>X,X1XqXqXqX6XqXwX7XiX*Xc.;.V 1.) 3.5.5.6.6.6.6.6.6.6.6.{ ) B z l Z u u u E ^ P.[ P.I.5.1.%.X.O.O.O.$.%.n $ $ w & &     b ( U w . q     $ $ $ > , } ..} ..m *. X X X].].|.l.d.p.p.i.i.! Q / [ P.).U.U.U.U.U.U.U.U.R.R.G.G.G.G.G.G.G.P P L L B N n ",
"B B U U U ] E.] E.E.L.E.Q.!.E.Q.E.E.Q.'.Q.E.'.'.l.l.a.a.p.p.p.s.H.J.J.H.P.] 1.=.-.O.-.-.$.V N L I I v b ` 3.` 3.B b c k c r N m #.$.....#.M U P.H.J.J.J.H./._.(.'.'.'.'.|.}.}.}.{.{.{.{.OX[.OX[.[.[.[.'.'.I.I.I.I.Q.E.] ] 6.oXtXmXnXnXnXnXgXdXdXdXdXdXjXkXjXqX,XV.V.N.N.V.4XMXwX0XwXwX0X3X:X3XwX0X4X2X4X4X4X4X4XwXjX9X8XnXGX-Xc.;.1.1.Y Y ] 5.E.Q.Q.].].].].].{.].{.{.{.{.[.{.}._.u.t.t.t.t./._.}.+X+X+X.Xb.,.+.w.@.@.w.w.&.t r N R I x i E ^ s.Z u     q e N r > , #.$.$.$.&.m M W.E.'.'.'.) { d.f.d.d.s.s.[ [ (.(.I.K.] L.I.I.I.I.I.I.I.L.L.L.L.' ' ' T L L c B N 4 V yXGXnXnXjXhXqX1X:XZ.Z.rX1XrXrXrXrXZ.N.B.&X,XNXCXMXfXMXAXCXMXMXMXNXlXlXlXzXzXzXlXlXNXNXNXMXAXCX*X;.5 k B c L L L L P P P ~ P P ~ ~ P ' ' ~ ' ~ W A A A D D A E E P ~ ~ P ~ ( H %.&.-.-.-.-.t r r e y y e c x L W v j w w e e q - > ..&.-.O.-.$.$.1.] [ K.K.K.P.^ ^ Q Q Q ! ! W _ [ I.E.Q.I.I.I.L.L.L.K.K.L.L.' ' ' ' ' ] U Y Y B k ; C c.GXJXVXfXNXNXjXBXNXNXNXMXlXjXlXhXhXkXhXqX:XN.N.n.9.M.-XuXCXNXMX9XfX9X9XfX9X3X>X:X:X,XqXqX6X6X1X6X9XCXFX*X0.;.H ) 3.6.6.6.6.5.5.5.6.6.5.{ ( b z l v u u v W P.P.[ P.{ 3.1.%.X.X.O.O.&.%.5 O $ w q q $   i x c q .         $ $ * > , ..} ..6 %.c. X X X].z.l.d.a.p.! ! ! ! E E ^ P.U.U.U.U.U.U.U.U.U.R.R.G.G.G.G.G.P P P L U B N C ",
"N B Y U U ] E.] E.E.L.E.Q.E.!.Q.E.Q.[.[.[.'.'.l.x.x.a.a.p.p.d._.H.J.J.H.P.{ 1.=.-.-.-.-.$.C N L I I b b ) 3.` ) B b c c c r n m #.$.X...#.M V ] H.J.J.J.J.H._.(.d.d.'.|.|.|.}.}.}.{.{.{.{.[.[.[.[.[.[.'.'.I.I.I.I.Q.E.6.7.XXyXFXmXmXmXmXnXgXdXgXdX5X9XfXjXkXjXqXqX:XN.B.N.&XwXGXwX2X2XwXwX0X4X4XwX4X4X4X4X4X,X,XqX4X9X5X7XGXmX.X2.1.1.1.1.5.] ] Q.Q.[.{.].].].{.{.{.{.[.[.{.}.[._.i.t.t.t.u._.).}.+X+XoX*Xv.,.+.w.@.@.m.w.=., t y I I x x v ! [ l 2   q e e N N r , #.$.$.$.&.#.V ].'.'.'.{.{ l.d.d.d.d.d.s.[ [ [ [ I.I.I.I.I.L.I.I.I.I.I.I.L.L.K.' ' ' ' T U U B = C z.JXiX7XfX6XqXqXqX<X<XrXrX1XrXZ.:X:XZ.V.V.B.V.4XCXCXMXnXMXMXCXNXNXNXlXlXlXlXzXzXzXlXNXNXNXNXdXMXVX#XM 4 B B L L P P P P ~ ~ ~ ~ ~ ' ~ ' ' ' ' W W A A Z F A Z W E P P P P ~ ( V %.&.-.-.-.=.t r w e e y e y q v W l   q w e e q - > 6 &.O.O.-.$.$.<.5.' K.K.K.P.[ ^ ^ Q Q ! ! W ( { I.'.[.I.I.I.I.I.L.L.L.I.L.] ' ' ' ] ] Y ) V n # # 4.KXJXJXnXnXDXNXdXlXNXMXMXjXfXgXgXdXjXdXjXqXqX:X:X,.7 >.v.=XuXVXCXnX9X9X9X9XjX6X>X:X&X>X,X6X1X,X,X>XjX9XmXFX*X2.V 1.1.3.6.6.5.5.5.5.6.5.` ) G B z A l l l A ' P.P.[ [ ] ) ;.%.X.X.O.O.$.%.5 O $ w w & $         q q     9 q q & * > 6 .., .., m 0. X X Xc.z.z.l.l.a.J D ! _ ! E E [ (.(.U.P.U.P.U.U.T.R.R.K.K.G.G.G.~ P T U U N C C ",
"N N V Y Y ) ] ] E.E.L.I.E.E.I.E.Q.Y.Y.Q.'.'.'.d.l.x.a.a.a.a.d._.H.J.J.H.P.{ 1.%.-.-.-.-.#.n c L P I v b B ) ) B c c c c r r t t #.$.X...#.m C ' H.J.J.J.J.H.s.d.d.d.l.d.d.'.|.}.}.}.}.}.{.{.[.[.[.[.[.'.'.'.'.'.Q.E.W.].XXtXFXmXNXmXnXfXgXfXgXgXdXdXfXfXNXNXjXwXqX:X&X:XN.b.M.2X0X0X0XpXwX4X4X0XwXwX0X4X4X4X:X:X:X&X4X9X5XMXCX=X.X7.1.2.8.5.] E.Q.Q.[.[.{.].].].}.{.{.{.OX}.'.(.u.t.t.t.i.u._.|.+X+XoXoX*Xv.,.,.w.w.w.m.w.&.> r y y x x x v A W j & w c e y c y r , #.$.$.$.$.#.M ].].'.'.{.6.].d.d.d.d.d.d._ _ [ [ (.(.(.I.I.I.I.I.I.I.I.I.I.L.L.' ' ' ' ( U U n 5 z.*XmX-XnX6X,X6XqXqXqX,X,X,XrX:X:X:XrX:X:X:XN.N.&X3XMXCXMXMXMXCXCXNXNXlXlXlXlXlXzXlXlXlXBXlXZXjXfXGXmX XH k B L L P P P ~ ~ ~ ' ' ' ' ' ' ' ' ' W W A A Z F F Z W ~ ~ G.P ~ W ( V M &.-.-.-.=.t = e e e y e e q x W x   & q e e q - = 6 o.X.O.-.$.$.2.5.] K.I.I.P.P.[ ^ ^ ! ! W ( _ _ { I.I.I.I.I.I.I.I.I.L.I.L.L.] ] ) ] ) Y V n = n 2.*XIXmXnXgXgXDXlXdXNXNXMXMXfXfXgXgXgXDX6XjXjXAX2XN.o.1 : %.9.#X=XuXCXnXuX9X9XdXdX6X>X:X>X6XqXqX1X<X>XjX3X8XGXtXv.2.1.) 3.5.6.8.8.8.8.5.) ) H G z z A z z A ( [ L.K.K.[ { 1.;.%.X.X.O.X.X.#., O $ w e q q i i i x e q   9 9 q q $ % > , .., .., m 0.XX.X X Xc.c.z.z.x.l.` _ p.[ ! W [ P.I.I.P.P.P.P.U.U.U.T.T.T.G.G.G.G.' ' U B n C *.",
"Y C V Y Y ) ] ] ] I.] L.Q.I.{ I.Q.I.I.I.(.'.{ ` x.a.a.a.a.d.d.(.P.H.H.H.P.{ 1.=.-.-.-.-.#.t c I I I I c c B H N k c c c r r t t #.$.X.X...m N ( H.J.F.J.J.^ [ s.|.'.d.{ ` { '.@X}.}.}.}.}.|.[.[.[.[.[.E.E.'.'.[.'.W.].+XaXFXFX9XMXfXfXgXfXdXgXgXgXgXgXfXjXjXjXjXkXjXNXjXM.o.7 &.M.2XpXpX:X:XeXCXwXwX4X4X,X,X:X:XN.N.:X4X4X3X9XuXaX#X7.8.8.5.5.!.!.Q.'.'.'.].].].{.{.{.OXOX[.P.^ Q f t.t.i.u.d.].XXoXoXoX*XM.,.w.w.w.w.m.,.&.> t R I I I x v v b z & w c e y y e r r #.$.$.$.$.#.M ].].'.E.{.E.].l.l.l.x.l.d.d.d.d.{ { { { { I.E.E.E.E.E.Q.I.I.I.L.L.] ' ( U U B C 4.tXmX=X9XJX>X6X6XqXqXqX4X2X:XrXrXrXeXrXrX:X:X4XB.9.b.&XuXCXCXMXCXCXBXNXlXlXlXlXlXlXzXlXlXBXlXxXkXjXnXJXKXoX) b L L W W W ~ ~ ( ' ' ' ' ' ' ' ' ~ W W Z A Z F F Z W ~ G.G.G.~ W ( H M o.-.O.-.$.> - w e e y e e e I W v j q q e e w - - 5 ..X.O.-.$.$.2.5.{ K.I.I.P.P.[ [ [ _ _ _ _ _ _ ( ( ' I.I.I.I.L.L.I.I.L.I.] ] ] ] ( ) ) C - 5 c.tXmXmXnXNXgXgXlXfXfXDXCXCXNXNXgXlXgXgXNX5XNXCXJXb.&.1 1 + : 6 ;.0.%XuXuXnXMXjXjXjXxX6X6X9X9XjXjXhX6X6X>X9X9X8XiXtX.X4.1.3.3.3.8.8.8.8.1.H V B z z z z z B ) { I.L.L.I.I.6.3.1.=.$.X.O.O.X.$., % $ e e q q l v W W v 9 9 9 9 q q $ % > m .., .., #.0. X.X Xc.c.c.c.c.z.z.l.` a.d._ [ [ [ P.I.I.I.P.L.U.Y.U.T.T.T.K.K.K.K.' T U N C ;.0.",
" XV C V ) ) ) ] ] ] ] ] E.I.] I.I.I.I.I.I.I.{ ` a.a.a.a.l.d.d.[ P.H.H.U.U.{ 1.%.-.-.-.$.e.r c I I x I b j B V N w c c c r N N t #.$.X...X.6 n T U.J.J.J.J.H.[ [ (.'.d.{ _ ` { '.|.|.}.}.}.|.|.[.{.[.[.'.'.'.'.'.{.{.+XyXFXGXuXMXNXMXfXfXdXfXgXgXmXnXnXnXnXMXMXNXNXBXCX&X,.: 1 1 &.B.pXpX:X2XwXpXwXwXeX,X,X,X:XZ.N.:X:X>X4X3X3XuXVXiX.X4.8.8.W.W.E.Q.'.'.'.'.'.].W.{.}.OX[.(.[ ! i.t.t.t.i.! { ].XXXXoX*X*XM.,.w.w.m.m.m.,.%., r N I I I b b ( { B k k c e e y e r > #.$.$.$.$.#.M  X].E.E.{.E.].x.x.x.x.x.l.d.d.d.d.` { { ] { E.E.E.E.E.E.I.I.I.I.L.] ' ( U U B 3.*XKXmX;XMXCX6XqX,X,X,X4X4X2X:XrX:X:XrXrXrX:X&X:X,...o.b.&XuXCXMXCXBXBXBXlXlXlXlXlXzXzXlXlXDXzXvXxXhXdXJXIXFXoXb b U T W W ~ ( ( ' ' ' ' ' ' ' P ~ W v v Z D D Z A W ~ G.G.G.~ ( ( H M o.X.O.-.$.> & j x e y e x x L ~ W b c e e e w - - 5 ..X.X.-.$.$.<.5.] I.L.P.P.[ [ [ [ _ ` ` ( ( ( ( ( ( { { { ] ] { L.L.L.L.{ ] ] ] ( ) V n 5 ;.tXJXmXgXnXDXlXgXgXgXjXBXNXCXNXNXlXlXlXlXmXgXAXVXMX6 1 o + + + : 6 %.9.#X7XnXMXMXNXNXjXdX9X9XfXjXxXxXxXhX>XjXMX7XiXFXtX.X3.3.1.1.5.8.5.1.V V C C z z G K H H 1.6.!.!.L.L.E.6.8.:.=.$.X.O.O.-.&.m % $ w q q j v E Q Q E x x q q q   $ - r m #., .., m 2.8.4.2.:.:.:.:.:.:.2.1.3.l.d.{ s.d.[ { I.I.Y.P.Y.Y.Y.U.T.T.T.K.K.K.K.' U U N V 0.%X",
"yX1.n V ) ) ) ] ] ] ' { I.I.] I.I.I.I.I.{ { ` ` l.x.x.l.l.l.{ [ P.U.U.U.Y.{ 1.%.-.-.-.$.m n c P I I L L k B ) B w c c c y N N t #.#.....#.m C T U.J.J.J.J.H.^ [ [ d.d.d._ ( ( ( '.].|.}.}.}.}.{.{.[.[.[.'.'.'.'.].XXyXFXGXuX9XCXNXMXfXfXfXfXfXmXnXnXnXnXnXMXMXMX8XnX;X9.7 1 1 : 1 :.=XuXpXpXpX4XeXwXqX4X:XrX:XV.,XBXwX>X4X4X&X3X-XiX=X0.2.W.].6.W.Q.'.'.'.].].].W.{.{.[.(.[ [ s.u.i.i.i.u.! 6.XX.XXX.X%X*XM.,.w.w.m.m.m.9.%.> r c I I I c b { }.) N k c e e y e w > m &.$.$.$.#.*. X].W.E.{.W.].z.z.z.z.l.l.d.d.d.{ d.d.{ { ] { 6.6.E.E.E.I.I.L.] ] ] ) Y U B B .XiXiXnX9XfX&XkXqX,X:X:X:X2X:X:XrXZ.V.:X:X:X:X&Xv...1 : :.M.-XuXMXCXBXBXNXlXlXlXlXlXzXzXlXlXcXcXcXvXhXBXVXmXtXFXz B B U T P ~ ' ' ' ' ' ' ' ' ' L L L b v A A W A W ( ' K.K.' ' ( ) ;.%.o.X.O.$.&.> - x x x x e x v E ~ E W b q q e e - * 5 ....X.O.X.$.=.8.] { ] ] ] { { { ` ( { { ( _ _ [ _ _ ` ] ] ] ] ] L.L.L.L.I.{ ] ] ) V C n M v.FXGXnXmXdXDXlXgXlXBXlXlXnXnXgXgXgXgXgXgXNXmXHXVX7X1 o 1 O + + > > 6 ;.9.=XuXCXMXNXNXjX6X9X9X9XdXjXhXhXhX6X9X9X8XuXiXiXtX7.3.1.1.2.2.1.1.V C C C C G H 3.3.;.1.8.W.W.5.8.5.8.2.:.&.$.$.-.O.-.=.m % $ e q   v Q f h h a ~ I x 9 9   $ w m #.#., .., , %.m M m 6 6 ..#.#.6 6 M 3.z.z.l.{ { [ { I.(.Y.Y.Y.Y.Y.Y.P.K.K.P.K.K.K.T U B C *.v.iX",
"iXb.;.5 1.) ) ] ' [ [ { { { 5.5.6.] { { ` _ J a.` 3.l.z.'.'.I.I.Y.U.T.Y.Q.6.1.=.:.,.:.%.m N c L I P I x z ( ` ( B c N R y y r t 6 #.#.#.#.m V 5.Q.T.R.J.J.J.H.^ [ _ _ d.[ [ _ G G G ` l.].}.{.{.{.{.{.{.{.].].]. X*XFXmXnXfXgXdXfXgXfXgXfXdXdXdXfX9X9XMXCXMXpXuXGX%X4.5 # 1 + + o 6 9.$X7XpXpXMXjX9X6X6X6X4X,X>X6XjXBXkX,X&X&X&X;X9X8X#X4.1.6.].W.'.'.].].].].].l.l.d.{ [ [ { d.(.s.p.d.|.z.c..X.X.X#X*X$XB.w.w.w.w.w.B.0.*.n N y c U c q ( '.l.6.G k c c c y e w n #.#.X.X.X...2.2.7.7.8.6.7.4.9.9.4.3.l.d.s.s._.s.{ '.l.3.3.7.].E.6.E.I.{ ] ] ( { ) B ) C C 0.-X8XnXnX9X4X4X4X:XqX:XN.V.:XN.N.rXrXZ.:X:XpX&X9.%.: o 1 6 :.#XiXmXuXuXVXJXBXjXdXlXlXxXlXlXlXzXzXxXxXhXjXjXnXmXFX;.M B G b P ' T T ( ( ' [ { [ ( L L L ( ( ( G G U U U Y R Y Y Y *.*.=.=.-.-.-.-.=.m w e y e 0 0 E E / Q E E E v x q q w > , #...X.X.| ..%.*.V V V V V V V V V U ] I.[ ' _ ! W _ _ { { ] I.I.L.I.K.L.L.] ] ) B C > m 0.tXuXCXNX6XdXdXlXlXlXlXNXNXgXDXgXgXNXjXdXAXBX3XJXVX;.X o @ + + + * > 5 %.:.0.$XiXuXnXMXMX5XdXdXdXdXdX5X<X<XjX9X0X9XpXpXuXiXc.2.;.M M *.M 1.V V V V V C V H 1.*.*.*.=.*.=.*.=.=.&.&.$.X.O.O.X.X.-.#.r e 9 9 i a f s p s f a v I i   q $ % m #.6 , 6 6 6 7 6 6 7 6 6 ..$.$.%.m M 1.z.].]. XW.'.{ { I.Q.Q.Y.Y.Y.Y.Y.U.U.Y.P.' T R Y V M 9.=XpX",
"uX=X9.m V ) ] ' ' [ [ [ ] ] 5.5.6.5.` ` ` J ` x.x.l.z.7.E.E.L.L.Y.Y.I.!.!.8.2.%.&.&.=.%.C N I L I I I x b _ _ _ U L y y y y t t 6 ......#.m V <.!.L.K.P.U.U.H.P.{ _ ` d.d.d.d.` ( H H H 3.6.].{.{.[.[.{.{.].]. X.XtXmXnXfXgXdXdXgXgXgXgXdX5X5X6X6X9XwXwXpXpXCXmX=Xc.M @ + o o o o : ;.#X7XpXpXMXMXfXfX9X9X6X3X>X6XwXwX6X:XV.V.&X>X>X8X-Xv.3.3.z.6.W.].].].].].z.l.d.l.d.d.d.d.d.d.l.6.z. Xc.v.%Xc.c.v.#XM.w.,.O.@.@.-.,.,.m w c c c I x x ( l.l.l.` B k c c c e r n m ............#.V C C C M m ....m V ` { (.[ _.P.{ (.6.3.3.7.].W.E.E.E.I.{ ] { { ( V ;.C *.#X7X9XMX9X9X4X4X6X,XqX:XB.N.N.N.Z.rX:XrX:X2XuX&X:.: + + + @ 6 0.=XVXVXVXCXCXCXNXlXhXhXhXxXxXxXxXxXhXhXhXhXjXjXMXmXn.M M G ( ' K.K.' ] { { { { _ W W L T ] { ) B N B V V V C V V *.#.#.#.$.$.$.X...%.n w e e 0 0 h g / Q Q Q Q / E x q $ % * , #.} X.X.X.....6 6 m #.#.#.#.m m C N ] I.P.[ [ [ ! _ _ ` { { I.I.K.L.K.K.] ] ] ) V C , ;.#XmXCXMXNXjXdXdXhXlXlXlXNXNXgXmXgXgXAXBXhXBXMXJXnXc.5 O O O O O + @ * > m %.:.v.=XiXuXMXMX6XdXdXdXhXdXdX6X<X6X9X9XwXMXpXuXuX=X0.;.*.*.%.m V V V V V C C C V :.=.#.#.$.$.#...#.....X.X.X. . .X.X.q.#.% e 9 i h g g s p s g g g E i 9 q $ % m #.6 , , , < < 7 7 5 , } X.$.$.#.#.M 1.z.].]. X].{ [ { I.Q.Q.Q.Y.Y.).Y.U.T.Y.K.' ] R V V ;.v.:X0X",
"uXnX$X;.5 ) 6.( ' ' ' ' ] ] ] ] 6.3.` ` ` ` ` l.z.z.7.7.6.3.5.5.L.E.E.E.7.2.:.&.&.&.&.#.m N c L I I x b W _ _ _ ' L c y N N N r , ......#.e.m <.5.] ] ] L.K.K.{ { ) { l.d.{ d.d.6.6.1.V H 6.].'.Q.I.I.Q.].W.W. XyXmXmXnXgXgXdXdXgXnXgXdX5X5X5X5X6XjXMXMXMXCXCXuXc.*.# O O O o O + + 6 0.=XuXpXpXMXfXdXdXdX9X6X3X3X3X,X:X:X:X:X:X>X&X5XnX*Xc.3.6.7.6.W.'.].6.6.6.` ` ` 6.d.d.{ { ( ` H H ;.;.;.:.:.:.,.9.,.-.O.O.O.O.O.X.$.t w c c c x c G ` d.a.l.l._ z k c c e w t m , , | | } , , , > > 6 , < , , , n V 6.{ [ P.[ [ { { ` 3.z.].E.E.E.'.I.I.{ { { ) ) 1.n ;.tXuX9XwX0X4X4X4XqXeXqX:XB.N.V.:X:XZ.Z.eXN.2X#Xv.6 o o + + o + %.v.iXVXGXCXnXMXCXNXhXhXhXhXhXhXxXxXhXhXhXhXjXMXMXnX%X>.5 B ( ' K.K.] E.E.6.{ ` ( W ( ' ] E.E.) C n C m m m m m m #.#.#.....X.| | | m r - q e x I E g f f Q Q ! ^ ^ v q $ % > , #.| | X.X.X.| , 6 ..#.#.#.#.#.m m C Y I.I.[ [ [ ! _ ( ) ` { I.I.L.T.K.K.' ] ] ) B C m v.aXGXVXnXdXlXdXhXlXlXlXlXNXNXnXgXgXlXAXNXjXNXMXJXM.: o @ # O O O + # @ * 5 m %.9.$XuXCXMXMXNX6X5XdXdXlXjX6X<X>X6X0X9X9X0X9XuXaXc.2.2.2.*.n C H V B C C n C M =.$.#.$.$.$.$.X.....X.X.X.X.O.X.X.X.:.#.% q q i f f g p p p s g / E v 9 q $ % m %.#.6 6 6 6 7 6 , , } } ..X.X.#.#.#.;.7.].|.|.(.[ [ [ I.Q.Y.Y.Y.Y.).).U.T.I.L.] ] R C ;.0.&XpXMX",
"7XAX-Xv.n Y 6.( ' ' ' ' ' ] ] ) 5.3.` ` ` ` 3.l.z.z.4.2.2.2.8.8.8.8.8.8.9.,.-.O.O.O.O.$.m n c L I I v E ! ! ! ! [ W b c c N n > 6 X.X.X.X...#.=.<.<.Y ) ) ) ) ) ) H 3.'.{ { { { 6.l.3.H ) ].}.'.Q.I.I.E.E.6.]..XFXFXmXmXgXgXdXdXgXnXgXdX<X>X5X5X9XNXMXMXCXGXuX$X*.5 o + # O O @ + + : %.v.2XpXCXMXjXfXfXdXdX6X3X>X:X:X:X2X,X4X,X&X&X3XnXtX.X4.1.6.6.6.6.6.6.3.) 3.3.3.6.6.{ ` ( { l.3.M M M 6 6 #.#.&.&.-.-.O.O.O.O. .X.#.t w c c j x B { d.a.f.a.a._ G z k k e w r > < < | | } } e.t t , , } , ...., m *.5.6.{ [ [ [ [ [ ( ` 6.'.E.E.'.[.Q.I.I.] ] ] 5.1.C 2.=XuX9X0X4X3X3X4X4X:X,XV.B.N.:XrXeX:XZ.,X&XM.,.6 o + o o O + + > M v.-XGXVXuXfXNXlXjXjXjXhXxXxXxXhXhXhXhXjXjXMXMXnXnXb.H H U ] I.L.I.E.].W.5.) ( ( ' ' { E.W.1.C > #.#.#.#.#.#.#.#.#.#.$.$.X.X.| < m r w q e I E / g g f Q Q ^ ^ ^ W j   $ % , ....|  .X.X.| } ..#.$.$.$.$.#.#.m C Y ] I.[ [ ^ ! ! A G ( { I.I.Y.T.K.K.L.E.6.) B C 2.=XGXCXCX9X6XlXdXfXlXlXlXNXNXNXNXgXgXNXBXjXjXCXJX%X%.1 o # # # O O + @ @ * > 6 M :.#XuXGXCXMXMX<X<X>XdXjXjX6X>X>X6X9X9X3X3X3XiXaX.X0.2.2.1.C V 3.) B B n n C %.&.$.$.$.X.X.X.X.X.X.X.X.X.X.X.X.o...=.m % q q i / g p p d p h g f E v x q $ * m #.6 , > , , , , } } } } ..X.X.X.$.#.:.7.].|.`._.[ [ [ I.Y.Y.Y.Y.Y.).).Y.P.P.L.] ] N V 4.v.-XwX4X",
"-XCX8X=X*.V ) ) ' ' ' ' ' ] ] ] 5.3.6.6.6.l.l.z.c.9.4.:.:.:.:.2.2.2.:.:.,.,.-.O.O.O.O.&.m n c I I I E Q f f S Q ^ ^ W b c k k > ..X.X.X.-.X.X.&.=.%.%.*.*.M V V V V 1.].'.6.6.6.` ` H B 3.}.+X}.{.{.[.W.E.6. XyXFXFXmXfXgXgXgXdXgXfXgXdX5X>X5X5XdXjXMXMXCXCX#X:.5 # o + O O O @ O + o + %.M.uXCXMXfXfXfXfX9X6X3X3X>X2X4X0XqX4X>X&X&X>X7XuX=Xc.V 3.5.5.5.5.3.) ) 6.3.5.6.6.'.l.l.XXXXz.M 6 o.....$.$.$.-.-.-.-.-.O.O.X.X.$.t r e q j z _ d.a.p.f.p.J J ` G z j k w r > < < } } } } e.e.e., } } } } } } , #.8.W.E.I.P.[ ^ ^ ( { 6.E.E.E.[.[.Y.Y.I.' I.6.1.V ;.c.-X7X4X4X3X2X2X2X2XN.&XN.N.:X:XrXeXrX:X:X4X9.6 o o + o X o + @ * : %.#XVXGXCXnXNXjXjXlXlXhXhXhXxXhXhXhXlXlXjXlXMXmXAX-Xb.3.) E.[.I.Q.Q.].W.5.) ) ` [ [ [ (.6.1.#., } } } #.$.$.$...X.X.X.X.X.X.| , m n w e x I / g g g f i.i.u.[ [ _ j . . O > ....X. .X. .| | ....$.$.$.#.e.e.t t Y { I.[ [ ! E ! b z ( I.I.Y.Y.I.L.K.I.E.] B N C #XuXGXuXnXMX6XjXjXfXjXlXMXMXMXnXDXlXgXlXjXNXAXAXMX&.1 : o o # # + + + + @ * > m 6 %.v.-XCXCXMXMX5X5X<XdXjXlXdX>X6X9X9X4X3X3X3X8XaX=X#X2.*.1.V N ` ` G G B n n m &.-.-.O.O. . .X.X.X.o.o.o.X.X.X.o.#.:.m % w e v Q s p p d d d g g f E v q & = m M 6 > > 6 6 6 , ..} } , ..o.o.X.$.$.2. X{.|._.H.^ ^ P.Y.).Y.Y.Y.Y.).Y.T.T.L.L.] Y V 1.c.#X#XV.M.",
"5XMX7XuXc.C V ) ' ' ' ' ' ' ] ] 6.7.l.l.l.z.].c..X0.,.&.-.&.-.-.,.,.-.-.-.+.@.@.@.@.O.&.m n c I I E E f s s f f Q ^ ^ W c k k n #.&.-.-.-.O.O.-.&.&.%.%.%.#.#.=.#.m 2. X}.{.{.].l.6.) B ` {.+X}.}.OX}.].E.].oXaXFXmXnXfXgXgXgXgXfXfXfXfX5X5X5X6XMXMXMXCXCX7X9.7 @ # + # O O O # O @ + o : 9.-XGXMXfXfXfXfXdX6X3X6X4X4X0XwX0X2X:X:X:X&X&X7XiX.X1.1.1.1.1.5.5.5.5.5.1.3.3.6.|.}.}.XXXX4.M 6 o.o.X.-.$.-.-.-.-.-.-.O.O.O.X.=.m w w & j G d.d.a.p.f.p.D J d.a.b j k w r t , , } e.} } e.e.e.} } | | | } } } #.2.W.E.P._.u.^ ^ [ { E.E.I.I.Q.Q.Y.Y.Y.L.Q.E.) ;.c.=XuX3X3X3X>X2X2X:X:XN.&XV.:X,XeXeXeXeX:X&X&X&.: o + O o X o + + @ > 5 4.=XFXGXCXCXlXjXjXhXhXhXdXhXdXhXhXhXlXjXlXNXNXVXmX*Xz.) E.{.I.E.E.W.7.5.Y ) { [ ^ [ { 6.1.#.} | | | | | X.......X...o.$.o.....m n w e x E g g g g f i.i.u.[ [ [ l   $ % > #.#.$.X.X.X.X.X...} $.$.$.} } } , > Y 6.I.[ ^ ! Q ! b j ' [.Y.Y.Y.Y.I.L.L.E.) N C 1.uXVXCX9XfXNXjXjXjXjXjXjXMXMXMXnXNXlXDXBXjXAXJXCXv.: o : o o = O # + O + + @ > 5 > M 9.#XuXCXCXCXfXdXdXhXlXlXfX6XNXjXjX0X0X4X0XuXiXaXtX0.*.1.V B J G ` ` ` H n 6 X.O.O.O.O.O.O.O.&.&.&.&.&.%.o.%.%.#.:.m * r c W Q s p d d d d g g a E W j & = n M 5 > > m m m m , , < , 6 ..o.X.$.$.:.~.{.)././ / ^ P.).).).Y.Y.Y.Y.U.P.K.L.] R N V 0.%X=X&XV.N.",
"5XjX7XuX%Xm V Y ' ' ' ' ' L.L.] 6.7.6.6.6.]. XXX.X0.,.-.-.O.+.+.-.-.-.+.+.+.@.@.@.@.-.&.m N c I E E / f p d y.g f i.^ W b c k 5 #.&.&.-.-.O.O.-.o.X.o.&.$.$.$.-.#.#.2. X+XXX}.}.|.'.3.) ) E.{.}.{.OX}.{.].XXyXFXmXmXnXnXmXfXgXgXfXfXfXfX6X5X5X6XMXCXCXCX7Xv.&.: @ @ * # + # # ; # # # + # M v.-XMXnXnXnXjXfX6X3X9X6X4X0XqX0X2X&X:X:X&X&X3XiX=X.X1.1.1.1.5.5.6.6.) ) ) ) { '.}.@XXX X3.%.&.&.O.O.-.$.-.-.$.$.-.-.-.-.X.$.=.m w w j l _ l.p.p.f.p.p.g.p.d.d.G j & w r r t t e.e.t t e.e.} } } | | | X.} } #.8.E.[ ^ i.f f / ^ I.I.I.I.I.Y.Y.Y.Y.Y.Y.Q.5.) 2.#XuXMX9X4X>X:X2X2X,X4X:X4X:X:XeXeXeXBX4X>X&Xb.7 o o @ o O + + O O + > @ M 9.%XmXVXCXNXjXlXlXhXhXhXhXdXlXhXlXlXjXjXMXNXnXmXbX.X3.6.E.I.I.I.E.W.5.) ) { ^ ^ ^ s.{ *.#.| | | | | | | } ........#.%.%.#.m V N c x I ~ / g g g g t.i.Q ^ [ [ b j j = n m #.#.#.....} ..} } $.$.$.X.} } , r Y 6.I.[ ^ Q Q ! b x ' [.Y.Y.).Y.Y.I.L.] B k H .XGXCXCXCXfXjXlXdXjXfXjXjXMXMXMXnXgXlXDXBXjXJXCX#X6 : 1 1 o # @ O # + O + # @ * > 5 m :.0.*XCXJXAXNXlXlXlXlXjXjXdXjXjXjXjXwX9X9X0X7XaXaX X2.2.H G _ _ _ ` ` H H %.o.X.O.O.O.O.-.$.X.....6 6 6 6 6 6 6 M > % n U [ Z f d d d d g t.g a ^ ( j $ % * * + + % # % % + # # @ 5 7 6 o.X.$.#.:.7.'._.J.g / / P.).).).Y.).Y.Y.P.K.L.L.T B N *..XiX8X3X6XqX",
">XjX-X7X7XM V Y T ' ' ' K.L.L.L.6.6.6.` ` l. XXX.X0.,.-.-.w.@.+.+.,.,.,.w.@.@.@.O.+.-.&.m c I I E / f g d r.r.d d f u.! W b k = m $.$.$.-.-.O.-.X.X.X.X.X.$.-.-.$.e.<. XXX}.}.}.{ { { { { E.{.}.{.+X+X}.XXyXFXFXmXnXnXNXNXfXfXfXdXfXjXjXdX6X6X9X9XfXCXiXM.:.7 : @ * @ ; + * # O # O + @ + + %.v.CXMXMXMXMXfX6X3X3X3X4X4X0X4X2X:X,X:XN.&X4X7X-XtX4.2.8.8.5.6.6.6.3.` { { { d.|.}.@Xz.;.#.&.O.O.O.O.-.$.-.$.$.$.-.$.&...#.*.C w k z z ` l.p.p.f.p.p.g.p.d.d.` z ; - = r r r t t , t t , < , } | | | | } , V 8.'.^ f g g g f ~ L.I.I.I.I.Y.Y.Y.Y.Q.Q.!.5.8.c.=XnX9XwX6X>X2X2X4X4XqXeXeX,X:X4X4XeXBX4X:X&X&.: X + O + + % % + O O + @ : %.v.-XVXCXnXNXBXlXzXlXlXlXlXlXhXlXlXjXNXMXlXlXmXmX;Xz.6.E.E.I.I.E.W.5.) ) [ ^ i.u.s.{ V e.| | | | | | } } , 6 6 6 m m M m m <.Y N c L ^ / g t.d d t.i.Q _ { ` b k k k r n > > , , , > > > , } } } } } } 6 m V { [ ~ E Q E ! W x ] OX).Y.[.Y.Y.I.I.] N k 4.yXGXfXBXSXdX6XjXdXjXjXjXMXMXMXMXnXgXlXZXBXMXJX7X,.1 : # + @ # O = * # # * * * * * 5 m M :.v.iXGXCXNXlXlXjXfXdXdXdX6X6X9XjXMXwX4X2XuXaXaX#X4.2.V G ` _ _ _ ` ` 3.4.&.X.X.X.X.X.| < < : # # # # # # * + : + O n ) { Z f g d d d t.t.a a ^ _ & X O o O O O ; O O O O X X ; = 6 6 ....#.m *.6.I.P.J.g / / P.).[.).).).Y.Y.K.K.L.] R N V 1.#XmXnX6XjXNX",
"dXdX5XnX-X:.> V ] U P ' K.K.L.L.6.6.{ ) ) 6.]. X.X9.,.-.+.@.@.@.w.,.,.w.,.,.w.+.+.,.,.=.C c I I / / g d d r.r.d d g u.^ W b c k m %.=.=.$.&.&.X.o.X.X.X.X.$.-.-.-.e.2.XX+X{.}.|.[ ` ` ` { E.{.}.+X}.XXXXXXaXFXiXnXfXfXgXgXfXfXfXdXjXjXdX5X6XfXMXMXBXCX=X9.6 : : @ * * * # ; ; ; % % # # + # 6 ;.=X5XMXNXnX9X0X6X4X3X4X3X2X:X&XN.N.:X:X:X:X2X7XiX.X2.1.7.8.5.W.W.) ( _ { [ _ s.|.|.XX4...&.-. .O.O.-.$.} #.#.#.%.%.#., > C V B B B ( ` ` p.p.p.i.p.p.! _ d.` z . ; - k 5 > > > > % : : : < , } } | } } , C ( ^ i.d r.r.d g ~ I.!.I.I.I.Y.Y.T.Y.Q.Q.!.5.7.*XiX7XwXjX,X4XwXqXqXqX4X4X2XeXeX:XeXCXeX4XCX:.1 # o + + % ; ; ; ; O O # * @ 6 ;.#XGXVXnXNXBXlXlXlXlXlXlXlXlXlXjXjXjXjXjXBXgXmXbXoX7.5.'.(.P.{ E.7.) ( [ u.i.i.i._ B 6 } | | | } , < > : > * % % - - - 5 w w $ $ U [ E f g t.t.t.f Q _ { ` k & & w w % % = = = = - - - * : , #.$..., 6 C H [ [ ^ Q Q Q ! v ' I.).).Y.Y.Y.Y.I.] U k C c.FXCXNXMXjXjXfXfXfXjXjXjXjXMXMXCXCXlXlXZXBXfXCX#X6 # @ @ @ # # * = # # % % % # @ @ > m M %.9.$XiXGXjXBXBXlXdXdXjXjXjXjXjXjX9X9X9X0XuXiXiXtX.X2.H H _ ` d._ ` ` l.4.:.>.o.X.X.$.&.< + # # O ; & & - O # > m M M H G Z s f g p g t.f a Z A A B C n @ @ o O O O . $ $ $ ; ; > 6 6 6 6 M H d._./.J.F.g / H.).).).).).Y.Y.U.P.I.] R R C M 0.=XnXnXdXdXhX",
"dX6X5X9X7X9.m N Y T T ' K.K.K.L.6.6.{ ( ( { 6.7. X9.,.-.+.@.@.@.w.,.,.,.,.,.,.,.,.,.&.=.C k x L E a g d d r.r.d d g f ^ _ b k = n m m m #.#.#...........$.$.$.$.$., 2.XX+X[.).(.[ [ [ { { '.}.+X+X+X{. X*XFXFXuXgXgXdXgXgXfXfXfXdXdXdX6X6X6XdXdXnXCXuXb.%.6 5 : * * * * - % $ ; - - * % + + > m v.;XnXnX9XnXMX6X3X3X4X2X:XV.N.N.Z.:X:X:X:X2X7XiX*X0.1.8.7.6.!.W.{ _ _ [ [ ! s.f.|.XX3.6 $.-. .-.-.-...< > * * > + > * * 5 w & & & G l.l.p.p.s.s.i.i.p.p.a.A & ; . ; - - - - % $ - % + + : , e.} } } , n G ^ i.d d r.d d g G.I.Q.I.I.T.Y.Y.Y.Y.Q.!.!.7.XXtX8X3X6X4X:X>XqX4X4XqX4X4X4X4X0X4X4X4X:X4X=X%.o + + # # % ; ; ; ; ; ; # + # 5 5 9.nXGXVXNXBXBXlXlXlXlXlXlXlXlXjXjXjXxXxXlXlXNXKX*Xc.6.6.).I.{ E.6.) ( [ i.Q f Q _ G 6 , , } ....6 > > % - - $ & - & $ - X % $ & B ( Z Q f y.d t.t.^ _ ` ` B k & & & & % w w q & & & & & > , #...6 5 5 C ` _ ! E a E Q ! W [ I.Y.Y.Y.Y.Y.I.I.( z n 1.*XGXmXjXjXjXjXjXjXjXlXjXjXjXMXMXMXNXlXlXlXAXAX=X:.@ @ * * * % % - - * * * * % % * * * m m M :.v.=XGXfXlXlXlXjXjXjXdX6X9X9X9X9X9XwX9XuXpXpXiX#X7.1.) G _ d.a._ ` ` ` >.>.%.%.%.#.%.: + ; ; . . & j 4 n V 2.c..X.Xc.x.J u s s p g g f Z D ` l.oXyX.Xc.*.* O ; . . . . & $ ; > m m M M K _ u.u.f g g g / P.).).).).Y.Y.Y.U.L.L.] R R V *.9.=X8X5X>X5X<X",
"dX6X<X9XuXv.*.n Y ) ] ' ' K.L.L.{ 6.{ ` _ ` ` 3.v.9.,.+.+.+.@.+.+.o.o.o...#.%.%.%...m M n q x L E f g d d d d d d p s ! ( c w w n n r > > > t , 6 , , , #.$.$.$.#.m 1.XX}.)._./.s.s.[ { I.[.}.+X{.+X X XyXFXmXnXgXgXgXgXdXdXgXfXdX6X6X6X6X6X6X6XnXMX=X>.5 5 5 > > * * * - - % ; - - = = % + # > *.v.8XiX8XMXMX4X4X4X4X:XV.N.N.N.Z.:XrXrX:X2X4X0XiX.X2.1.7.W.E.E.d._ ! ! ! Q Q u.f.l.H 6 ..X.O.-.X.$., + + $ $ $ X - - ; ; O . $ ; n ` d.p.p.p.p.i.! ! p.` z z H C 5 4 - w w q & - ; O O = m m , , 6 n z D i.t.d d r.d g g H.Y.Q.T.I.T.Y.Y.I.Q.E.!.5. XtXuX3X2X:X:XV.:X,X2X2X4X4X4X4X2X4XwX4X&X&X0Xv.7 1 + + * * % $ $ $ # ; ; # + @ 5 @ ;.-XJXJXNXNXNXlXlXlXlXzXlXlXNXNXNXjXjXxXlXlXNXAXmXoX7.3.'.(.I.E.6.) _ _ ^ Q f Q _ K M 7 7 6 6 m m r - & & & & & q   . & n *.1.1.1.) W Q t.g d t.t.i._ ` ) 7.].7.5.Y k $ q q 9 9   9 9 & = > 6 6 5 5 G G _ ! E a a E Q W ' I.I.Y.Y.Y.Y.Y.L.] B 4 C .XFXJXfXfXfXfXjXlXNXNXNXNXjXjXjXMXMXNXzXlXlXJXJX9.# @ * - * - - - - = - - - - * * * * @ 5 m m %.:.#XmXfXjXlXjXlXNXjX6XjX9X6X6X6X6X>X3X9XpXpXiX=Xc.3.) B ( ` d._ G G K K 3.H ;.*.M *.> ; & $     9 j j - 2.#X=X%X%XoXoXa.F a s s g g f Z a.@XyXbXFXaXtXv.M ; ; . . . . $ $ % r m *.) ` s.i.t.t.r.d d F.J._.).).Y.Y.Y.U.Y.T.L.] T U Y <.;.b.=X8X5X>X>X>X",
"dXdX6X4XuX=X2.n N ) ] ' T K.K.' { { { { ` ` ` H c.9.>.-.-.+.+.+.o.7 < > * - = - 5 > = = & & j x _ E g g d d d d d p s S b 4 - = w w - - % % % * r > > , #.$.$...#.m ) '.)._././.u.u.[ { (.[.}.+X{.+X XXXFXGX8XfXgXdXdXdXdXdXfXnXjXdX6X6X6X6X9XfXCX7Xb...: : 5 > > - % - - - - ; - = n n > - - * > 4.=XiXuXuXuX9X0X6X6X>XV.V.V.Z.N.N.Z.:X:X:X:X7XuX*X4.1.7.W.E.E.d.[ ! ! Q Q Q Q Q p.G 5 6 X.X.-.X.#., + ; $ $ q $ - & O ; 4 N V M M H J ` p.p.! p.! D _ a.l.z.oXoXz.H n w w e w & &   ; 4 n n > n M H D f d r.r.r.d d g J.U.Y.Y.Y.Y.Y.Y.Y.Q.E.E.) 5.*XFXuX2X4X:X&XN.:X,X:X:X,X,X4X4X2X4XMX4X&X2XuX,.: : @ # - - - % $ - - ; ; # + * 5 > *.%XnXJXNXNXNXlXlXlXlXzXlXlXNXNXNXjXjXxXzXlXlXAXKX-X X5.'.(.I.'.6.{ ` _ ^ ! Q ! _ J K M 5 7 5 n n k & $ q q q q q   q B XX*X*X#X.Xz.` ! i.g g t.t.Q ! ` z.oXyXyXyXXXY $ q 9 9 9 9 9 9 q - > n n C G J J ! Q Q f E E W W { I.'.Q.Y.Q.Y.I.!.] c 4 ;.=XKXVXfXdXfXfXjXjXNXNXNXNXjXjXjXjXMXlXZXcXDXAX=XM + n - = w w = = = = = - - - * * * * * > n m M %.0.-XNXNXjXjXlXBXjX6XjXjX9X9X6X6X6X6X9XwXMXpX-X.X7.) ( ( _ ` _ A A A J g.` ` H V V = $ & &     9 i q k  XaXiXM.M.%X;X@XD Z a f a s Q _ @XbXbXtXtXiXiX=X;.; X .     . . $ % N Y 5.{ s.i.t.t.^.r.d d ^./.).).).Y.Y.Y.Y.P.K.K.' U V Y <.9.v.=X8X5X>X<X<X",
"hXdX6X6XwX7Xv.m n Y ) ( T ' K.' ] { { d.d._ J K z.4.>.>.-.+.+.-.&.6 : > = q q w w k 4 - 4 n B z _ W E g d d d d d p s Z A B C n = & & - % $ $ w r r r m #.#.....6 C G p._.u.i./.i.u.s._.'.[.}.+X{.+X XXXFXKX-XgXgXdXdXdXdXdXnXMXjXjX6X6X6X5XfXBXBX#X>.6 6 > > 5 > - % - = = - & - w n n n n > > : %.v.iXmXiX7X8X4X6X6X>XV.V.Z.<XN.N.Z.Z.V.N.N.&X7X-X.X8.7.!.E.E.{ ` _ ! Q f t.i.Q ! D G M %.#.$.&.%.5 % $         & $ & C 7.XX*X.Xc.;.K ` a.p.g.p.p.D J x.oXbXKXKX;Xc.;.n q q q         & 5 n n B G ! f p p r.r.d d h / U.).).U.Y.Y.Y.I.Q.E.E.5.H c.tXmX2X4XwX,X:XV.:X,X:X:X:X:X2X4X2X2XpXqX2XpX=X%.: : @ * = - = - - - - - ; % * + > > M c.%XJXVXNXNXNXlXlXlXlXlXlXNXNXNXNXxXxXxXlXlXDXKXmX.X7.E.I.E.'.'.6.{ _ _ ! ! ! J J K K M M C n k k &   q q q q 9   b ].yX=X=X=X%X.Xz._ Q f g g f Q ! d.oX=X*X*XyXyXW.e q q 9 9 9 9 9 q & k N G J J g.S s f f Q Q E W ( { E.[.Q.Q.Q.I.L.E.U k V c.-XVXmXjXjXjXfXfXjXjXMXNXNXlXjXjXjXlXlXcXBXHXnX4.@ = n w w w w w w k 4 = = = = - - * * * > > m *.%.:.#XAXNXNXjXjXNXNXdXjX6X6XjXjX6XhXlXjXjXMXCXiX=X X2.3.) _ _ _ D A D D g.J ` ` ) 1.k $ $ & q q 9 9 q N c.=X=XV.V.&XM.oXa.D S Q a h ! @XoXbXbXmXCXMX0X-X;.; X . . 9 9 . . j U [ _././.t.r.r.^.r.r.t./._.).).Y.Y.Y.Y.Y.K.' ' U U V <.2.v.#X7X9XdX6X6X5X",
"lXhXhXqXwXpX$X2.C B U ( ' ' K.] ' ' [ d.d._ J J x.>.>.>.,.-.-.,.&.< * w q e x x q q k B 3.c.c.z.3.G Z s d d r.r.d p s D x.oX.X0.V k & & w $ q e N N n m m ......5 K J p.u.i.t.t.t.i./._.[.{.{.{.{.XXXX*XFXmX5XfXdXdXdXdXdXdXnXMXNX6X6X6X6X6XfXBX9Xb.6 7 6 5 > 5 > = - - = w = - w w n n n n r * > > ;.#XiX7X2X8X3X4X,X:XZ.Z.Z.:X:XrXrXrXZ.V.N.V.&X-X*Xz.5.6.!.E.{ { [ ! Q f t.t.t.i.i._ K M M #.#.#.> $ q 9 9 9   & $ - 4.*XaXtXtX%Xc.x.` J g.p.g.p.p.x.oXbXKXFXVXmX*X7.N e q q 9     . ; k B H _ D a p y.r.r.p p h h ~ U.).).U.Y.Y.Y.I.E.E.6.1.3.#XmX9X:X4XMXqX,X:X,XqX:X:X:X:X:X4X2X2XqXwX0X0X9.5 : : @ > = w w - - w k = - * > + * @ 5 >.v.VXVXNXNXNXlXlXlXlXlXNXNXNXNXNXkXxXxXxXlXlXVXFX*XXXE.E.E.'.'.'.{ { _ _ _ W D J J J K K G B z k & .   9 9 9     U XXyX*X&X&X&X%X.Xl.! f g g f f p.x.tX-X%X.XyXyX].c e e q q q q q q q c ( G D D S s s s f f Q W _ { { E.Q.Q.Q.Q.I.L.] B n 4.*XnXMXjXlXlXjXfXfXdXfXfXNXMXjXjXjXlXlXlXgXDXHX%X7 # n w w w e c k k k k 5 5 = = = - * * > > > m *.%.;.9.CXNXCXjXjXNXNXdX6X6X6X6X>X&X&X<XhXdX6XwXpXtX.X8.7.{ _ _ _ _ _ g.i.g.D _ ` ` 3.N ; $ & & & & & q - 3.#X&XV.V.C.M.oXx.p.D E a a s.UXPXbXiX8XwXpX0X#XM O X . . 9 9   9 v / /./.t.^.^.r.r.r.t.g ^./._.).Y.Y.Y.Y.Y.I.K.' T U B V 2.0..X$X7X9X6X6X6X6X",
"hXdXxXwXeXpXiX.XV V U ( ' ' ' L.' ' [ d.s._ J K ` >.>.>.,.,.&.:.%.: % w q 9 0 0 9   k z.*X-X=X*Xb.x.! a g d r.r.y.y.i.x.PXFXaXtX XH & $ q q e e e e w n 6 6 o.o.M J _ ! u.t.t.t.t.i._._.[.}.{.{.+XXX+XyXFXiX8XlXdXvXvXdXdXdXnXMXjX>X&X6XjX6X9XfXM.>.7 7 6 6 5 5 > > > = w w w w w k k k n n n = > : m 0.*XiXiX0X9X6X<X<X:XZ.Z.Z.1XeXeX1X:XZ.V.&X&X-XyX X5.5.!.] { ` _ ! i.i.t.t.t.t.i.s._ G H M m m * $ 9 9 9 9 9 q $ k c.tXaX=X7X-X%X.Xx.J J p.g.p.x.@XbXKXPXfX5XAXaX XN e e q 9   . . 4 B ) ) ! a s p r.r.d p h a ~ P.Y.)._._.U.Y.Y.I.E.E.3.H v.-XuX4X4XeXeXeXqX,XeXeX,X,X,X:X:X:X2X2X4XMX0XM...: 5 @ * n w k w - - k k k = - = * > @ : %.9.%XAXDXNXNXlXlXlXgXlXNXNXNXBXNXlXxXxXxXzXfXVXGXtX*XW.!.E.E.].].6.{ ( ] _ _ J J D D K K K G G z j     9         N ].yX%X&X:XsX&X%X|.s.Q g g f Q _.@X;X;X;X%XtXyX7.w w e e e q q q q x L ( W S S y.y.y.p s f ^ [ { l.{ E.E.E.Q.Q.I.L.U N V c.-XmXNXlXlXjXjXfXfXfXfXfXMXMXjXjXlXzXlXcXgXSXdX4.@ * n w c c c c k k k k n 5 n 5 = = > = > > > n %.%.%.:.9XMXCXNXMXNXjXdX6X6X6X6X&XM.N.>XdXvX>X4XpXiX#X8.8.6.{ _ [ s.s.i.i.i.g.g.J ` 3.V n 4 & & & & & w & V .X&XZ.V.V.&X%Xc.d.D Z Z E |.oXPXmX8X2X:X:X$X,.: X . . . 9 9 x E / t.^.r.r.^.^.^.F.g / H./._.).).Y.I.I.I.I.K.K.' U U Y 1.8.0.$X=X7X7X5X6XdXdX",
"hX6XxXkX4XpXpX*X;.V B ( ' ' ' I.L.] { (.d._ _ g.J K >.>.4.>.>.:.;.5 - k e 0 i i x   c XXFXiX&X;XbXoXl.! f d d p y.i.f.oXbX-X-XmXbX7.& $ & q q e q q q k n C M K J f.i.f t.t.g i.i.u._.).}.{.{.].XXXX*XaXaX-XgXNXhXdXdXdXdXfXnXMX9X&XV.>XNXNX8X7X9.%.7 : > m m n n n n n k w w w w k k w n N N n n > > *..XiXuX0XjX9X6X1X<X<X:X:X:X:X,X,XZ.V.V.&X&X-XtX.X1.5.W.] 5.] ( _ ^ i.i.f f f i.s.p._ _ ` H H k .   9 9 9 9 9 . k  XaXaX=X7X7X-X;XoXx.g.g.a.a.x.oXbXbXPXNX;XJXFXc.r $ q e     2 2 l A ! E s s p p p p p f a ~ L.Q.Y.U.U.`.Y.Y.Y.I.E.W.3.H %X8X3X>XwXqXrXeXkXeXeXeXqXeX4X:X&X&X2X2X4XCX2X9.: : m * - C w k w & w k n k k = % - n * @ M >.c.JXAXVXNXlXgXdXfXNXNXDXBXBXNXlXxXhXzXlXlXNXJXmXyX XW.E.6.E.'.E.{ ) ) ) ` ` p.J F F F F G G A j         & & $ k 6.yX%X&X:XN.sX=XoX|.p.a f Q u.|.UX%X;X%X%X*XoX1.& % q w e q q q i v / ^ Q f f t.t.t.f f ^ _.(.l.'.E.E.E.I.I.E.E.] B C ;.c.-XNXBXfXfXfXfXdXdXfXjXjXjXjXjXjXlXlXcXZXNXLX%X7 = n k k c c c k k k k c k k n n k w = = * > > > m %.%.;.-X9XCXCXCXNXjXdX6X6XjXjX>XV.:XjXhXdX>X4XpXaX$X0.1.6.6.{ { d.d.p.g.p.g.g.D J a.G J B j & & $ & w & n ;.b.%XV.C.M.%XoXx.G F F _ oXbXPX-X-X9X9X&Xb.6 O X .   . 9 i / f ^.^.r.r.r.^.d ^.F./ H._._.(.).[.Q.I.L.L.L.' ' ' U Y ) 2.0.0.=X7X7X3X>X6XfXjX",
"fXdXdXjXjXjXMXnX%X;.n ( ( T K.L.!.5.] ] { ` p.g.g.g.g.g.a.` 3.3.` b & q e i i 9 i i k *XuX;X&X>X-X*XyXx.S s p y.i.@XPXuX8X-XPXKXUXH & w w w e e q q x W [ s.s.u.i.t.t.g t.i././._.[.}.[.{.}.+X{.].*XaXFXmXnXnXnX9XdXfXfXfXnXnXfX;X3X&XMXMXMXJXb.6 6 6 6 m m m n N N N N N c c w k n N N n k k k n = > 5 %.#XuX-X9X9X9X6X6X6X6X,X>X:X:XZ.Z.:X:X:X4X$X-XiX.X1.1.5.6.I.{ [ ' _ W W [ _ p.p.s.u.u.u.u.f._ u . .           & k 7.yXiXiX-X-XM.;XoXx.g.g.oXPXbXbXPXmXbXbX*X3.# O - & & . u Z f s s s p p y.y.p p s Z W ' { E.I.L.I.Y.Y.Y.Y.L.!.{.1.;.#XiX9XqX6X,X,X,XeX4XrX,X,X4X4X4X4X4XpX2X&XpX3X,.7 5 5 5 n n n n N k w w k N N k n n k = - = n M M c.-XJXDXfXDXDXlXgXfXfXNXNXNXjXjXjXjXlXNXNXNXVXKXyX8.6.] '.(.I.'.E.1.Y ) ` ` J D S D F F F S D F z z & & & $ w - K z.%X=X&X$X$X=XoX|.J F a.@XUX*X%X;X%Xb.3.K 4 & - & & j l u a f p p p s g f / i.^ ^ P.I.I.I.E.E.I.E.E.] ] E.5.B C *.c.-XVXNXdXlXgXgXgXgXlXjXjXjXjX6XjXBXlXlXZXNXmX%XM = n k B c N c c c k k c b B N N k k w = = = * > 5 m m %.=.c.%XnXMXnXNXNXdXdXhXjXjXdX6X6X9X9XdX5X-X7XiX-X.X7.7.7.6.5.6.6.6.` ` _ J J D D D D J J G z & - k { ` ` ` 3.x.b.%XM.M.b.n.;.;.oX-X-X-X-X;Xv.n.>.;.H H z   i E J.F.^.^.^.^.^.^.t.g g /._.`.[.[.(.(.I.I.{ { { { ] ] ] R R Y 1.2.c.*XCX9X&X&X6XjXfX9X",
"MXfXdXjXxXxXjXjX;X>.C V U T K.L.!.!.!.5.{ { p.p.g.g.g.p.p.a.d.d.d.! c x 9 9 i i i i & .X=X&X;X;X=X%XtX@Xg.s s i.f.oXuXeXpXMXPXUXl.k . & & q w q 9 x E ^ /.u.i.t.t.t.t.t.i././.P.[.{.OX{.OX+X{.].c.*XaXmXnXnXnXnXfXnXfX5X5X8XgXnX8XnX-XNXnXuXnX:.6 6 m m m m n n N N N N B c c e w N N N k k j k k w = > m v.iXuX9XfXwX0X0XwXwX9X,X<X:X:X:XrX,X:X0X&X7XiX.X4.1.7.W.E.E.E.E.{ ( B ( _ _ p.i.i.i.t.t.i.i.Z l       j   . .   H  X*X-X-X-X%X;XC.n.n.n.;XPXgXgXPXbXPXoXx.K H M - ; 4 4 Z f f p p y.y.y.y.p p s Z ( ` 5.6.E.5.L.I.I.Y.Y.L.I.E.E.) 4.=XuX9XwXwXwXqXqX4XrXrX4X4X,X4X4X4X4X0X=X=XuX$X&.: 5 5 5 n N N N N c w w c N N z N k k w = = n C M 4.*XGXJXmXNXDXDXlXjXjXjXNXNXNXNXMXNXNXNXNXNXDXVXtXc.6.{ (.(.I.E.W.1.V V H ( _ ! ! D S a a S S F l G z 4 $ . B ` 3.x.b.%X&X&X&X&X%XoXx.K x.oXyX*X-X%Xb.x.K J K G z k & j Z Q f y.p p d d g f / ^ [ [ L.L.I.I.E.E.I.Q.E.] ] 6.) C C ;.v.8XVXlXdXlXgXgXdXgXlXgXjXjXjXdXjXBXlXlXDXmXmXc.5 n N c N c c b c k c z b c B c c c k w = - = > > 5 m m #.*.9.$XmXVXMXMXdX<X>X<XdXdXdX6X9XjX9XnX9X7X8XnX-X%Xc.4.2.2.5.8.8.7.6.3.` _ D D D D D J J G B z B B { { ` a.a.a.x.x.M.%XM.b.>.,.%XPXgX;X%Xb.x.;.;.3.H ` W v a / /.^.F.^.^.^.^.F.F.J./._.`.[.[.'.'.'.'.E.{ { ] ] ) ' ] Y Y 5.1.2.v.=XMX9X5X3X9XfXMXMX",
"CXNXjXjXlXlXjXjX8Xc.V V U T L.L.L.L.!.] { { ` a.a._ J _ p.p.s.s.s.s.^ E i 9 i i i i & 3..X%X;X;X=X=XiX*Xx.D F D x.-XpXrXpXMX%Xx.z & . & & & q x L W ^ u.i.i.t.t.t.t.t.i./._._.P.[.[.{.{.+X+X{.W..X*XmXFXnXnXnXnXfXnX8X&X&X;X8XmXnXVX9XCXMXuX-X%.6 6 m m m m n N N N B B B c c c k c N N N k j k k w = = 5 :.%XnX9X9XwX0X9XMXMXwX,X<X,X:X,XeXeX4X0X7XiXiX*Xc.2.7.W.E.E.E.'.E.{ ( B ( _ s.u.i.f p t.g t.u.[ v   &     j b A _ '.|.oX*X;X%X;X%Xn.n.b.PXPXPXPX-XPX*Xb.x.x. Xz.V 4 l F S Q s p p p p p p s s Z _ { '.E.W.W.6.] L.I.I.T.L.!.!.) V v.uXuXwXwXkXkXwXqX4X4X,X,X2X2X2X2X4X4X3X2X0X7Xv...< 5 5 k n N N N N c e w c N N N N N k k = - r C V *.b.iXGXVXmXNXDXlXjXjXjXNXNXNXNXNXNXNXNXNXNXDXDXFX*X3.6.(.(.I.{ E.5.1.1.) ) ( ! D S S S a a F F F G B k & & { |.x.x.x.c.#X=X=X%X%X%Xc.3.c.*X=X*X*Xb.x.x.x.x.l.l.) z j z ! u.f s p p d t.t./ ^ ^ P.P.L.] ] ] { I.I.E.E.] ] 5.) C V 2.#XnXVXlXhXzXdXgXgXgXlXlXjXjXNXjXlXNXfXgXDXmXtX%.> n N N c c B b c z b B B B B B b c k k w = > > > m m m m %.:.v.iXVXVXNXdX<X:X>X6XdXdX6X9X9XdXMXjX9X8XnXiX=X.X4.;.1.5.5.8.W.8.6.` ` J D D D D J J J G H ) ` d.s.p.p.p.g.K g.n.oX%Xb.n.n.;XgX-X%Xb.x.>.K K K G _ [ ^ / g F.^.F.^.^.^.g g /./.`.[.OX}.[.[.[.'.[.'.I.{ ) ) ) Y R Y 5.5.8.4..X=X8X9X9X9X9X9XjXCX",
"VXCXNXNXNXlXlXjXNX#X;.V B T ] ' ' L.L.] ] ` 3.3.l.` ` _ p.p.p.u.u.u.u.^ E i i 9 i i j H z..XoXyX-X=XtXtXoXK F J oX-X0X,XwX7Xb.3.C k 4 &     j b [ [ u.u.t.t.t.t.t.i./._.`.[.).(.E.E.!.W.{.XX XW.oXtXFXFXiXnXnXfXfX9X3XV.M.%X5XmXfXVXnXNXMXuX$X6 6 m M M m n n N N N B B U B c c k c B B B k j k c w w = * 6 b.7X8X9X9X6X0XwXpX9X6X1X<X,X1XqXeX4X4XpXiXiXtX.X2.7.W.E.E.E.E.E.E.{ ) G b W p.u.i.s y.p f u._.^ b c .   G (.(.s.f.f.|.oXoX*X;X;Xn.>.b.PXPXPX-X%XoXoXoXoXoXXX@Xl.G l D S a s s p s s f a Z E _ d.'.].W.W.W.E.I.I.I.I.L.' !.!.V ;.%XVX0XqXwXqX4X4X4X4X4X2X:X:X:X:X2X4X4X3XpXCX&X:., 6 5 k n N B B B U N c k c B B N N N N n w - - n C M 4.%XFXJXNXgXNXNXjXfXfXNXNXNXNXMXMXNXNXNXNXDXVXGXtX3.6.{ I.I.] 6.5.5.5.6.{ _ ! Z D D D S S F F G J z z z B 6.l.x.a.x.x.c..X%X%X%X%Xv.c.#X-X=X*X.Xx.x.x.x.x.l.l.` H B G _ u.Q s d g t.t.i.u.H.P.P.P.P.L.] ] ] ] ] I.] ) ] 5.) C V 4.*XCXCXfXdXzXdXgXgXgXlXjXjXjXlXjXNXNXfXlXDXNX#X5 > N N U c U U b z z B G B B B B B c k k k k n 5 5 m m 6 m m %.9.=XVXAXNXjXdX<X5X6XdX6X6X3X3X6XjXjXfX9XnXiXtX.X4.;.1.8.5.5.W.8.6.6.` _ J J J J J J ` ` ` ` a.d.p.! ! p.g.p.a.x.b.oX%Xb.b.>X5X%Xb.x.3.K K K J J ! ^ / f g d g F.F.g g g J._.`.[.[.[.[.[.[.{.{.'.E.{ { ) ) ) Y R Y 5.5.8.0.#X7X-X5X9X9X6X5X9XjX",
"CXVXNXBXBXBXlXjXBX;X0.M C Y Y ' ' K.L.] ] 5.5.7.7.3.` _ p.p.u.i.i.i.i.i.i.Q u 2   2 v z _ d.@XUXyX*X=X-X=Xc.K x.;X-X0X0X0XM.x.K 3.) B j   i A [ ^ u.u.u.i.t.t.t.u._._.`.OXOXOX{.E.!.!.W.W. X X X*XtXmXmXuXnXnX9XnXfX3XV.M.%X8XmX8XMXnXMXMX8Xv.6 %.%.%.M m n n N N N B U U U b b k b B B B c k k k k w w * > :.=X8X9X9X9X6XwXwX0X,X1X1X,XeXqXeX4X2XpX7X-XiX#X4.3.6.!.E.E.E.E.E.E.6.( z j v Q i.u.y.y.t.t.u.s.[ ( 4 j ( '.s.Q i.u.f.x.@XoX*X*Xv.>.b.gXPX;X%XM.b.x.x.oX@Xx.|.@Xd.D ! Q a s s s f Q ! ( _ { '.].].].W.W.W.E.E.I.I.{ L.] E.7.C 2.=XuX3XqXeX4X:X&X:X4X4X:XN.N.:X4X4X4X4X4XCXCXM...< 6 n n n N B B U U B c k N B B B B B B N k = = r m M ;.v.tXJXJXNXgXNXfXfXfXjXNXNXNXjXjXlXgXmXNXNXNXFXFX4.3.` { I.[ E.E.6.6.6.{ [ [ _ ! ! ! D D A A G G z G ` ` l.` a.a.a.a.x.x.b.oX%X%XM.v.&XiX=X.Xc.x.a.a.a.p.a.x.` ` ` ` _ ! S s f f t.i.u.u.H.P.P.I.I.L.L.K.' ' ' ' ' ( ] 5.1.V ;.c.-XVXNXdXfXzXgXgXgXgXjXjXjXjXjXjXBXBXlXDXDXmX4.= n N c U U U B z z z G G G B B B B b c k k n n n 5 n 6 6 6 m %.4.#XiXVXVXNXlX6XdXdXdX6X6X3X>X6XjXjXjX9X9XuXiX%X4.;.1.6.5.5.W.7.7.7.l.` ` _ J ` ` ` l.a.a.` _ p.p.p.p.p.p.p.p.J x.oXoXv.M.,X;Xb.x.K K K K J _ ! ! / f g h p g g g g g H._.`.OX[.[.[.[.[.{.{.[.E.I.{ { ) ) ) Y Y Y 5.1.8.c.=XuX3X3X6X9X9X9X9X9X",
"VXNXNXBXBXBXBXlXBXnXv.%.C V Y Y ' P.K.] 5.5.8.7.7.6.6.{ s.p.u.u.i.t.t.t.i.u.! z 2 u A u Z Q s.|.UX*X-X=X-Xv.>.b.8XfX8X5X;Xb.x.x.z.].` l l Z ^ _./.u.i.t.i.i././._.).[.OXOX+X+X+X{.W.W.W.W.W.~. X*XtXmXnXuXnXnX8XMXMX5X&X&X;XfXNX9XnXnXnXnX&X9.7 %.%.M M C C N N N N B U U b b c x v b b b b k k w k w w = > %.v.uXMXMX9X9XjXwX0X<X1X1X,XeXqXeX4X2X0X2X-XiX*Xc.1.5.!.!.E.E.{ { { 6.E.{ ( l u a Q t.t.t.g Q u.s.( b b { '.s.Q t.i.u.f.x.@XoXoX%X4.b.-X;X%XoXx.x.x.x.|.x.|.@X@Xf.! i.i.Q a a Q i.u.` 6.6.].].].].].6.W.W.E.E.E.I.{ E.) 5.1.V c.7X7X4XqXqX,X&X&X2X0X4X&X$X&X:X4XqX4X2X4XpX2X,., < 6 n n N V Y U U Y U c c N U U U B U B B k w = > n M *.9.*XKXJXVXgXmXfXfXdXjXNXjXjXjXjXfXfXgXmXNXNXnXGX X3.{ { [ L.E.!.5.] ] { I.I.{ [ ( A A F A A A J ` l.l.a.d.a.p.a.f.a.a.a.x.oX%X=X#XM.=X=X#Xc.x.d.f.f.f.p.a.d.a.l.x.l._ _ ! Q Q Q Q u.^ ^ P.P.P.I.I.T.I.K.K.' T U U U ) 5.1.1.1..XiXVXMXfXlXlXgXgXgXlXjXjXjXjXjXjXNXNXNXDXNX-XM n C B c U U U B b z z G G G G B B B b b z k n n n n n 5 5 6 m ;.2.v.-XVXNXMXjXdXdXdXdX6X6X6X3XqXqXqXqX9X9X8XiX*Xc.1.1.5.6.5.E.6.E.W.l.l.{ ` ` 3.l.l.l.a.a.J D p.p.p.f.s.p.i._ _ x.x.oX%X%X>XM.x.a.K J K J J p.! Q Q g h p d g g a E H.`.OXOX[.[.[.{.{.{.{.[.Q.Q.I.{ { ) ) Y Y Y <.5.1.4..X-XnX8X6X6X9XfXfX9X9X",
"nXNXNXNXZXZXzXlXNXAX%X;.M *.<.) { K.K.] ] 5.8.8.8.6.6.{ [ s.u.u.i.t.y.y.t.u.p._ b l Q s g s f u.|.@X*X=X7XM.:.b.8XmX-XoXb.x.x.x.l.|.d.A ! u.u././.u.i.f i././.`.[.}.OXOXOX+X+X+X+X{.].{.W.7.]. X=XiXmXnXnXnX9X5XfXjX9X3X;X5XfXnXfX9XuXnX9XM.>.6 ;.%.M C C B Y B B B U U B b v l l v v b b c k k k c w = n 5 M 9.iXuXuX0X9XjXjX9X6X6X6X4XeXqX4X4X4X2X2X7XtXtX.X;.5.5.6.E.E.I.I.5.E.].}.'.' v u i f i.i.f f i.u.W A ( { |._.u.i.t.i.u.s.|.x.@X*Xc.b.;XM.b.b.x.x.x.|.@X|.@X@X_.i.Q i.u.i.! ! ! s.d.E.W.]. X].].].].6.W.E.E.E.E.E.] 6.5.1.*.*.M.uX0X4X,X,X,X>X>X4X3X2X2X2X2X4X4X4XqX4X4XuX#X&., 6 , n N B Y Y Y U ) U c c N U Y R U U B B c k k r r C V 4..XnXJXVXgXNXfXfXdXfXjXjXjXjXjXjXgXgXNXNXNXMXGX*X1.{ { ' I.Q.!.!.] ] L.I.I.E.{ { _ _ A A G G l.l.x.l.J f.a.a.d.s.p.p.f.x.x.b.%X#XM.%X%Xb.x.a.d._.f.f.f.f.a.d.l.l.l.a.d.s.s.! ! ^ ^ [ P.P.K.T.L.I.I.P.K.K.' ( U U U Y ) 1.1.4.#XFXVXnXjXlXlXgXgXlXlXjXjXjXjXjXjXNXNXNXDXfX.Xn C N U U U U U B B A A G G A G B B B B N z z n n n n n 5 5 6 m :.:.0.=XmXVXfXjXdXdX6X6X6X6X6X4XqXqXqXqX6X9X9XuX-X.X3.) 1.5.5.5.!.E.E.E.E.6.6.3.6.l.l.l.a.g.D g.g.g.g.i.p.u.u.p.s.d.d.x.b.M.V.n.3.K K J J J J ! a a g s h p d h h E [ ).}.}.[.[.[.[.{.}.{.[.Q.Q.I.I.{ { ) ) Y B B 1.1.2.0.#X7XnXfXdXdXdXdXdXdXdX",
"nXnXMXNXBXZXBXlXlXHX=X:.%.*.*.1.] ' ' ' ] !.!.5.6.W.'.(.[ [ [ u.i.i.t.t.t.u.d.d.` F Q p t.d d f S f.oX*XtX$X9.M.-XPX%Xx.a.a.a.f.d.|.l.p.f._.u.i.i.i.i././._.`.`.}.+X+XOX{.}.OXOX+X}.{.{.].7.].XX-XiXmXnX8XnX9X3X6X9X6X5X5X8X9X9X9X5X9X9X7XM.%.M ;.*.C C V Y Y U U U U B b b v u u u v v v z k k c N k = n 5 5 :.7X8X9X4X9X9XjX9X6X6X6X6X4XqX4X4XeX2X3X7X7XiX%X;.5.] ] ] ] E.E.E.{.W.].'.'.{ _ E Z Q i.i.i.i.Q S p._ ` d.s.u.i.t.t.i.u.f.d.x.*Xb.b.%Xb.x.x.x.x.x.x.@X@X|._.f.i.i.Q i.u.! _ [ (.'.]. X{.].].].].].].'.E.6.E.E.E.5.7.8.2.*.;.#XMXwX4X:X:X>X4X0X7X3X&X3X9X9X4X4X4XeX4X0X7Xv.%.6 #.> n N U Y Y U U ) U c c N U Y Y U B B c c N n n n n M 2.v.-XJXJXnXmXfXfXfXfXjXNXNXNXNXjXlXmXNXNXNXNXJXFX1.6.{ ' Q.L.Q.Q.E.I.I.I.L.E.E.'.'.{ ( ( ` a.x.x.x.a.g.p.p.d.s.s.p.f.f.f.a.x.v..Xv.v.c.x.x.l.(.f.p.p.f.f.f.d.l.l.l.l.l.d.p.[ [ [ P.P.P.P.L.K.K.T.T.T.K.K.K.' T U U U Y 1.;.0.%XVXVXMXNXBXlXgXgXlXlXjXjXjXjXjXjXNXNXNXVX-Xb.n B c U T c U U B B G A A A A A G B B B B b N z n k 5 n 5 5 n m ;.*.4.%XmXCXMXjXjXdX5X<X6X6X6X3XjXqX6X6XhXdX9X8XtX.X4.) ) 5.E.] !.E.6.6.E.E.l.6.6.l.l.a.p.D g.g.g.F F F D ! s.s.^ s._ a.x.b.b.>.K K K ` ` J A Z i h h h h h h h a ' [.}.[.'.'.[.{.[.[.{.{.[.Q.Y.I.{ { { ] ) Y V V 1.8.2.c.%X8X9XfXdXjXjX9X6X9XdX",
"nXNXCXNXBXBXlXxXjXAX&X9.*.*.*.1.] ] ] ] ] ] L.E.E.E.'.'.(.(.{ [ u.i.i.i.i.s.d.l.d._.s t.d d d d s u f.@X*X-Xv.;X-XM.x.a.f.f.f.f.|.f.f.f.f.u././.f i.u.u./.`.OX}.+X+X}.}.}.}.OXOX[.}.{.{.].6.7.*XtXiXnXnXnXnXfXfXfX>X&X&X;X;X8XMX9X&XMXMX%X,.6 :.;.V C C Y Y Y U ) ( ( B b v l u u i u u l v c c c c c n n n 5 6 v.uX7X3XMX9XjX9X9X6X4X6XqXqXeX,X4X&X3X7X=XmX-X2.1.5.E.E.E.Q.Q.Q.Q.{.{.{.{.[.(.[ L l E ^ f s i.u.! _ { [ [ u.u./.t.t.u.i.f.l.oX X4.c.c.x.x.x.x.x.|.|.f.! Q i.i.t.Q u.! ^ [ { }.'.].].{.{.{.].].].6.6.6.6.E.E.!.E.8.8.2.m 9.mXCX6X,X:X:X:X>X3X3X7X&X7X9X3X:X&X4XwXCXwX$X:.6 6 m > V R Y Y ) ) ( U U b c c B Y Y R B B c B B N n w > V *.4.=XJXGXKXVXNXgXfXfXjXNXNXNXCXCXNXNXNXNXNXBXHXmXXX5.] ] Q.Q.Q.Q.E.E.I.Y.Q.!.!.[.'.'.{ ` ` l.x.x.x.x.f.g.F _ d.d.s.p.s.f.a.a.x.z.z.z.x.x.a.s.(._.s.p.Z S _.f.a.a.l.l.l.d.{ P.P.K.K.P.Y.P.T.Y.T.T.K.K.K.K.G.' ' U U Y V V ;.c.uXVX7XfXNXdXBXlXlXjXjXjXlXxXxXjXjXNXnXVXJX;X;.k B U U U R T U B G A A F F A G G G G B B b N N N n n n n 5 m m *.;.:.0.=XGXCX9XjXjX6X6X6X>X&X6X6X6X6X6X6X6X6X8XiX*X4.C Y ] ] ] E.I.I.I.E.6.6.6.6.` ` J g.g.i.S g.g.F 2 u v Z / _.s.! _ a.x.>.>.K ` ` ` G z u   3 h h g h h h h ^ I.[.}.}.}.[.[.{.[.[.[.[.[.Y.Y.I.I.[ ] ) ) H V V 1.8.2.c.=XuX-X9XdXjXjXjXdX6X5X",
"nXnXNXNXBXBXlXjXjXCX3Xv.:.%.=.<.5.] ] ] ] L.I.Y.Y.I.(.'.'.E.I.{ ^ ^ i.i.u.f.d.l.d.f.f y.r.r.d d g s i.f.oXyX.X;XoXb.x.f.f.f.f.f.f.f.s.s.u.u./././.u.u.u._.OXOX}.+X+X}.}.}.OXOXOX[.{.{.].].6.].yXmXnXnXnXMXMXfXfX6X6X&XM.M.;X9X9XuX-XMXuXM.>.6 :.;.V C B Y Y U U ( G B B b v v u u u u u v v z c N c c c k k 5 6 9.-X7X9XMX9XNX9X9X5X6X6X6X4X4X,X4X:X4X7X-XmX-X4.1.6.!.E.Q.[.{.[.{.{.[.Q.Q.[.[.I.E.( W E Q i.u.i.Q ! _ ! W E ! u./././.i.u._ l.l.K z.z.x.x.x.f.|.l.` Z a f i.i.s Q i.W _ [ I.{.'.[.{.[.|.[.[.'.'.{ { E.E.E.E.!.!.5.2.;.m c.CXMXqX4X,X:X:X>X3X2X=X&X=X2X:X&XV.:X:XwX0XM.=.6 m m n B Y Y ( ( ( ( L b b c c c B Y Y U B b B B N n k n C M 1.#XmXGXKXNXNXmXgXfXfXjXjXNXNXNXCXNXNXNXNXBXAXmX.X8.] ] Q.I.Y.Q.Q.I.I.Q.Q.Q.Q.Q.'.'.l.{ ` 3.l.x.l.f.a.D l l A ! ! p.s.s.p.p.x.x.` x.x.a.f.(._.! S Z u S f.f.f.a.d.l.l.` { I.P.P.P.I.Y.Y.T.T.T.T.K.K.K.G.G.' ' U U Y Y V ;.v.uXCX3XfXBXgXBXlXlXlXlXjXjXxXxXjXNXNXmXVXKX%XM n B U U U T ( U G G A A F F A A G G G B B b B N N N n n n 5 n m *.;.2.9.*XVXCXnXdXjX6X5X6X3X2X6X6X6X6X6X<X6X6X8X8X*X7.V Y ] ] ] I.I.I.I.I.E.6.6.6.{ ` _ g.i.i.S g.g.D l u u i i ^ u.s.p.J K K K ` ` J G k 4     i h g g h h h g [ (.}.}.}.}.[.[.[.[.[.[.[.).Y.Y.I.I.[ ' ) ) V V V 1.2.2.v.=X8X&X9XdXjXjXjXjXdXdX",
"nXMXMXNXBXBXjXjXjXjXMX%X:.%.=.*.1.5.5.] ] L.P.U.).(.).'.Q.E.E.6.[ [ s.s.f.f.l.l.f.s.i.s d r.d d g p s S f.oXoXoXx.x.f.f.f.f.f.f.p.f.f.f.u.i.u.u.`./.^ s.[.}.+X}.+X}.}.}.OXOXOXOX[.[.[.'.'.6. XyXFXnXnXnXMXfXfX9X6XjX&Xb.v.3XMX8XuX0XCX7Xv.%.6 4.;.V C V Y U T U ( G B B b b Z a s h s u u v b c B c c c k k > 5 ;.%XiX9X9X9XNX9X5X6X6X6X4X4X,X,X4X:X4X9X7XnXiXv.8.W.W.E.Q.[.{.{.[.{.Q.Q.[.[.[.[.{.Q.[ E Z u._.i.Q ! s._ Z u i E i.t./.u.u.! d._ ` x.x.x.|.|.f.d.G x 2 i f t.t.s i.! W [ '.'.{.[.[.[.[.[.[.'.(.(.I.I.E.E.E.!.!.!.1.1.V m .XGXwXwX4X1X,X,X,X2X&X&X&X=X2X:X&X:X:X,XqX4Xb.#.m m m C U U ) ( ( ( A b x z b c k c B U U U U B B N N n n n m *.0.=XGXKXNXNXmXgXfXdXdX9XNXNXNXNXNXNXNXBXBXlXVX*X7.] !.I.I.I.Y.Y.Y.I.Q.Q.Q.Q.Q.[.'.'.6.{ ` l.l.l.d.f.g.F 2 j l Z ! p.s.f.p.f.a.J a.x.x.(.(.[ Z u u a i.f.p.p.f.d.d.d.{ { I.I.P.L.Y.Y.T.T.T.T.R.K.K.K.G.G.P T U U Y V *.2.#XuXMX3XjXBXgXNXjXjXjXjXxXxXxXxXlXNXNXVXJXmXb.C B U U U ' ' ( ( G G G A A F A D G G G G B b b B B N n n n 5 5 n *.*.:.4..X7XCXMXdXMX6X>X6X6X2X>XdX6X6X6X<X6X6X9X8X=Xc.H ) ] ] ' ] { L.I.I.I.6.6.6.6.a.a.p.i.i.S g.g._ G j   i i v / s.s.J K K K ` J z 4 . . . 9 h h g d h h h E (.[.}.}.}.}.[.[.[.[.[.[.).).U.U.T.P.[ ' ( ) V V *.1.2.9..X7X8X&XdXdXdXjXjXjXjXjX",
"MXfXfXNXNXlXjXfXjXfXGX7X:.#.=.*.<.5.] ] ] L.P.P.Y.).).[.Q.!.W.!.6.d.(.d.d.d.d.d.f.p._.s s g g d g p p s i.|.x.x.x.a.p.f.f._.s.S S g.f._.f.u.u.s._.^ ^ (.}.+X+X+X}.}.OXOXOXOXOXOXOX[.[.'.6.6.XXbXFXmXnXnXfXdX9X6XwXjX>XM.M.5XMX3XuXuXCX-Xb.%.%.0.;.V V Y ) T T ( ( G B b b Z Z a h p p h a v b c U b c c k k = 5 M .XuXnX9X9XjX6X5X9X9X0X4X,X,X,X:X:X4X6X7XnXuX*X8.W.W.E.Q.Q.[.Q.Q.Q.[.OXOXOX[.[.{.{.[.W v ! s.s.i.u.s.s._ l 9 i h h / ^ _.s.d._ d.l.d.d.|.l.J l j   2 s f y.t.t.u.! W I.{.{.{.{.[.[.[.[.[.'.(.(.I.I.I.I.E.E.E.6.) 1.C M =XGX9XjX4XeX4X4X4X3X&X&X2X=X2X2X4XeXqXqX4X4X9.6 m C n V U T ) ( ( W b l j l z z j k N B ( ( U U B N N N n > n M 1.#XFXGXnXgXgXgXfXdX9X6XjXjXjXjXMXNXNXlXzXhXCXtX7.5.!.L.I.Y.Y.Y.Y.I.Q.Q.Q.Q.Q.[.[.[.'.6.6.l.l.l.d.f.p.! i i i i l Z ! f.p.f.f.p.f.@X|.(.[ v v v u ! f.f.u.u.s.f.d.` ` { L.P.P.T.T.T.U.U.R.R.K.K.K.K.G.G.P T U U Y V ;.0.-XCXuX3XdXNXgXgXjXjXjXjXxXxXxXhXlXBXNXVXJX-X4.n B U U T ' ' ( b G G J D D D D D A G G G B b B B B B N n n 5 5 5 *.*.2.2.0.=XmXMX9XjX9X>X6X3X;X&XdXfX6X6X6X6X6XfX8X;Xc.;.) ] ] ] ] ] ] I.I.I.I.E.E.6.l.d.f.p.i.g.g.p.d.d.c & q     v ! _ _ ` 3.3.G z 4 . . .   i h h h h h h g ~ ).}.}.}.[.{.[.[.[.[.[.[.).Y.U.U.T.P.K.[ ) ) V *.<.1.2.9.#XiXuX>XjXjXdXdXjXjXjXlX",
"jXfXjXjXNXNXjXfXMX9XGXuX9.%.=.*.1.5.5.] ] L.P.P.Y.Y.Y.Q.Q.W.W.W.'.'.'.'.l.l.f.f.f.p._.u 3 u a f g s d p s i.p.a.x.x.f.f._.s.E u l F p.f.f._._.`.^ [ (.}.+X}.}.+XOXOXOXOXOXOXOXOXOX[.[.'.6.l.oXbXFXnXnXnXfX9X6X6XjX6X>X&X&X3X8X7X9XMXGX&X9.%.%.4.;.H Y ) ) ( ' ' ( G B b b Z Z s p p p h i l b B L L c c c k r n 6 0.iXMX9X6X6X6X8X9XfXwX4X,X,X4X:X2X4X4X3X9X8X-X5.6.W.E.Q.Y.).Y.Y.Q.[.OX[.[.[.[.[.OX}.I.W v ! s.p.u.s._._.W x 9 i i E W s.[ d._ d.d.d.` ` ( 4 .     i f t.y.t.i.u.Q W I.{.{.[.[.[.).).[.[.[.[.'.E.I.I.I.I.I.L.{ ) 1.n ;.iXGX3XwX,X,XqXqX4X3X&X&X2X2X:X2X4XeXeXeXeX:X:.5 m C n V U ( ' ( W A v l u l j j z k c b ( ( U U U B N N N r C V *..XaXGXgXgXgXmXmXfXdXdXjXjXdXjXfXfXfXjXzX<XCXaX X5.!.I.I.Y.Y.I.I.I.Q.Q.Q.Q.Q.[.[.[.'.'.l.l.{ a.a.s.p.u.v x 9   2 u Z ! p.f.f.f.|.|.d.( b x x v Z s._.f.u.u.s._.d.[ [ I.T.T.T.T.T.T.T.T.R.R.K.G.K.K.G.' ' ( U B B V 1.v.uXCX9X3XdXgXfXgXjXjXxXjXhXhXhXhXhXlXmXAXJX*X:.n ( U U ( ' ( U b ( J J D D D D A D G G G G B B B B B N n n n 5 5 *.*.2.2.9.#XnXCX5XfX9X5X6X5X>X3XfXfXfXfX6XdXjXjX3X=Xc.;.V ) ] ] ] ] ] I.I.I.I.I.E.E.l.l.l.d.p.p.p.f.|.].B & & & . i l A ` x.7.3.z 4 . . .   9 i g h h p h h / H.[.OXOX[.[.{.{.[.[.[.[.[.[.Y.Y.U.Y.Y.L.] ) ) ) 1.1.2.2.0.#XiXnX5XjXjXjXdXdXjXjXjX",
"MXjXjXjXNXNXlXfXNX9XGXmXv.%.%.*.1.1.5.E.L.I.I.Y.Y.Y.Q.Q.Q.W.W.W.'.'.6.6.l.l.f.f.s.p.d.F .   u u a g g p p f g._ x.x.|.(.p.E v j A J ` _ _ s.(.(.[ (.OX+X}.{.{.+XOXOXOXOXOXOXOXOXOX[.[.'.6.].*XbXFXnXnXfX9X6X6X6XjX,X>X3X3X&X=X7XMXNXCXM.:.%.6 ;.;.H ) ) ) ' ' ' ( G b b A A Z s p p p p i l b B L L c N N k n n n :.-XCX9XdX6X6X9X9XfXwX6X4X,X,X:X,X,X4X9X9X8XiX1.5.E.E.Q.[.[.).[.Q.Q.Q.Q.[.[.OXOXOX{.[.E.G b ! s.u.u.s._.[ v 9 x 9 i x W ! (.f.s.|.l._ b j . . q   i Q i.t.t.i.u.! { '.{.}.[.{.[.).Y.Q.[.[.[.'.E.I.I.I.I.I.I.] ) ) C 7.FXFX7X9X,X,XqXqX4X4X2X2X2X2X2X:X4X4XrXrXqXN.&.5 m C C Y U ( ' ( A v l u u u 4 j z z c k U ( ( U U B N B N n C C *.c.tXJXgXgXgXNXNXNXjXjXjXjXdXdXfXdXfXdXxX<XCXuX X5.!.E.I.Y.).(.I.I.E.Q.Q.Q.Q.[.[.[.[.'.'.l.{ ` _ p.p.p.v x 9 9 9   u v ! f._.(.|.l.G k c x x v W s._.s.u.u._._._.[ [ I.T.T.T.T.T.U.U.U.R.R.G.G.K.K.G.' ' ' U B N C 2.#XGXpX9X9X9XfXfXdXjXjXjXjXhXhXhXhXdXlXmXJXJX.XH C ( ( U ( ' ( U G _ J J D D D D D D G G G G G B B U B B N n n n n *.*.2.2.2.#XuXnX3X9X6X6X9X3X>XfXfXfXfXfXdXdXjXdX7X=Xb.;.V ) ] ] ] ] ] ] I.I.I.E.E.E.E.].l.l.d.d._._.|.|.) - $ $ .     j ( 6.1.C 4 . .   q 9 9 i g g p p h g H.).OXOXOX[.[.[.{.[.[.[.[.[.[.Y.Y.Y.U.U.I.] ( ) ) 1.2.2.2.0.#X7X8X3XjXjXjXjXjXjXjXjX",
"NXjXjXjXlXNXNXnXNXnXGXFX#X=.M ;.) ) { { I.I.I.Y.Q.Q.Q.Q.Q.].].].'.6.7.W.].|._.f.s.s.d.` ; . 4   i g g d p s i.p.l.x.l._ A v x c 3.l.l.a.` _ [ [ (.}.+X+XOX}.}.OXOXOXOXOXOXOXOXOXOX).[.[.6.].yXFXmXmXnXfXdX9X6X6XjX6X4X3X;X&X=X8XMXMX9Xv.&.%.M *.V V ) ] ] ' ' { ( G b G G D S s p p p p i v b B L L b U N k n n m %.%XCX9XjX6XjXMXnX9X9XwXqXeX,X,X,X,X4XfX9X8XmX1.5.E.E.Y.).).).).Y.Y.Y.Y.Y.).OXOXOX[.}.}.6.z A d.s.i.^ ^ [ W 9 e 9 e 9 x v (.(.s.(._ b j & $ $ q 9 i Q /.i.i.i.u.^ [.[.}.OX[.OX[.Q.Q.Q.[.{.{.[.E.I.I.I.I.I.P.' ] B n .XFXiX8X9X4X6XqXqX4X2X2X2X0X0X2X2X,XrXrXrX4XB.o.5 5 C B V U ( ' W v l l u u 2 4 l z z c k L L ( U U B B B N V C C *.4.*XIXmXmXNXNXNXNXNXNXjXjXjXjXjXfXdXdXvXvXNXiX.X5.] E.I.I.(.(.(.'.Q.Q.Q.[.[.[.[.'.'.'.|.'.l.{ [ p.p.s.W x 9 q q     u Z ! s.(.(.( k w e c x x ( (._.s.s.u.u._._.[ [ L.T.T.U.U.U.R.U.U.R.R.G.G.K.G.K.' ' ' U B N C 2.#XGXuX0X9X6XgXgXgXdXdXjXhXhXhXhXdXdXBXNXJXGXc.M H G ( ( ' ' U U ( _ J J D D D D D D G G G ( ( U B U B B C n n n n *.V 2.4.2.#XuX8X7X5X6XdX6XV.N.8X8XgXfXfXdXdX6X6X7X-Xv.;.;.) ) ] 5.] ] ] I.E.E.E.!.W.W.W.'.l.l.d.f.f._.'.` w O $ & & .   z ) V -   . . & 9 9 9 i g d p p d g /.`.[.OXOX[.[.[.[.[.Q.Q.Q.Q.Q.Q.Y.Y.T.T.I.' ( Y Y 1.2.2.2.v.*X7X7X3XdXdXdXjXjXjXjXjX",
"NXjXjXjXlXBXlXNXNXMXVXVX*X:.m *.V ) ) ] ] L.!.!.!.!.E.Q.Q.].].].'.'.].].XX|.|.f.s.f.d.|.4 . & . 9 h h g s s i.d.l.6.( b v v b b ` x.x.l.l.d.` ( |.@X+X}.OX+X+X+X}.}.OXOXOXOXOXOX[.Y.[.{.6. XtXFXmXmXfXgXdXjXwXqXjXjXqX>X&X&X7X9XwX0X3Xb.%.=.%.;.V V ) ] ] ' [ { A A A A W ! Q f s p p s u l z c U L U U N k n n m m #XmXnXjX6XNXMXnX9XwXwXwX4X,X4X4X>X6XNXfX5XmX1.5.E.E.I.Y.U.U.Y.Y.Y.[.).Y.).).).OX[.}.+X].B A ! u.i.Q u._.^ x e e c q j i [ (.d.` l   & q & $   9 v i.u.i.i.u.u.[ }.}.[.}.[.OX[.Q.Q.Q.[.{.[.[.E.I.L.L.I.P.P.' ) N n .XFXiX9X6X6XqXqX6X4X2X2X2X2X2X:X:X:XrXrX4X4X9.6 5 5 C V U U ( ' W v l u u 2 2 l l l z z z b L ( T U U B B B Y C m *.4.*XIXKXDXNXNXNXNXlXlXjXjXjXjXjXjXjXjXhXxXMXiX.X5.) Q.L.I.I.(.(.'.'.[.Q.[.[.[.(.(.'.'.|.'.(.{ [ _ u.u.(.I 9 9 q q   i i Z [ d.` c q w e c x x [ `.f.u.s.s.s.s.[ [ [ P.T.U.U.U.U.R.R.T.T.K.K.K.K.K.' ' T T U U C C :.#XCX0X4XwX9XdXNXjXdXdXhXhXhXdXdXdXhXZXBXJXGXc.m H G ( ( ' ( U ( _ _ J D D D D D D D D J G ( G B B ( U B B C n C C *.*.2.0.2..XuX7X8X8X6X9X2Xb.b.&X-X-XdXfXdXdX6X6X3X-Xv.:.;.H Y Y ] 5.] ] { E.E.E.W.W.W.W.l.l.l.d.i.i.p.d.{ k $ w q & . . j B n $ . . . &   . i h d d p p h f _.OXOXOXOX[.[.{.{.[.Q.Q.Q.Q.Q.Q.Y.T.T.I.L.] U V V <.*.*.2..X=X7X7X3X6X6XdXjXjXjXjXlX",
"fXfXlXBXlXlXdXdXBXfXCXJX=X2.%.*.V ) 5.5.5.5.E.!.!.!.!.E.Q.Q.[.'.[.[.[.].].XX|.x.f.p.f.|._ & . .   9 9 i a Z _ { { U c x x I L W d.x.a.d.|.d.( '.+X+X+X}.+X+X+XOX+X[.Q.[.OXOXOX[.[.I.{.W.1. XFXFXmXgXgXgXfXwXwXMX4XeXwXeX4X3X4X9X4XMX&X,.&.:.;.*.V ) ) ) ( ' ] [ W W E Q / i.i.u.t.f f a a u l z b b b b N N N n C *.9.GXMXwXjXwXwX9X9XwXwXwXwXqXqX6X6X9XwX9X9XmX*.1.6.E.I.Y.Y.Y.U.Y.).).Y.Y.Y.).).[.}.+X}.}.(.W a i.i.t.i.u.^ v q e q q q q c B B c & .   & $ . . 9 ! /.t.t./.u.Q _.OXOXOX}.{.{.OX[.[.OX[.[.[.[.Q.Y.I.I.L.P.P.] ) m m #XGXmX3XjX4XqXjXqX6X>X;X3X7X=X&X&XN.:XqXwX2X&.6 n C Y U T ( W W Z u u u u u l F l l l l l v b U T R U U B Y Y C m M 2.#XIXJXVXVXDXDXlXjXlX6XhXkXkXwX0XpXBXjXlXnXnX*X3.) E.I.I.Y.Q.Q.Q.[.[.[.Y.I.'.[.[.[.[.{.{.[.(.s.s.s.s.(.' i 9 q 9       v W W v j j x e e x E u._._.p.s.d.d.[ [ [ P.P.R.U.U.T.P.Y.L.K.[ ' ' ' ' ' ' ( U ) V C H M ;.*XVXuX4X0XwXMXMXwXqXkXlXjXdXdXdXvXxXxXBXBXiX;.V ) ( ( ( ( ( ( _ _ ! D D D D D D A D D _ _ H G B B U U Y B n n 5 5 M *.2.2.4..XtXuXnX>XqX6XM.,.9.N.3X8XdX6XqXjXhX1X>X;X#X4.M V H ) ) ) ] { { 6.E.W.E.W.7.6.6.l.l.d.i.i.i.f.p.A j   j . . j L [ ' c w . $ k q 9 i h d p p d h / [.[.{.OX[.[.OX[.Q.[.E.6.6.6.6.6.] ] ] ) Y Y V V V *.2.=.2.#X7XuX2X2XjX6X6X6X6X6XjXjX",
"fXgXfXlXlXdXdXdXlXdXCXGX-X9.%.*.V 1.5.5.5.5.6.6.E.E.W.W.].{.{.{.).[.}.].]. X Xx.f.p.f._.[ j . q . .     l W [ [ L c e e x x E ! s.f.p.a.|.a.( '.+X+X+X+X+X+X+X+X+XOXOXOX[.[.[.[.[.E.].6.1.XXFXFXmXnXnXgXfXwXwXwX4XeXwXeX4X4X4X0X,XwXN.:.%.;.*.V 1.3.] ) ( ( _ _ E Z E E Q Q t.i.f f f E Z l l v b B B B B N N N C V 2.uXpXwXwX6X6X6XwXwXjXjXjXwX0X6X6XwXwX9XwXmXV Y ) ] ] L.L.K.T.Y.Y.Y.Y.Y.I.I.[.[.}.+X+X+X[.^ f t.t.t.t.i.^ Z q q w w w q j c B q . . .     . $ j ^ u.t.t.i.i.^ ).OXOXOX}.].].Q.Y.Y.Q.Q.Q.Q.[.Q.Y.I.L.] ' ' ] 1.m ;.*XGXuX3XqXqXhXxXjX6X5X5X9X7X;X2X&XN.&XeXqX0X>.5 n n U T ' ( W E a u u u u u u l l l l u l x b U U R U R R V Y V m V ;..XGXJXVXVXVXNXlXjXlXxXhXqXkXkXwXwXwXNXjXnXmXyXz.) 6.{ E.E.E.E.E.'.[.[.E.I.E.E.E.E.[.[.[.[.(._.s.p.s.(.' x 9 9 9       x ( ( v 2   9 q q i E u._.f.s.f.d.l.{ { { P.P.T.U.T.K.K.{ ] ) ) ) ) ) ) U Y V n C n n M M 2.=XMX9X4X4XqXwXwXwXBXkXhX6XdXgXdXvXhXhXlXMX-X*.V ) ( ( ) ( ( G _ _ ! D D D D D D D D D _ _ H G B B U U U B N n 5 5 #.=.2.1.8. XyXFX8X3XeX:XN.b.B.&X3X9XjXjXqXhXhXqXqX9X&X9.;.M V V ) ) ) ` ` { 6.6.7.7.7.3.l.l.l.p.i.i.i.p.p.A j   .   x ' [ [ P.{ Y n k j 9 9 h s d p p d h ~ [.[.{.{.{.[.{.{.[.}.}.].]. X].z.7.7.6.8.6.5.;.M m %.*.%.=.9.#X=X7X0X0X6X3X>X>X6X9XjX",
"nXfXfXgXdXdXdXdXjXdXMXGX-X9.%.*.V <.1.1.1.1.5.5.7.6.W.W.].].].].[.[.}.{.].z. Xx.x.f.p._.(.v . q $ $ . . 2 v A A c x x x x x W [ p.f.p.a.l.a.` ].+X+X+X+X+X+X+X{.}.}.}.}.{.[.[.[.E.E.W.5.1..XFXFXnXnXmXgXjXCXkX4XN.:X,X4XeXqX6X6X,X3XB.>.%.;.*.V 1.5.5.] ] ` _ ( v a a a f f f f f f a Z Z F v v b b B B N N N n C m =.=XpXjXwX6X6X6XwXwXjXjXwXwX9X6X6XwXjXwXjXCX2.1.) 5.E.E.I.I.I.Y.[.[.Q.Q.'.'.'.'.{.+X+X+X}._.Q i.t.t.f t./ / i q q j i i l v W l i i 9 . . .   l Q i.t.t.t./ ^ ).OX[.{.[.W.W.Q.Q.E.E.Q.Q.Q.W.E.E.6.{ ] ) ) ) V 5 2.-XuX7X4X6XqXqXjXqX6X6X9XnX9X0X9X4X&X:XeXwX2X%.6 n N Y T ' ' W E a u u u u u u u u u u u l j c b U U R R Y N Y V M V *.c.iXJXVXVXNXNXlXlXzXhX1X<XqXkXkXkXMXjXfXfXmXbX.X3.` 6.E.E.E.E.W.].].{.'.'.'.6.6.W.{.[.[.[.(.(.s.p.p.[ [ I 9 9 i 9 i x U ] ] ( v j j q 9 i / u.u.u.s.d.d.{ { { { P.P.K.L.L.] '.].].].].].z.z.z.7.7.7.2.4.;.;.4.4.n.;XdX6X6X6X6XqXqXwX:XV.V.>XfXgXdXhXvXhXjXMX*XV V ) ) ] ] ) ( ( ( _ _ D D D D J J D D ! J J G G B B B U U B N n 5 5 %.%.*.1.2.0.*XFX7X9X,X:X&XN.&X9X-X9XjXjXqXqXqXhX,X>XN.b.4.4.4.3.4.3.3.3.7.z.z.z.c.c.c.c.c.z.l.J p.g.g.p.s._ v   i j ( (.{ ' [ ' ) B k q   i h p p p p p f _.{.{.].].].W.W.W.].+XyX*X*X*X*X*X.XoXoXXX.X.Xc.2.:.9.b.9.9.v.$X&X;X3X6X6X3X>X>X6X9XjX",
"NXnXgXdXdXdXlXlXlXdXMXCX=X0.:.:.;.2.7.8.7.7.7.7.7.7.7.7.7.7.7.l.'.[.{.]. X Xz.x.x.f.p.f.|.(   q & $ . X   F A A c x c c x x W s.f.f.f.d.x.l.l.XX}.XXXXXX+X+XXXXX X7.3.6.W.6.) ] ] 6.6.1.2.*XGXuXnXNXmXfXjXjX:XB.,.b.N.4XqXqXwXwX4X&Xb.&.%.;.*.V Y ) ] { { { [ W v a a a a a g s g a a a a u u v b b b B U N N N n r m #XpXCXBXqX9XwXwX9X9X0X6X6XwX0X9XjXjXwXwXMX4.*.V 1.5.] ] ] ] I.I.E.E.E.E.E.'.'.{.}.{.}.}.[.u.i.t.t.t.t.t./ x q 9 i i u E u.Q ^ [ W i . .     i f t.t.t.t.Q [ ).[.[.[.'.E.6.7.7.W.W.].].].].z.7.7.3.1.1.1.1.M 6 v.uXuX3X9X6X6X6X6X6X6X6X9XMXuX9XMXwX2X:XwXpXM.%.m V V ) T T ' ( Z u i u u u u u u 2 2 u u u j z b U U Y R R N Y V V M M 9.*XGXVXVXNXNXlXlXzXC.B.B.B.N.Z.rXqXjXfXfXmXtX.X3.) 5.3.6.5.5.6.7.].].l.6.6.7.7.W.].].[.'.'.(.d.p._ [ (.W i   i j x ] ] ] { ] ( b x e q v ^ s.u.i.s.f.d.{ ] ] [ ' ' { { ] ] +XyXtXtXFXFXFXFXFXFXaXaXaXmX-X-X8X;X&XjX6X<X<X1X1X1XqXqXB.b.B.>XBXlXdXhXhXxXNXMX.XV Y 5.] ] ] ] ) ) ( _ _ D D D D J J J D D J J G G B B B U U B b n n 5 M %.*.2.2.4.#XmX8XMX,X:X4X4XwXpX-X5X9X9X6X6XqXqX,X,X;X&X%X=X-XyXaXmXmXbXbXFXFXFXiXtX7X-XtX*Xb.x.a.p.p.p.d.d.A 2     x b W ' [ ( j w &     i a h p p p p /.OX+XXX X X].W.7.8.W.oXtXtX-XiXiXiXtXtXtX-X=X%X.Xv.#X&X2X;X2X3X3X&X&X:X6X6X9X9X9X9XjXjX",
"MXnXnXfXfXlXlXlXlXjXjXMX2XM.v.b.v.#X%X#X#X*X*X*X.X.X Xc.c.c.z.z.].'.]. X X Xz.l.a.x.p.p.|.[ j   . &     z _ d.` b c x x j v W d.f.f.f.d.l.l.l.XXXXXXoX*XyXyXyX*XyX.Xc. X X1.C 1.6.z.c.4.c.yXGXiXmXNXgX8X9X>XB.o.o.,.N.2X4X6X9XwX6X&X9.&.%.*.*.1.Y ) ] ] { { ( W E a a a a a h h a h i u u u u u b b B U U B N N n > 5 c.uXMXBXqXwX9X6X6X6X6X6X6XjX9X9XjXjX9X9XuX.X0.2.7.z.z.W.].].{.{.XXXXXX XXX+X+X+X+X].'.{.[.).H./ f ^.t.t.i.L k   9 i a / _.Q /._.v     &   i u s y.t.t.f E P.[.[.[.[.'.6.7.7. X.XoX*XyXyXyX*X*X*X*X.X.X#X%X.Xb.-XJX9X3X9X>X6X6X6X4X4X0XuXMX9X9XMXwX,X,XeXwX9.6 m V V ] ' T ' ( v u i u u u u u u 3 3 u u u l z b ( ) ) Y Y V Y V C M M 4.%XGXGXGXVXNXlXzXcXB.D.,.,.m.B.Z.wXkXNXnXnXtX.X7.z. X X X XXX.X.XoXoXXXXXXXoXoXXX X].'.'.'.(.d._ _ [ _.! i 2 i i j ( ' ] { ] U c x x j Z s.s.i.i.p.d.` ` ) ) ] L.] E.6.1.) yXtXtXiXiX8X8X7X7X7X7X7X8X5X-X>X>X&XV.>X<X1XvX1X1X<XhXxX&XV.:XNXAXgXdXhXhXlXMXVXv.V 1.5.] ] ] ] ) ) ) _ _ _ D D J J J J J D J J J H G B U U L b b N n n m #.:.2.4.4..XiX8XNX:X:X4X3XpX7X7X7X3X6X6XqX4X,X4X4X4X3X7XiXiXtX-X-X-X-X-X-X-X7X7X2X2X-X-X%Xc.K a.a.p.p.a.d._ l . .     j L U j & & . . i E / s p p p h `.+X+XXXc.c.c.7.8.1.0.*XiX-X-X9XnX9XiXiX-X;X;X%XM.M.&X3X>X3X6XdX6X>X>X>X6XdXNXNXNXjXjXjX",
"nXnXnXfXlXlXlXlXlXjXdXfX9X=X&X&X&X-XiXiXiXiXiXiXtX-X*X*X*X#X.X Xz.6.7.7. Xc.z.l.a.x.f._ d.d.j . . $ 4 z _ d.d.` { U c x x v W d.f.f.f.l.d.` l. XXXXX*XyXaXiXiXiXiX-X*X=X*X4.;..X.X*X*X#X*XiXmXuXnXgXfXfXjX6XB.,.,.b.V.4X6X6X6X9XwX&X,.&.%.%.*.5.1.5.] ] ] { ( W E E E E E a a a a i i i u i u u j c c B U B N N V m 5 4.uX9XMX6X6X6X6X6X4X6X9X9XjX9X9XjXjX9X9XuXnX=X*X*XyXyXyXyXyXyXyXtXaXaXtXtXaXyXyXyX{.W.[.[.[.P./ / ^.^.^.t.W c q j l u E ^ u.u.E i .   & . v a s s y.f a E L.Q.Q.E.E.E.6.7..X=XiXiXiXGXJXJXJXJXJXGXVXmXGXJXGXuXVXGX5X>X6X6X6X6X6X4X9X9XpXpX0X4XjXMX4X4XwX0X9.6 m C C ) ) ' ' ( v u i u u u u u u 3 3 u u u l l b G ) ) Y Y V V C m M M 2.#XFXGXGXCXNXlXzXzXC.m.,.D.m.B.Z.kXkXCXMXnXiX*X.X*XyXyXtXtXtXaXFXFXbXtXtXtXbXbXyXoX].].'.'.'.d.[ _ ! s.^ v i     j j b ] ] U x q q 9 j A p.u.i.i.s.d.{ ` ] ] L.L.] 5.3.1.;.tX-X-X;X9XwXwXjXjXjXMXNXNXdX6X<X>X<X<XvX<X<X<X1XvXvXxXxXBXkXNXBXNXfXfXBXhXjXMXmX0.V 5.] ] ] ] ] { ` ` _ _ J D D J J J J _ D J J ` ( G B U U L L b B N n m #.<.2.4.4..XiX8XwX&X:XN.M.pX2XuX7X7X9XjXwX4X,X:X:X2X2X&X=X%X%X3X2X3X-X;X;X&X:X4X4X4X0XuX-Xb.4.x.a.a.a.a.a._ A   2 u     j j . q & . . i E ^ g h p 3 h _.@X{.7.4.9.4.4.2.2.0.%XuX5X5X6X9X6X3X3X;X&X;X>X&XV.V.&X>X:X:X:X&X>X>X6X6XdXNXCXNXjXjXjX",
"8X9XnXMXCXNXlXlXjXjX6X9X6X3X3X2X&X3X0X9X4X9X8X8XnX8X-X-X8X-X%Xv.7.8.2.8.0.0.z.z.x.x.f.s.d.d.b . & & & b ( ` ` ] I.' L b x v ( d.f.f.x.x.a.` l. Xc.c..X=XuX8X0X0X%X=X%X#X$Xc.9.*XtXiXiX7XiXuXpXCXfXdX8XfXMXjX4X&XN.V.:X4X0X6X6X3XMX$X,.&.%.M V 6.5.5.6.{ { { ( W E f / / E E E E E a i i u i i u x c b U U U U B Y C 5 :.iX0XMXqX6X6X9X9X9X9X9X0X9X6X6XwXwX9X9XMX9XiXiX-XtXtXtXtXtXtXaXaXiXiXiXiXaXaXaXyXXX6.E.'.[.P.~ / ^.^.r.t.[ c q j x x l v [ W i   .   $   Z f s p p s Z [ I.E.E.E.E.E.6.7.#X-X9X7X=X3XnXMXCXCXCXCXnXfXCXBXJXAXCXnXdXdXjX6X6X<X4X4X0X8XuX9XwX0XMXBXwXqXqX3X:.5 m C B ) ' ' ( L v u u u u h s u u u u u u u l l z G ( ) Y B N C n n C M 2..XiXVXGXNXMXlXlXxXC.m.D.m.B.B.V.,XkXNXfX9XuX-X*X-X-XtXtXiXiXiXuXuXiXbX-X-X-XtX*X.X X].].'.'.{ ` _ ! s._ Z u     9   j U U x q q q   l ! p.u.u.p.s.[ [ { { E.E.L.] n V ;.;.iX-X>X>X>X,X,X,XqXqXwXjXxX<X1X<XZ.V.<X<X<X<X<X1XvXhXhXhXkXMXNXMXfXfXlXBXjXjXuXFX4.) 5.] ] { { { { { ` _ J J J J J J J J _ D J J ` _ G b ( L L L U B N n m #.*.2.2.7..XtXuX6X&X&X,.,.9X0XuX7X7X9XwX0X,X:X,X4X4X4X2X&X&X&X2X>X>X>X>X:X:X:X:X:X:X:X3X%Xb.>.x.x.x.a.a.` _ _ 2 . .   & j j & &       i Z E h h h h a d.].6.8.2.2.2.4.2.:.9.=X9X6X6XdXhX6X6X6X6X<X<X6X<X<X:X:X<X,X:XV.V.>X<X6X6XdXMXNXjXdXjXNX",
"7X8XfXMXCXNXlXjXjXjX6X6X3X>X;X&X:X,XqX6X4X6X9X6X6X>X;X3X9X7XM.v.4.2.2.2.4.4.c.XX@Xl.d.(.f.d.A   & . . k B ( { E.( L x x x v [ |.f.f.|.|.l.` l. Xc.c..X-X9X0X4X4X&XqX&XM.&X$Xv.%XiXuXuXuXmXuXuXCXnXdX8X8X5X4X9XCXqX4X3X4X9X9X5X>XMXN.,.&.%.M V 7.1.5.E.W.'.E.) b v a E / / / / / E E a a u i i u b U U ( ' ' Y Y Y C 5 %.7X9XMXjX6XjXjXNXjX9X6X3X6X3X6X9XjX9XjXMX3X8X9X8X-X-X-X-XiXiXiXiXuXuX0X7X7XtXaXtXXX7.6.6.E.I.[ ^ f t.r.t._.b q j x j j x c   . q q . . j a f g p s s E (.{.{.[.[.{.].7.c.%X3XnX3X;X5XCXAXBXAXAXBXjXjXNXAXCXAXNXMXDXBXdX<X>X>X>X3X3X7X7X3XwX4XwXkXqX4X4X&X>.5 C V B ) U U ( L v u u u u h s s u u h u h u u l z b ( U U B N n r r C M 1.c.iXmXVXNXjXlXxXhX<XC.B.Z.1X1X1XkXjXjX4X3X8X=X%X-X-XiXuXmXuXuX9X8XnXmXnX-X-X-X=X*XXX X].E.'.I.[ _ _ s.[ W v 2 . 9 9 9 q q q q q   2 F _ s.s.u.s.s._ [ { E.E.Q.L.T $ M 2.:.uX&X&X:X:X:X:X<X<XqXqXqXhXqXxXxX1X<X1X<X<X<X:X,XdXxXhXhXqXjXNXnXfXMXjXdXjXNXuXFX7.1.5.] L.[ I.{ { { ` ` J J J J J J J J _ D J J ` _ ( L ( P P L L B N n m %.=.1.1.7..XtXMX6X:XV.o...uXCXiX7X7X9X9X2X:X:X:X:X:X:X:X$XM.M.2X2X2X>X:X:X:X:X:X:X2X4X3X&Xb.4.x.l.l.l.a.J J ` _ 2 X   4 & & . . . i j i v Z i h h a ! d.'.W.7.:.:.:.2.2.:.9.$X5X>X>X6XhX6X6X6X6X<X:X<X1X1X1XqX,X,X<X:X>X>X6X6XdXjXMXjXdXdXMXBX",
"uXnXMXMXNXNXjXjXhX6X6X4X>X>X>X>X1XqXqX1X1XqX6X<X>X,X6X>X&X&XV.b.:.2.2.0.0.0.z.].|.l.d.d.d.l._ l . & & . & b ] ] x x x I x v { d.d.f.|.l.l.l.l.c.c.:.v.nX9X,XqX:X,X:X:XV.&X&X&X&X0X8X9X0X0X0XwXMXfXgXgXfX9X9X9XwXjX4X>X6X9X9X3X3XMXM.:.&.%.M ;.7.5.6.W.W.E.6.( v E E E / ^ ^ ^ ^ ! Q Z u i i i i b { E.{ ] ] ] ] 1.V 5 %.7XMX6XjX9X9XfXfXfXfXfX9X6X5X6X9XNXCXNXMX6X6X6X9X9X8X7X-X7X8X8X0X4X3X4X4X3X=X7XtX.X7.3.5.3.] [ ^ i.t.r.t.! b x x c c w q $ & & . . . j v Q s p s f f [ '.+X{.{.{.}.].8.c.%X9XMX3X&X5XCXBXCXBXBXBXBXBXBXBXDXBXBXBXBXBXlXlXjX5X>X3X3X2X7X0XpXkX4X4X4XqXMX&X%.M M H Y ( ( U ( L v i i i i h h h h u u i h u 2 4 l A G B B B B N C C m M 2.c.-XGXCXNXCXjXlXhXvXvXvXxXzXkXhX6XMXwX8X7X7X-X-X-X8XuXuXuX9X9X9X9X8X8X5X5X5X-X=X*X.X8.E.E.{ { { [ _ s.s.[ W l u   9 j j j q   q 9 2 A s.s.s.s.s.s.W [ I.I.E.I.L.T % M :.4.7X7X&X:X:X:X:X:X,X6XqXqXqXqX1X,X<X<X,X,X:X:X&X:X6XqXjXjXjXjX9XdXnXfXdX6X6XjXCXaX7.) ] L.K.[ [ [ ` ` ` _ J J D D D D J J J D J J J G G b L L L L U B B C m m *.2.2.2.v.tXuX9XN.B.,.,.&XpX-X7XuX9X3X:X:X:X:X:X:X:X:X&XN.M.:X4X&X&X3X>X:X4X:X:X2X2X7X=Xz.4.3.3.l.l.l.a.` _ ` A 4 . & & - &   j v b v v i i a E ! [ d.6.6.3.;.:.2.2.2.2.0.%XuX9X6X<X<X6X9XwX6X1X1X1X6XqXkXkXkXqX,X>X>X>X5X6XdXdXjXjXjXjXNXNX",
"MXMXMXMXMXjXjXdX6X6X6X6X6X,X>X>X1X1XqX1X1XqXqX<X,X,X,X:X&X>X&Xb.:.:.2.9.0.7.7.].l.l.d.d.d.l.p.A   & & & & k c L x x x v x v (.'.f.f.|.l.l.6.z.z.c.;.v.nXwX,X1X:X,X:X:X:X:X2X,X4X4X9X0X4X3X4X0XMXfXfXfXfXdX9X9XjX9X3X>X5X9X9X5X6XMXM.:.%.%.M ;.7.6.E.E.E.E.6.) b W E E / ^ ^ ^ ! ! Q Z a i i h u L { E.{ ] ] ] ] ) V n M 7XMX0XjXjX9XfXfXfXfX9X9X6X6X9XfXMXMXMXjX6X6X6X6X6X6X3X3X3X4X0X0X4X4X4X4X6X3X8X7Xv.4.1.;.3.` ( ! Q t.t.t.Q Z v v c k w w w & $ .   i v E f s s s f Q { {.+X{.OX{.].6.1.c.=XfXMX5X;X9XNXAXNXBXBXBXBXBXBXBXZXzXlXlXlXBXZXZXNX9X3X3X0X7X2X2X2X4X4XwXqXwXMX&X%.M M H B ( ( ( ( L v u i i i i h 3 h h u i 3 u u l l A ( B B B B n n C m M 1.c.-XJXVXCXBXjXzXhXdXvX<XdXxXlXjXwXpX9X0X0X7X7X7X-X8X8X9X9X6X6X4X6X3X>X>X>X5X5X-X-X.X1.5.] ' [ [ [ [ _ [ _ ! A l j q q q q q q j x v ! d.s.[ [ s.[ [ [ I.I.L.L.L.T n *.2.4.iX7X2X3X6X6X<X<X,X6X4X4X1X1X<X,X:X:X,X4X:X2X2X2X3X0XjXNXMXjXwX9XfXfXjXjXqXjXmXaX4.) ] L.P.P.[ [ { ` ` J J D D D D D D D D J J J J G ( L L P P L L U B C m m *.2.2.1.c.-XnX0X&X:XN.B.2X=X8XuX8X7X2X:X2X2X:X:X:X:X:X:X&XsX:X0X9X3X5X3X2X3X2X2X7X7XiX*Xz.3.3.3.3.l.l.d.` ` a._ G z k k = & j x b v v i i v ^ [ s.d.6.6.5.1.;.1.2.2.2.2.0.*XiX8X5X5X5X6X9X9X6X6X6XqXqXwXkXkXMXqX,X2X>X>X5X5X5XfXjXMXMXMXNXNX",
"MXMXMXMXjXdX9X6X6X6X6X6XqX6X,X>X1XqXqX1X1XqXqXqX,X,X,X>X:X,X:XB.:.:.:.2.2.8.7.6.E.'.d.d.d.|.d._   & & & $ $ q x x x i I v W '.|.|.|.(.d.l.6.7.7.4.;.v.nX9X,X1XZ.,X:X:X,X4X6XqX6X4X6XqX4X2X&X4XjXfXnXMXMXfXdX9X9X6X3X3X5X5X5X6X9XMXM.>.%.%.M 1.7.W.W.E.E.E.E.] U W W W W W ^ ! ! Q E Z a u i i i W { E.{ ] { { ] ) V n M -XMXwXjXfXfXfXfXfXdX9X9X9X9XfXfXfXfXfXjX6X6X6X6X6X3X3X>X3X4X6X6X6X6X6X6X6X<X6X3XM.4.;.*.7.3.` _ ! i.t.t.f f Z Z v j w k w & .   i a a a s a f f Q ^ '.}.+X{.+X[.6.) ;.v.8XNXNX5X-XfXAXAXNXNXNXNXNXDXDXDXZXzXhXhXlXlXZXDXAXNX9X9X9X0X4X4X&X:X,XwXqX0XpX&X%.M M H B U ( U ( L v u i u h h h h u u u u i u u l v A ( U B B B N n C m m ;.c.-XJXVXVXDXlXZXzXhXdXdXdXjXjXNXjX9X8X0X0X0X0X7X7X9X0X9X9X3X>X>X>X&X&X&X>X>X5X8XiX.X1.] ] ' [ [ [ [ [ [ [ [ _ ( b j j q q q j b b _ d.(.s.[ [ [ ^ P.I.I.L.L.L.L.] V 1.2.2.tXiX7X9XjXjX6X6X6X5X3X3X,X<X,X,X,X4X4X4X2X4X4X4X3X3X9XNXNXjXjX9XdXdXjXjXjXjXmXiX4.) ] I.P.P.P.P.{ { ` J J D D D D D D D ! _ _ _ G G ( W L L P L U U B C m m *.2.1.;.c.=XnX9X:X:X&X&X0X&XuX8X7X2X;X2X4X0X4X4X:X:X:X2X:XN.M.0XuX7X5X8X-X;X2X7XiXiXaXyX7.3.3.6.6.6.{ d.{ a.` ` ` ` ) C C N c b b v x v W ^ (.(.(.I.I.6.) Y H 1.1.2.8.2.0.*XiX8X8XdX6X6X8X8X9X6XwXwXwXjXkXMXMXwX4X;X;X3X5X5X3X5XfXNXNXNXjXjX",
"NXMXjXjXjXdX9X9XqXqXqX6XqX6X6X,X1XqXqX1XqXqXqXqX4X,X,X,X,X,XV.b.:.=.=.2.8.8.6.W.'.'.'.(.d.f.d.a.z q $ & & $ & c x x x E W ( '.l.|.(.(.d.l.6.6.5.1.M c.iX9X4X1X:X:X:X:X,X6XqX6X4X6X0X6X3X&X&X3X9X9XnXMXMXjXfX9X9X5X5X6X9X5X3X5XfXpXM.>.%.%.V 1.7.W.W.E.E.E.E.5.( W W W W ! ! ! Q S Z a a a a u v ' I.E.I.] { { ] ) V n M =XmXMXjXMXfXfXfXdX9X9X9X9XfXjXfX9X6X9XfXdX9X6X6X>X>X>X>X4X6X6X6X6X6X6X6X<X>X<X4XM.,.:.*.7.6.l.d.s.u.^ i.f f Q Z v j & & k & & j Z Z f a u Z Q Q ^ d.{.}.+X{.}.E.5.) *.v.mXVXNX5X5XNXAXDXDXDXDXDXDXDXDXZXcXzXxXhXlXlXlXBXSXZXNXNXwX0X4X4X:X:X:X:X:X2XuX=X%.m C H B U ( U ( W v u u i h h 3 h u u u i i u u l v W ( U U U B N n C m m ;.9.-XJXVXVXDXgXDXlXlXdXdXfXjXMXnXuX7X7X0X0XuX9X0X3X0X6X6X3X3X&X&X;X&X&X&X&X>X5XuXmX.X) ) ] ' K.P.P.[ [ [ [ { { { [ ( b c c b ( ( ( d.(.(.s.[ [ P.[ I.Y.P.P.' ' ' R Y 2.1.2.tXiX7X8XfX9X9X6X6X9X9X9X6X1X4X4X6XwXwX9X2X2X2X3X3X3X0XwXkXxXjXjXdXjXjXjXjXjXnXiX8.) ] Y.P.P.P.P.{ 6.` J J J D D D D D D W _ _ _ ( G ( W P L P P U U B C m m *.1.1.;.0.%X8X4X:XB.,.B.3XuX3X3X=X=X2X3X4X4X3X4X4X:X2X4XsXv.9.&X7X;X-X5X-X&X2X2XiXtXaX*X6.) { { { 6.6.6.d.{ ` { 3.3.) ) 1.) z b b b b W [ (.I.I.I.{ ] ] ) U V 1.1.1.2.8.0.*XiXnXgXgXfX9X8X8X9X9XjXjXjXjXwXwXBXwX3X&X&X-X5X3X3X5XfXfXfXfXjXjX",
"jXjXjXdXjXjXjXjXjXjXwX6X6X6XqXqX6XqXqX6XqXwXwXqX4X:X4X4X,X2XN.,.,.:.=.2.8.8.E.W.].'.'.'.d.d.f.d.` z & & $ $ & k x x v W _ _ x.l.d.d.d.(.E.E.5.) Y m 0.iX9X4XqX:X>X2X;X3X9X9X9X3XwX9X3X3X3X3X3X3X9XfXMXMXfXdXfXfX5X9XfXfX5X>X5XjXwXM.:.%.M V 1.6.E.W.E.E.W.W.6.] L W W W ! ! ! Q S a a Z Z a a v [ I.E.{ { I.I.] ) ) C C =XCXNXjXjXfXfXdX9X9XdXfXfXjXMXfX6X5X5X9XMXMXfX6X5X3X>X>X6X6X6X6X6X6X6X5X>X;X6X6XM.,.:.*.5.7.'.'.d.[ _ ! Q f S ! A l j 4 c b b ( _ ! S Z Z E Q Q s.|.}.{.+XQ.[.E.{ 1.;.v.CXVXNX5X8XVXAXNXDXDXNXDXDXDXDXZXzXzXzXzXlXlXlXgXZXAXAXCXwX4X4X4X,X,XV.N.M.$XuX=XM m C H B U ( U ( A v u u h p p h h u u h h h h i u v W ( U U U U N n C n C ;.c.;XVXVXDXNXgXlXlXlXNXNXNXNXnXiX7X7X7X7XuXuX9X0X0X7X3X3X3X;X;X;X;X-X3X>X>X>X5XuXmX.XY U ' ( ' [ [ [ [ [ [ [ _ [ { { { ( ( ` { { { d.s.s.[ [ I.P.P.P.Y.U.P.K.' T U Y 1.1.2.tXiXiX8X9X9X6X6X5X9X9X9X6X6X6XqXwXwXwX9X0X3X2X2X3X4X4X,XqXhXjXlXjXjXjX6XjXjXnXtX3.) ] Y.U.U.P.I.{ 6.3.` K K J J D D D J W _ _ ( ( ( ( ( P P P P U U B C m m #.*.1.;.c.%X-X&XN.n.,.b.:X0X2X;X2X3X3X3X2X&X2X4X3X:X2X4XsXv.,.#X7X;X;X5X3X=X2X=XiXtXaX*X6.) { I.I.E.'.'.'.l.l.l.7.6.5.1.) ) B B U ( ] I.I.'.I.I.L.] ] ' ( U V <.1.1.8.2.0.*XFXnXmXNXMXfX9X9X9X9X9XfXjXwXwXwXkXjX4X&X&X>X>X>X5X5XdXfXfXgXfXNX",
"hXhXdXdXjXjXjXjXjXjXqX6X6XqXwXjX6XwXwX6X6XwXwXwX4X2X0XwX4X:XM.,.,.:.=.2.8.8.W.[.Q.Q.'.'.'.(.f.l.|.) C k 5 - - k x b W [ _ a.x.l.d.d.(.(.E.E.] Y Y n 0.iXuX9X9X>X5X-X=X-X8X9X9X3XMX9X3X3X4X9X3X3X9X9XjXjXfXfXfXfX9XfXfXfX5X;X5XjXwXM.:.%.M V 1.7.6.E.E.!.].W.E.] B G A ! ! ! ! Q S a a a Z Z E W { I.I.I.L.I.I.] ) ) C m %XMXNXjXjXfXdX9X9XfXfXfXjXjXfX9X5X5X5X5XMXMXMXfX6X5X5X5X6X6X6X6X6X5X5X5XPX;XdX4XN.,.:.=.1.6.'.'.d.{ ) _ ! S S ! _ G b z B G ) ` ` _ A Z A ! ! s.(.}.+X{.{.!.Q.{ { 1.:.M.MXBXCX9XfXBXAXBXDXDXDXDXDXZXZXZXcXzXcXcXZXcXlXfXBXAXSXBXjXwXqX4XeXrXN.B.B.M.8X=XM C C H B B ( L W Z u u i p p p h h u u h h h h i i v W ( U U U U B N n n m ;.c.%XKXKXNXNXgXNXgXDXNXDXVXmXmXiXtX7X7X7X7X0X0X0X0X3X7X7X-X;X;X;X-X7X7X3X3X3X3X8XaXXXY U ' ' ' P.P.[ [ [ [ [ ( ` { { { { ` { { { [ [ [ [ [ P.I.I.P.P.T.U.P.' ' T U V 1.2.2.iXaXuXuXwX9X6X6X4X5X9X9X6X6X6X6XwX9X9X3X0X3X2X3X4X4X>X:X<X<XjXlXlXjXhXqXwXjXnXtX3.) ] Y.U.P.I.I.6.6.3.3.3.K K J J J J _ _ ( _ ( ( ( ( ( P P P P U U B C m m #.*.1.1.c.=X8X&XV.N.M.2X2X2X;X2X3X3X3X;X&X&X3X3X&X&X&X2X&XM.b.&X8X7X7X5X3X3X7X2XiXiXaXyX6.] I.Y.Y.[.[.'.'.E.l.7.7.7.7.6.) Y ) ) ) { E.'.I.I.I.I.L.] ' ' ' U V <.1.1.8.2.0.#XmXMXNXNXNXMXMX9XfXfXfXdXdX6XqXqXjXkX6X&XV.&X>X>X5X5XfXfXfXfXfXNX",
"hXhXhXhXdXjXjXjXwXwXqX6XqXqXwXwXwXjXwX6X0XwXwXwXwX4XwXpX2X2XM.9.,.=.=.*.2.6.!.E.E.E.E.(.(.d.d.d.x.l.3.;.H M C B ( _ _ s.p.` x.x.d.P.(.'.[.E.!.5.<.C 0.aXiX9XjX3X8X-X;X=X-X9X9X9XfX9X9X9X9X9X8X5X9XdXfXjXfXfXMXNXdXdXfXdX5X>X5XMXqXM.:.%.M V 3.7.6.E.E.!.].{.W.5.B G G _ _ g.Q S S a a a E Z E ^ I.I.I.L.I.I.I.] ) ) V C %XMXNX9XfXfX9X9XfXfXfXMXMXfXfX5X5X5X5X5X8X9XnXfX9X6X6X6X6X5X5X5XdXdX5X-XPX;X6X0XN.9.q.=.1.{ { (.'.E.6.3.( D A G _ ) H H H H ) ) ` ) H G ` d.(.(.|.}.{.{.Q.!.Q.{ ` 1.:.M.MXBXBXfXjXAXAXBXDXZXZXZXZXZXZXZXcXcXcXcXZXZXBXlXDXAXAXBXBXBXwX4X,X:XN.N.M.&XuX=XM n C V B B ( L W v u u i p p p h h u h h h h h i i v W W L U U U N n n n m ;.9.%XKXKXDXDXgXNXgXNXNXVXmXmXiXtXtXiX7X7X7X7X0X7X7X7X7X-X-X;X;X-X-X7X7X3X3X3X-X-XtXXXY U ' ' P.P.P.[ [ [ [ [ { [ { ` ` ( ( _ _ _ _ [ [ [ [ I.L.L.P.K.P.P.K.' ' T U V 2.2.2.iXiXuX9XwXqX6X6X4X9X9X9XdX6X<X6X9X9X3X;X3X3X3X4X4X,X>X:X<X<XdXjXjXhXhXhXqXjXnXtX3.) ' I.P.T.I.I.6.3.4.4.3.3.K K J J J _ ( ( ( ( ( ( ( ( W P P L U U B C m m #.1.1.2.v.=XCX&X&X:X,XBX2X2X2X3X3X>X;X&X&X;X7X=X&X&X=X2X&X&XN.2X9X3X5X3X>X4X2X7XiXiXaXyX6.] P.U.Y.Y.Q.E.E.E.6.6.7.W.7.7.5.3.5.6.6.E.'.E.I.I.I.!.L.' ' ' ' U V *.1.1.2.2.0.#XmXMXjXlXjXjXMXMXfXfXgXdXdXdXhXjXqXkXhXV.C.V.>X<X5XdXfXgXfXfXgXfX",
"xXxXhXhXdX6XjXjX9X9X9XwXwXwXwXwXwXMXjX9X0XwXwX9XMX0XpXpX2X2X$XM.,.:.*.*.1.5.6.E.Q.E.E.E.(.d.d.d.6.l.].c.7.3.) ) l.'.d.d.` J x.` d.(.(.'.[.Q.!.!.5.V 0.aXuXuXMX3X7X=X%X%X;X8X9X9X9XwXMXfX9X9X9X9X9XdXjXfXfXMXCXNX9X5X5X5X5X3X6XNX9XM.:.%.M H 3.7.W.E.E.E.W.].W.6.H G G _ _ ! Q S S a a Z E Z W ' I.E.I.L.I.I.L.] ) ` V 6 %XMXNX6XdXfX9X6X9XfXMXNXNXfX9X8X9X8X5X3X-X5X9XfX9X9X9XdX5X5X5X5X8XdX8X-X;X;X6X4XN.,.:.=.1.] [ I.[.].W.8.` H G G H H ) ) ) ) ) ) ) 3.) ) '.|.}.}.}.[.{.{.Q.!.Q.{ ` H :.M.MXAXAXjXjXAXSXBXZXZXZXZXZXZXZXZXZXcXcXcXcXZXDXDXAXDXBXBXAXSXBX,XZ.Z.N.V.&X2XuX%XM n C G B U ( L W v u i i h p p p p u h h h h h i v E W ~ P L U U B n n 5 6 ;.9.%XVXDXDXNXgXNXlXNXNXmXnXiXtXtXiXiX7X7X2X7X7X7X7X7X7X7X-X;X;X-X-X-X7X7X3X3X7X7XtX.XB U ' ~ G.G.H.P.[ ' ' [ [ { [ [ [ _ _ _ ` [ { (.(.(.(.Y.I.K.P.K.P.K.K.' ' T U V 1.2.2.7XiX7X9XqX6X6X6X6X9XjXjXjXdX6XdXdX9X3X&X2X3X0X9X6X>X>X:X<X<XdXdXdXdXhXxXqXdXnXtX3.) ( L.K.I.I.E.8.2.4.4.>.>.K K J J J _ _ ( ( ( ( ( ( L W P P T U U B C m m #.2.2.4..XtXnXM.&XV.&X4X:X4X2X2X3X;X&X&X3X8X7X=X=X3X4X2X&X&X&X2X3X3X3X;X&X4X4X7XuXtXtX*X5.) K.T.T.T.I.I.E.E.E.E.E.6.6.6.6.6.6.E.W.E.E.I.I.I.L.L.L.' ' ' ' U V <.<.1.2.2.0.#XmXMXjXjXxXjXjXjXlXgXfXdXdXdXjXjX6XkXhXV.B.C.>X<X5XdXfXgXjXgXfXdX",
"qX1X6XjXjX9X9XMXMXwX9XwXjXjXwX6XwXjXjXNXNXjX9X0XwX9X9X6X9XCX4Xv.:.:.*.;.1.5.6.E.E.E.E.E.E.{ { { 6.6.6.6.].z.l.z.l.l.{ _ _ ` { { (.).).(.Q.Q.E.5.5.V 0.tXpXpXwX4X2X2X&X&X&X3X4X4X6X6X9XwXjXjXjXdX6XdXdX5X6XNXBXCX9XdXdXdX6X6XdXjXMXM.;.6 M ;.3.7.6.6.W.W.W.W.W.E.` ( ( W ! ! Q f f a a E Z v ( { E.E.I.I.I.I.] ] ( ) C *.#XCXMX6XjXdXjXjXjXjXjXfXjXfX9X8X7X3X;X;X3X-X3X3X5X9X6X5X5X5X9XfXfX8X5X-X;X-X>X1XN.,.&.*.5.] L.I.Y.'.].].6.6.3.` ` 3.5.6.1.Y ) 6.6.6.{.}.].}.}.}.{.[.[.[.Y.Q.Q.E.` V ;.v.VXCXCXCXCXBXBXBXBXBXBXBXBXZXZXZXZXZXZXcXZXcXcXlXDXDXZXDXDXBXNXlX1XZ.Z.Z.:X4X7XtXH k B B L U L L b v v i i i p p p p 3 3 h h h h a I W ~ ~ ~ T T U U B C n 6 =.9.;XDXmXnXNXlXAXNXNXmXnXfX8X-X-X-X8X3X3X3X3X3X3X0X9X3X7X7X-X3X;X=X-X7X7X3X3X2X7XtX.XC U U ' ~ G.G.G.K.K.K.' [ [ [ [ [ [ [ { (.'.(.(.(.(.I.U.T.U.U.K.K.K.K.' ' U B C *.2.4.tXFXuX7XpX9X6X6X6XdXdXdX5X6XdX6X5X3X4X4X&X2X4X0X9X6X>X>X<X5X6X6X<X<XhXxXNXmXFXyXz.) ( ] K.L.!.E.8.4.2.:.>.4.3.K J _ _ J _ ( ( ( ' ' ' T P P U U U B B C m , %.2.:.4.#XiX-X%XM.N.:X0X4X:X4X3X2X&X2X3X3X;X3X3X;X3X3X3X3X3X;X&X;X;X3X3X3X3X:X5X8XiXFXyXW.( K.K.K.T.T.Y.Y.Q.I.E.E.E.6.6.3.) 6.E.E.E.I.I.I.L.L.' ' ' ' ' ' U B <.<.1.8.2.9.#XuXCXNXfXfXlXzXlXlXjXfXfXfXnXMXjXxX<XvX>XC.V.qX6X>XdXfXlXdX6X6X6X",
"kXqXqXqX6X6X9XfXMXMX9X6X6XqXqXjXwXjXjXjXjXjX9X9X9X9X9X6X9XCX3Xb.:.;.;.;.1.5.5.E.!.E.E.[.].W.W.W.E.'.E.6.].6.` l.l.6.{ { { I.'.'.).).[.[.[.Q.E.5.5.V 0.7XiXuXwX0X:X:X&X&X&X2X>X:X2X2X>X3X4X6X9X6XdXgXdX5X6XNXCXjXjXjXjXjXhXhXjXjXmX#X:.M M ;.3.6.6.6.E.W.W.'.E.E.` ) ( W ! ^ Q f f g a E I L ( 6.E.E.E.I.I.I.L.] ] ) V M %XMXkXwXjXjXjXjXjXjXdXfXfXfX9X9X9X7X7X3X7X3X>X5X5X9X6X5X3X5X9X9X9X5X5X-X-X8X>X1XN.,.&.*.) ] L.Y.Q.[.].].].].'.].7.W.].].6.5.6.{.].'.{.}.{.}.}.}.[.[.[.[.Y.Q.Q.6.) V 2.v.VXVXCXCXBXAXAXAXBXBXBXBXBXBXBXDXcXcXcXcXcXcXcXcXDXDXSXSXAXAXAXZXvX<X:X<X,X4X2X=X;.k B L L L L L L b v i i i h p p p 3 3 h h h h v I ~ ~ ~ ~ P T T U B C m 6 =.9.;XVXNXNXNXNXDXgX5X5X5X5X8X8X8X8X8X>X3X6X6X3X3X8X9X0X7X9X9X9X4X3X=X2X7X7X3X2X7XiX.XC U U ' P G.G.G.K.K.K.P.P.[ [ [ [ ~ ' P.).[.).I.(.I.Y.U.U.U.U.K.K.K.K.' ' U B V 1.2.2.=XiXuXuX9X9X6X6X6XdXdXdX6XdXdX6X6X3X4X4XwXqX0X0X9X6X3X>X5X6XdXdX<X<X<X6X5XgXmX*Xz.) ) { L.I.E.6.4.2.,.,.,.4.3.H J _ _ _ ( ( ( ' ' ' ' ' T T T U U B B C m 6 %.;.;.:..X-XiX-X%X&X:X2X:X:X2X;X2X4X0X3X4X9X3X3X3X3X3X3X3X>X;X&X;X7X3X3X4X,X>X6X8X-XtXoX7.) L.K.P.T.Y.Y.Y.Y.Q.Q.Q.E.E.6.3.` E.E.E.E.I.I.I.I.L.L.K.' ' ' T U N V <.1.8.2.0.#XuXmXNXNXfXlXhXdXhXdXdXfXuXnXnXfX6X6XhX<XV.:XjX4X>X5XjXNXlXdXdX6X",
"kXkXkXwX9XMXMXfX9X9X9X6X6X6XqXjXjXjXwXwXwXwXwXwX9X0X0X6X9XMX>Xb.:.;.*.*.1.5.5.E.!.E.E.[.{.].].].'.{.].'.].6.6.'.'.l.'.'.'.'.[.{.[.[.[.[.[.Q.!.] 1.V 4.tXiX0XpXwX:X:X&X&X&X:X:X:X>X>X>X>X3X4X6X6XdXdX<X>X5X9X9X6X9XjXjXjXqX6XqX9XmX#X:.M M ;.3.6.6.6.E.E.'.'.E.E.6.` ( W ^ u.Q f g g f Z E ( { E.E.E.E.I.I.I.] ] { ) V M =X8XMXjXlXlXlXlXjXfXfXdX8X9X9X9X9X5X7X-X5X5X5X5X5X9X6X5X5X5X6X9X6X5X3X-X8XgX>X1XN.,.&.*.Y ' L.Y.[.[.].].].].].].].].{.XXW.6.].}.{.'.].].{.}.}.{.{.[.[.Y.Y.Q.E.6.1.;.4.v.JXBXMXNXBXAXAXAXBXBXBXBXBXBXBXBXcXcXcXcXcXcXcXDXlXlXBXDXBXNXlXjXvXvX1X1XqXqXuXtX;.n B b L L L T L L v u i i i h 3 3 3 3 h h h h i L ~ ' ~ ~ P T T U B C m m :.9.&XCXCXNXNXNXBXfX5X5X5X5X8X8XuXuX5X3X3X9X9X3X0X8X3X7X9X9XpX9X9X3X=X-X7X3X3X7X7XiX.XC U L ~ P G.R.R.K.T.P.P.K.P.[ ~ ~ ~ ~ K.I.[.).(.I.P.P.Y.U.U.T.K.K.K.K.] ' U B V 1.2.2.*X-XiXuX9X6X6X6XdXdXdX6XdXfXdXdX6X3X4X4X4X2X;X3X9XfX9X9X9XdXjXjXhX6X<X<XNXVXGXtXz.H ) ] I.Y.L.6.3.4.9.9.9.9.4.1.K ` _ _ ( ( ' ' ' ' ' ' ' ' ( ( U U B B m , %.:.:.c.=XGXmXiX8X7X2X2X2X4X3X7X0XuX0X;X&X3X7X3X3X3X5X5X3X3X&X;X7X8X8X3X3X6X>XdX8X-XtXoX7.) ' K.K.T.Y.Y.Y.Q.[.Q.Q.E.E.6.6.{ E.E.E.I.I.I.I.I.L.K.K.K.' ' T U Y <.<.1.2.2.9..XiXmXVXNXgXlXdXdXhXdXdX9XuXuXuXfX6X6XvX>XV.>X6X:X&X3XjXBXNXjXdXdX",
"4XwXjX9X9XMXMX9X8X8X9X9XwXqXqX6XwXwXwX9XwX9XwXwX0X9XwX9XwXNX:Xb.:.;.*.*.1.5.5.!.!.E.E.[.{.{.].{.].}.}.{.{.'.'.|.].].{.|.[.{.[.[.[.[.[.[.[.[.E.] ) C 4.=XiX9XpXqX2X:X:X:X:X2X>X2X4X4X3X>X3X4X6X6XjXfXdX6X5X8X9X9XMXMXMXCXNXjXjXwXmX#X:.6 M ;.8.6.6.E.E.E.'.'.'.'.].6.` _ ^ i.t.g s g f a W ] W.W.W.E.E.I.L.L.] ] { ) H M -X7XBXkXNXNXNXlXjXfXfXdX8X8X8X9X9X8X8X3X5X5X5X5X6X9X9X9X5X9X9X9X6X5X5X7X8X8X>X1XN.,.:.;.Y ' L.Y.Y.[.'.'.'.'.'.'.E.].{.{.W.E.{.}.{.].].W.}.}.}.{.[.[.Q.Q.Q.Q.I.5.1.;.4.M.JXCXfXfXNXAXAXBXDXDXBXBXBXBXBXlXDXcXlXlXzXlXlXlXZXDXDXDXDXBXBXlXvXxXxXqXqXqXuXiX;.n b b L P L ( L L b v i i i h 3 3 3 h h h h i v L ' ' ~ P P P T U B C M %.:.9.%XMXNXNXNXNXNXdX5X5X8X8X8X8XiX8X3X3X3X0X4X3X3X3X7X3X9XpXMX9X3X-X7X7X7X3X7X7XiXiX.XC B L ~ P G.R.R.R.R.T.T.P.P.P.P.[ ~ ~ K.Y.Y.Y.).Y.P.U.U.U.T.K.T.K.K.L.' ] T U C *.2.2.*X-X7X8X0X3X6X6XdXdX6X6XfXfXdXdX6X6X6X4X0X4X4X0X8X8X7X-X7X9X9XjXjX6X>X:X-X-XFXyXz.) ) I.L.P.I.6.3.4.,.9.9.9.4.3.` ` ` ` ( ] ] [ ' ' ' ' ' ' ' ( U U B C m 6 #.*.;.9.*XmX=X=X=X=X&X&X:X:X#X&X7X0XuX0X0X9X7X3X3X3X5X5X3X3X;X-X8X9X7X3X3X6X6X6X5X-XtX*X7.) ] ] ' K.K.T.Y.Q.Q.Q.Y.Q.E.I.{ { E.E.I.I.I.I.Y.Y.I.T.K.K.K.' T T Y <.<.1.2.2.4.v.iXnXNXNXlXlXgXdXhXhXdXfXuXuXfXfXjXhX<XV.V.6XjX0X&X3XnXMXMXjX9X9X",
"4XwXwX3X3XuXMX9XnX9X5X6X6XqXqX6XwXwXqXqXqXqXwXwXqXwXwXqXwXMX:Xb.:.*.V V <.5.5.!.!.!.!.{.{.{.[.{.'.}.}.{.{.'.E.{.}.}.}.}.{.[.[.[.[.[.[.[.[.Q.E.5.Y n 2.=XuX9X9X>X2X:X:X:X>X4X4X4X4X3X>X>X>X3X9X9XfXdXfX9X3X;X7X7X9XuXpXMXMXjX0X4XCX#X:.6 M ;.8.6.6.W.E.E.'.'.'.'.].W.{ [ ^ / f g p g f E W { W.W.!.E.E.I.I.] ] ] ] ) 1.;.iX8XCXMXCXNXNXjXMXfXnXnXfXfX9X8X9X9XuXnX8X5X6X6X9X9XfXfX9X9X9X9X8X5X5X5X8X8X:X,XN.,.,.2.) ' T.U.Y.Y.[.[.{.[.[.'.'.[.{.{.!.E.{.}.{.{.}.{.}.}.{.{.[.Q.Q.Q.Q.E.5.1.1.;.4.#XHXNXfXfXDXDXDXAXAXAXDXDXBXDXDXBXlXlXlXlXBXBXBXBXBXDXDXDXBXBXNXlXzXcXxXqXqXqXuXtX1.z B b L L L P L L W v i i i i i h h h i h i i v L ' ' ~ P L L T U B C C M :.b.%XCXCXCXNXMXNX9X5X5X7X7X7X7X7X7X3X3X5X3X7X3X3X;X3X3X9XfXnX9X7X;X3X7X7X3X8X8XiXiX.XC B L ~ P G.G.R.R.R.U.U.U.U.P.K.K.' ~ P.Y.Y.Y.).U.U.U.U.U.T.K.T.K.L.L.L.] T U V V ;.;.=X-XiX8X3X3X5X6X6XdX6X5XjXjXdXdX9X9X0X0X&X3X0XuXuX9XuXuX8X9XMXCXCXjXjX9XfXnXFXyXz.) ) { P.P.{ 6.4.4.2.,.9.0.4.7.3.` ` ` _ ` { ] ' ' ' ' ' ' ( ( U B b C m , #.:.2.c.=XFX=X=X=X=X-X7X3X3X&X7XuXuX7XuX8X=X7X3X3X3X5X5X3X3X5X8X9X8X7X3X3X6X6X6X;X-XmX*X7.V ] { { L.L.I.L.L.Y.I.Y.Y.Y.I.I.{ I.I.Y.I.I.I.T.T.P.T.K.K.K.' T U Y *.*.1.2.2.4.v.-XnXmXmXlXNXlXgXlXlXjXMXnXnXnXfXlXkXvX:X>X6X0X9X=X7XuXnXuX8XuXuX",
"MXpX7X&X&X7X8XuXuX8X3X3X3X6XqXwXqXqXqXqXqXqXwXwXqXwXkXqXqXkX:Xb.:.*.M V <.5.8.E.!.!.!.{.{.{.{.{.{.}.}.{.{.E.I.'.}.}.{.{.[.[.[.[.[.[.[.[.[.[.E.5.V n ;.*XuX8X6X>X>X:X&X:X,X4X4X9X4X3X3X3X6X9XNXNXnXMXMXnX8X7X7XuXuXmXCXCXCXCXMXwXpX$X,.M M ;.5.6.6.W.E.E.E.'.[.[.{.].I.[ ^ Q g s s g Q ^ [ E.W.W.!.E.E.E.I.{ ] { ] ) 1.;.tXuXCXCXNXMXMXjXMXMXMXMX9X9X8X7X7X8X9XnX9X9X9X9X9X9XfXMXfXfX9X9X9X5X5X8X7X3X2X,XN.,.:.1.) ' T.P.T.Y.[.[.[.[.[.[.Q.Q.[.{.E.E.{.}.{.}.+X}.{.{.{.[.Q.Q.Q.Q.Q.E.5.1.;.*.4.#XHXNXnXNXAXDXDXAXDXDXDXDXDXDXDXDXfXjXlXNXBXBXBXBXCXBXBXBXNXNXNXjXkXzXzXkXBXCXGXaX4.B B b I L I L L L W v u i i i i h h h i i i i I P ' ' ~ P P L T U B N C M :.b.=XJXAXCXCXfXnX7X8X8X9X9XiXiXiXiX7X8X8X7X3X3X7X;X9X9XfXMXMX9X8X7X8X8X7X7X8X8XiXiX.XC B U T P G.G.R.R.R.R.U.U.H.U.G.G.~ ~ P.Y.).Y.).U.U.U.U.U.K.K.T.L.L.L.] ] Y B V M M ;.%X=X7X7X3X>X>X6X6X6X6X6XfXdXdXdXjXjXjXwX0X9X7X-X-X-X7X7X7X7X8XuXMXMX9X9X%X%X*X.X7.) ) ' [ [ [ 6.7.9.9.9.9.9.7.7.3.) ( ` ` ` ` ] ] ' ' ' ' ' ( ( U B b B > , =.2.2.c.*X=XtX-X-X-XiXuX7X7X7XiXpXiX7XuXuXuX7X7X3X3X5X5X3X3X8X8X9X8X7X3X3X>X6XdX;X-XmXyXc.) B ( ] { E.I.L.L.L.L.T.Y.Y.Y.I.L.I.I.I.I.L.L.P.P.T.K.K.K.K.T T U B V V ;.1.;.2.c.-XnXnXnXgXNXNXlXlXlXNXNXMXMXfXdXjXlXdX<X>XM.,.,.9.9.9.9.9.9.9.b.",
"$XM.v.b.v.b.v.#Xv.#X;X3X4X4XqXwX4X6XqXwXwXqXqXqXqXwXwXqX4XwX:Xb.;.*.M M <.8.7.!.W.!.W.{.{.{.{.{.{.}.}.}.}.'.E.[.OX}.{.[.{.{.[.[.[.[.[.[.[.].E.8.V n 4.-X8X8XdXdX6X2X:X>X4X4X0XjX9X9X6X6X9XfXjXMXnX9X8X8XuX7X2X7XuXuXCXGXGXCXMX9X&XM.,.%.M ;.8.6.6.E.E.E.Q.[.[.[.{.{.[.(.s.^ f a a f ^ P.(.'.Q.{.Q.E.E.E.I.I.I.6.] 3.H ;.%XuXmXuXMXnXnXnXnXnXMXMX9X9X8X8X8X8XuXnXMXjXfXdX9X9XfXjXfXfX9X6X5X5X5X8X3X4X2XeXN.,.:.*.1.] K.P.T.U.).[.[.[.[.Y.Y.Y.Q.[.L.I.[.{.{.{.}.{.{.[.Q.Q.Q.Q.Q.Q.E.E.5.1.*.M 2.#XHXVXNXAXAXDXNXAXNXBXBXNXlXDXDXDXjXjXNXBXBXBXCXCXAXAXAXAXAXBXNXNXvXxXkXkXCXJXGXaX3.z B b L T L L P L W W v u i i i i i i i i i v ~ ( ' ' ' P P P U U B N C m :.b.=XJXVXCXCXnXMX8XnXMXCXCXmXmXuXuX7XuXuX9X9XuX9X3XfXfXfXnXnXnX9X9X8X5X-X3X5X8X8XtXc.n B U ' P ~ G.G.R.R.R.U.U.U.T.G.G.G.G.K.Y.Y.Y.Y.U.U.U.U.U.T.P.T.K.L.] ] ] U B V %.>.4.-X7X7X3X3X>X>X>X5X6X6X6XdXdXdXdXjXMXMXNX3XM.:.7 : 1 @ : : : : : 7 7 7 7 7 6 M 1.H ) ] { [ [ { 5.8.0.0.0.0.4.7.6.` ( ( ` ) ) ] ] ] ] ' ' ' ' ' ( U U B B m #.=.:.%.m M m M 6 6 6 6 6 7 7 : 5 6 %.%.%.9.%X7X7X3X3X5X5X3X>X5X5X8X8X8X7X3X>X6XfX6XdXKXmX*X X) ) ` ) ] ] I.I.L.L.L.Y.Y.Y.T.K.I.I.P.P.P.K.T.T.T.K.G.K.T T T R V V V ;.4.4.9..X-XmXmXfXfXgXlXgXlXlXNXNXMXnXfX6X6XhXdX6X&X>.: 1 1 1 1 1 1 1 + : ",
"#.6 6 %.%.6 6 %.%.9.&X9X0X4X4XqX4X4XqXwXwXqXqX6X6XqXqX4X,XwX:Xb.*.%.m M *.2.8.7.W.!.W.W.{.{.{.{.'.{.{.{.{.[.E.{.+XOXOX[.[.[.OXOX[.[.'.W.W.].W.7.H M c.iXnX5XNXAXjX4X>X4X6X6XwXMX9X9X6X6X3X3X5X5Xv.b.9.b.v.0.9.9.v.v.M.#X$X#XM.b.v.9.:.%.M ;.8.6.W.E.E.E.Q.[.[.[.[.}.}.}.(.[ W E E E ^ (.[.'.'.{.'.W.E.E.E.E.E.E.) 5.V M v.iXiX7XnXnXuXnXnXMXCXVXMXMXMXnXCXCXCXMXCXCXMXfX5X5X9XfXfXdX9X5X5X5X5X5X3X4X>X4XN.,.=.*.) ] L.I.P.U.).[.).).Y.Y.I.I.Q.Q.L.I.[.OX{.{.{.[.Q.Q.Y.Y.Y.Y.Q.Q.I.E.5.1.V M 2.#XJXNXNXAXAXlXNXAXNXNXlXlXlXlXDXDXBXBXAXAXAXCXMXuX7X7X8X8X5X5X-X>X5XdXjXwXpXpX-X.X1.k b L L ' P T P ~ ~ W W v u i i u u u i i v E ~ ' ' ' ' ' P P L U B N n n ;.c.*XGXVXVXVXCXVXnXCXCXVXVXmXmXiXiXiXuXmXuXnXCXMXfXfXfX9X9XuXnXnXnX8X5X-X>X3X7X-X-Xc.n C B ( L P P G.G.G.G.R.U.U.T.T.G.G.G.K.Y.Y.U.Y.U.).Y.Y.U.Y.Y.K.] ] ] ] ) U C M :.c.#XJXCX9X9X>X>X>X>X<X6X6X6XdX6X6XdXjXNXCXCXCXM.o.1 o o + # + 1 1 1 : : : : 5 5 C H ) ) 5.] { { ] 5.8.0.0.0.0.7.6.{ _ W ( ` ( ( ( ( ] { ] ] ' ' ' ( ( U B B m #.:.2.*.m 6 > 5 5 5 5 5 5 : : > + : > : 1 %.#XiX7X7X3X3X3X3X>X3X5X8X9XuX8X3X>X<XjXfXgXJXGXaXtXoXXX7.1.) ) ] I.E.I.I.T.T.T.I.T.I.L.P.K.K.K.K.T.K.K.G.T T T T U n M *.4.v..X*XmXnXnXmXgXgXgXgXfXlXlXjXMXMXnX9X6X<XhXhXxX>X>.1 1 + # : @ # # : : ",
"1 1 : : : : : : 1 %.7XuXMXqXjXqX6X6X6X6X,X,X6X6X6XqXqXqXqX,X:X&X:.%.6 m *.2.7.W.8.W.W.W.{.{.{.{.{.'.[.{.{.Q.E.[.{.{.OXOX[.[.[.[.[.W.W.].].].z.7.4.c.=XnXfXdXfXBXBX4X:X>X3XwXMXjXjX9X5X9X5XdXfXb.7 : : : : : 6 6 6 6 6 #.#.#.o.o.o.%.;.;.;.;.2.7.E.E.E.E.E.'.[.{.}.}.}.[.'.'.] L x ( E.'.'.[.|.'.'.W.W.Q.E.E.6.5.] ) V ;.4.b.v.v.v.v.v.v.b.v.v.v.v.M.v.v.%X%XVXCXMXfXfXMXjXdX9XfXMXfXdX9X6X6X6X9X9X4X4X2XM.,.%.M ) ) { I.I.P.P.).Y.Q.Q.Y.Y.Y.Q.[.I.L.Q.{.OXOXOX[.Y.Y.Y.Y.Y.Y.Y.Q.I.E.6.1.M m 2.$XCXdXdXBXSXAXBXBXDXlXlXlXlXlXlXDXBXAXCXjXHXMX,.%.7 7 7 7 7 7 o.o.o.>.>.,.,.:.:.1.n N B L L L L P P P ~ W W W Z Z u u u v v v E W K.' ' K.K.' P P L U U n w n 1.c.v.v.#X$X%X#X#XM.v.v.v.v.v.v.c.0.0.v.uXGX9X8XCXMXMXfX9XfXMXMXuX8X5X-X>X;X-X5X8XnX=Xc.V k c U ( ( K.K.K.K.K.K.G.G.G.G.G.G.K.T.Y.Y.U.U.U.Y.Y.Y.Y.I.] ] ] ) ) ) ) 3.#X=XmXGXCXuXfXjX6X6X6X6X3X3X6XfXdX6X6XdXjXjXNXAXCX&X: 1 @ @ @ @ @ @ : : : : 5 5 5 m V 1.1.5.5.] ] { 5.2.2.0.0.c.7.6.[ _ W W ! _ ` ( ( ( ) { ] ] ( ( ( U Y Y Y Y *.<.<.*.m > > 5 > > @ @ # # # + : + + 5 5 : %.*XuX7X-X3X4X6X>X&X3X7X8XuXuX9X3X>XdXdXdXgXNXKXGXJXIXFX*X.Xz.6.5.] { E.Q.Q.I.L.L.I.I.I.P.K.K.K.G.G.G.K.' ' ] ' U B ;.c.*X=XtXmXGXGXVXnXfXmXNXlXdXdXlXlXNXMXnXfXfXdX6XlXxXjX&X&.1 : + + + + + @ > > ",
"@ + @ : : + + 1 o 6 =X7XwX0XwXwXqXqXqX6X6X6X6X6X6X6X6X6XqX6X6X3X=Xv.:.%.*.;.4.8.7.7.W.W.].{.{.{.].'.[.{.{.E.E.Q.{.{.{.{.{.{.{.{.].W.6.6.].XXoXyX.X*XtXmXmXfXgXlXNX4X2X3X3X9XjX6XjX9X5X9X5XfX9Xn.: 1 1 1 # # : : > > > , 6 6 6 7 6 %.%.;.;.1.7.W.6.E.E.E.E.Q.[.{.'.[.[.}.}.{.E.] N ) 6.'.'.'.'.|.].W.E.E.W.W.E.6.) ) V V %.%.%.%.%.%.%.%.%...6 6 6 6 6 7 %.>.=XnXfX9X9XfXfXfXfXMXfXfXfX9X9X6X5X6X6X6XwXjX3XM.9.;.C B ) E.'.I.P.I.Y.Q.Q.Q.Q.[.[.[.I.L.Q.OXOXOXOX[.Q.Y.Y.Y.Y.L.L.L.E.5.Y V *.2.v.=XfX5X5XjXNXBXlXBXBXlXlXlXlXlXDXDXjXBXNX9XBX%X6 7 1 1 1 1 1 1 : : : : 7 7 6 6 > > C B U U P P T T ~ ~ ' ' W W W A F l l v v L ~ [ L.' ' ' ' ' P ( T U U N n C *.4.m 6 M 6 6 7 5 5 5 7 6 5 5 > > > 6 *.$XmXuX9XCXMXfXfXfXnXMXnX8X7X5X-X-X-X5X8XnXnXiXtXyXXX3.B B U T ' K.K.' K.K.P.K.K.G.G.K.T.Y.Y.Y.U.U.T.I.I.I.] { ] U B ) z.oXtXtXiXmXnX8X9XjXNXjXjX6X6X5X3X5X5X6X6X6XdXjXjXNXCXCX&X: 1 # + + + + + @ @ @ @ > 5 n C V ) ) ) ] ] ) ] 1.1.2.0.c.z.6.{ ^ ! Q ! ! _ ` ) ( ( ( ( ( ( U U B U U R R V *.*.m n > * * * > * @ # # # # + @ + + > 5 > ;.$XiXiX7X7X3X3X3X5X6X8X8X8X7X8X5X5XdXhXzXBXNXmXFXmXmXFXFXFXtX*X X7.5.] ] ] L.L.L.] I.L.K.K.K.K.K.K.~ ' ' T ) ` 6. X*XtXiXFXFXFXmXnXnXnXfXfXdXdXlXZXlXlXNXMXnXfXfXjX6XxXxXjX&X&.1 + + + + + @ * * * ",
"+ @ @ @ + + + o o 7 &X7X9X4XwXqXjXjXjXhX6X6X6X6X6X6X6X6XxXlXlXNXVXiX=X#Xv.c.0.2.8.8.8.7.W.].].E.].'.'.{.{.E.E.E.{.{.{.{.{.{.{.W.W.]. XXX*XyXtXbXmXmXnXmXNXNXlXlXjX3X>X3X>X9XjX6XwX9X9XfX5X6X5X9.1 o o o + + + @ : > > , 6 6 6 6 6 M %.;.1.4.7.].W.].'.'.E.'.{.{.}.[.}.}.[.{ Y B 1.Y ) E.].'.'.}.].W.E.W.].].E.5.) ) V V M 6 6 6 6 6 m 6 6 6 5 : 5 5 : : 7 7 #XGX8X5X5X9XfXdXfXNXdXdX9X9X9X5X5X5X6XjXNXAXBXnX%Xv.7.4.3.3.{ { I.'.Q.Q.Q.Q.Q.[.[.[.Y.I.Q.OXOXOXOX[.Y.Y.Y.I.I.I.L.] Y 1.5.4..X$X$X&X4X>X>X6X6X6XjXlXlXlXlXlXlXDXDXDXlXZXZXCXCXb.1 1 1 # # # # # # # # # : : : : > = B B U T P P T P ' ~ ~ ~ W W ( ( A z b b W ~ ' I.L.' ' ' ' ' P P ( U b c N N C C > @ @ # # @ # @ # # + + + + + + o 6 .XuXiX9XMX5X9XfXnXnXnX9X7X-X5X5X3X5XfXnXnXnXGXGXFXFXyX X3.B ( ' ' ' ' ' ' ' K.K.~ K.K.T.I.I.T.P.P.P.I.I.I.{ ) ) 1.7.XXyXFXIXmXVXCX9X5X6XwXNXjXjXjX6X6X6X5X>X6X6XdXjXjXjXjXjXCX=X: 1 + + + % + + @ @ @ * = 5 C C V Y Y Y ) ) ) ) <.1.9. X Xl.[ ^ Q f f Q ! _ _ ( ( ( G b b ( ( U U Y Y Y Y Y <.C r * * = * * * * # # # # O O + O O @ 5 m :.#XiXuX8X7X3X>X6X9X9X9X7X7X7X8XfXjXlXzXZXZXNXMXCXVXmXVXGXJXFXFXyX*X X6.) ] 6.6.] ] ] ' ' K.K.K.K.' ~ ' ( ) z.XXyXFXGXmXiXmXVXCXMXnXMXjXdXjXjXdXhXzXlXlXMXfX9X9XfXjX6XxXxXjX&X%.1 + + % * * * * % % ",
"+ + + + + + + o o 6 =X7X0X4XqX6XjXjXjXdX6X6X6X6X6X6X6XjXNXBXBXBXfXnXnXmXuX-X#Xv.4.4.5.6.W.].W.6.'.'.'.{.[.E.E.E.{.{.{.{.{.].].].XXoXyXaXFXFXmXtXmXnXnXmXNXNXDXDXjX3X3X>X>X9XCXjXjXjXfXMX9X9X3X,.@ + + + + + + @ % @ > : > > 5 5 6 M *.1.2.6.8.6.{.{.{.].].].{.}.}.}.}.}.'.( B B 6.) B ) W.].'.E.E.E.E.E.W.W.6.5.Y 1.1.;.M m M %.m m m 6 6 > > : : : : > 6 : v.mX8X3X3X6X9X9XdXMXdX9X9X5X5X5X5X6XdXNXBXCXAXHXJXnXmXyX.Xz.3.` { E.E.Q.'.'.'.'.Q.[.I.I.Q.[.{.[.[.Q.Y.Y.T.I.I.I.] ) )  X*X*X=X7X2X:X>X>X>X>X>X>X6XjXlXlXzXlXcXDXZXZXcXZXAXSXAXb.1 1 + # # # # o # # # # @ @ @ * = w B B L P P P P P ~ ~ P P L W ( ( G G ( ( ' [ ] L.L.K.' ' ' ' ~ P ( U B B N n w - * * @ # # @ @ = # # # # + + + + @ %.#XiX7X7XfX3X9XfXnXnX9X8X7X7X8X5X5X9XMXNXMXfXJXnX-XmXKXFXoXz.6.) U U ' ] ' ' ' ' ' K.K.T.I.I.K.P.P.I.L.{ ] ) ) 3.XXyXFXFXFXmXmXCXMXMXwXwXjXjXxXjXjXdXdXfXfXfX6XdXjXjXjXjXjX6XCX-X7 + + + % % % % % - * - = k B B V Y Y U Y ) ) ) *.1.0. X].{ ! Q g g f Q ! _ _ _ _ _ A A ( ( ` ) ) ] ] 5.] 1.<.C n w w > = - - - # # ; ; ; ; O % + % n M 2.#XaXuX8X3X3X3X4X6X5X5X8X7X7XuXMXNXlXzXlXlXjXMXCXAXBXCXnXnXmXFXFXFXyXXX7.6.5.) ) ] ] ' ' ' L.' ' ( T ( ) z.yXFXKXJXCX7X=X8XMXMXMXNXjX6X6XjXZXzXxXvXlXNXMXnX9X9X9XjXdXlXxXjX&X&.1 + % % - - - - % % ",
"+ + % % % + + + o %.=X7X8X3X4X,X6XdXdXdX6X6X6X6XdXfXjXlXBXBXNXlX6X5X5X8X8XiXiXiX.Xc.7.6.6.z.].W.].W.'.].W.E.5.5.{.{.].].W.].XXoXFXaXiXiXiXmXmXmX-XfXgXgXgXNXDXAXNX9X6X3X&X9XCXMXMXMXjXCXfXfX3X9.1 o o O + + + + * * > > > 5 5 5 m M ;.2.8.5.1.) 5.] ] ) Y ) ] { ] ' ' ] ( A G ( ` ( B z B ) ) B ) ] 5.6.6.6.5.5.1.8.8.1.M 5 5 m > > > > @ @ + + + + + : 5 : v.aX8X3X5X6X9X5X5X9XfX9X5X3X3X5X9XdXlXDXDXNXVXJXHXJXKXKXmX-XoX X6.` 6.6.E.E.'.'.'.'.'.I.Y.[.Q.Q.Q.Q.Q.E.E.] ] 1.5.4..X=X-X&X&X:X:XrX:X,X,X:X:X:X<X6XxXlXzXlXcXcXcXcXcXzXlXDXJXv.1 # + + # O O o O # ; $ % * * > w w B L L ~ ~ P P ~ ~ P P P P ( ( ( ( ) ) ) ' ' ' ' L.K.' ' ' K.' ' ' ( ( U B k - O * * * # # + + O O O % % % O O O + m .XiX-X8XnX8XgXfXfXfX8X8X8X8XfXfXdXjXNXNXNXfXNXmXmXVXVXKXmXtX.Xz.3.) ) ) ) ' ' ' ' ' K.K.L.K.P.I.I.{ ' ( ) 5. XoXyXbXFXmXmXnXnXnX9XjXjXNXNXBXkXjXjXdXjXMXMXMX6XjXjXjXjXjXjX3XMX-X6 # + + - % - - = = = k k k B B Y U U U ) ] ) ) V ;.7. Xl.! f g p g g Q W ( _ D D D W W W W _ _ ( ) ] ] ) ) V C N n k 4 = = - - - - - - $ ; O % % * n *.0.*XaXiX7X7X9X6X3X&X;X3X9XnXuXMXMXNXlXlXzXzXlXNXCXCXNXjXNXNXVXJXKXKXFXtXoX X7.) V ) ] ] ] ] ' ' ( ( ' 6.].*XFXJXNXNXMX9X7XfXMXfXjXlX6X6XhXkXxXhXhXkXlXlXMXnX9X9X9XdXdXxXxXjX&X>.+ @ % % - - - - = = ",
"% % % % % % % + o m =X7X8X3X4X,X>X5XdXdXdXdXdXdXlXlXlXBXBXBXlXfXlXfXdX5X8XfXmXFXtX*Xc.4.3.6.6.6.E.E.E.W.E.E.5.] W.].].].].XXyXFXFXmXiX7X8XuXnXnX5XfXfXlXlXNXBXBXBXMXNX6X&X6XCXfXMXMXMXCXfXfX5X9.o O o O + % % * r r n m m m M M M *.1.4.6.1.) ) ) Y U B B U Y ) ] ( ( L b v A D A _ _ b k k C B B Y ] 6.6.5.5.5.8.8.5.;.M > > > > > > > * * * * > @ + @ > :  XFX8X5X6XfXfX6X5X5XfX9X5X5X5X9XMXNXlXDXSXDXDXKXAXAXVXJXJXJXFXtXoXXX6.5.5.5.6.6.E.E.'.I.I.Q.I.I.Q.I.E.E.5.) 1.7..X#X-X2XN.B.Z.Z.Z.Z.rX,X,X:X:X>X,X,XhXhXhXzXzXcXcXcXcXlXhXBXAXv.@ + + + # ; ; ; # # - = w r n N N N U L W ~ ~ ~ ~ ' G.G.~ ~ ' ( ( ) ) ) ) U U ' ] L.' L.' ' L.I.I.L.' ' ] ( B k = - % - - * * * # ; % ; % % - $ $ O + m .XaXuXuXmX5XfXfXfX8XfXnXnXnXMXCXCXCXNXNXjXjXdXjXNXNXmXnXNXKXtXtX*XXX8.) U U ' ' T ' ' K.K.K.' ' ' ' ( { ].XXyXtXmXmXnXfXnXNXCXMX9X9XjXlXkXjXkXkXkXjXjXfXnXnXfXNXlXjXjXNXjX>X9X-X6 @ + - = - w w w k k k N N B U U U U ( ) ] ) ) H 1.z.].d.Z g p d g f ^ ( ( ! S D D D D A A A A ( ( ) ] ] ) B B B N n k k k 4 = - - - - - % $ % % > m *.0.*XFXiX7X7X9X6X3X&X&X5XnXCXCXCXMXNXlXhXhXzXZXBXNXjXNXlXlXNXBXBXVXKXVXKXFXtXoXc.3.) ] ] ' ] ' T ' { |.oXbXFXKXgXdXzXjXdX9XjXjXjXjXjXhXzXZXhXC.B.Z.zXlXNXNXMXfX9X6X6X<XhXhXjX2X:.@ @ % - - - - = k k ",
"* * * * * % % + + m =X7X9X3X4X,X>X>X5XdXfXfXfXgXBXNXlXNXBXBXBXlXlXlXlXBXNXnXnXnXiX-X*X Xz.7.6.3.6.6.E.E.E.6.5.] E.].XX+XoXyXbXIXtX7X8XuXnXnXfX8XfXfXfXlXBXBXNXjXjXNXCX9X>X9XNX9XfXMXfXNXfXfX5X9.# ; O % - * - > r r n n m m m m V *.2.8.8.5.5.6.W.W.W.W.E.W.W.].{.].E.( A S S S S u.s._ B N V 1.5.5.6.6.6.6.6.7.8.6.2.*.M m 5 5 > > > > > * * * > @ + o + + c.iX8X6XfXNXCXfX9X9X9X9X9XfXjXNXCXBXDXlXNXDXDXDXDXNXSXHXJXJXJXIXFXbXXX Xz.3.` { { { I.{ I.[.I.I.I.L.5.5.8.7. X%X-XuX2XV.B.B.Z.A.S.N.rX,X,X,X:X,X,X>X<X<XdXhXzXcXcXcXcXcXcXDXJXv.# O O O O O O O O O & & w w n N N N U L ~ ~ ~ ~ ~ ~ G.G.K.' ' ' ) ) ) ) U B U ] I.I.L.I.I.L.L.I.I.L.[ ] ] ( U B k w & % - - - - - - ; $ $ $ $ $ $ O * M #XFXuX8XnX5XdX5X5X8XnXnXmXnXMXCXCXNXjX6X6XdXdXdXdXfXNXDXDXNXJXJXFXtX.Xz.3.) U T T ' ' ' ' ' ' ' ' ] '.+XyXbXtXtXmXnXnXgXgXlXNXMXjXjXjX6X:XV.1XjXNXNXjXdXfXfXMXCXNXjXjXBXjX;X-X=X6 @ * = w w w w n n N N B B B U U ( ( ( ) ) ) H H ) l.|.p.a g d d g / ^ ' ( ! Q Q S S S S D A A W ( ( ] ] ) ( ( H B B N N N n k k k k = = = - % % r V *.0.*XuXiX7X7X9X6X6X3X5XnXCXVXVXCXMXNXlX<XV.V.<XxXkXkXBXkXjXjXjXNXNXVXmXJXJXFXtXyXv.3.5.) ) ' ( ] '.+XyXFXIXKXDXdXvXcXhX9X6X6X6XhXhX1X<XhXxXZ.B.D.C.xXjXNXCXMXfX9X6X6X,X6X6XwX2X:.@ * $ & - - - w k n ",
"r * = * - % % + + %.=XuXwX4X4X,X>X>X5XfXfXfXlXNXDXNXlXlXNXDXDXDXlXlXlXjXdXfXMXCX8XiXiXtX*X.X7.3.3.5.5.5.5.5.1.) 1.].oXyXbXFXFXFXiX8X8X9XfXnXfXfXNXdX6XdXNXBXlXdX6XwXMXjX3XjXBXdXdXdXdXMX9XfX5X9.# + + - = = w n N N C V V V V V V Y 5.5.5.5.E.].W.].].].].].].{.E.I.[ Z a a S a Q S ! _ ` H 1.8.{.].'.'.].].W.W.7.8.1.Y V C n n n n n n r r = * * = > + @ @ .XFX8X5XnXBXAXNXdXfX5XfXfXNXBXBXBXDXAXgXgXDXSXAXDXSXAXAXAXVXJXJXJXFXIXtXoXz.3.` ` { { ] I.Q.I.L.I.] 8.7.c..X=X7X9XqX:XV.m.B.Z.Z.Z.A.Z.:X,X<X,X1X,X:X:X>X6XhXzXzXcXcXxXcXZXDXJXv.@ O # $ % $ ; ; & & - w w w N B U U L P ~ ~ ~ ~ ~ ~ G.K.' ' ' ' ( ) B G G B ( { I.I.Q.Q.Y.L.K.P.P.' [ ' ( ( U U N c N n k k w w = = = - & & $ $ % % * M .XiX-X-XfX5X5X-X5X9XMXCXMXuXwXjXMXjX,X:X>X<XxXlXlXlXlXlXlXNXVXmXmXGXFXtXXX6.V U U U ' ] ] ' ] ' { ].oXyXFXFXmXnXgX8XdXgXgXgXMXMXjXNXjX:XB.,.V.<XlXBXMXfXfXfXlXBXBXjXxXBXjX;X&X%X6 @ * - w w w k N N N N B B U U U ( ( ( ( ( G G G ` l.|.s.a s g g f ^ ' ) Y A D D D D S S ! Q Q E W ( ( ( ( ( ( G B B N N N N n n k k k = = w % % r V *.0.*XaXuXuX8X3X5X9XjXNXNXBXVXMXnXNXBX6XC.n.D.B.:XjXBXhXjXlXBXAXDXNXfXnXVXmXuXmXmX%X4.7.5.1.1.) 6.oXFXFXKXmXgXlXxXvXvXxXjX6X:X,XhX1XZ.B.C.C.C.B.B.Z.zXjXjXCXNXjX6X6X<X:X1X6X9X=X:.@ * & & k k k k k k ",
"r r r r w & - - : #.=X2X2X4XwX>X&X;X5XgXNXNXNXNXVXNXNXNXNXVXVXNXNXNXBXNXNXjXNXCX9XnX8X-X-XiX-X.X4.3.;.1.2.;.;.4..X*XmXGXmXiXnXVX-X8XnXfX8X5XfXNXNXjXjXjXBXBX6X&XB.>XkXjXqXkXlXjXjXjX6X9X6X7X-Xv.: @ + > n n n N B B R Y Y <.5.5.) ] 5.W.'.E.'.'.'.'.'.{.}.{.[.I./ g g g s a f Q u.! _ a.a.` K G ` E.|.{.{.].].W.W.!.6.5.] U U B B N N N N n k w n w * = O @  XGXnXgXNXNXNXlXgXdXfXlXBXDXAXAXAXAXAXZXjXSXAXHXBXJXCXDXSXHXHXDXDXKXJXmXKXtXoXz.3.) ] ] 6.6.] ] ] 6.c.v.-X9X6X,X1X1XZ.Z.N.S.Z.A.Z.Z.Z.:X<X<X<X<X,X1X<X<X6XdXzXZXZXzXcXxXSXNXVX.X+ * $ - & & & & - = w w k c c I I P P P P ~ ~ ~ ~ P T T T ' ( ( W A W Z A W W W ' [ L.E.Q.(.I.[ [ ^ [ ' ' ' T T T U b b c c c k w w w w & & & % * + % *.#XaXiX8X7X&X3X5X6XjXBXBXNXjXjXkXeXZ.B.B.N.Z.xXkXNXNXNXNXVXVXVXGXJXKXmXtXtXtX.X X1.N V 5.5.V B  XyXtX-XiXnX8X6X5X6XMXnXfXfXnXCXMXwXjXjX,XB.n.V.<XxXzXlXfXfXgXdXdXlXzXxXkXqXV.&X=Xm @ n - n k k c N B B B B B U ) ) ( ( ( ( [ W ! ! _ |.(.! Z a Z S W ( ) *.*.M K K K J D S a s s f f Q W ( ) ( ( ( U B B N N n n n n k k 4 4 = * % r V *.9.$XmXuX8X5X5XdXlXBXZXZXBXlXfXdXjXjX1XB.,.,.B.B.:XzXdXdXfXmXNXNXfXdXNXjXMXCXwX&XB.v.v.c.c.c.v.#X-XiX5XfXNXlXhX1XvXxXjXfX>X&X,XqX:XB.,.D.m.B.Z.1XxXkXNXNXNXjXqX1XqXqX:X6X4XuXiX:.+ = k w w k k c k k ",
"t t N N k j - - @ m sX2X2X2X6X&X5XdXnXNXDXDXAXAXVXVXVXVXVXDXVXVXNXNXNXNXfXdXwXjX9XwX0X3X8XuX8X=X*Xc.:.:.:.%.>.v.mXnXmXVXVXMX9X-X5X8XnXfX8X8XfXNXjXjXjXjXlXlX<XV.B.:XhXhXhXkXzXxX6XjX5X6X9X3X;X9.: @ @ > n n B B U U Y ) ] 5.5.5.L.L.E.Q.'.'.'.{.|.}.}.}.OX).P.^ g d d d g g Q ^ s._ p.a.a.a.K _ W [ (.'.[.{.{.Q.Q.!.E.] ] ' T U U B B B N N c k k w = > O *  XFXmXlXlXgXgXgXgXfXlXBXDXDXAXAXAXZXZXAXBXAXAXHXJXJXJXJXAXAXDXDXDXSXlXlXLXLXtX.X3.V V ) 3.5.1.3.].oX*X-X9XdX1XA.Z.A.A.A.Z.N.Z.Z.Z.A.:X:X<X<X:X<X<X1X<X<X<XdXhXzXzXzXxXhXZXNXGX.X# - - - q q q q w w k k c c v I I P ~ P P ~ G.G.G.~ ' ' ' ~ W E Z Z a a Z Q Q E E ^ ' { I.I.(.[ [ [ [ ' ' ' ' T P P L b c c c c c w k j j & & - * @ > :.*XiXiX7XuX8X7X6XjXlXlXjXjXkXkXzXxXZ.B.,.m.B.1XhXlXNXNXNXVXVXVXVXVXVXmXmXmXiX-X.X4.1.1.1.1.1.z.oXbXgX5XfXdX6XqX6X6XjXnXfXiXnXMXMXMXNXkXqX:XV.1XhXxXzXBXBXNXgXdXlXcXzXxXkXwX&X3X-X%.: n - n k c c B B B B V U ) ) ( ( W A W E ! Q Q ! (.|._ F A A G H H *.=.=.%.%.>.H K J ! f s s g f Q Q W ( _ ( ( ( U B B C C C C N n k 4 4 = > > n V *.0.*XiXiXnXNXNXBXlXlXdXdXhXdX6X6XqXhXhXV.m.,.D.B.Z.kXfXgXgXmXNXNXjX9XCXwXqX4X:XB.,.9.M.M.#X&X;X3X3X>X6X6XhXxXhXqXvXhXjXfX3X>X,XqX<XN.m.m.B.Z.1XxXkXkX6XdXjXjXhXqXqXqX,X6X2X7X=X2.= N k j k j k c k k ",
"N N N N c k k k > %.=X2X:X:X9X6XjXNXNXAXNXNXNXNXNXmXmXmXNXVXVXVXVXNXNXdX6X6X6X6X6X0X0X9XuXuXuXiX-X.Xb..X#X9.9.%XGXmXnXmXCXCX9X-X8X8XfXfX9X9XfXMXjXjXdXjXlXlX<XV.V.1XkXxXkXZXZXlXjXlX6X6X9XMX7X9.: @ * 5 C C B U U ( ] ] 5.5.5.E.I.I.E.Q.'.'.{.}.}.}.OX`._.^ f g d d d g g f ^ s.s._ p.a.a.a.p.p.! _ [ [ (.[.[.'.'.E.E.I.] ] ] ] Y Y U U U N N N k n w n O @  XFXmXgXgXgXgXgXNXDXDXZXDXDXDXDXZXZXZXZXBX,X6XjXSXSXJXSXAXDXDXDXDXSXcXcXSXAX;Xb.c.3.1.;.;.1.7..X*XaXnX9X6X<X<XA.Z.Z.Z.Z.Z.N.Z.Z.Z.rXrX<X<X:XZ.Z.:X<X<X<X<X<XvXxXlXkXzXkXAXCXFXv.+ - = w w w w w k k c c c b I I P P ~ P P P P ~ G.G.~ ~ ~ E E E a a u s f Q Q Q Q / ^ ^ [ [ _.P.[ [ ] ] ' ' ' ' ~ ~ L L L c c c c c k k k - - - > : : ;.*XFXiX-X7X3X9XjXCXNXjXdXjXlXqXxXhXZ.m.,.m.B.Z.1XxXjXjXmXVXNXNXMXnXNXVXVXVXnX8X.Xc.v.v.0.0..X*X-XbXnXfXdXhXqXqX6X6XdXfXfXnXnX9XMXNXjXjXjXkXkXxXxXxXkXBXBXNXlXdXdXlXlXxXBXAXwXuX-X%.> n k N n N B B B B Y ) ) ) ( W Z Z a a f f f E ! (.|._ F K K K H %.&.&.&.o.&.&.%.H K _ Q s s t.g f Q E W _ _ _ ( ) ) Y V V V C C N n k k = r > m V *.0.*XiXuXuXnXMXjXjXlXjXjXjXjXjXhXjXhXlX:XN.B.B.B.V.kXfXgXgXgXNXNXjXdXBXjX4X:XN.B.B.B.M.%X=X8X9X9X3X&X<X<X1X<XqXvXvXhXjXfX5X>X1XhX1XZ.N.Z.A.1XxXkXkXkXjXjXjXjXhXqXqXwX6XwXuXiXtX4.= k k j j k c c c c ",
"V N N N b B B z n %.*X=X&X3XCXNXNXAXAXNXNXgXfXgXfXfXdXfXnXNXNXmXVXNXgXdX6X6X6XhX6X4X4X9XMXuX7X-X%X#X%X8XuX%Xv.%X;X8XVXVXMXfX9XnXnXnX8X8XfXfXfXdXlXjXjXhXlXlXhX<XqXBXBXkXxXzXBXxXjXNX6X6XfXCX8X9.5 > = n C B B U ( ) ] E.E.E.!.E.I.I.I.E.'.].{.{.}.)._./ g g d d d d d g f Q _ d.d.` ` ` a.p.p.p.s.s.[ ^ [ (.'.'.'.E.E.E.I.] ] ] ] Y Y U U U B N N n n n O + v.FXmXfXfXfXlXDXAXSXZXDXDXDXBXcXZXZXzXkXhXB.B.M.NXSXBXAXAXAXDXSXDXcXSXzX<XV.n.n.v.#X#Xc.4.9..X=XiXuX9X4X>X:XZ.Z.Z.Z.Z.Z.N.Z.rXrXrXrXrX<X:XZ.Z.Z.:X:X<X<X:X<X<XqXhXxXxXzXBXNXnXc.# - = w k k k k k c c b I I L P P P ~ ~ P P P ~ G.~ / / f E f f a a s f i.i.Q f g f / Q ^ ^ ^ P.[ ' ] ] ] ' ' ~ ~ ~ P L L L N B c c c c k w - = > : > :.=XGXFXiXnXuXnXMXNXjXdX6XdXjX6XhXhX<XN.m.m.B.Z.1XxXjXfXmXNXNXjXjXlXNXBXlXfX5X%Xb.b.#X%X.X%XtX-X=X;X7X9XjXjXkX<X<X<X6XfXnXmXVXnXMXNXjXjXhXkXzXkXxXxXxXjXNXNXlXAXZXBXjX6XMXCX3X2X#XM > n n B N B B B B Y Y ) ) ( W Z a a f g g p g f u.|.|.` z K K >.>.&.o.O.O.o.&.&.&.;.H _ ! f f f f f f f E ! _ _ ( ( ) ) ) V V C C N N k k r r r m *.*.4..XtX7XuXuXnXnXMXMXMXNXNXjXjXjXjXjXhX1X,X<X:XV.<XkXfXgXfXfXjXNXjXjXMX4X:XN.B.B.N.:X&X=X7X7X8X3X3X>X>X>X:X,X<XhXxXhXjXdX5X>X<XkXhX1X1X1XxXxXkXkXkXjXMXNXjXjXqXqXqXwXwXuX7X=X.X1.= k k k c c c c c k ",
"U B N B B B B B 5 M =X7X8X9XAXDXBXBXBXNXfXfX6X5XdX5X5X9XjXNXNXgXNXgXdX5X5X6X6XhXqX,X>X6X9X3X&X%XM.&X&X=X7X;X&X;X&X8XBXJXNX9X8XfXnXnXfXfXfXfXfXdXNXlXhXdXxXzXzXxXBXBXkX6X6XhXxXhXjXBX9XjXMXCX7X4.5 > 5 C V Y ) ( ( ] { E.E.E.E.E.I.I.'.'.'.{.{.[.(.^ f d d d d d d d s a E ! ` l.l.` K ` a.a.p.p.s.s.u.! ! [ s.(.I.I.E.E.I.I.] ] ] ] ' T U U B B N n k n + > .XGXNXNXNXBXDXAXSXSXZXZXZXlXlXlXcXcXzXlXvXn.n.n.6XZXBXAXAXZXZXSXZXlXxX1XC.B.n.n.&X5XnX&XM.M.&X;X;X;X4X4X:XV.N.N.B.N.A.Z.N.A.eXeXrXrXrX<XZ.Z.Z.Z.Z.:X:X:X:X:X<X1XqXhX<XhXlXCXVXc.@ - w w k k k k c c b I I I I L L P P P P P P ~ ~ / g g g g g s s s s f i.i.f g g g f f Q Q ^ [ [ [ ] ] ] ] ' ~ ~ ~ ~ T U U R R N c c c k w = > > > 6 :.$XaXiXiXCXGXMXMXfXdXfX6X6X6XjXkXkXhX<XV.C.B.:X<XlXlXfXgXgXgXjXlXzXlXhX<X&XV.M.M.M.%X&X%X=XiX8X;X%X&X6XqXkXzX1X1X6X6XfXnXNXNXNXlXjXxXjXhXqXqXhXxXkXkXxXjXNXNXjXdXjXNXCXAXCX=Xv.9.n 5 C N B B B B B U Y Y ) ) ( W Z a g d d d p g Q u.|.l.` H %.%.>.&.+.+.O.O.O.-.-.&.=.;.H _ S Q f f f g g a E W _ ( ( ( ) ) Y V V V C N n n n r r m *.*.;.4.0.v.=XuXVXVXCXMXuXMXpXwX0X9X9XjX6X6X6XjXxX6XhXlXdXdXdXdXdXjXjXjX,X&XN.N.N.N.:X:X4X7X7X3X3X5X0X6X>X:X:X:X1XxXxXxXjXdX6X<XqXhXhXeXkXkXkXkXkXjXjXjXkXMXjXwX4X,X:X&X&X#Xc.4.;.C k N k c z b b c k k ",
"Y U U B B B B C n *.=XVXGXGXJXNXBXBXBXCXjXdX6X6XdX6X5XfXNXBXBXNXgXdX>X>X>X<X6X6X6X,X,X>X3X2X&XN.&X4X3X;X3X3X&X&X&X;X5XnXNXMX8X5XnXnXfXfXfXfXfXdXlXjXdXdXhXzXzXlXBXBXkX6X6XwXjXkXAXJXAXJXCXuX%X:.> = 5 C V ) ) ] ] ] { E.E.E.E.E.E.'.'.'.'.[.'.(.^ f g d d r.r.d d p a Z A G 3.z.4.>.K K ` p.p.p.i.i.u.u.! ! ! ^ [ [ I.I.I.I.] ' ] ] ] ' T U U B N n w n > 5 .XFXCXCXBXAXAXAXAXBXZXZXBXlXlXlXcXcXhXcXxXC.B.C.6XlXAXAXAXzXzXSXZXzXA.A.m.m.D.n.qXjXNXjXjX6X&XC.V.V.:X:X:XZ.N.B.N.Z.A.Z.N.Z.eXrXZ.Z.rXA.A.Z.Z.Z.Z.:X:XrXrX<XrX<X1XqX1XzXBXAXVXc.@ - w k k c c x c c I I I I L P P P P P ~ ~ ~ ~ P E g d d p h s s u a Q i.i./ f f f g f f Q ^ ^ [ P.{ ] ] ] ' ~ ~ ~ ' T T R R R R N c c c k w > > > , =.$XGXGXGXGXCXMXfX9X9XfXfX9X5X6X6XhXkXlXxX<X<X<XxXlXlXgXgXgXgXkXzXzXhX<XV.C.C.B.V.&X&X&X&X3X3X8X=X&X&X>X6XqXhXqXhXhXdXdXgXnXgXlXjXjXlXlXkXhXqXqXhXkXBXkXjXjXNXMXfXCXCXpXuX&Xb.:.M n n N B B B U U U U Y ) ) ( ( W Q f d d d p p f f E _ ` H %.o.o.o.+.+.+.+.O.-.-.-.&.&.%.V H A Q Q f f g g g E ! W _ ( ( ) ) ) ) Y V Y B B N n n > n V M m M m %.9.v.$X=XiXmXGXGXGXGXCXuX9X9XjX6X5X6XhXdXdXhXdXdX6X6X9XwX6X4X:XV.N.N.:X:XrX:X3X3X7X6X9X9X9X6X>X>X:X:X,XqXhXxXhXhX6X<XqXhXhXhXkXkXkXjXjXjXjXkXBXCXpX4X&XB.9.,.%.%.m n n k k B c b b b c z j j ",
"U U ( ( B B B C C *.=XFXGXGXJXNXCXBXAXBXCXMXdXfXdX6X5X9XjXBXBXNXgXgX5X>X>X<X6X1X1XqXqX:X&X&X:X&X2XqXwXwXwX4X&X&X&X&X&X;X9XnXfX8XnXnXnXnXfXfXMXlXjXjXjXdXxXzXzXhXBXCXBXMXwXjXMXCXMXMX3X7X&Xv.b.%.> = > C Y ) ) ] ] { 6.6.E.E.E.E.E.'.[.'.'.(.[ ^ E g d d d r.r.d p a Z J ` ;.>.,.,.>.>.>.K J J p.i.i.i.i.i.u.! ! ! [ [ { I.{ ] ] ] ] ] ' ' T U U N n n C > > 0.*XuXMXCXAXAXAXBXBXBXBXBXlXBXBXZXZXzXcXhXlXvXdXdXzXZXZXZXkXzXZXcXvXV.Z.m.B.B.B.zXkXqXxXkXxX1XV.V.Z.:X:XrX:XZ.N.Z.Z.Z.Z.N.Z.rXZ.N.Z.Z.rX1X1XrXrXrXrXrXrXrX<X,XrX1XeX1XkX>X2X=X;.# = k k c c c c c b I I I I P L P P P P ~ ~ / / E g g d p p s s u u D ! p._ ! ! Q Q f f f Q Q ^ ^ [ P.I.{ ] [ ' ~ ~ ' T T T R R R R L c N k k n r > m =..XiXCXCXCXuX9X9XfXfXfXfXfXfX3X5XdXjXBXBXzXzXjXlXjXfXfXlXgXdXzXkXqX<XZ.V.C.C.C.V.:X>X>X>X>X3X9X3X2X&X:X,X<X,XqXhXxXdXdXfXgXgXfXdXjXlXlXkXkXhXqXwXkXkXMXjX0X4XGXCXuX$X9.:.%.: m n C B B B B U U U U ) ) ) ) ) _ W E a p d d d g f Z A ` ;.%.......o.o.o.O.O.O.-.-.X.X...6 m V H W E Q f g g g Q D D A A G ( ) ) ) Y Y R U B N n n > r M m > 5 > 5 6 6 %.:.v.#X=XiXpXGXGXmXuX8XMX9X5X6XdXdXdXdXdXdX6X6X6X,X>X:XV.V.V.:XrXeXeX4X3X7X7X9X9X9X6X6X6X<X:X:X:X<X<XhXxXqX<X6XqXqXhXhXkXjXwXwXjXMXwX9X4X&XN.b.,.&.6 7 # @ > n n c N c b b b b z x j j ",
"B U ( ) ) V V V V M #X=XiXiXVXnXMXCXBXBXCXMXMXfX9X5X3X6XjXCXNXNXfXfX5X5X6X6X<X<X,XkXkX:XN.&X4X6X4X,X>X4XqX>X:XjX9X9X3X;X>X5XfXCX8X9XfXnXfXMXNXBXjXlXlXlXzXcXxXdXwXCXCXMXpX9XwXpX&XM.b.9.:.%.%.6 > > n C Y ) ) ) 6.6.6.6.6.6.6.6.6.'.'.'.(.[ ! a f g g d d d d d f A _ 3.4.>.-.+.,.,.,.,.>.K K p.f.u.i.Q i.i.u.! E ! _ [ [ [ { { L.L.] ' ' T U U U N n C = @ ;.v.7X8XMXCXAXAXAXAXBXBXBXBXDXDXZXZXSXcXdXSXcXSXlXzXdXzXzXkXzXZXxXZ.m.Z.B.1X1XZ.zXqXqX<X1XxXxXvX<XZ.:XrXrX:XZ.V.N.N.Z.Z.Z.Z.rXN.N.rXZ.rX1X1X1XrXrXrXrX,X1X1XrXrX4X4XV.&Xn.9.9.7 # n k c c c c x I I I I I L U T T P P ~ / / / g g h p p p p s Z F A G ` ` ` _ _ _ Z Q Q Q Q Q Q Q ^ _.P.P.[ [ ' ( ' ' ' T T T R R R N U N k n n m , t , #.2.0.M.=X=X7XuXnXnXnX9XnXnXMXNXNXjXdXfXdXjXlXlXfXdXfXlXlXdXBXeX:XV.V.V.V.V.Z.:X1XqX6X>X:X>X4X4X4X&X&X:X:X:X,XqXhXdXdXlXgXdXdXgXjXjXjXxXjXkXwXqXqXMXCXMX3X&Xv.v.9.%.< : > > m n V Y B B U ( ( ( ( ( ) ) ) ) ( W Z a p p d d f Q W _ z.0.=.#.< < < ..o.o.O.-.X.X....., , , M V G W E / / g g Q D D A A A ( ` ) Y U R R R B N r n r > n > > 5 5 > > : : > 6 %.:.0.#X-XiXpXmXuXnXfXnXNXNXgXfXjXjXhXqXqX6X>X&XV.N.V.:X:X,XeXeX4X0X9X9X9X9X9XdXjXjX6X,X:X:X:X<X<XhXqXqXqXqXqXqXhXNXjXwXMXMXuX7X=Xb.9.&.7 : : : : 5 > n N c c U c b b b b v j i i ",
"b ( ) ) ) Y V *.V M M %.:.9.v.M.=X8XCXAXMX9X9XuXMX9X;X;XMXAXBXCXfXgXgX6X6X6XqXqXqX,XZ.:X,X,X:XV.N.V.,XqXqX6X6X6XjXfX6X5X>X3X9XMX7X9X9X9XfXMXCXNXNXDXAXlXfXdXdX6XCXpXuX7X&X#Xb.,.>.%.7 : : 6 6 m > = r V 1.5.5.5.6.E.E.E.W.6.6.6.7.6.l.{ [ E E f g g g g d g g / A K ;.:.,.-.-.O.@.+.,.,.:.;.H ` p.i.i.i.i.i.i.u.s.^ [ [ [ ' { '.I.I.L.' ' ' T L B B N n > n M ;.:.,.b.M.&X7XMXCXJXAXBXBXBXBXBXBXZXlXlXSXSXzXhXcXzXZXSXZXxX:XV.N.C.V.Z.1XqXhXqX<XhXhXvXxXxXvXvX1X1XrXrXrXrXZ.Z.Z.Z.Z.Z.Z.Z.:XeXqXrXrXrX,X,X,XeXeX:X:X4XeX4X4X2XsX,.&.7 7 5 5 n k k c b b b I L L L L U U R T T ' ~ / / f g g h p p p p s F F z 7 M %.*.%.%.M M B _ ! ! Q f s s f / ^ P.P.[ [ ] ] ' ' ' T T T T T U U B N n n m m > > : : > 6 %.%.9.v.&X8X8X8XuXVXVXnXnXmXVXAXBXNXjXNXNXdXfXlXlXdX:X:X:X:X,X:XZ.V.1X<X,X,X,X,X,X4X4X2X4X,X,X,X:X:X:X:XhXBXdXdXlXgXdXgXfXjXjXwXwXqXCXCXCXMX8X&Xb.9.6 6 > : : > n C C B B U U U U ( ( ( ' ] ` ) ) G G W W Z a g f f Q W ` z.0.:.$.$.< < , , ....#.%.6 6 ..6 6 , 6 m m C U ( ~ / / / ! ! _ _ _ G G ( ( ) ) Y U R N N n n n w - % # # # @ * > > > 5 > > 6 %.:.0.#X-XFXiXnXmXmXnXgXmXNXjXqX4X,X:X:X:X:X&X:X:X:X,X,XeX4X9X8X5X5X9X9X6X6X6X6XqX6X1X,X,X,XqX<X1XhXqXqXwX4X3XuXCXnXuX=Xv.9.7 : : : : : > 5 5 n k k c c L L b ( b v v l i u ",
"A ( ] ] 1.<.<.<.<.*.m : + + 1 1 : 7 6 %.:.b.M.&X7XpX0X3X0X9XwXCX9X5X>X>X>X:X:X,XV.V.V.>X6XjXjXjX,X6XjXjXqXqXjXjX6X6XjXjXdX5X5X3X3X9XMXMXMXCXCXMXCXMXdXfXNXDXdX;XM.0.:...7 7 7 7 7 : : : : > > > C n C V 1.1.Y 1.) Y B B B ) 3.3.6.3.) _ W Q f f f g g f / / ^ ( H %.%.&.-.O.@.@.@.@.+.-.&.%.%.H a.p.p.p.i.u.u.s.s.s.s.s.[ ( ( { I.I.L.] ' ' ' U U U B N n m V *.:.:.:.:.;.%.%.%.9.b.M.7XMXAXJXJXNXNXDXSXSXZXZXZXZXzXxXZ.V.C.C.V.<X1XqXhXqX1X>X:X5X<X<XxXxXxXxXxXeXeX1XeX1XrXrXrXZ.rXrXrX:X:X,X,XeX1X:X:X:X,XqXeXCX4XN.b.&...7 : ..7 : : 5 n N N b c L L L L L T T ' ] ] ] !.L.[ ^ / g g h p d p s s a S J K M o...X.X.X.......m V G _ ! Q s s g f / / ^ W ( ( ( ' K.L.' ] ] T T R U U B N n C m > > : : : : : 5 : 7 7 7 6 %.9.v.-X9XVXGXCXnXnXCXAXNXNXCXNX6X>X:X4X:X:X:X:X,X,X6X,X,X,X,X4X3X4X4X4X4X4X4X,X,X,X,X:XV.>X6X6XdXlXlXdXdXjXCXBXCXMXuX&XM.9.%.6 : : 1 > > > * > r n N Y ) ) ) ( ( ( ( ' ( ' _ ) ) G G G G W W Q ^ /.u.s.d.l.4.;.#., < , , , , > > > > > : : > , < < > t C V U ' ~ / / ^ ! p._ W D G ( ( ( ) U U U R N N C N n k = = - % # + @ @ @ @ @ + @ : > > 5 M %.v.#X-XnXKXAXmXfX9X,X:XV.V.V.V.V.,X,X,X,X4X4XqXqX6X5X3X3X6X6X6X6X,X,X,X,X,X,X,X,X1X<X,X,X:X4X9X3X-X=Xv.:.%.7 : o : : : @ : > 5 n C B B B U U L L b ( b l l i u u ",
"W ( ( ] 5.1.<.1.<.V m > : : : : : @ # # : 6 %.:.#X&X=X7XuXuX0XMXMX8X3X6X>XV.N.N.N.V.,XqXjXjXjXNXjXqXqX6X6X6X6XjX6X9XjXlXjXdX<X>X;X6XjXjXMXCXMXnXMXMXMXCXCX5XM.9.%.m > : : : @ # # # @ @ > > > > <.<.<.1.8.5.5.5.5.Y B N B ) 3.7.7.3.G A ! Q Q f f f E ^ [ I.] 1.m ..o.X.O.O.O.@.@.O.O.O.X.o.#.%.l.p._ _ _ p.s.s.s.s.d.d.[ _ ( [ { L.{ ' ' [ ' ' ( U U B N C C C m m %.%.*.%.*.*.6 %.:.9.M.&X8XCXJXHXHXBXNXZXZXZXZXxX<XC.B.C.Z.<XhXjXxXxXhX6X<X>XdXdXhXxXhXhXqXqXxXeXeXeXeX1X1X1XrXrX1XeXeX,X4X4XeX,X:X:X4XqX4X2XM.0.:.o.: : : : # # @ 5 n C B B U U ( ( T ' ' ' ] L.E.!.!.!.E.{ ^ Q g s d d d p s F D J K 7 o.o.X.X. . . . . .$.m C G W S s s s f f Q E W W ( ' { L.L.L.L.] ] ' T U U B N N C C > > > > > > : @ @ : @ # @ > 6 %.:.b.%XuXFXFXFXVXGXnXfXCXMX>X&X:X:X:X:X:X2X6XwXkX4X4X4X3X3X3X7X7X0X0X4X4X4X4X4X,X>XV.&X:X>XdXBXjXBXdX5XnXCXuX$X9.%.6 : : # : : @ * - * = r n B U Y ' ) ' ' ' ' ' ( [ { ` ( G G G B G G W _ [ (.d.{ l.4.;.m , < < } , , > * % % $ - # @ : 5 6 < , , t m R T ' ~ / ^ [ _ _ ! A G ( ( ( ( ( U U U B N N N k k w = - - - * # # # @ @ > > * @ + + @ : 6 %.9.%XiXmXmXnX&XV.N.M.N.&X:X:XqX6X4X4X4X6X6X9X0X6X3X5X6X6X6X3X>X>X>X>X,X,X1X1X<X<X,XV.M.&X%XM.9.:.m : # : > > > > * = > n n N V Y U U U U U T L ( b l l u i u ",
"Z W ( ( ) Y <.<.Y C n > > > : : > > @ @ @ : : : ;.:.9.#XiXpX0X0X0X9XwX4X:XV.N.N.:X6XjXjXjX6X6X6X6X6X5X5X6X6X6X6XjXjXdXdXdXdX6X5X&X3X6X6XfXCXCXMXGXGXCX7Xv.4...7 : : > > 5 5 > @ * > * * * > n C Y <.5.8.8.8.7.W.6.6.5.] ` 3.6.6.z.3._ J ! ! Q Q Q Q ! { 6.8.<.*...| | | | X.O.O.O.O.X.X.X.X.$.%.3.` ` { ` s.s.s.p.s.f.d._ _ _ { I.I.I.I.L.I.L.] ] ) U Y Y V N n * > r m M *.*.;.*.*.%.%.&.:.v.#XuXCXJXJXAXBXzXxXhX<XZ.C.V.A.1XxXqXjXjXjXxXjXdXdXdXjXjXhX<X6XqXqXhXeXeX1X1X1X1XeXrXrXrXrXeX4X4X4X2X2XeXwX0X&XM.9.o.7 5 : @ : > > # = n C B V ) ) ] ] ] ] L.L.I.I.E.E.E.5.5.5.] W E g g g g d d h F F G C 7 7 ..X.X.O. . . . . .X.#.M C z Z a f f t.f f Q E W ( _ [ { L.I.I.L.] ] ( U U B N N n n n n n n n n 5 5 > > 5 5 5 > > : : 7 %.9.%XtXiXiXGXVXCXMX6X>X:X:X&X&X2X4XqXwXwXwX6X4X4X3X3X7X7X0X0X0X6X4X4X4X4X6XwX>X>X>X>XhXBXjXjXMXnX7X$X9.%.> : : : > > > = - - = w n N B U T U T ' ' ' ' ' ' [ { { ` G G G G G G G G ( { I.{ 3.3.;.m < , } } , , , > = - - & & ; ; - 5 6 6 , , t t N U T ~ ~ ^ ! _ _ ! W D _ ( ( ( ( ( T R U c c c k k w - - w = - * # * @ * * * * @ # # > 5 + @ 6 ;.c..X%X=XM.B.M.N.&X2X4X0X0X4X3X>X3X3X6X9XfX9X6X6X9X9X6X6X6X>X,X,X6XqXqXhX<X1X,XB.,.9.9.%.6 5 * @ @ > 5 n = = > n n n N B U U U U T T ' ' ( ( b j l u i u ",
"Z E W ( Y Y Y Y N n w - - % % + + % + * * > @ @ > , 6 :.v.#X#X$X=XuXwX&XN.&X:X:XqXqXjXjXdXdXfXfX9X9X9X9XfXjXjXdXjXdX6X6XhXhXhXdX>X>X>X3X9XCXAXAXGX8XM.:.6 : : : > * @ @ @ @ @ @ > > * * - w N V V Y 5.5.6.6.E.W.6.E.W.6.6.` ` ` 3.` ` _ D D S Q ! _ { 6.8.2.=.#.} | | | | | ..X.X.X.X.X.X.X.X.#.V 1.6.6.6.` _ _ f.f.f.s._ _ a.d.'.[.{.[.[.[.'.E.I.{ ] ] 5.] Y B r r r = > > r , m #.%.*.%.%.=.:.9.v.-XJXLXAXjXhXV.V.Z.A.<XvXvXvXkXkXxXhXhXdXdXdX>X6X6X<X<XhXkXkXhX1XqX1X<X1XrXrXeXrX:X:X,XqX6X4XwXwX2X&XM.,.#.6 : : : > @ * = * k n B B U ( ) ] { L.L.L.L.I.I.Y.E.E.6.) ) ( ( Z a s p p g g g E _ K K M o.o.X.X. . .O.O.O.O. .| $.#.m z b Z Q f f f f f Z Z Z A _ ( ] { I.I.] ] ( ( U B N n n n w w w w n n n 5 > @ @ @ > > > : 5 : @ : M 4..X$XaXJXJXuX2X:X:XV.&X2X6XjXjXjX6X6X6X5X5X5X8X8XiX8X8X9X3X3X3X3X4X6XMX9X9X4X>X6XBXjX&X8XuX#X;.: @ > > > % % % - - - w k k N U U T ' T ' ' ] ' ' ' ' ( ` ` _ G F F G G G G ) { 6.E.6.7.4.*.6 < , } , , > > * $ & & & & ; ; ; * 5 6 6 e.t t t N U ~ ~ W ! ^ [ _ _ ! _ ( _ ( ( ( ( T R U b c c c k k w = = - - # # # * * * * # + + # # # # @ : 5 %.:.9.9.b.B.N.:X4X4X4X4X3X3X;X;X3X3X9X9X9X6X6X6X6X6X6X6X<X,X,XqXqXjXhX,XrXV.,.o.6 6 : : * > > > * * * w k k n N N B B U U U T T ' ' ' ( ( b j j u i i ",
"f Q E ( ( Y Y Y B N k k k k > > > = - - * * % + + : : > 6 6 %.9.=X0X2XN.B.&X4X4XwXwXqX6XdXdXfXfX8XnXnXnXnXfXdX9X6X6XdXhXjXhXhX6X<X6X>X>X3X9X8X7XM.9.6 : : : : @ > > * * * * * - = = r w w n N B Y 5.6.6.E.W.W.W.E.'.'.l.{ ` ` ` ` a.a.p._ D D ! _ ` l.7.2.*.#.#.| X.X....., , < 6 ..#.$.$.$.$.#.#.*.8.7.6.6.` _ p.p.p._ J p.d.l.'.}.}.}.[.{.[.[.Q.E.E.E.E.6.5.) B N n r r r r r > m m %.%.%.=.=.%.=.0.=X8X3X>X6XV.V.A.1XvXvXvXvXhXhXhXqXdX<X<X<X<X6X<X<X1XqXqX<X1X<XqX1X1X1XeX,XeX,X:X:XqXkXkXjX&X$Xv.:..., : : : @ > 5 = 5 n n k N B U U ( ] ] ] L.L.L.L.I.I.Y.I.{ { ( G G A S a s p p h g / ^ ` ;.;.*.&.&.X.| X.X.O.O.O.X.X...} e.m C B W E f f f f f f a a Z W ( ( ' { { { { ( ( ( B B c n k k w w w = = = = > > > > > n r , > > > : @ > M :.v.=XiX=X&X2X,XV.4X6X6XwXdX6X6X6X6X6X6X8X8X8XuXuX8X8X7X3X3X7X7X5X3X5X9X4X:X4XwX>Xv.b.9.%.< + % > * * * - w w k k k k c B U U T ' K.L.L.L.L.' ' ' ( ) _ G z F F F A G G ` 6.6.W.W.7.;.M < < , , < < > # O O O ; & & & ; ; # 5 5 6 , , , r N U ' K.W W ! _ _ _ _ W G _ _ ( ' ' T T U L b c c c k k k - - - * * - - 5 4 = - # # # # @ @ # @ # > 6 %.o.,.B.&X2X4X0X9X0X3X7X-X-X7X8X9X5X5X3X5X5X5X6X3X6X,X,X,X6XqX6X1X:XZ.B.&.: 1 : + @ * * r n n n n k k c N B B U U T T ' ' ' ' ' ' ( ( v j j i i u ",
"f f E ^ ' ] ) ] 5.] U B c k - - - - % % % % * > * : + + + + : m 0.0.B.M.sX:X,X4XkXjXwX9X9X8XgX8X8XnXnXnX8X8X8XfX6X6XjXjXhXdX6X6X6X6X3X&X&XM.b.,.6 : # @ > > @ + % - * = = - * - = w n N N Y Y Y ] 6.E.W.'.{.{.'.'.'.'.'.d.a.a.a.J p.f.f.p._ _ ` ` 3.7.1.*.#.#.....X.X...6 : : @ : 5 m =.#.#.$.$.#.*.<.8.7.z.l.a.D ! D D _ a.f.d.d.[.}.}.{.{.[.[.[.Q.Q.E.!.E.5.5.5.5.Y V N n r = t t t t m #.#.=.=.%.%.:.9.b.b.B.V.Z.<XvXvXvXvXvX1X1XqXqXqXqXvXvX1XhXhX1XeXqX:XB.>X<X1X<X1XqXqXeX,X4XeX4X,X:X:X&X,.=...< : : : > > = = = - - k w N B U T ' ' ] { ] { L.L.L.L.T.Y.s.d.` ( G ( W S f s p p g / H.I.3.;.%.%.&.$...| X.X.X.X.$.$.....} } 6 m B ( W E Q Q Q f f f f f ! A A ( ' { { { ( ( ( U B B N n c k k w w = = - = > > r r r > > @ : 5 5 > : > > %.:.0.9.B.sXrX:XqXdXdXdX6XdXdXfXdXdX6XdX8XnXnXnX9X8X7X7X-X7X8X8X-X3X9X3X:X>X:XB.>...< : : > > * = w r w w w q & c c b U U T ' K.K.K.I.I.K.' ' ' ) ) ) G A F F D F F K ` 6.6.W.W.1.M 5 > < , < , > : # O O ; 4 n - & & & ; * 5 6 , , > r w L ~ ' W W W ! ! _ _ _ A _ _ ( ( ' ' ' U L L b b c k k k k 4 4 = - - - ; ; # # # # # # + + + + @ > 5 6 7 &.M.:X0X9X0X8X8X7X7X7X7X8X8XfX5X3X>X>X5X5X6X3X6X6X,X4X6X6X>X:XN.N.B.,.7 1 : @ > - - w w - w r n c c B B U U U ' ' ' ' ' ' ' ' ( ( z u u l u u ",
"g f Q ~ ' ] ] ] ] ) ( ( B B N N w w w = - % - * > * O * > > + : < < &.M.2X2X2XwX4X0X9XfX9X5XgXgX8XnXnXnX8X8XfXNXdXfXjXdX<X<X<XhXqXqX4XV.B.,.7 1 1 1 # : @ + + * w w = - - - = k w w w N B Y ) ] ] 6.'.'.'.}.{.'.'.].'.'.d._ ! ! g.p.f.f.d.` 6.6.6.3.1.*.#.......X.......6 > # # # - n *.=.#.$.$.#.#.*.2.7. X].l.[ s.s.s.s.f.a.p.d.'.}.}.}.}.{.[.[.[.Q.Q.E.E.!.!.5.] ] ) Y Y B N r r > r t m m m #.%.#.#.&.,.>.+.C.Z.1XxXxXvXvXvXhXhXhXqXqX1X<X<X<X1XqXqXhXxX:XB.V.A.<X<X1XqXqX1X,XqXwX4XN.9.,.:.6 < : : : > > * - - k n k n B B U U ' ] ] ] { L.L.L.L.L.K.I.I.I.s.s.` _ _ _ D S f f f f / ^ [ { 8.:.%.............} 6 6 ....6 7 ..} , > n B ( W E Q Q f f f f Q ! A A A ( [ [ { ( ' ' ( U U B B c c k k k k = - w = * * * > r r 5 > : @ > > > > 6 6 6 o.,.b.sX:X6X6XjXjXdXdXdXjXdXdXfXfXfXfXnXnXuX8X8X-X-X7X8X9X3X3X3X3X:X:XN.,.: : 6 > @ + * r w w w w w c N B B U U U ' ' K.K.K.K.I.I.I.K.K.[ ] ` ` G G D D J D D _ { 6.6.W.W.H 5 : > < < < , > # O O O @ 7 %.+ $ $ & ; - * > , , , > w c L ~ ^ / / W W ! _ _ ! W W ( ( ( ' ' T U L L b b c k k k k 4 = - - ; ; ; ; - - - - * + O O + @ > > : #.,.&XpXpX0X2X2X8X8X8X7X5X8X8X9X5X3X3X3X6X6X6X6X9X6X6X6X6X6X:XV.B.B.N.B.&.: : # > * = w w w r N c c c L U U T T T ' ' ' ' ' ' ' ( ( v i i i u v ",
"s g f E ' ] ] ] ] ' ' ( ( U Y V N C N n w w - - % - - % # @ + + < o 1 9.0XpX9XMX9X9X9X9XdXdXdX8XfXnXnXnX9X9XfXfXdXdXdXdX6XdXdXjXwX4XV.N.N.M.&.1 : 1 + * % O $ w - - w k w k n N N B U U ] { E.E.6.6.'.'.'.|.}.}.{.].'.(.s.u.i.i.i.g.p.d.{ 6.E.W.7.8.;.%.......X.X.} , t > O O 4 = w r n #.#.X.X...#.#.=.2.7.W.[.Y.P.P.s.s.f.p.p.a.d.'.}.}.}.{.[.[.[.[.Q.E.E.E.E.E.L.] ] ] { ] ) B B C n r > > r t m m %.%.&.o.o.V.1XzXxXqX6XhXjXjXjXjXhX6X<X<X<X<X<X1XhXkXqX:XN.<X:XZ.1X1XvX1X1X<XV.B.n.:...< < @ : > > * * * - w w w c c N B B U ' ' ] ] ] L.I.L.L.K.L.L.Y.Y.P.[ s.d.a._ _ _ ! E Q / ^ [ d.6.3.*.=.......o...7 6 > > 6 , 6 .., ..6 6 6 m C B ( W E E E Q Q Q E Q S Z Z Z ! _ [ ' ' T T T U L I c c k k k k k k w = - - - = * * > 5 > * * > > * > + 5 > 1 ..CX3XdXdXdXdX6X6X9XwXjXjXfXfXfXfXnXnXuXnX8X7X-X7X3X&X3X6X>XM.N.>X:XM...o o 5 - - n - w w k k c c c c U U U T ( ' ] L.' L.I.Y.Y.I.P.] { ( ( G D D D D D W [ { 6.W.W.8.7 7 7 : < , > r % & $ % o 6 ,.,.6 1 O % $ $ - > , , , > > = N ' ~ / ~ ~ ^ [ ^ ! ! ! ! A ( ] ] Y T T U U U c b c c k k k k k w - - - - - - $ % % - - # O O + 5 M :.#XuXuX2X2X7X9X9X9X9X8X5X3X7X7X3X7X8X9X9X9X6X6X6X6X6X6X>X:XV.C.&X:X4X0X$X:.6 : > = w k k c c c c L L U T T T T K.K.K.' ' ' ' ( ( v u i h h v L ",
"p g f E ' ] ] ] ] ' ' ( U U Y Y V V N N N k k k & - & $ % * # + o 1 %.#XuXpXuXuX8X9X9X9XdXdXdXdXfXfXnXnXfXfXfXfXfXdX6X6XdXdXdX6X:XZ.N.N.:X:X0.o.1 1 @ + % - w - - k k k k n N B Y Y Y Y ] I.E.I.E.'.'.'.|.|.|.}.].].].I._.u.t.t.y.i.p.d.E.!.W.W.7.2.%.6 ....X.X.X..., > - % ; ; - w e t t #.X...X.#.#.#.=.8.W.Q.Q.Y.P._.s.s.p.p.p.` d.|.}.}.{.[.Q.[.[.Q.Q.E.E.E.E.I.I.{ [ ] ( ( ) ( B C n n r r m : > #.#.7 +.B.rXeXkXhXqXqXwX9XdXdX6X6X6X6X<X<X<X<X1XhXkXhX,XV.rX1X1X1X1XA.A.Z.Z.B.,.o.7 < < + @ * * * * - - w w w c c N U U U T ' ' ' K.L.L.I.L.L.L.L.I.Y.Y.P.[ s.d.a.p.a.p._ ! ^ ^ [ { 6.3.;.%.$.X.......6 6 > % * > > > , < 6 7 , , , m V U ( W E E / ^ W W Q S Z Z Z S ! [ [ ' T T T P P L b b c x c k k k k w = = = - - - @ : = @ * = * * % % > # : >.uXNXgXdXdXdX9X9XwXwXwXMXMXfXfXfXfXnXuXuX8X7X3X6X6X>X>X<X:XV.V.,X6X2Xb.%.: # * = k k k c c c c c c B U T ' ' ' ' [ I.[ K.I.Y.Y.I.I.L.] ( A A A D D ! W _ { E.E.W.7.1.7 7 < < < , t r q q $ % o o.m.w.o.< + * % & - > 6 , , , : > n U G.G./ ~ ~ ^ ^ ! Q Q Q E ( ] ] Y T T U U U b c c c c k k k k k k - = - - - % & % $ $ ; O O # M :..X=XuXuX8X8X9X9X6X6X6X5X5X8X8X8X3X7X7X8X9X9X6X6X9XdX6X>X&XV.V.V.4XpXCXpX2X$X:.6 > n n k k c L L L U U U P T T G.G.K.K.' ' ' T ( ( v u i h h v L ",
"d g f / ~ L.] ] ' ' ' ( U U Y Y Y Y V B B N N N w - $ & - * # + o ..v.7XCXmXuX8X8X9X9X9XdXdXdXdXfXnXnXgXfXfXfXfXjX6X6X6XdXdX<X:XN.N.N.V.4XwX:XM.< 1 O O * = = & w k N N N B V Y Y ) ) ] ] I.E.I.'.'.[.'.'.'.'.].{.].E.I._.u.t.t.f i.f.(.'.!.W.W.7.;.m 6 ..$.X.| ..#.r % % - ; ; k k r w r #.........#.#.=.2.W.Q.Q.Y.U._.s.f.p.g._ ` d.|.}.}.{.{.[.Q.Q.Q.Q.Q.E.E.Q.Q.I.I.{ [ ] ] ) ) ( B N N n r r % @ > 6 ..b.BXxXxXxXqXqXhXjX6X6X6X6X6X<X6X6X6X1X<X<XqXjXhX,X:XrX1X1X1XA.Z.C.V.:X:XB.o.1 : : : * * * - - - w w k c c N U U U T ' ' ' L.L.L.I.I.I.I.I.I.I.Y.Y.P.[ s.p.p.a.a.p._ [ P.P.P.E.6.3.*.#.$.X.o.....6 > * $ w w % % * : 7 7 , , , r C B ( W E E / ~ W W E Z Z a Z Z ! _ [ ] T T T P P L L b c c c c c k k k w = = = - - # @ @ # % * * % + O + o ;.#X8XVXgXdXdXdX6X9XwXwXjXwXjXfXfXfXfXfXnX9X5X3X5X6X6X>XV.&XV.V.&X>XqX0X7X%X;.# - k k c c c c c c c U U T ' ' ' ' ' [ P.I.I.I.I.I.I.Y.I.] B z z A A D ! W _ I.'.E.W.7.*.: < < < < , t t % & O O 1 ,.m.m.,...: @ $ & - * > , , < > > n U G.J.G./ ~ ^ ^ ! Q Q Q ! _ ] ] ) ( ( T U U B c c b b c c c c c k w = - - - - - & O O O O + 5 ;.v.=XuXuX8X7X9X9X6X6X5X5X5X5X9X9X9X4X4X3X4X6X6X9X6X6X6X6X>XV.V.&X>X4XCXpX4XwXuXv.%.# 5 n k k c L L L L L T T T G.K.G.K.' ' ' ' T ( ( v u u u i v L ",
"p d g / ^ L.] ] ] ' ' ( U U U Y Y Y Y U B N N N c w w = = - % # : 9.7XCXpXuXuX8X9X9X9XfXfXfXfXdXgXnXnXgXfXfXdXjXdX6X6XqXqX6X:XV.V.:X:X:X0XMX0X&X9., o + > * - n n N B B B B Y ) ) ) ] ] ] E.E.E.W.'.'.'.'.'.|.].}.].E.P././.t.t.f i.f.(.E.!.W.W.2.*.6 5 ..$.$...#.m > % $ ; ; - n n w w r t 6 ..o...#.#.#.*.8.~.Q.Y.(._.s.f.p.g.p.` a.'.}.}.}.}.[.Q.Q.Q.Q.Q.'.Q.E.Q.Q.I.I.I.I.I.] ] ) Y Y N N N = > > + 7 9.4XAXxXxXqX1X1XqXqX6X6X6X<X<X<X6X6XhXhXqX1X<XhXhX1X:XeX1XA.Z.N.C.Z.Z.:XqX>X9.7 1 1 + * - = w w w k c c c B B U T ' ] ] ] I.I.I.I.Y.Y.Y.Y.Y.Y.Y.).I.P.s.[ _ p.a.d._ _ [ P.I.I.6.6.;.%...X.X.X...6 > @ = & w e q q - % : : , , , > r N U W W / / ~ ~ W Q S a a Z Z A W [ ] ' T T T P L L L b c c c c c k k k w w w - - # * * # # % % % * X o 6 #XGX8X8XfXfXdXdXdXdXjXwXjXjXdXdXdXfXgXgXfX9X6X6X6X6X>X&XN.N.V.&X:X:X4XwXuXuX#X;.5 k k c N b U L L U U T ' ' ' ' ' ' K.K.I.I.I.I.I.I.I.I.] B z z A A D A W _ I.'.E.W.8.V < < < < < , , > % $ O o 1 D.m.w.m.o.+ + ; & - * > < , , > > n U G.J.G./ / / Q f a a Q Q ^ [ ] ] ] ' ( U U U B c B c c B c c c c k k w w - - - & $ O O # 5 *.c.*XiXuXuX7X7X9X9X5X6X6X6X5X6X9X9X9X9X6X6X6X6X6X6X9X>X>X>X&X&X&X>X6X,XeX4X&X2XuX$X:.5 5 k k B L I I L L P T T G.K.K.K.K.' ' ' ' ( ( G l u u u u v U ",
"d g g / ^ K.L.] ] ] ' ' ( ( T U Y Y U U B N c c N c n n = ; # 5 :.$XCXCXiX8XuX8X9X9XfXfXfXfXfXfXgXgXfXfXfXfXdXdX6XqXkXjX,X:XV.N.:X4X4X4X4XwXwX2X7X:.: @ > = n V N B Y Y Y Y Y ) ) ] ] ] 6.E.E.E.W.'.'.[.|.|.|.{.}.].E.[ /./.t.t.i.s.f.d.E.E.W.7.<.M 6 6 ..#.$.#.m = % - $ O 4 M H n w r t r > 6 ....#.#.#.#.2.W.E.Y.(._.s.f.p.a.a.a.d.'.}.}.}.OX[.Q.I.I.Q.[.'.'.Q.Q.Q.Q.Y.I.I.I.I.{ ] ] ) Y Y Y n m 5 > >.&XBXkXxX1X1X1X1X<X6XdXhX6X<X>X>X<X6XhXhX6X1X6XqXqX,X:X1XrXZ.N.C.Z.<X1X1XhXNX3Xv.o.: o # - k k k k c c N U U U T ) ] ] ] L.I.Y.Y.Y.Y.Q.Y.).[.).).).I.[ s.p._ _ p.p._ ! [ [ { I.6.1.V ....X.X....., > % w q e e e q q & # : 6 6 , , r t U U W ~ ~ ~ ~ E Q Q S a Z Z S W ' ] L.L.' T P L U U L b c c c c c k k k k k k = - = - % % % % O + X 5 v.iXHXuX-XgXfXfXfXdXdXjXjXjXjXjXdXfXfXgXdXdX6X6X6X6X,XV.V.V.V.:X,X,X:X:X2X7XiXFX.X5 - N k B U U L L L T ' ' ' ' K.K.K.K.P.I.Y.I.I.I.I.I.I.{ ( b z A A F F A _ I.'.W.W.8.C < < | < < , < * % O + o 1 m.m.@.B.%.@ ; $ $ - % > < , , , > n U G.J.J.J./ / g g s s a Q ^ [ ] ] ] ' ' ( T U U U U b b b b c c c k k k k k w - & % O + 5 ;.c.*XtXiXuXMX9X9X9XdXjXdX6X6X6X6X5X5X5X9X9X6X6X6X6X6X6X>X>X&X:X>X<X<X,X,XeX,X:X:X0X7X=X0.M k N U U b L P P P P ~ ' K.K.' ' ' ' ' ( ( ( b l u u u u b ( ",
"d g g f ^ P.I.] ] ] ] ] ' ' ' ( ) Y U U U U B c N N N N = # 5 ;.%X7XmXuX7X7X9X9XuX9XfXnXgXgXfXfXfXgXfXgXfX6X6X6X6XqXjXqX:XV.N.V.:X:X4X4X4X4X0X2XuX#X:.> * n C n N B Y Y Y Y Y Y ] ] 5.{ E.'.'.E.W.'.{.|.|.|.}.}.}.'.(.P././.t.t.i.s.f.d.{ W.W.8.V m 6 6 ......#.> $ $ - ; O 7 n.c.C - r N w - m ..X...#.#.#.<.W.Q.Q.(.(.s.d.a.a.f.f.d.l.|.}.@XOX[.Q.I.I.Q.[.[.Q.[.[.[.Q.Q.Y.Y.Y.I.I.I.] ] ] ] 5.1.C n :.#X0XqXqXqX1X1X1X1X<X6XhXhXdX6X<X<X<X6XqX1X,X,X1XqXqX<X:XN.V.N.N.Z.A.<X<XxXqXjXJXMXM.%.: # = k k k c c c U U U T ' ] ] { ] I.I.Y.Y.Y.Y.Y.).[.[.[.[.[.I.[ s._ _ _ p._ _ _ [ [ { 6.3.*.M ..X.X.X.} < : % % = & q e q q e q O # 5 6 m t t r N B ( ' ^ ~ / / Q Q Q S S S S W ( ] L.L.L.' T L T U U L U B c c c c k k k k k k = = = - % - % ; + @ c.GXmXVXfX8XgXgXfXfXdXdXjXjXjXjXjXdXfXdXdXdXhX6X,X1X>XV.V.C.V.&X:X4X:X:X&X:X7X-XGX=XM = C k B U U L P P ' ' ' ' K.K.K.P.L.I.Y.I.I.I.I.I.I.I.] ( b A A F F F A [ I.E.E.].8.m , < | | < < < + % O # o 1 m.m.@.B.%.@ % $ $ $ O > < , 6 , > r N G.J.J.J.J.g g s p p a Q ^ [ ] ] ] ' ' ' ' T U U U U L b b b c c c c k k k w - $ % # > ;.v.=XiXmX7X8XuX9X9X6XdXjXdXdX6X6X6X6X5X6XwXhXjXqX6X6X6X6X>X:X&X>X6X6X>X:X:X,XrX:X:X2XuXGX=X4.C k B b L T P P P P ~ G.K.K.K.' ' ' ' ( ( G b l u u u l b ) ",
"d d g f / [ I.I.5.5.] ] ] ' ' ' ' ] T T R U U U N k n C n 5 1..XiX0X7XuXuX7X8XnXuX9XfXnXgXgXgXgXfXgXgXfX6X5X6X6XjXqX,X:XN.N.Z.:X:X4X4X4X3X2X4X2X2X7X#X:.5 5 m n N B Y Y Y Y Y ) ] ] 5.6.6.'.'.E.W.W.{.[.[.|.{.}.{.[.(._././.t.t.i.s.f.d.E.W.W.1.m m 6 6 ....} , * $ $ $ + : >.V.M.>.> r N w - 5 #.....$.#.#.*.8.W.Q.(.(.s.f.f.f.f.d.d.d.|.}.@X}.OX[.Q.E.[.{.{.[.{.[.Q.Q.[.[.Y.Y.Y.Y.I.L.L.] 5.5.1.M ;.#XmX7X:XqXqX1XqXxXhX<X<XhXhXdX<X<X1X6XqXqX,X,X,XqXqX,X:XN.B.N.Z.Z.Z.Z.Z.:X1X>X>XdXMX-Xb.%.5 4 k k k c c U U U T ' ' ] { { L.I.Y.Y.Y.Y.Y.Y.Y.[.[.[.[.).I.[ s.! _ p._ _ _ [ { { { 6.1.M #...X.X...< : + % % % - N B w & q & O # > , t t t t t N Y ' ' ~ / / / Q Q Q S S S E ( ] L.L.L.' ' T T R U U U U L b c c c c c k j k w w w - - - * # > c.=XJXnXnX9XfXfXdXdXdXdXdXdXjXjXjXjXdXhXdXdXdXhX1X,X<X:XV.V.:XV.:X:X:X:X:X:X&X9X&X7XiXc.V C N B U U P P ' ' K.K.K.K.P.P.L.U.Y.Y.Y.Y.Y.Q.E.!.I.( A A A F F F Z W [ '.E.6.W.5.5 , < | < < < < + % X - o 1 m.m.m.n...@ ; $ $ $ O > < 6 .., > > N K.J.J.J.J.g g g g s a Q ^ [ ' ] ' ' ' ' ' ' ( T U U U U U U b c c c c c k k - $ - > M c.=XFXmXuX7X3X6X6X5X<X6XdX6XdX6X6X6X6X6X6X9XqXwXwXqX6X,X>X:X:X>X,X6X6X,X:X:XrXrX:X:X:X3XuXtX.X3.C k c U T P P P ~ ~ ~ ' ' ' ' ' ' ( ( G B z l u u l l B ] ",
"d g g f / [ I.E.5.5.5.] ] ' ' ' ] ' ] ' T T U U B k k C C M c.aXmX2X-XuXMX7X7XMX9XfXnXnXgXgXgXgXdXgXgXfX9X5X6X6XkXeX:XN.N.V.rXeX4XqXwX6X4X2X2X2X=XuXiX#X:.5 5 C N B Y Y Y Y ) ] ] ] ] ] 6.E.6.6.E.Q.'.'.'.'.[.'.|.'.(.s.u.i.^.i.u.s.d.d.E.W.7.<.m 6 , , ...., , $ $ ; O + 7 n.<X&X,.6 * w w = = #.....&.$.#.*.1.W.'.I.I.d.d.f.x.f.f.d.d.|.}.}.}.+X{.Q.Q.[.{.{.[.{.Q.Q.Q.[.[.[.Y.[.[.Y.I.I.E.!.E.1.V 4.tXGX7X&XkXhX1X1XxXxXvX<XvXvX<X<X<X<XqXqXwXqXqXeXqXqX:XN.B.N.Z.rXrXrXZ.rX1XqXxXjX9XfXnX=Xb.n n k k k c U ' T T ' ' ' ] { I.I.Y.Y.Q.Q.Y.Y.[.Y.[.[.).).(.P.[ _ ! _ s.s._ [ { I.{ 6.6.;.m #.$.X.X...< + + % % O 5 :.4.M - $ O O ; # > , t e.t , m Y ] [ ~ / / / / Q Q S S S E [ [ L.L.L.' ' ' ' T U U U U U L U b b b c c k j w w w = = = > @ M FXiXuXuXMX9XfXfXdXdXdXdXdXdXfXjXjXjXdXhXhXdXdXkX6X,X:XV.C.V.1X>X,X,X:X:X4X4X:XwX&X%XiXiXc.C V B U U T ~ ~ K.K.K.K.P.P.P.T.Y.).Y.Y.Q.Q.E.E.E.I.b A A A F F F A W [ '.E.6.7.1.> < < < < < < * % w . - O 1 m.m.m.,.6 + O $ $ $ O % : , .., , > N K.J.J./ F.F.t.t.g g f / ^ ^ ' [ ' ' ' ' ' ' ' ' T U U U U U b c b c c c k k - $ = n 2.#XiXGXuX7X8X5X3X5X5X<X5X6X6X6X6X6X6X9X9X9X6XqXwXwXqX,X>X&X&X&X>X,X6X6X6X6XeXxXkX1X,X4X3X&X=XtX.X1.N U ( U P P P ~ ~ ~ ~ ' ' ' ' ( ( ( B b l u u j l z U { ",
"g g g f / [ { E.6.6.5.] ] ' ' ' ] ] ] ' ' ( T U B V C n V c.yXFX7X7X0X8X8X9XuX9XnXnXnXMXnXnXfXfXfXgX8XfX8X5X9XjXqX:XN.N.rX:X:XeX4X3X4X4X4X4X3X2X9X&X-XiX.XM 6 M C B Y ) Y ] ] Y Y ) ] ] 6.6.6.E.W.[.{.{.'.'.'.].|.'.(._./.i.t.i.s.(.(.'.'.W.W.V , 6 ..} ..#., @ % $ - + o >.C.S.B.&X< > w r - = #.#.&.$.....#.<.W.{.{ [ d.d.|.x.f.f.f.d.|.}.}.}.{.[.[.[.[.[.{.}.{.[.Q.[.[.[.[.[.Y.Q.Y.L.L.E.E.) H 7.#XiXnX9X6X,XqX1X1XvXxXxXhX1X1XvXvX<X1XhXwX4X4XqXwXqX:XB.B.N.Z.Z.Z.Z.:XrX<X1X<X6XjXjXfXfXnXmXc.C 4 k B B b L ( ' ' ' ] { I.I.I.Y.[.[.[.[.[.Y.Y.[.Y.I.[.(.[ [ p.p._ [ [ [ [ { { '.l.1.*.#.$.$...&.< * * % * * 1 %.n.B.,.< o @ ; ; ; = 6 m } , e.t V Y ] ~ ~ / / / Q Q Q Q Q ! [ [ I.I.L.K.K.' ' ' ' T U U U U U L b b c x k k c & - k w ; > %.#X-XFXVXCXMXdX5XjXdXdX9XdXdXdXdXdXjXdXdXlXjX6X6XhX>X:XV.V.:X1X:X,X6X6X6X4X3X4X4X&X&X=X-XiX=Xc.C V B U ' ' K.K.P.L.Y.Y.T.Y.Y.Y.Y.Y.Y.Y.Y.E.E.{ { _ A F A S F Z Z _ (.(.I.6.6.H 5 < , < < < < * $ $ q . & + &.m.B.o.: o ; & $ . $ > > < , , , t n K.G.H.J./ g t./.f g a Q ^ ^ [ [ { { ] ' ' ' ' ' ' T T U U U B B c U c c k w k = 5 2..X-XuXmXuX7X9XfXjXdX6X<X6XdX6X6XdXdXdXfX9X3XjX6X6XjX0X&X&X:X3X4X6X6XwXwXjXjXhXeXkXkXqX,X2X7X7XtX*X X) B Y U ~ ~ ' ~ ~ ~ ' ' ' ' ' ( ( b c z v l v v b U ) ] ",
"f g f f E ! [ { 6.E.E.E.] ' ' ' ] ] ] ] ] ' T U B Y V C 2.*XFXuX7X0X9X0X8X9X9X9X9X9XfXnXfXfXfXfX8XfXfX8X5X5X5X3X:X&XN.:X4X:X:X4X4X5X6X4X4X4X3X3X&X$X2XuX=Xc.:.M V V ) 5.] 5.5.] U ] ] E.E.'.'.E.W.[.{.{.W.E.'.'.'.(._._.u.i.i.i.s.(.(.(.E.W.7.m , #...} ..#., + % $ % + 1 ,.C.m.C.Z.< > w w = = 6 ....#..., m V 7.{.{ { (.d.|.x.x.f.f.f.|.}.}.}.{.{.[.{.{.{.}.OX{.[.[.{.[.Q.Q.[.Q.Q.Q.E.E.E.6.1.3..X-XuX8XwXqX:XZ.:XrX1XxXxXxXvX<XvX<X:X,XhXwX4X,X4X2X&XN.B.B.N.:X:X:X:X:X,X,X1X1X6X6XdX9XfXfXnX=X4.n C B B B ' ( ' ' ' L.I.I.I.Y.Y.Y.Y.Y.Y.Y.).Y.[.).).[.).[ [ p.p._ [ [ { I.I.{ 6.6.1.%.#.$.X...%.> % w % - @ 1 o.m.B.m.o.1 1 ; $ ; - , m } } e.t m Y ] ' ~ J./ / / Q Q S Q ! [ [ I.L.L.L.K.K.K.' ' ' T T U U U U L b c c x c c w w n = # M c.iXFXVXMXfXjXjXjXfXdXdX9XdXfXdXdXjXdXNXBX6X6X6X&X6X:X&X:X:X:X,X>X6X6X6X6X3X2X2X2X&X&X&X=XiXtX*X7.) Y U ' ' ' ~ K.T.Y.Y.Y.Y.Y.Y.Y.Y.Y.Y.I.I.6.{ { _ A D D D S D W [ (.'.E.l.7.H 5 < < < < < : * $ 9 9 9 . O #.,.9.< 1 o - q & $ & * > < , , , , r ' G.G.H./ f / /.i.f E / ^ ^ [ { ] { { ] ] ' ' ' ' T T U U U U B c U c N k = n 5 ;.c.=XiXmXnX8X7X5X9XjXdX6X<X<X6X<X6XdX9X9X9X9X9X3X9X9X3X&X&X&X>X3X>X6XjXNXNXMXjX1XqXqXqXqX,X4X9X7X=X=X*X7.V V U ' ~ ' ' ~ ~ ' ' ' ' ( ( L v z b i v v b U ) ] ] ",
"Q Q Q Q E E ( _ 6.6.W.W.I.] ' ' ] ] ] ] ] ] ) ) Y C C ;..XaXGXiX8X9X0X0X9X9XfXfX9X9XfXfXfXfXfXfX8XnXnXnXMXnX3X&X&X&X&X4XwXeX:XqX9X9X9X9X6X4X4X3X&X&X7XiXiX=Xb.m V C ) 3.5.5.] ] U ' ] E.'.'.'.E.Q.[.{.[.W.E.E.'.'.d.s.s.u.i.i.u._.(.I.'.E.W.7.m m #...} } m > + % O O + < ,.S.m.A.V.< > w r w 5 6 ........} m m 8.{.I.I.(.d.(.(.x.x.f.f.|.|.}.}.{.{.}.OXOXOXOXOX{.[.OXOX[.Q.Q.[.Y.I.E.E.W.6.5.1.c.-XVXuX3X4X,XZ.V.Z.:X1XxXxXxXhXvXvX<XZ.<XqXwX4XwX4X&XB.B.B.N.V.,X,X,X,X,X1XqXqXqXqX6X6XdXdXfXfXVX%X4.M C B U ' ' ' ' L.L.I.I.Y.Q.Y.Y.Y.Y.Y.Y.Y.Y.[.).).[.(.[ [ p.p.p.[ { I.I.I.{ 6.3.;.#...X.X...#.> % w q - + 7 +.m.m.m.,...1 ; $ ; - > 6 , , e.e.t V ] ' G.G./ / / Q f S Q ! [ [ I.L.K.T.I.I.K.K.' ' ' ( T T T U L L b c c c k w n n = 5 4.-XGXVXMX9X9XjXMXjXjXdXdXdX9XdXfXfXfXfXVXBXfXCXAX3X&X&X&X:X>X>X,X6XhXjX6X6X3X;X=X;X&X&X&X&X-XiXtX*X1.) B U ' ' K.K.L.Y.Y.T.Y.Y.Y.Y.Y.Y.I.I.{ 6.{ { _ A F F D D D ! [ (.'.'.].z.H = : < < < < : % $ 9 9 9 . $ : &.&.1 o + - w     & * > , } } , , r ' G.G.H./ / / u./.^ ! ^ [ [ [ (._ { { { ] ] ] ' ' ' T R U U B B N U N n w - C M c.#X=XiXuXuX8X7X3X9XfXdX6X5X<X5XdXjXjX9X3X8X8X8XCXuX=XM.M.&X3X3X3X5X6XjXBXAXBXBXlXkXkXkXqX,X4X9X8X=XtXtX.X4.V B T ~ ' ' ' ' ' ' ' U L b c x x v u v L ) 1.5.1.1.",
"E ! ! Q E E ! _ ` 5.6.6.] ] L.L.L.L.L.L.] ] ] ) ) C V .XaXiXiXnX0X9X0X9X9X9XfXfXfXfXnXnXnXnXnXnXnXiXnXVXCX-X%X&X&X3X3X4XMXwX4X0X9X9X9X9X9X4X3X4X3X2X7X7XiXiX$X9.;.V V 1.) ] ] ] ' ] L.E.E.E.W.E.'.'.{.].W.W.].'.'.d.s.s.u.i.i.u.(.'.(.'.'.W.7.m 6 ..X.} e.t > % % $ % + : ,.C.S.C.B.< > w r w n 6 ..#.#...#.#.m 8.].E.I.(.(.(.d.x.f.f.f.f.|.}.}.{.}.OXOXOXOXOXOX{.{.{.[.[.Q.[.[.Q.I.E.E.6.5.6.c.%X8XMX0X2X:X:XN.Z.rX1XqXxXhXdX<XvXvX1X:X:X1XqX,X2X&XN.B.B.V.:X:XeXqXqXqXqXqXqXjXjX6X6X6XhXjXjXjXMXnX%X;.C V ) ( ' ' K.K.I.Y.Y.Y.[.Y.Y.Y.Y.Y.Y.Y.Y.).).(.[.(.[ [ p.p._ [ { I.I.I.6.6.3.;.#.X.X.X.....* $ q q w @ o.,.m.h.m.w.o.1 ; & $ ; > 6 , , } } t C Y ' G.G./ / / Q Q Q Q ! ^ [ P.K.K.L.Y.T.I.T.K.' ' ' T T T T U L L b c c k n n 5 C 4.%XmXNXMXjXjXMXMXkXqXjXjXdXdXdXdXfXnXnXMXnXnXAXGXuX&XM.&X&X3X6X6X6XjXjXjXdX8X3X-X-X=X2X2X&X&X=X7XiXtX X7.) U ' ] L.P.P.I.Y.I.Y.Y.Y.Y.Y.I.I.I.6.6.{ ` A F F F F A A _ (.'.'.'.].z.H > 6 , < < < : * $ 9 9 e q - + ....1 o + - q   . $ + > , ..} } , t T ' ~ ~ / / / ^ [ [ _ _ _ ! _ s.` { { { ] ] ] ' ' ] ' T T U U U N Y n w - = ;.4.%X;X-X8X8X9X9X9X3X9X9X9X5X5X5X5XdXNXMX9X7X8XuXuXmX#X:.>.b.&X8X9XfXdX9XMXAXAXAXBXBXBXBXBXxX6X4X0X9X7XiXaX=X.X4.V U ' ' ' ' ' ' ' ( L b b v x v v v A ( 1.2.2.1.1.",
"[ [ ^ ! ! ! ! _ ` ` ] ] ] ] ] L.L.L.I.I.{ ] ] ) 1.3. XaXGX7X7XCX9X9X9X9X9X9XdXdXfXfXfXfXfXnXnXnXnXiXnXuX#X:.9.&XuXpX8X0XMXpX4X3XnXfX9X9X9X6X4X4X0X2X3X7X7XuXuXtXc.;.H 1.5.6.E.E.L.I.E.E.!.!.!.W.'.'.].].].].].].'.d.s.s.u.u.u._.).[.(.'.'.].7.m , } X.} e.t > % $ $ % + + o.m.C.B.,.> r e e w w , m #.#.#.#.#.m 8.].E.Y.(.(.(.f.f.f.a.a.d.(.|.}.}.}.OXOXOXOXOXOXOX{.[.[.OX[.[.[.{.[.E.W.7.7. X*XuX6X4X4X,X:XZ.N.rX1XeXhXhX6X<X>XvXvXvX<X:X:X&XN.,.9.N.N.:XrXeXeXkXjXjXwXqXqXwXjX6X>X>X>X6X6XqX6X6XNXMX%X4.H ) ] ' K.L.I.Y.Y.Y.Y.).).).).Y.Y.Y.Y.).).(.(.).I.[ [ _ p._ [ [ Y.Y.I.6.6.2.%.o.X.X.X.....* $ e q q + 7 w.h.h.m.w.o.1 $ & $ ; * 6 6 , } , , t R ' G.~ G./ ^ ^ i.i.Q Q ! [ P.P.P.P.T.P.T.L.K.K.~ ~ P P ' T U L L L c c n C C C 4.-XVXnXfXdX6XjXBXMXwXeXjXjXdXdXdXfXnXmXnXJXuXuXJX7X9.:.v.&X9X9XMXMX9XNXMXfXfX9X8X8X-X7X3X3X3X2X=X7X-X-XaXoXz.) ] ] L.] I.I.Y.Y.Y.Y.Y.U.Y.I.I.I.{ { ` G G A F A G J _ { '.E.W.].].7.;.> , , < , < : % $ q . q $ - @ X.X.< 1 O ; &   . $ % > ........#.m Y ' ' ~ ~ ^ ^ W _ _ ( _ _ A D D ` { 6.6.{ ] ] ] ] ] ] ] T U U U V V n r = C c.*XmXnXuX9X8X8X8X9X9X9X8X5X3X5X5X6X>X6X9X3X0XCXCXuX0.6 o : ;.v.=XVXVXMXMXMXCXDXZXBXdXdXjXNXxX6X6X6X4X9XuXiXiXtX.X;.U ' ' ' ' ) ] ) ' ( L L L L W W A A V *.=.=.%.%.",
"{ ] [ ! ! ! ! _ ` ` ) ) ) ) ] L.L.L.I.I.{ ] ] ) 1.XXtXFXiX7X0X0X0X6X9X9X9X9X9X9X9X9X9X9X8XfXfXnXVXmXiX%X%.1 o.#XuXGXVXuXCXMX7X-XnXfX8X8X5X9X6X6X0X&X2X3X=X&X7XuX.X4.H 3.6.6.E.Q.Q.E.E.E.!.!.W.{.'.'.].].].].].].l.d.s.s.s.u.s._.(.[.I.'.'.].7.m } } } X.e.t > % $ w w $ + 7 >.B.n.>.r r e e q & > 6 #...#.#.#.m 1.].Q.'.).(.(.d.f.f.a.f.d.d.'.}.}.OXOXOXOXOXOXOXOX{.[.[.OXOX[.[.{.E.6.6.7. X*XiXCX,X:X,X1X:XZ.Z.rX1XqXqXqX6X>X>X1XvX1XA.Z.V.b.,.1 &.N.eXeXrXrXkXwXwXqX6X6X6X6X6X,X>X,X,X1XqXqXqX1X,XNXGX*X1.Y E.] L.L.I.Y.Y.Y.Y.Y.Y.).[.[.Y.Y.Y.).).).).[.P.[ [ p.p.p.[ I.Y.Q.I.E.3.;.%.o.X.X.X...6 @ $ q 9 q O 1 +.h.h.m.,.o.: $ & $ ; # 5 6 , } } , t R ' K.G.G.~ / ^ u.i.i.Q E ^ P.P.P.U.U.P.U.P.K.K.~ ~ P P ' T U L L L c c N C C ;.%XJXAX5XNXdX6XqXwXwXwXMXjXhXhXdXdXfXnXmXnXJXVXmXGXM.6 : 9.7XCX8XuXnX9XMXfXfXfXfXnXfX8X5X3X4X4X4X3X7X-X=XFXyX.X6.] ] ] ' I.Y.Y.Y.Y.Y.Y.Y.I.I.I.{ { ` J G G G G G K J ` 6.E.E.W.W. X0.*.6 , } < } < : + O q     . + 7 ,.,.o.7 O ;   9 9 $ % , ......#.#.m ] ' ' ( ' [ [ ( ) ` ` ` ` _ D D ( ) ) ] ] ] ] ] ] ] ] ' T U U B N V n n 5 *.#XmXnX8X8X8X8X5X7X9X9X9X5X3X3X5X6X9X3X9X9X7XuXuX=XM.6 o o : M :.v.mXVXVXNXNXNXNXBXDXfXfXNXBXjX6X6X6X4X9X9X2X7XmX=X2.) ' ' ' ) ] ] ] ( U L ( W W W W A B V #.$.....6 ",
") ( ( _ p.p.! ! _ ` ) ) ] ] ] ] ] ] ] ] ] ] ) ) 7.yXFXiX=X0XpX4X6X6X6X6X9X9X9X6X9X9X8X8X8XfXfXnXGXuX%X4.: o : :.#XuXGXCXCXmXuX7X8X8X8X8X5X6X6X0X6X:X:X2X$X$X=X=X=X4.V 1.6.6.E.E.Q.Q.!.!.!.Q.Q.{.'.'.].].].].].z.l.d.s.s.s.s.s._.(.[.I.'.'.].7.m } } | X.e., > - q q q $ % # 8 >.>.6 r y y e e q > , m ..#.&.=.m 1.].'.[.).P.(.d.f.f.f.f.d.` { (.OXOXOXOXOXOX+XOXOXOXOXOXOX[.[.{.[.E.] 1.z.*XtXnXjX,X:X:XrXrXrXrXrX1XeXwXqX6X5X<XvXA.A.A.<XV.,.7 1 ..,.:XeX1X1XkXjXdX9X6X6X6X6X6X6XqXqXqXqXqXqX1X1X:X6XAXiXc.) ] L.L.I.I.Y.Y.Y.Y.Y.Y.Y.).Y.Y.Y.Y.).).Y.).).[ [ d.p.a.d.{ I.Q.Q.E.E.3.:.%.o.X.X.X.....# $ 9 9 q O o o.@.m.m.,.5 * $ q $ X # 5 6 6 , } t m R L.K.G.G.~ / ^ i.i.i.Q E ^ P.P.P.U.U.P.U.P.P.K.G.~ ~ ~ T T U L L L L c n n ;..XmXVXfX>XlXdX<XqXwXeXwXMXjXhXhXdXfXnXmXmXmXFXJXGX$X%.1 1 ..=XmX=X-X7X7X9XfXfXfXnXnXmX8X5X4X4X3X3X2X2X-X-X=XyXyXXX6.] ] ] L.I.I.I.Y.Y.Y.I.I.I.[ [ _ J G G G G G ` ` ` ` 6.6.E.W.~.~.0.=.#.} } } } , < + ; & & . O 1 &.w.m.,.%.= ;   9 9 $ % , #...} ..#.m 5.{ ] ( [ { { ) ) 5.3.6.l.d.p.p.J ) ) ) ( U R R T T T U U B B N n m n m M :.=XGX8X-X;X7X8X3X7X7X9X9X8X5X5X6X6X6X9XMXMXuXuX-X9.6 @ + @ > 5 6 4.#XuXnXNXNXNXgXBXDXAXAXAXBXfX5X6XqX4XwXwX3X2XpX-Xc.] ] ' ( ] ] ] ] U U L ( W W W A z z m ..X.| ....",
"N B G _ s.s.p._ _ ( ) ) 5.6.{ ] ] ] ] ] ] ] ) ) oXtXmXiX7XuXMXMX6X6X6X6X6X6X6X6XdXfX9XfXfXnXnXmXGX=X9.6 1 1 1 1 :.$XmXmXmXuX7X7X8X8X5X5X5X9X0X9X9X2X&X&X&X&X0X-XiX0.V 1.7.7.E.E.E.E.E.E.E.!.W.[.'.'.].].].].z.l.d.d.p.p.s.s.s.(.'.[.I.'.'.].7.m } } } $.e., * & & q q q w * : 8 7 # w y y y e e r m #...#.=.=.m 1.].[.[.).P.(.s.f.f.x.|.d._ _ { +X}.}.}.}.OXOX+XOXOXOXOX[.[.[.{.E.6.) 1. XtXmXnX,XrX:XZ.Z.rXrX:XeXeXkXkXjX6X6X6XvXA.A.<X6X&X&.1 : 1 < 0.qXBXkXkXjXjXjXjX9X9XqXjX6XqXjXhXqX<X<X1X1X1XqX9X8X*X4.N ] L.I.T.I.Y.Y.Y.Y.Y.Y.Y.Y.Y.Y.Y.Y.I.I.(.).[ W [ a.d.d.{ I.[.[.E.W.7.;.%.o.X.X.X.X...# . 9 9 9 O o 8 +.m.B.o.# O $ q   . # 5 M .., } t m R L.T.G.G.G.^ / Q Q Q i.! ^ P.P.U.P.U.U.U.U.P.K.G.G.~ ' ' T U L L L c c C n 4.tXJXnX3XjX<X,X1XkXkXeXwXMXjXdXdXdXdXfXnXNXJX7XJXGX;.o o o o v.iX#X#X-X-X5XfXfXfXgXnXnX8X-X9X3X2X&X&X&X&X7X%XiXFXyXz.) ) ] ] L.I.L.L.I.P.' [ ( ( ( ( ( _ J ) ) 3.3.3.3.3.7.8.8.8.0.0.0.=.#.| | | } } < % % $ & O # 1 ,.m.m.m.,.7 # $ $   $ % m #...} ....6 7.6.{ ) 3.6.7.2.;.1.1.3.7.l.f.a.` 3.` ) ( U U U R R U U B B c n = m m *.:.0.-XGXmX8X7X9X9X5X-X-X9X9X9X9X0X6X6X6X0XMXuXuXmX=X;.o o O O O + > *.9.=XiXVXVXNXlXNXDXDXNXgXfX6X5XdXCX6X0XwX9X3X7X&Xv.3.] ] ) ' ) ) ) ( U U ( ( W E I z C #.$.X.O.X.X.",
"n C B G d.|.d.d._ _ ( ( ] ] ] ] L.Y.K.' !.] Y 1.tX-X5X6XdX9X7X7X3X>X5X5XdXdXdXdXfXdXgXfX8XVXVXnX-X9.> + + O O + : 2..XGXiXiXuX7X9X6X5X5X3X3X3X3X9X2X:X:X&XN.&X2X&XsX9.M 2.8.3.E.E.E.I.I.E.E.E.'.'.'.].].].].l.d.d.p.p.p.s.d.d.{ '.I.(.[.(.[.].C t $.e.e.#.r % &   9 q q q w : 1 : 5 w e y e x & r t #.#.$.$.#., 1.].{.[.[.).).(.l.x.x.|.|.d._ _ |.|.}.}.}.}.OXOXOX}.{.[.[.{.{.[.E.6.3.c.tXmX8X9X:XZ.Z.V.Z.:XrXeXwXwXwXkXMXjXwX1XvX<XxXhXwXb.1 1 1 1 1 7 b.8XAXMXCX0XCXBX6X6XkXhXhXhXhXhX6X6X6X4X0XwXqX,X>X&Xb.:.1.] !.Q.T.Y.Y.T.Y.Q.Q.Y.Y.U.U.Y.).).[.[.{ [ _ s.a.l.'.[ [ (.[.[.W.W.8.*.o.X.X.| | X.o ; .   . $ + 1 ..,.,.6 + O q   $ $ % > #.} | } } m Y L.T.R.G.G.H.^ / ! ^ u.^ ^ H.H.U.U.T.K.U.U.G.G.G.G.G.G.T ' T L U c c N n 2.#XiXnX9X6XqXqXqXqXqXwXwXpXMXjXgXfXjXfXfXfXCXCXVXmXc.+ o @ o + M 0.#X-XiXnX-XnX8X5XgXfXdX5X9XfX8X4X3X:X&X&X2X2X=X-XyXoX7.H ) ] ' K.K.K.~ ~ [ _ _ _ ( ` { { 6.7.8.1.;.;.;.;.;.2.2.2.:.:.-.&.O.O.O.X.X.#.> - & & & O 1 o.m.h.@.@.w.+.o.@ O $ & n m #.......X...;.K M M %.%.$.X.X.X.#.%.2.z.l.` 3.3.{ ) ( T L L P L I L B c k n = C *.*.9.$XiXiX9X9X9X6X5X5X5X8X7X7X5X9X9X6X0X0X9X3XpXVX=X>.@ o O O O + % = m *.c.*XFXJX8XVXNXgXlXlXfXfXfXfXfX9X8X9X8X8X5X3X;X&X.X6.Y ] ' ' ' [ ( ( ( ( W ~ G.~ A z ..X. . .X...",
"m V C H l.|.'.d.[ { ( ( { 6.] I.] I.K.K.!.] Y 4.tX5X6XdXdX6X8X8X3X5X5X6X6XdXdXdXfXfXNXfX8XVXGXiXv.*.: + O O O + O n ;.*XtXuX7X3X6X6X6X6X9X9X8X8X8X3X:X2X&XN.N.:X2XiX.X=.*.2.5.6.E.E.I.I.E.E.E.'.[.}.}.].6.` 6.l.d.a.p.p.a.a.6.6.'.I.(.[.(.'.].C t #.e.e.#.r - &     9 e e % > 6 6 m w e c e l j = t m #.X.$...6 2.W.{.Q.[.).).I.` l.l.l.|.d._ a.l.l.].].}.}.}.OXOXOX}.}.}.{.[.W.6.3.2..XiXNX6X6XZ.Z.Z.Z.Z.:X1XeXqXqXwXkXkXjXwXqXxX<XzXMXM.&.1 o + + o # %.v.uXJXCXpXpXjXwXjXjXhXhXhXjXjX6X6X6X6XuXpXqX1X1X<X&Xv.1.Y !.Q.L.Y.Y.Y.Q.Q.Q.Q.Y.Y.Y.Y.).).(.(.[ _ _ d.` d.{ [ [ (.[.'.Q.W.8.*.o.X.X.| | X.o ; .   . $ + 1 < #.%.: O O q     $ % > #...| X.} m Y L.K.R.R.J.H.^ ^ ! ! ^ Q Q / H.H.P.P.L.U.U.G.G.G.G.K.K.' ' U L U c k C M c.=XuXuX0X4X,XqXqXqXwXwXwXMXnXfXdXdXfXlXjXMXMXCXVXv.5 o O ; O + @ V .XiXmXFXAXfXnXfXdXfXNXNXfXnX9X9X4X2X&X&X:X4X2X-XtX*Xc.1.B ] ' ' ~ ~ ~ ^ W _ ` ` ` { 6.'.W.7.2.;.*.%.%.%.%.%.%.#.&.o.o.o.X.O.O.O.$.#.> - & - $ # 7 +.h.h.@.@.@.@.+.7 # O $ = r m 6 ..X.X.o.%.M 6 ..X.X.X.X. .X...%.1.7.6.` ` ` ` ( ( P P L P I I L b c k n n M *.2.v.=XiX7X8X9X9X9X6X6X5X8X5X7X9X9X0XqXqXqXwX3XCXMXb.7 o o O O O + % * n M 2..XyXGXuXVXNXlXlXlXgXfXfXnXnXfXuX9X9X9X9X5X>X&X#X7.) ' ' ' ~ ' ( G G W ~ / J.J.A C #. . . .| | ",
"#.#.m V 6.|.'.d.[ [ ( ( { E.{ I.L.K.L.L.!.] 8. XmXdXdXdX6X6X8X8X5X5X5X6X6X6XdXdXgXgXNXnX8XVXmX=X%.5 o O O o O O O O > 9.*XmX-X9X6X6X6X9X9X8X8X7X7X3X3X2X&XB.B.N.2XpX2X9.*.1.8.6.E.E.E.E.E.E.W.E.{.{.'.6.) ) 3.l.d.a.p.a.a.l.l.7.].'.'.[.E.].].M , } | } t > & &   . & e w % 6 ,.,.*.> r c e c k - t #.....X...#.2. X X].{.[.'.'.3.l.` a.d.d.d.|.{ 6.l.].].{.{.{.{.[.OXOXOX{.].W.6.1.7.*XnXCXjX,XV.Z.Z.Z.:XrX1XeX6XqXwXkXwXqXqXqXxX1XkX6X>.1 : o + + o o 1 %.M.GXCXCX9X0XNXjXqXjXhXhXjXjXqX6X6X9X0XpXwX1XqXxXdX7X4.1.5.!.L.L.Y.Y.Q.Q.Q.Q.Y.Y.Y.Y.[.).(.I.{ _ _ ` ` [ [ [ I.(.).[.Q.W.8.*...o.X.X.| ..O   .   . $ % o 1 6 > o O $   .   $ O > #...| .., m Y L.Y.U.U.U.U.P.^ ! ! Q Q Q / ^ ^ [ [ P.P.P.G.G.K.K.K.K.' ' L b B N N V 2.#XFXVX0X4X4X4XqXqXqXwXwXwXpXfX8X5X5XdXjXMXfX9XnX=X%.X o O O O + + 5 4.*XiXmXVX8XNXmX5X5XNXAXnXMXnX9X9X>X:X:X:X:X:X=X-XtXoX4.V Y ] T P ~ ~ ~ W _ { l.6.6.6.E.W.8.1.*.%.........#.#...o.o.o.o.X.O.O.-.&.#.5 * $ - % 5 &.,.@.@.@.@.@.@.w.o.: O O - > m 6 ..X.X.X.......X.X.X.X.X.X.X...M H 6.{ ` ` ` _ ( W P P L P L I L c c k n C M *.0.%XiXiX7X9X9X9X6X9X9XfXfX5X5X6X6X6X6X6X0XwX3XMX&X6 o 1 o O O O + % % > m M 4..XiXiXVXmXNXlXgXgXgXmXNXnXnXnXnXnXMXjX6X>X;X%X X5.] ' P.P.~ W W A W E / J./ W C ..|  . .| | ",
"$.$.#.*.7.].l.d.[ [ ( ( { I.I.I.I.L.L.I.E.5. X*XmXfX6X<X<X5X8X8X5X5X5X6X6X6XdX6XfXfXnXfXnXVX-Xc.5 # o + O O O O O O @ m v.iX-X7X3X6X9X9X9X8X7X7X3X3X4X4X:XN.B.N.N.0XpX#X;.*.8.6.6.6.E.E.W.W.W.E.'.{ ) ) 3.6.6.l.a.a.a.a.l.z.z.z.7.].].].7.7.0.%.} X.X.| #.> $ & & . $ - * < &.B.B.,.> r r q j & r m #.#.| | X.#.9.0. X].].].6.6.3.3.` ` d.` d.'.l.l.z.].].W.W.W.Q.[.[.{.[.[.E.6.6.2..XiXMXjXjX,XV.Z.Z.:XrX<X<X,X,XqXqXqXqX1X6X1XqXkX:Xb.7 o : o o o + + o # >.#XuXCXMX9XCXMX6XjXjXjXjXjXjX6X9X9X0XpXwX1X1XhXjXnX.X7.) ] L.L.I.I.I.Q.Q.Q.Y.Y.).).[.(.I.{ { ` _ ` [ _ _ { (.I.Y.[.E.W.8.*...o.X.X.| #.O     9 . $ % + < %.M @ o O   .   $ O > #.#.} .., m Y 5.I.Y.U.U.U.P.^ ! ! ! Q Q ^ ^ ^ ! _ [ ' K.K.K.K.K.K.K.' T U B U N N V c.=XGXmX7X0XwXwXqXqXqXwXwXwXuX9X5XdX9X5X5XfXfX8X&X>.o o @ O X ; O @ > n 2.*XnX8XfXmXgX-X>XfXNXfXMXnX9X9X3X:X:X:X:X&X&X-XtXyX X1.Y T ' P P ~ ~ W ' { { { { { I.6.8.2.*.#.....o.o.$.$.$.&.&.&.o.o.O.X.$.$.%.m * O - 5 %.,.m.@.@.@.@.@.@.w.,.6 + O % > m m ..........X.X.X.X.X.| X.X.o.6 M H 6.l.` _ _ W W W L P P P I I L c c k n V M ;..XtXiXiX7X7X5X5X6X6XfXfXfX5X5X5X3X3X4X4X3X9XuX=X,.1 o + # O O O % + % * > m *.9.*XmXGXnXnXlXgXgXlXNXNXNXMXMXMXCXCXNXjX5X>X-X*X].] ' P.K.~ W W Z Z a g g g A C 6 |  . . .| ",
"$.$.$.=.z.].d.d._ [ ( ( I.I.I.Y.Q.I.L.I.5.6.XXtXnXfX5X<X<X5X5X5X9X6X6X6X6X6XdXdXfX5X8XnXVXnXv.6 @ + + + O O O O O + + o %.#X-X-X;X3X3X9X9X8X7X7X3X3X4X4X:XN.N.N.B.sXpX7X0.*.;.8.5.5.6.E.E.E.!.E.{ ( B ( 3.6.6.` ` ` ` 3.3.4.4.2.8.0.8.7.4.2.9.&.X.-.-.-.&.m % & ; ; ; + : o.,.m.B.,.7 > w q k w n #.$.$.X.| X.X.&.2.2.2.8.1.*.;.M H K G ` ` ` '.'.l.z.W.W.W.W.!.I.Y.Y.Y.E.E.5.5.4.0.=XGXnX6XqX<XZ.Z.:X<X1X<X<X:X<X1XqXqX1X<X,X<X>XBXb...: o @ O O O + @ # o : %.%XMXCXMXCXjX6XjXxXjXjXjXjXjXjXwX0XwXwX1X1X1XqXfXiX.X) Y E.E.I.I.I.E.!.Q.Q.Y.(.(.I.{ { { { ` ` ` ` ( ( I.(.I.I.Q.W.W.8.%...X.X.X.} #.O     9 . $ O @ %.9.9.6 1 O &   & & $ = m 6 , .., m 1.] ' P.R.R.R.K.( W W D ! ! ! ! ! W A ( ' ' ' K.K.K.K.' ' T U U B N B 1.*XiXuXiX3X9XjXjXqXqXqXwXwXwX9X9X5XfXdX3X3XnXMX8X9.1 o # # o O O O + @ # 6 c.-XmXmXnXfX8X-X>X5XfXnXnX9X9X4X:X:X:X:X:X&X=X7X=X#X~.N T ] ' P ~ ~ ~ ' ( ( ( { { I.{ 8.2.=.#.o.o.X.X.X.X.X.$.&.&.%.o.$.X...#.%.m * O # 6 ,.,.@.@.@.@.@.@.@.w.,.o.: O + > M #.m m #.$.$.$.$.X.X.X.| | o...6 m H 6.l.{ _ ! W E W ~ ~ P P I L L c c N C V *.0.*XiXiX7X7X7X3X5X5X9X9X9X9X6X6X6X4X3X>X3X3X9XMXb.: o + + # + O O # # + * = m M ;.v.FXGXmXnXlXgXgXgXNXNXNXmXMXNXNXBXBXlXdX5X-X=XXX3.T ~ G.H.^ Q Z a s g d g Z B m }  . . .| ",
" .$.$.=.7.l.` _ [ [ W ' I.(.I.[.Q.L.L.] ] W.*XaXuX6X5X<X<X5X5X5X9X6X6X6X6XdXfXdXNX8XnXVXmX%X>.: @ + + + O O O O O @ + o : :.iX-X&X&X3X7X8X9XuX8X0X4X4X4X:X:XV.N.B.N.0XpX$X:.*.1.1.1.5.6.5.E.!.E.{ ] ) ) ) 3.3.3.l.3.3.H ;.*.%.=.=.2.=.=.=.%.&.o.X.-.-.-.&.m % $ ; # @ : ..+.m.m.m.,.o.6 > - c w m =.=.$.X.X.X.X...$.#.#.=.%.#.%.6 M C H { d.d.'.'.'.6.6.W.W.!.!.I.Y.I.I.] ] 1.1.7.#XuXCX9X,X1X<XZ.:XrX<X<X<X<X:X1X1XqXqX1X,X,X,X&X:X>.1 1 # O O * + + @ # o o : 9.&XCXCXMX9X9XjXjXjXjXhXjXjXjXjX4X0XqXqXqX<X6XfXGX*X4.Y 6.Q.E.E.E.E.E.E.E.E.I.I.{ { { { { { ` ` { { { '.'.'.E.].W.~.8.%.....X.| } #.O     9 . O o , >.b.b.>.7 o & & & $ $ * 6 6 , ..6 %.2.3.] I.T.T.K.' ' ( ( _ D ! _ _ _ _ J ( ( ' ' ' ' ' ' ' T T U U U B Y c.aXuXuX7X0X9X9XqXqXqXqXwXwX9X0X9X3XfX9X7X9XMX8X%X7 o o + o O * O # O + * 5 M v.mXmXnXnXnX8X;X-XdXnX9X9X9X4X:X:X:X2X:X2X=X=X$X$X.XY R T T P P ~ ~ ( W b b ( { (.I.8.2.*.#.o.X.X.O.X.X.X.$.&.=.%.%.$.$.#.#.%.V 5 + @ &.,.w.@.@.k.@.@.@.@.@.,.>.7 # + n *.*.M M *.=.#.$.$.$.X.X.X...o...6 M H 6.6.{ ! Q E E E ~ ~ P L I L L B N N C V 2..X=XiX7X7X8X7X3X5X5X5X5X5X5XdX6X6X6X6X6X9X9XuX=X%.o + @ O # + O O # # + % * n m M 2.iXGXFXmXNXgXgXgXlXNXNXgXMXjXNXBXDXlXjXdX>X-X*Xz.( P ~ ~ ^ / Q a s s d s Z A C m e.} | | ",
"X.$.#.%.3.` D _ _ [ W ' I.(.Y.[.Y.] L.{ 6.XXaXiX8X5X6X6X6X6X8X9X6X6X5X6X6XfXfXfXNXfXVXGX%X9.6 @ + + + + O O O O + @ + + + 5 iX-X&X;X7X7X8XuX9X9X9X0X3X:X,X,X:XN.B.:X:X4X2Xb.;.;.1.1.1.5.5.!.!.E.E.6.) ` 3.3.6.3.z.x.;.M m m ..#.#.=.$.&.&...o.X.X.O.O.X.&.m % O + + : o.+.w.h.h.h.m.+.o.> * N r m #.$.$.X.X.X.X.X.$.#.#.$.X...o...%.M H l.'.(.'.(.{ 6.5.5.!.!.!.L.Y.I.I.] ] 1.1.v.7XCXjX6X1X:XZ.:X:X:X<X<X<X<X<X1X1X1X1XqXqXqX6XN.,.7 1 + @ O O * % + + # + + # 6 9.-XCXuXfXMXdXjXjXhX6XqXqXhXjX6XqXqXqXqX1XqXjXCXaX.X5.6.W.E.E.E.E.E.E.E.E.{ { { { l.` ` 3.` ` 6.7.l.].].].].].7.0.4.&.| | X.| } #.O       $ + < o.,.m.n.,.o.7 5 & & & & n *.%.......%.4.2.1.6.' K.] ' ) H H H G G _ _ _ _ _ _ ( ] ] ] ' ' ' ' ' ] U U B V 8.*XFXuXiXuXuX9X6X6X6XqXwXwXwXwX0X9X3X0X9X3XuXMX#X>.o o o o o + % O * O O > > > ;..XiXnXmXnX8X8X8X8XfX9X9X9X4X2X2X4X4X:X&X=X=X$X#X$X8.) U U ~ P ~ ~ ' W b v L [ (.(.6.2.;.o.o.X.X.O.O.O.X.X.#.#.m m #.#.#.m m m > + : &.m.w.@.@.k.@.@.@.@.@.w.,.%.: + > m m m n C C 5 5 6 6 ..o.X.o.......m V 1.5.` E f a a E / P P I I L N N N V V ;.0.*XiXiX7X7X0X9X3X3X3X7X7X-X>X6X6X6X6XjXjXMXnXuX:.@ # # + # % # + O + # + + * > m M *.*XaXFXGXmXgXgXgXgXlXgXgXfXfXlXBXZXBXlXhX<X5X-X.XE.' ~ ~ H./ Q f s p p p a Z G C m t , , ",
"$.#.m M K J D p.! ! W W I.Y.Y.Q.Y.L.I.6.7.*XFXmX8X6X6X6X6X9X9X9X5X5X5X5X6XdXfXMXnXfXJXGXv.6 : : + + + % ; ; ; % % + o > o o tX=X-X7X7X8X8X8X8X9XMX9X2X:X,X,X:XN.B.:X:X&X2X$X:.:.1.1.5.5.E.!.!.Q.{.6.H ( 6.].].z.XXz.;.M 6 ....X.X.-.$.$.&...X.X.X.O.X.X.&.#.> % + 1 < +.m.h.@.h.h.j.h.+.< * n r > m #.#.X.X.X.X.$.$.$.X.-.X.X.O.&.%.M ;.6.'.{ [ (.{ { ] ) ] L.I.I.Y.Y.E.E.5.1.2.#XCXAX4XeX1XZ.Z.:X:X<X<X<X<X1X1X1X<X<XqXhXxXxXjXM.: : : + @ O % % % % % # # # @ o %.#XuXuXMXAX9XjXjX6X6XqXqXhXjXjXjXqXqX1X1X1XwX8XGX-Xz.6.5.] { { { I.6.6.6.6.{ { l.l.` ` ` 3.1.3.7.7.7.7.7.7.7.4.9.:.o.| X.X.X.} #.O &   . O 1 o.,.m.D.w.m.,.+.5 - % % - M 2.2.&.&.o.&.:.*.C B B U B C C M M C z z b b W _ _ ( ] ] ] ] ' ' ' ' ' ] Y U V V c.aXmXuXuXCXMX9X3XjX6XqXwXwXwXqX0X0X3X0X3X3XuXuX9.: o # o o = ; X % O O O * * 5 M 4.=XnXmXnX8XnXnX-XfXfX9XfX6X3X,X4X2XsX$X=X2X$X$X*X X] b L ~ ~ ~ ~ [ ~ I v v W P.).6.8.;.%.o.o.X.O.O.X.| < < : > > % > > : % @ + o : &.w.w.@.@.@.@.@.@.@.@.m.m.>.7 o + + + % % $ O ; X O # : 6 } | ....6 m C ) ) W E g g a E E E I I I L B B N C *.;.c.=XiXiX7X7X7X9X9X4X3X3X-X;X;X<X<X6X6XfXnXMXVXiX: X 5 @ O = % # # O + ; O + % * C V M #XyXaXGXmXgXgXgXgXgXgXgXfXfXfXlXBXZXlXlXhXhX8X*X XE.' ~ ~ / E g s s p s s a S A B n m m ",
"6 M K K J _ ! ! s.W W ' I.Y.Y.Q.Q.E.] 6.XXtXGXnX9X6X6X6X9X9X9X9X9X9X9XdXfXfXfXMXNXnXJX%X4.6 : # + ; % ; ; ; ; % * - # # # : :.=X7XuXmXmX7X7X8X7X9XwXwX4X:XeX,XB.,.N.N.:X:X&X$X:.2.8.8.7.E.E.!.E.].6.) ` l.}.|.z.XXc.;.6 ..$.X.$.$.$.$.$.X.X.X.X.o.o.o.&.=.m > % + 7 o.w.h.h.h.k.j.h.m.,...> r w r #.=.#.$.-.-.X.X.X.X.X.X.O.O.O.X.$.#.*.6.E.{ s.s.[ [ [ [ [ L.K.L.Y.I.E.W.5.1.0.7X0X4X<X1X1XrXZ.:XrX1X1X<X<X<X1XvX<XvXkXhXxXjX&X..5 : + + @ % % - - - - % % * # : + ;.%X-X8XCXMXjXjXdXdXhXjXhX6X6X6X6XqXqXqXqXqXjXAXFX*Xn V 5.) ( ( ( ) ) ] { { { d.` 3.` 3.z.;.:.:.*.*.*.=.=.=.&.&.X.X.X.X.X.X.} m % X ; O 1 < ,.w.@.h.h.@.@.w.&.> + @ > > #.#., } } ..6 , > > = r n , < < > 5 n N b b b b L U ( ( ' { ] ' ' L.] ] ] B V 8.*XGXuXnXMXMX9X9XfXjXdXwXwXwXqX6X4X4X3X9X3X3XuXM.6 o + + + + # ; ; ; O % % % + * n M c.*XFXmXnXnXVXnXfXfX8X8X9X9X4X4X2X&XsX&X=X&X=X=X*X6.b L ~ ~ ~ ~ ~ ~ E a i E ^ P.(.6.1.M ..o.o.X.X.X.< 1 @ O O X O % O O O o o o : o.,.w.@.@.@.@.@.@.@.@.w.,.>.7 7 : + O % - $ . . . X O # 6 ..} } ..#.M B ( W Z a a g a g E I I L L c N V C V 8.4.%X-X=X-X7X7X0X4X4X4X4X3X7X=X&X>XhX6X3XMXnXiXGX#X5 + n = ; = - * # # # # # % O * n m C 2.*XaXFXKXNXNXmXgXmXNXNXgXlXNXZXDXBXlXdX1X:X4XiX.X7.] ' ~ ~ / Q f a s h p s s Z A b N n ",
"z G J J g.p.i.u.s.^ ~ I.[.Q.Q.Q.!.E.6.].oXmXmX8X6X6X0X0X9X9X9X9X6X9X9X9XfXfXnXnXVXCXGXc.%.: # @ % % % ; ; $ - - 5 = # @ @ # M c.iXiXiX7X0X7X3X3X9X6X0X2X:X:X:XB.+.B.N.:X4X2X2X0.9.2.8.8.E.E.!.!.].6.` ( d.|.|.]. Xc.;.6 ..X.X.X.X.X.X.$.X.X.X.X.o.o.o.&.%.6 % O @ o.,.m.h.h.k.k.k.h.j.m.,.6 r w n m m 6 ..$.&.&.&.$.$.$.O.O.O.O.X.$.#.1.W.'.[ [ s.^ ^ ^ [ [ [ ' Y.Y.I.E.6.1.2.M.4X:X:XZ.:XrXZ.Z.:X,X1X1X<X<X<X1X<X1XhXxXlXBX>Xb.: : @ + % * % - - = = - % * * # + @ 6 0.iXGXCXMXjXdX6X6XqXhX6X6X6X6X6X6XqXqXqXqX6XMXVX-X*.V Y U U U ( ( ) ) ] { ` ` ` ` ` ;.4.*.%.o.%.%.%.&.&.&.&.X.X.O.O.O.O.X.} t % O ; o 1 O.w.@.@.@.@.@.@.w.,...: + @ t m , , } ...., , , > > > , , , < < , m N B L b b I b b B ( ] ] ] K.L.' ] ) V *.c.=XGXuXnXMXMX9X9XfXjX9X9XwXwXwXqX0X4X4X9XuX7X#X>.: o + # # % # ; $ ; O % % % + * 5 M %.c.tXmXnXnXnXfXmXnXfX9X9X9X4X4X:X&X&X2X2X2X2X-XtX X( L ~ ~ ~ ~ ~ ~ E a i a f / ! ( K M 7 o.o.X.X.X.< o + O O O O $ O O O @ 5 6 ..o.,.@.@.h.k.@.@.@.@.@.@.m.n.,.9.9.4.*.n $ $ &   2   O @ 6 #.#...#.V G A ! f s h h g g f E I I L L c N V V <.7.c.=X7X-X-X7X7X3X3X3X0X9X0X7X7X;X&XqXjX9XfXnXuXiXc.> + n = % = - - - * # * * # % * n m C ;. XyXaXmXVXVXmXnXgXgXgXgXfXlXDXDXZXBXxX1XZ.:X0X$X~.5.T ' ~ E E E f a s p p p s a Z b b ",
"D D g.p.i.i.i.u.s.[ I.[.[.Q.Y.Q.Q.E.6.XXtXFXfX5X6X9X0X0X9X9X9XdX9X9X9XdXfXfXnXnXCXJXmX=.6 @ + > % % % % % - - - 5 5 # @ * # * M =XiX7X-XuXuX7X9X4X4X6X,X:X:XsXm.o.m.N.Z.:X0XwX#X0.4.2.8.7.W.E.E.].l.` _ _ d.|.|.z.c.=.....X.X.X.X.X.$.$.$.$.$.&.&.o.o.&.=.M > @ < &.,.h.h.k.k.k.k.k.h.h.,.o.> r m M %.%.#.#.#.#.=.=.$.$.X.O.O.O.O.$.#.<.W.(.[ u.^ ^ / ! ^ ~ ~ ~ ).I.I.].5.;.0.&X4X:XZ.Z.Z.<X<XZ.:X,X1X1X<X<X<X<X1XxX<X,XBXCXM.%.1 + @ @ * % - - = w w = - - - % + > + 6 *XGXnX9X9X6X6X6X6X6X6X<X<X5X6X6XqXqXqXqX6X6XCXuX4.C C U L L U U Y ) ) ) ` d.a.d.` 1.2.%...X.X.X.X.X.X.X.X.X.X.X.O.X.O.X.$., @ + + 1 | w.@.@.@.@.@.@.@.@.w.&.< 1 + t m > , , } } , , , , 6 , , < | | | < m N N L I I I I b b ( ' ] ' ] I.] ] ) V 2.#XiXCXuXjXMXjX9X9XfXfX9X9X9X9XwXqXqX0X0X3X7X&X4.: o # # # - % - - & % O ; % % % * > 5 5 :.%XmXmXnXnXnXnXfX9X8X9X9X4X3X2X&X:X2X2X2X2X-XyXXX` b L ~ G.~ ~ ~ W E i h s a a Z A z M 7 o...o.#.@ o O O O O . $ O O n ;.c.M.b.n.,.@.@.@.@.@.@.@.@.@.w.m.C.N.&X%X*X.X1.- $ q   . . O > M #., m M G A Z s p p h h g g E E I I L c c N V V <.0.v.-XiX-X7X7X3X3X3X3X0X9X9X7X7X3X,X6XjXMXuXVXmX*XM # - n - - w - = - - - - - * % % > C M V 2.XXyXmXmXVXVXNXNXNXgXgXgXgXNXDXDXNXjX1XZ.N.sX#X0.8.R ] ' ~ E E Q E a p p p p s s Z Z ",
"p.i.i.i.i.i.i.^ [ { I.[.[.Q.I.I.Q.!.W.*XFXVXfX5X6X9X0X9X9X9X9X6X9X9XfXfXfXMXMXMXmXJX-X6 5 > @ * - % % % - - = = = 5 - * = # + > 0.7XiX=XuX8X&X3X9X4XqX4X:X:XsXB.o.,.B.N.N.4XwX2Xv.0.2.8.7.W.W.E.].'.{ _ ! s.d.l.z.7.=.....X.X.X.X.$.#.#.#.#.#.%.*.%.%.%.%.m * + #.,.w.@.k.k.k.k.k.k.h.h.m.o.> n - * > m m 6 6 m m m , , ..X.O.O.O.X.m V { (.^ /./ Q E / ^ ~ G.K.Y.L.E.].1.2.#X2XeXrXZ.Z.rX1XqX,X<X<X1X<X<X<X<X1XhXkX,X>XCX7X:.: + @ * * - * - - = k n = - - - % + > + + 2.=XuX8X9X6X6X6X6X6X6X<X<X5X6X0XqXwXwXjXhX6XjXMXb.M C ) L W T T Y Y ) H ` ` ` l.3.3.8.#.X.X.O.O.X.X.X.X.X.X.X.X.X.X.X.X.$.t * + o < O.w.@.@.k.k.k.@.@.@.m.,...1 + m m > < , , } , , , , 6 6 , | | | | < t n N c I I I L b U ( [ ] ' ' L.' ] Y V 0.=XCXpXwXwXjXjXfX9XfXfX9X9X9X0X6X4X4X4X0X&X%Xv.M # # # - - - - & & & - $ % % % % % = > C ;.c.=XmXmXnXnX8X8X8X8X9XfX9X9X8X3X2X&X&X&X&X&X%XoXz.G b ' K.~ ~ ~ ~ E a a s h a a Z F F K M 6 M %.* + $ O ; . . $ $ = 2..X=X-X:XN.B.m.@.@.@.@.@.@.@.@.m.B.V.V.;X%X%X*X7.k . & . . . . - n C 5 H G A a s p p p h a g E E E L L c N N N V *.2.0.#X-XiX7X8X9X4X0X2X3X0X9X9X0X7X2XqX,X6X9XuXGXtXc.5 - 5 n - - k w = = = = - - * % % * n V V *.0.*XtXnXmXmXVXJXAXNXgXgXlXNXBXNXfXdX1XZ.N.M.M.0.7.5.' ' ~ ~ ^ W W E s p p p p p a a ",
"i.i.i.i.i.u.^ [ I.I.Q.[.Q.Y.Y.Y.Q.!.].yXKXNXgXdX6X6XwX9X9X9XdXdXfXMXnXMXMXMXMXMXVXGX#X: > > + + - - - - = 5 4 4 - 5 5 = > * + : > #XaX=X=X=X%X;X4X3X6X4X:X:XsXB.,.B.N.B.B.:X4X2XM.0.2.2.7.W.W.E.'.'.d._ ! ! s.d.x.7.;.....X...o.....6 t t t t t n n C M C 5 > > %.,.m.h.k.k.k.k.k.k.j.S.S.+.@ * n w = > > : > n > > > : < ..X.X.X...M H { u./ i.g g f E ^ P.P.K.L.] E.5.*.0.&X2XeXeXrXrXeXkXkX<X,X1X1X1X<X<X<X1XhXjX6XMXmXv.6 : > * * * = - - $ = k k k - - - * * * @ + > c.uXCX9X9XjXhXhX<X<X<X5X5X6X9XwXwXwXwXzX1XkXMX#X*.V Y L ~ ( T Y Y Y G G _ _ ` ` 1.2.#.X.X.X.X.X.X.X.X.X.X.X.X.X.X.X.$.#.m > o o ..,.w.@.@.k.k.k.@.@.@.w.,.+.< 1 m *.t > r t #.#.m t > > , < , | | } < m C N c v v v E L L ( [ L.' ' L.' ) V *.v.iXCXwXwXqX9X9XdXdXfXfX9X9X6X6X4X4X,X,X3X&X#X4.5 # = ; - - & & & & & - % % % % % % * - M M ;.v.tXKXmX8X9X9X9X9XfXnXnX9X9X7X3X3X;X&X&X#XM.*X.X3.U T ' P ~ ' ~ W E a s h s s s a F F G G V V = ; $ X ; . . . . k c.tX=X#XsXN.N.B.h.@.@.h.@.@.@.m.m.C.C.V.M.M.%X*Xz.4 .         . . k H a.D D a s p p d d h a f E E L L b B N N C *.*.2. X%X8X9X7X9X0X6XqX3X4X0X9X0X7X-X=X4X&X2XuXmXFX.XC = 5 n k - = n k k k n w = - % % # # > C V V 2.c.tXmXFXmXmXVXDXgXlXgXgXgXNXNXnXdX6X:X:XsXM.v.0.5.U ' ' ' W W ( W E s p p p p h h ",
"f Q Q i.^ u.s.(.'.[.{.Q.Q.Y.Y.).!.!.XXtXmXgXdXhX6X9XwXpX9X9X9XdXjXMXMXMXMXMXMXCXJX-Xc.# : > @ * - - - w n n k 4 5 C n 5 5 = @ : o 0.=X=X=X&X&X;X&X&X>X4X:X:XN.B.B.B.B.B.B.:X2XwX#Xb.4.2.6.6.E.E.'.'.d.[ ! ! [ [ l.7.;.#...........6 6 > r r w w % & & - - # * : , -.m.h.k.k.k.k.k.k.k.h.h.o.@ % = = = = = - - - = = * + < ..X.o...%.H ` s.^ g f g g f / ~ P.L.K.L.] ] V *.v.2X4XrXrXrX1XeXkXjX6X1X1X1X<X<X<X<X1XhXqXMXCX-X:.< : > * # * = = - & 4 k n k = = = - % + > > o %.=XCX9XfXjXhXhXdXqX6X6X6X9XwXpXpXwXwXhX1XzXNX7X0.*.B P ~ ~ T Y Y ) ( G _ _ ` ` 1.8.#.X.X.X.X.X.X.X.X.X.X.X.X.X...$.#.m m = O # &.w.w.@.@.@.@.@.@.@.@.@.w.,.7 + n V r % > t t m > > > > : < , } } } , t n c b v Z E E b L ' ' K.K.K.K.' U Y 8.#XuXpXqXwXqX6X6XdXdXfXfX9X5X5X3X3X,X:X2X>X-X#X%.# o * - - - & & & - - = - - - % % - - * n 5 M 9.=XKXVX8X9X9X8X5X8X8X5X7X-X3X8X9X8X5X&X%Xb.#X#Xc.) R T T ' ' ' W E a a h p p p s u l F A G ( q . . X X . . . . k  XtX-X#XM.N.Z.N.m.@.@.h.@.@.m.m.V.V.V.C.M.%X-X*X3.; X & q   . 9 b ! ! S a s s s p p p d g E E E E L b b N N n C *.*.2..X-XnX9X7X5X9X3X4X3X4X0X0X0X7X2X-X4X:X2XCXGXtX4.# 5 C N k - = 5 n n n n n w = - % * # * C V *.1.4.yXFXGXGXmXVXNXgXgXgXgXgXNXNXNXNXdXhXjXqX&X$X.X8.B U ' ' W U U ( W E s p p p p h ",
"Q Q i.i.^ [ P.E.Q.W.W.Q.Q.Y.Y.Y.I.{.yXbXmXdX5XhX6XwXwXpXwX9X9XdXfXfXnXnXnXnXnXnXiXv.:.: > > > > = w w n N N n k k C C n n n = * + #.0.=X7X=X&X;X&XV.&X:X:X:XsXB.B.n.B.B.N.rX:XpX2X#X0.4.3.6.6.'.'.(._.^ Q Q ! _ 6.7.;.%.&.o.....M M n r w w e y e q $ & 4 5 5 5 &.,.@.h.k.k.k.j.j.j.k.h.D.+.:.2.n k = $ % w w - - w - % : 6 o.o.o.H K _ ! f g g g g f / [ P.L.L.L.] Y Y 0.=X4XeXrXrXrX1X1XqXqX6X1X1X1X<X<X<X<X<XxX6XMX7X0.6 : : > > = = = = = - 4 k n k k k 5 = * * * * # 5 4.#X9XfXjXxXhXqXqX6X6X6X9X9XpXpXwXeX1X1XxX6XCX#X8.Y ~ ~ ~ T R Y Y ( ( _ _ _ ` 1.8.#.X.| | X.O.X.X.| | < < < , , , , > * - * > :.w.w.@.@.@.@.@.@.@.@.@.w.,.o.@ > n - $ % % * % + % % % * > , , } , , r n b b Z Z a S W L ' ' K.' K.K.T U )  X7XCXpXeXwX6X6X6XdXdXfXdX5X5X3X3X4X4X4X4X3X&X9.7 # # = 4 k k k j k k k k w = - % - - - - 5 5 m ;.v.-XmXmX9X6X5X5X5X5X-X-X;X8X8X8X9X9X5X;XM.M.%X.XW.T T L.T ' ' W W E E a p p p p s u u Z L ( j & & . . X .   . - 3.oX=X&XsXsXZ.Z.m.@.@.@.@.w.m.N.V.&XV.C.V.%X%Xb.M ; X q 9 9 9 v ! i.f p p p p p s p g g / E E E I I c c c N C C *.2.0.#X7XnX8X3X5X3X>X4X4X4X4X2X7X7X7X7X0X0X0XuXiXv.M = n C n 4 - - - w w n n n n w - - = * * n V V *.1..XtXFXKXFXVXVXgXgXgXgXgXmXNXNXNXgXlXNXjX2X7X*X X) ( ( ( ' ' ) ( ( ! f f d p p p ",
"i.u.u.u.[ [ I.I.E.Q.Q.E.E.Y.Y.I.E.XXaXFXmXdXdXhX6X6X9X9X9X9XdXdXdXfXfXfXfXfXfXnXM.%.M : > @ * = w w w N C B N k k C C n C C > * > + m #X7X&X$X&X&XN.&X:X:X:X:XB.B.,.B.B.:XeX:XwXwX&Xv.0.7.7.6.'.'.'.(.[ ! ! ! ! _ ` 3.;.:.&.&.%.M n n w w e e y e q j ) XXyXFXIX3XV.m.h.j.k.k.k.k.h.S.S.A.vXVXFXIXaX].k $ & q & & & & ; * M &.%.K J D Z a h p g f g / / P.P.L.' ] ] Y 4.*XuX,XeXrXrX1XrX,X6XqXqX6X1X1X<X<X<X<X<XzXwX9XM.m : > , > n n n 5 = = - 4 k z n k k k k > r * @ > # : 4.uX9XjXjXhXqX<X6X6X6X9X0XpXwXeXqXeX1XqX:XGX7X#X8.' ~ ' T R R U U ( ( A _ ( ) 5.M ..| | | X.X.| < 1 1 + + + + + + > + - n 6 :.w.w.@.@.@.@.k.@.@.@.@.m.,.o.: # % X $ $ $ % O O O O O + > , , , , , C V ( E S s s u W W ' K.K.P P T U U 5.oXFXGXMXwXjX6X6X6XfXfXfX9X3X3X>X>X4X4X4XqX8Xv.7 1 5 n 4 k k k k k k k k k k w - % - - - - - 5 5 5 ;..XnXVXnXfX9XfXnXnXfX9X9X9X7X;X-X9X9X9XwX3X7XyXXX) U ] T ' ' ' ' [ ^ Q s s p s s u u a u W v x j & . X . q ; X 5 >.b.M.:XsXZ.Z.N.m.@.@.w.m.N.V.&X%XC.C.C.n.,.o.7 o ; 4 i v E E h p p t.p p p p g f / H.~ ~ ~ L I b c c N C V *.2.0..XtX7X9X7X-X5X6X4X0X4X4X3X7X7X0XuXuX9XpX7X%Xv.;.5 C k n k - = - ; = w k n n n n n n > - * > C V *.*.2..XtXFXmXKXVXgXNXgXgXgXnXnXnXnXlXgXdX>X>XuXiX*X6.) ( ( ' ] ] ] ] [ Q f f g g s ",
"^ ^ P.P.I.Y.L.L.I.Q.I.I.E.I.I.W.7.*XFXmXnXmXfXfXdXdX6X5X6X9X9XfX8XfX5X5XjXfX7X8X9.%.5 5 5 = - k n n N B B N k k n N C C C n n > * > + %.=X2XM.&XN.N.&X:X,X0X2XN.,.,.B.B.N.,X:XeXlX>X&X4.:.0.7.W.].{.[.(.[ ! ! u.p.p.J ` 3.4.:.:.*.n = w k e e e c & k ].FXFX-XgXdX<XC.m.h.j.k.k.k.h.m.vXfXdXDX-XGXIX.XN &     j & & ; ; # n H l.i.t.s s s s f f g f H.H.P.K.L.L.5.Y 8..X=X0X4XrXrXrX:X,X4XqXqXwXqX6X,X<X<X1XqXqXjXNX;X&.> > O 5 n n n n 5 4 4 - 4 k B z z N k k > > = * # @ > 5 #XGXpXpXMX,XBX1XqXqXqXqXqXqX4X4XeXwX4X:X0XMX&X0.) L L ' T T ' T L W _ A _ _ _ B #.| X.X.X.X.} 1 + O ; $ $ $ % % * % 1.2.;.,.+.@.@.@.@.@.@.@.@.h.+.w.+.D.n.b.:.O $ $ O $ & ; X ; O + > , } } , 6 H G S a s s s s E ~ ~ K.K.' T R U V ;.tXmXuXuXMXhXdX6X9X9X9X0X9X6XV.>X:X:XjX4XpX-X;.5 n = k N k k k k k k k j k k k k - - & & - n * 5 M M 4.=XJXmXnXnXnX9X8X9X9X0X0X0X9X3X7X5X9XMXuX-X=XoX7.U T ' ' ' ' ' ] ] _ ( ! ! Z u h h s h s a E A z & X & $ O 1 8 o.+.m.Z.N.sXrXN.w.w.@.@.B.N.&X=X&XN.B.m.m.@.h.+.8 # . Z a s s s s d d d p g f ^ P.P.T.K.' P L L L c c n C V *.2.0.$XiX=X-X3X3X;X;X3X9X0X9X9X0X0XuXuX8X9X3XiX*X;.n C C k n k & - 4 4 & & k N N n n k - = = * > m V *.<.1.~.*XaXFXFXmXnXgXgXfXgXnXMXMXnXgXgXgXfX9X9XuXiX.X1.U ] ] ' K.K.~ ~ ^ ^ / E f a ",
"P.P.P.).Q.Q.Q.Q.L.L.L.] I.{ ] 6.0.=XFXmXnXnXfXdXdXdXdX5X6X9X9XfX8XfXfXfXfXfX3X&X>.6 5 > 5 5 k n N B B B B c k & k N C B C C m n = > + m #X2X&X:XsX&X:X:X4X4X;XN.,.,.B.B.N.:X:XqXhX>X&X9.:.0.8.W.W.'.[.'.[ _ ! u.u.p.g.J J 3.3.4.3.1.B k q q x e q $ k z.FXFX-XgXPXvXA.S.h.h.k.k.k.h.C.MXmXmXDXdX7XIXyXn & j     4 & ; ; 4 z G ! f d p p s s f f f / H.H.K.' ' ] 5.<.4.#X2X6XqXrXrX:XrXeX0X4XqXwXqXqX1X1X1X1XhXqXjX9XM...: > @ n n n n n 5 4 4 4 4 4 z z z N N n n r = - - * * > 4.pXCXCXCX4XkX>XqXqXqXqXqXqXeX4XqXkXqX4XwXBX:Xv.` ( ( ' T T ' T P W W D D ! ! D M ....X.....} < + $       $ $ % * *.*XyX.Xb.m.@.@.@.@.@.@.@.h.h.h.D.D.V.dX8X*X7.- $ $ $ & $ X X ; % @ > , #.%.V G D a s s s s f E ~ ~ K.K.T T U V V ;.iXmXmXuXnXhXhXjXwX9X9X9X9X>XV.,X:X>XMXwXpX*XV > n n n B k c k k k k k k k k k k 4 & - & - = % = m M ;..XFXmXnXnXnX9X9X0X9X0X0X0X9X3X3X3X8XpXnX7X=X*Xz.B ( ' ' ~ ' ' ] ) ) 6.6.d.[ Q a s s p h a S ! A j & . ; 5 8 +.+.h.m.S.m.N.Z.N.m.m.w.w.B.&X&X&X&XB.m.m.h.h.h.m.+.8 4 S s p p p d d d g g g / P.Y.Y.I.L.K.' T T U B B n C V ;.2.v.$X7X7X3X3X3X3X3X7X3X7X9X9X7X7XuXuX9X9X8XiX*X1.n C N n k 4 - 4 4 4 & & k k k N N n 5 r = = r C V <.<.<.7.XXtXFXFXnXnXgXgXdXfXfXMXMXnXgXgXgXdXfXuXiXiX*X7.Y ] ] K.G.H.G.[ P.[ ^ ~ / E ",
"_._.(.).Q.Q.!.Q.L.L.' ] I.] ] 5. X=XFXiXnXnXdXdXgXgXdXdX9X9X9XnXfX8XnXfX3X9X3Xv.%.6 5 5 5 = k N B B Y B B k q & k k N B V C C m n = + > 4.=X2X2X:X:X:X,X0X4X2X:XB.,.,.B.N.:X:XqX1X<X>Xb.9.2.2.8.E.'.'.'.{ _ _ _ p.p.g.g.g.p.a.a.x.z.` z   q x e q & w 7.tXFXiX8X-XgXqXA.m.@.k.k.h.h.<XMXuXmXjXlXMXJX.Xn & j q . j & & j b A Z a p p p s s f Q Q ^ /.H.P.K.' ' ] 8.1.0.=X9XqX,X:XrXrX4XeXqX4X6XqXjXqXqXqXqXxXhXhXkX3X:.5 : > 5 n C C n n 4 4 4 ; 4 4 k z z B B n n n n = - - * > 6 iXJXCXCXwXkX6XqXqX6X6XqXqXqX4XqXjXwX4XwXCXqX#X3.( U ( T T ' T W W A S S S S ! K M M ..6 7 , : % $ $ . . . $ O 5 .XFXFX-X%XB.h.@.@.@.@.@.@.@.@.m.B.C.hXNXmXFXyXz $ . $ . . $ O ; O + > C V H G A Z a s s s a E ~ ~ K.K.' T U U Y ;.4.nXmXnXmXnXhXhXjXjX9X8X0X4X>X&X<X<X,XMXpXuXc.C = n n N B c b c c k z z z z k k k k k - - - - * - 5 m M 0.=XmXnXnXnXnXnX9X9X6X9X0X6X3X7X3X8X8XmX7XiXaX X) ' ' ' ' ' ' ] ] ) 5.6.(.(.s.Q f a s s a Z D D A z & = 7 ,.D.h.h.h.h.h.m.m.N.N.B.,.,.N.&XV.M.m.m.h.h.h.h.h.m.D.>.z S s p p p g g g f f J.H._.Y.Y.L.I.L.K.' ' U U B n C *.;.4.v.$X=X9X5X3X5X5X3X3X3X7X3X7X7X7X8XuXuX8X8XtX.XV C C N C k 4 4 4 4 4 4 & j k k N B N n n = = r m V *.<.<.8. XyXFXFXnXnXgXgXdXdXdXnXMXnXgXgXdXdXfXuXuXiXtX X) ( ' K.K.P.P.P.P.P.P.[ ^ ~ ",
"_._.).).Y.Q.I.L.L.L.] { E.] ] 5..XtXaXiXnXnXdXfXfXdXdXfXdXfXuX9XnX5XfX9X&X0X2X9.6 6 6 5 n = k N B B B B k j j j 4 k N B V V C C C 5 * @ m v.uX2X:X:X:X4XqX4X3X4X:X,.,.N.sXN.N.,X,X6X6XN.9.2.2.8.'.'.'.'.6.{ ( _ D ! p.p.p.g.i.g.d.d.d.A i 9 q q q & - *.#XiXuXuXtXiXpX1XS.h.h.k.h.h.1XjXuXCX6XjXSX;X%.# - w q q q j j v E Q f s d p s s f Q ^ ^ H.P.P.P.P.' ' ) 8.2.v.iXMX4X:XZ.rXrXrXeX4X,X6XjXkXjXqX1XqXhXkXkXjX&X6 : : > C n C C n 5 4 - - ; 4 4 4 j z B B B N N n k = - * * > iXJXpXkXwXkXkXqXqX6X6XqXqXqX4X4XqX6X4XwXBXwX-Xz.) B U U T ' P ~ W Z S S s s S J G K K 6 7 > + + $ $ $ . . . . M ;X-X*X-X;XZ.m.@.@.@.@.@.@.@.@.B.:X>XdX;X%XbXbXH &   & . . w $ O & k B H _ A Z Z a a a a a E E ~ ~ K.K.' T U U ) 3.c.mXnXnXnXfX6X6X6X9X9X0X3X3X4X>XqX6X6XMX9X%X;.n r N N N B B b z z z z z z z k k k k k w - - - 5 = = n m ;.#XmXmXmXnXnXMXMX9X6X9X9X6X3X7X3X8X7XMX7XiXFX.XH ( ' ' ' ' ' ] ] ) ) ] { { s.u.^ Q f a a Z D A A A V M >.D.h.h.h.k.k.h.h.m.m.N.N.,.,.N.V.B.m.D.D.h.k.k.k.h.m.m.n.K S s s s s g f f / J.J.U.U.P.L.K.L.L.' ' ( U B N N V ;.2.0.#X*X=X9X6X5X5X9X5X3X;X3X3X3X7X7X8XuX9X-XtX*X4.C C V B B 4 4 4 4 4 4 4 k k k k N B B n n w = r n V *.<.<.<.8.*XtXFXmXnXgXdXdXdXfXfXnXnXgXgXgXdXfX9XuXiXFXoX5.U ' K.K.P.K.K.L.P.K.K.' ~ ",
"_.(.).Y.Y.I.L.L.I.L.] I.E.] ] 7.%XtXiXiXnXnX9XfXfXfXdXdXdX9XuX9XnX-XfXMX4XwX&X&.6 6 m n n n n B B B B k j j j z & 4 k N V V C n C n n @ # :.=X2X:X&X&X,XqX9X9XwX,X,.,.sXsXN.N.:X:X6X6X&Xv.4.2.8.'.'.'.].E.6.{ ` G _ p.p.u.i.t.t.i.p.p.! Z i     $ % # 6 0.&X3XuXmXiXuX0XZ.m.h.h.D.m.vXhXMXCX,X1XC.n.: o + * w e q v E Q g g d d d g s a Q ! [ [ P.P.P.P.K.' ' ) <.:.v.uXMX1X:XZ.rXrX,X,X>X>X6XxXkXjX1X,X6XhXkXBX9Xb.7 : > > V n C C n 5 4 4 4 4 4 4 4 4 k B B B B N N n k = = * : $XCXwXqXqXhXxXqXqXqX6XqXqXqX6X4X4X4X4XqXMXkX8X.X1.V U U T ' ( W W S S f s s s S F F D G G 4 ; % $ $ q q q     H ;X;X%X;X;XdXC.m.@.@.@.@.@.@.m.sXuX9X5X;X-XbXoXG     q . $ w & . j A ! ! Q s s s s a E E E W ~ ~ K.K.K.T T U U 1.4.b.mX9XfXfX9X<X6X6X6X9X7X3X3X3X6XdXhX9XMX7Xv.m n n B N N B B z z z z B z z z z k k k k k = - - n 5 > n m *.c.mXmXVXnXnXMXNXjX9X6X9X9X3X3X8X8X7XuX7XiXFX*X) U ' ' ' ' ] ] ] ) { { [ [ [ [ [ ^ ! Q Z Z A A A A 3.;.>.D.D.h.k.k.k.k.k.h.m.B.B.,.b.N.C.m.h.h.h.k.k.k.k.h.m.n.>.z S f f s s g / /./.H.H.U.U.P.K.K.K.K.' ' T U B N C V 1.2.c.%X=X=XuX9X5X5X5X5X3X;X7X7X3X3X7X7X8X7XiXiX.X;.C B V B B 4 4 4 4 4 4 4 z k k k z B B N n n r r n C *.*.<.Y 1.XXtXmXmXnXdXdXdXfXfXfXnXnXnXgXdXdXfX9X8XiXFXyX6.U ' K.K.P.T.L.L.T.K.K.' ' ",
"_._.).Y.Y.Q.!.Q.L.L.] I.6.] ] W.*XiXiX8XuXfX9XfXfXfXdXdXfX9X9X9X8X3XMXCXMX0XM...6 6 m m n n C V Y B B j j & j j 4 4 j k C B C C C n C > + 6 v.&X&XsX&X2X4X0X9XpX4X-.,.sXsXsXsX:XV.<X>X&XM.9.9.8.6.'.'.].].].6.6.` _ _ i.i.i.t.t.i.i.i.s._ v & & ; * 5 ..,.B.Z.1XMXuXuXwXrXB.m.D.m.C.vXeXkXkXA.A.D.D.+.8 : % w e x E / f g p d d g g a Q ! [ (.(.P.P.P.P.K.' ' ) C =.#XpXkX1XrXA.rX:X:X:X>X>X6XlXkXqX1X,X1XjXkXBX&X:.: : 5 5 V C C C n 4 4 4 4 4 4 4 4 4 k z B B B B N N k k 4 - > 9.7XMXMXxXhXhXhXqXqXqXqXqX6X4X4X6XqXqXwXwXMXMX%X4.V Y U R T ( ( W ! ! Q f s s s s s S S F z 4 $ $ $ $ & &     4 b.tXbX-X-XdX<XS.m.@.h.@.@.@.S.eXuX7X5XgXmXPXx.4 X . &   . q   j b E Q f p p p s s f E W ' ' ' ~ G.K.K.T T U U 1.c.v.VX8X9XfX6X<X<X6X6X7X3X3X3X>X6X<X6XjXMX7X9.> n N B B N B B b z z z z G z z z z k k k k = - = k 5 5 5 n M 2.-XnXGXmXnXMXMXjX9X9X9X9X8X5X8X9X7XuX8XiXiX*X7.B ' ' ' ' ] ] ] ] { ] ' ' ' [ [ [ [ ! A Z D D D A ` K >.n.D.h.k.k.k.k.k.k.h.m.B.B.B.B.m.D.h.h.k.k.k.k.h.m.D.>.8 4 S f Q Q f Q ^ /._.P.U.P.P.P.K.K.K.K.' ' T U B B C *.1.4.v.=XiX=X9X5X3X3X3X3X3X3X3X7X3X3X7X7X7X7XFXtX XV C V B B z 4 4 4 4 4 4 4 z c k k k N N n n n r r n m V *.<.Y 1.7.*XiXmXmXfXdXfXfXfXfXnXnXnXgXgXdXfX9X8XiXaXaX XU ' L.K.P.I.L.L.L.K.K.' ' ",
"(.).Y.Y.Q.Q.!.!.L.L.] { { ) 1. XtXiXiX8X9X9X5XdXfXdXdXdX9X9X8X9X8X9XMXpX0X$X,...6 m m m C C V Y B B b z j j j j j 4 4 k N B B C C n C n # : ,.$X$X&X&X2X4XwXpXwXeX&.,.sXsX&X&X&XN.:XV.&XM.9.0.2.6.6.E.'.].].].W.{ ` _ ! i.i.i.t.i.i.i.i.s._ z ; @ ..>.,.m.m.m.A.<X6X9XwXqXZ.B.,.B.vX1X1X1XA.A.S.D.S.C.m.o.: = c W E g g d d d d g f / ^ d.(.'.'.I.Y.P.T.L.' [ ] m 2.=XBXkX1X1XZ.rXZ.Z.:X>X<XdXhXhXqX6X6XqXjXMXMXM.6 : 5 6 M C V C C n 4 4 4 4 4 4 4 4 4 j k B B B N N c c c k = 5 %.M.CXAXBXlXhXhXqXqX6X6X6X4X,X6X6XwXwXqX0XwXCX7Xc.;.Y Y R T ( W W ! ! ! Q S s s p s s s s S Z x w & $ $     . o %.-XFXtX-X;X>XZ.S.m.h.@.@.h.A.0XiX-X5XdX;Xb.8 1 o X $ . .   q W E f s p p p p s f E W ~ ' ' K.~ G.K.K.T T R Y 1.c.%XVX5X9XdX6X6X<X4X4X3X0X9X9X>XjX>X6XMXMX=X*.r B B B B B b B b b z A G G z z B z z z k k k = k - > n 5 n M *..X-XGXGXCXMXMXjX9XjXjX9X9X8X8XuX7X8XuXuX-XtXXXV ' ' ' K.L.] ] ' ' ' ' ' ' ] I.P.[ _ W W ! _ D D J K K n.D.D.h.k.k.k.k.k.h.h.m.m.,.m.h.@.h.k.k.k.k.h.@.+.>.M 4 2 a a f Q ^ ^ P.P.P.U.U.U.P.K.K.K.K.K.' ' U U Y V V 1.2.4..X7XiX-X3X3X3X3X;X3X7X8X7X3X3X-X-X7X7X-XiX=X4.C V Y B B k z 4 4 4 4 4 4 k c z k k z N N n n n n n m V *.<.<.1.4..XtXFXmXfXfXfXgXfXfXnXMXnXgXgXgXfXMXnXnXiXFXXX) ] [ ' L.K.L.K.K.K.K.K.' ",
"(.).Y.Y.I.I.I.I.L.I.{ { ] Y 5.XXtXmXuX8X9X8X5XfX9XfXdXdX9X9X8X0X9XMX9X;X$X0.&.%.#.M M C C C V B B b b z l j j j j j 4 j z B B B C k n C > : %.M.$X&X2X:X4XpXMX0XpX-.9.&X&X:X&XN.N.&XN.&XM.9.0.2.7.6.6.'.].].'.'.{ ` _ _ u.u.u.i.t.t.f a ! a.K # 7 ,.m.S.S.h.h.S.S.Z.qXxXjX6XM.,.V.zX1XA.A.S.S.S.S.S.S.A.,.< = U W g p p d d g g / ^ _.(.'.'.E.E.Q.Y.T.L.L.] [ ) M 0.0XCXeX1XA.Z.Z.Z.Z.:X<X6XdXdX6XqXqXjXkXMXMXMXb.: 7 6 m M C V C z k 4 4 4 4 4 4 4 4 4 4 k b B B U c c c c k 5 5 : 9.pXMXzXzXlXhXqXqX6X6X6X,X,X6X6XwXwX6X4X0XMXCXv.;.1.Y R R U ( ( W W ! ! E u s p p p p p f Q [ ( c $ $ $ . X : 7 $X8X7X9X&X:X<XZ.m.h.+.h.S.A.5XiX5XlXZ.m.D.+.8 : o X .   j W Q f g p p p p d t./ / ~ ~ ~ ' ' ~ G.K.' T T R Y 2.v.%XAX6XdXjX6X6X6X6X4X3X9X9XfX6XlX>X5XjXuX%Xm n U B N B B b b b b A A G G z z G B z z k k k k n - k n > m *.M 9.*XFXGXCXMXMXdXjXdXfXdX9X8X9XuX8X8XMX9X-XFXyX) ) ' ' K.K.L.' ' ' K.L.L.L.L.] ] { [ _ _ _ _ J D F F F K n.D.D.h.k.k.k.k.j.h.h.@.@.h.h.h.h.k.k.h.h.+.o.8 5 4 2 u i s a / _._.).P.P.T.P.P.K.K.K.K.K.' ' ' U U Y Y V 1.2.4..XiXuX7X3X3X3X;X&X;X3X9X3X3X7X-X-X7X7X-X=X.X1.n V ) B B 4 z z 4 4 4 4 4 k z z k k c z N n n n n n m V *.<.1.1.1.c.tXmXnXnXgXfXgXfXfXnXMXnXnXnXnXCXCXCXVXiXIX*X5.] [ ' L.K.K.K.K.K.K.K.K.",
"U.Y.Y.Y.I.I.L.I.L.] { ) ) ) 1.yXFXnX8X8X8X8X5X5X6X6X9X9X9X9X8XwX4XCX3XB.0.,.....6 *.*.C C V ) B B z j j l l l j j j j j k c B Y B n n C 5 : 6 9.$X3X&X&X4X9XMX0X0X9.9.$XsXsX:X:X:XV.V.V.M.v.:.0.0.W.W.].'.I.{ [ ' ' ' ( [ [ s.u.i.i.i.S J a.>.8 +.m.S.h.j.k.k.k.S.S.A.vXxXfX#X9.:XkXvXS.h.S.S.j.S.S.S.S.m.,.;.` Q f p p p g g / /._.(.[.[.Q.W.Q.Q.Q.Y.Y.L.] ] ` *.#XpXMX1XZ.Z.Z.A.:X:X:X<XhXhX6XhX<XqXqXwXMXCX2Xo.7 7 5 m C C V V n 4 4 4 4 4 4 4 4 4 4 4 4 k B U U U B b c k k * 6 6 M.JXjXdXzXxXxXjXjXhX6X6X6X4X4X6X6X9XwXjXjXAX#X4.;.V U T T U U ( ( ( ( ( _ a s s p p p p p Q _.' c w $ X 5 o.+.m.N.:X<X,X>X:X<XC.D.D.m.S.vX;XPXgXvXC.m.h.m.m.+.1 X X l Z a s p d d p p d d g E ~ P P ~ ~ ~ ~ ~ G.' T ] ) 1.4.#X8XMXdX6X6X6XhX6X4X3X3X9X9XdXdXfX5XNXnXiX9.n B B N B U B b z G A A A F F F z G b z z c c k k k = w n n n C *.;.*XFXFXGXAXfXjXjXjXjXfXnXnXnXnX8X-X8XMX=X-XtX1.) ] L.K.K.K.' K.L.K.K.K.L.L.] ] ] { { ` _ J D S S F F J K 8 8 o.h.h.k.k.k.j.h.h.@.h.h.h.h.h.h.h.o.7 : 4 j u u i i a E _._.U.P.P.T.T.T.T.K.K.K.P.L.' ' ( U Y Y Y 1.2.4.v.=XiXiXiX;X>X3X3X3X>X3X7X9X-X3X3X7X7X8X7XyX4.C B Y Y B z z z z 4 4 4 4 4 j z z j j k b b B k n n n n m *.<.1.1.1.c.tXGXmXnXnXnXnXnXnXfXfXNXnXfXNXNXjXMXCXiXFXyX3.U ] ' ' K.K.~ ' K.K.K.K.",
"U.Y.Y.Q.Q.I.L.I.I.] { ) ) ) 1.yXFXuX8X8X8X8X8X5X9X9X9XnX9X4X3X9X4X0X&Xb.9.:.#.#.m *.*.C C Y ) U B z j j l l l j j j j j k c B U B N N C 5 : 6 >.M.3X&X&X2X3XMXpX4XB.0.sX&X&X2X:X:XV.&X&X&XM.:.0.0.8.5.6.{ [ ^ ' ~ ' ' ' ' [ [ s.i.i.i.S J a.>.>.+.m.S.j.k.k.k.k.k.S.S.A.vXdX=XM.pX,XS.S.j.k.k.k.j.S.S.S.B.>.K _ S s p s s f ^ _.).).[.{.{.{.W.Q.Q.Q.Q.Y.L.] ] ) M M.pXkX1XA.Z.A.Z.Z.:X:X<XhXhXdXxX<XqXjXwXCXMX#X6 7 5 6 M V V V C z 4 4 4 4 4 4 4 2 4 4 4 4 j B U U U U b b k k 5 5 7 b.NXNXjXlXxXjXjXjXqX6X6X6X6X6X6X0X9X9XwX9XMX%X9.;.Y Y R T U U T ( ) ] ] { [ Q h p p p p p p ^ [ ( z ; ; ..,.h.m.m.S.A.A.<X<X6X&Xn.,.m.Z.vXPX;XA.C.S.h.h.m.S.m.o.# 4 l Q f p p d d d d d g / ~ ~ ~ P ~ ~ ~ ~ ~ ~ T T R ) 1.0.#X8XjXdX6X9X9X6X6X>X3X9X9X9X9XdX6XdXMXuXiX:.m N B U U B B b b A A A A F F F F A b z z z z k k k w w n n m C *.*..XaXFXGXVXjXjXjXjXjXnXnXnXnXnX8X7X9XMX=X7XtX4.) ] L.L.K.K.K.L.K.K.K.K.L.L.L.] ] ] { ` _ J D F S s S p.J 5 1 1 | +.h.j.j.j.h.h.@.h.h.h.h.h.+.o.7 @ & j i i h h h E ^ _._.Y.Y.Y.Y.Y.T.T.T.T.P.K.K.' ' U U U Y V 1.2.9.v.=XiXiX7X3X3X3X3X>X>X3X3X8X=X3X7X7X8X8X-X*X7.C V Y Y B z z 4 4 4 4 4 4 4 4 k k j j k z b B N n n n n m *.<.1.1.1.0.*XmXFXnXnXnXnXnXnXfXfXnXnXfXMXMXjXjXCXnXFXtXz.B ) ' ' K.K.K.K.K.K.~ ~ ",
"U.Y.Y.Q.Q.!.L.I.] ] { ] ) Y 7.yXiX8X8X8X9X9X9X9X9X9X9XpX9X3X3X3X4X&XM.b.9.:.#.#.M *.*.C B ) ) ( b l j j l l l l j l l j j k B U U U B N n > 5 6 v.&X&X&X&X&XpXpX0XM.M.sX2X2X2X&X&XV.&X&X:X#X:.2.q.2.Y ( W W / ~ ~ ~ ' ' ] ] { [ ^ Q S D A K >.>.+.h.h.j.k.k.k.k.k.k.j.S.A.<X2X$XCXZ.S.S.j.k.k.k.S.S.S.m.n.>.K D S s s a Q ^ (.OXOXOX}.{.{.{.Q.Q.Q.Q.Q.Y.I.] ] Y *.#XpXjX1XA.A.A.A.Z.Z.Z.,XdXhXdXlX<XjXkXwXCX8X9.7 5 6 M *.*.V V C 4 4 4 4 4 4 4 j 2 4 4 4 & 4 z U U U B b b N n n > , &.&XAXlXlXjXjXjXqX6X6X6X6X6X6X9X9X9X0X9X9XdX5Xb.;.1.) R T U T T ) ] ] 5.E.'.s.Q s p p p p p s ! [ H 5 7 ,.m.j.j.h.h.S.S.Z.<X6X5Xv.,.v.5X5XvXC.S.m.h.h.h.h.S.m.,.M F F a s d p d d d d g g / ~ ~ ~ ~ ~ / E P P P P U R Y 8.0.#X9XjX6X6X9X9X6X,X3X4X9X9X9X6XdX>XjXnXuXiX%.n B U U U B b A A A A A A F F F F A z z z z z k k k w = r n m C M V 4.=XFXmXnXMXjXjXjXjXnXnXnXnXnX8X8X9XNX3X8XiX7.) ] ] K.K.K.K.T.K.K.K.K.L.L.L.L.] { { { ` _ J D s s S i._ z ; o 1 < +.@.h.j.j.k.k.h.h.h.w.+...: - $ q v h h h h a ^ P._.U.).Y.Y.U.T.T.T.T.K.K.P.' ' T U U U V V 1.8.0..X7XiX=X=X7X3X7X3X>X3X3X7X7X=X7X7X7X8X8X-X.X3.V Y ) ( B k 4 4 4 4 4 4 4 4 4 j j 4 j j c b B N n n n n m *.<.1.1.1.4..XtXmXnXnXnXnXnXfXfXnXnXuXfXnXMXfXjXNXnXmXFX XB U ' ' ' ~ ~ ' ' ' ~ P ",
"I.Y.Q.Q.!.E.L.L.] { 6.] ) )  XaX7X7X5X8X9XfX9X9XfX9X0X0X4X3X3X0X9X&XM.v.b.:.#.#.*.*.V C V ) ) ( z l 4 2 l l l l u l l j j j b U U U U N n 5 5 : 9.&X&X&X&X;X9X3X4XN.N.2X&X2X2XsX&XN.&X&X2X&X9.:.q.<.Y U W E / / / ~ K.K.K.L.L.[ [ ! ! J J K >.n.D.D.h.h.j.k.k.k.k.k.k.h.S.A.>X&XrXN.S.S.k.k.k.S.S.S.m.+.>.K K D D S S ! _ { [.+XOX{.[.{.{.{.[.Q.Q.Q.Y.Y.!.5.Y V ;.$XMXjX<XA.A.A.A.Z.Z.Z.,X6XhXdXlX>XwXMXjXCX-X%.6 6 6 M *.*.V V C 4 4 4 4 4 2 4 j 2 4 4 4 & 4 k U U U U b b N n m : , 6 b.CXCXNXjXjXhX6X6X6X6X6X6X6X9X9X9X9X9X6X6XMX#X*.<.) R T T T ] T Y ] ] 5.E.[.`.s.t.p p p s s a D K H >.D.h.k.k.k.k.h.h.m.C.V.8X#X9.M.MX<XC.S.m.h.h.j.k.h.m.m.n.K J Q f p d d d g g g / / G.G.G.~ ~ ~ / E E P P L L U <.8.v.&XwXjX9XdXfX9X,X6X6X9X9X0X9X6XjX>XBXfXiXiXm C N U U U b b A A A D D A A F A A A z z z z z c z k w = w n n C C V 1.%XFXmX8XnXjXlXjXjXnXnXnXnXnXuX9X9XNX9X9XuXc.3.] ] K.K.K.K.L.K.K.K.L.L.L.L.L.{ { { { { ` _ ! S s a S ! W z ; o 1 1 | +.h.j.j.h.h.h.@.o.< @ % q 9 i v h h h h / P.).).U.).Y.U.U.U.T.U.R.T.T.K.' ' L L B B V V 1.2.0.#XiXiX=X=X7X3X3X3X3X3X3X3X7X=X3X7X7X8X7X=Xc.1.B ) ) ( b j z 4 4 4 4 4 4 4 4 4 4 4 j j z b B N n n n n m *.*.1.1.1.2.c.=XmXmXnXnXnXnXnXfXuXuXuXuXnXjXjXjXlXfXiXFXoXB U ] ' ' ~ ~ ' ' ' ' ~ ",
"I.I.Y.Q.!.L.L.L.] ] ] 6.) 1.XXaX7X7X5X9X9XMXMXuXMX8X0X0X3X3X4XwXfX;X&X%Xb.%.m *.*.V V V Y ) ) ( l l 2 2 l l l u u l l l j j b U U U U N n m 5 : ,.$X&X$X&X;X8X3X4XN.sX:X&X2X2X$X&XN.V.N.3X2X0.2.q.<.Y U ~ / / / G.G.G.K.K.K.P.P.[ [ { d.l.l.x.n.n.D.D.+.h.j.j.k.k.k.k.k.S.A.A.Z.m.S.j.j.k.k.S.S.m.D.+.>.K J J J p._ D _ { '.{.OX{.{.{.{.{.{.[.Q.Q.Y.Y.Y.!.] Y C 0.=XCXjX<XZ.Z.A.A.Z.:X:X4XqXqXqXjX>X9XMXMXCX#X6 6 m m M *.*.V V z 4 4 4 4 4 2 u j u 4 4 4 & 4 j c U U U b B N n m : 6 , ,.0XMXCXjXjXhX6X6X6X6X6X6X6X9X9X9X9X9XwX,XBX$X;.Y Y R T ' ' ' T T T ] ] ] '.}.|.s.f s p s s s Z D K n.D.h.h.k.k.k.k.h.h.m.C.>X%Xn.%XjX<Xm.h.h.h.k.k.k.h.m.n.n.J p.i.t.g d g g g / J.G.G.G.~ ~ ~ / / / / P P P L c N <.2.v.=XNXjX9XfXnX8X4X6XjXwX0X6X9XdXjX>XDXgXuXtX5 V B U U U b b A G A D A D A A A A A A z z z z c c k k w w n n C m *.*..XaXiX8XnXjXjXjXjXfXnXnXnXnXuXfX9XjX9X9XuX.X3.] ] K.K.K.K.P.K.K.K.L.L.L.L.L.] { { { { { ` _ S f a S D _ A j ; + o o < ,.S.h.h.h.+.o.< O $ q 9 i i h h h h h H.).`.).U.).).U.U.U.U.U.T.T.K.K.' ' T L B B Y <.<.4.v.$XiXiX=X=X3X3X5X5X5X3X;X&X7X3X3X7X7X7X7X%X4.H V ) ) ( B j z 4 4 4 4 l j j 4 4 4 j j j v b B B N n n 5 m #.V <.2.2.2.0.*XFXmXnXnXnXfXfXfX9XuXuXnXnXfXjXfXfXnX8XJX*X) Y ] ] ' ' ' ' ' ' ' ' ",
"I.I.Q.!.!.I.L.L.] ] ] 6.) 1.*XaXiX5X5X8X9XMXMXnXuX9X0X0X3X3X0XMXfX8XnX7X0.%.#.*.<.V C V ) ) ( G l l u u l l l u u l l l j j b L U U U B C C 6 5 ,.#X$XM.&X;XuX0XqXN.&X:X&X&X2X$X&X&X&X$X2XuXv.0.q.<.R U ~ / / J.G.G.G.G.G.G.H.^ [ { { '.].].z.x.n.n.+.8 +.D.h.j.j.j.k.k.j.S.S.m.m.j.j.j.j.S.m.+.o.8 8 K J a.p._ a.` ` 6.].{.}.OXOX{.{.{.{.[.[.Q.Y.Y.Y.Y.L.] Y C .XiXAXdX>XZ.Z.A.A.Z.:XrXeXqXqXqXjX6X6XNXCXuXv.6 %.%.%.M *.*.V V z 4 4 4 4 4 u u j u 2 4 4 4 4 4 c U U B b B B n n > , , %.$XCXCXjXxXjX6X6X6X6XqX6X6X9X9X9X9XjXjX<XBX=X2.V Y R T T P ~ ' T ' ' ] ] { { l.d.s.Q a s s f S F K n.+.D.h.h.k.k.k.k.h.m.S.Z.V.B.C.A.A.h.h.h.h.k.k.h.D.D.n.K F S i.i.t.g g f / ~ G.G.G.~ / / / / / P P W L I I c U 1.2.#X2XBXjX0XMXnX7X4X4X4X4X3X9X9XdXfXgXgXgXiX*X5 V B U U U b b A D A D A A A A A A A A A z z z z B k k w w r n C C *.*.c.=XmX8XfXfXjXjXfXfXnXnXnXnXnXnX6XjXwX9XuX#X7.] ] K.T.K.T.U.P.P.L.I.I.I.L.L.] ] ] { { { ` _ S S S S g.D F u . q - X 1 o.,.m.h.+.o.< % q q 9 9 i i h h h g h ).).).).U.).).U.U.U.U.U.U.T.K.K.' ' T U U Y Y <.1.0.v.=XaXiX=X-X3X3X3X5X3X3X;X&X7X3X7X3X7X7X7X#X4.H H ) ) ) G z z z 4 4 4 l l j 4 4 4 j j j x b U B N n n 5 m M V <.2.8.2.4.#XFXFXmXnXnXfXfXfX9XuXmXnXnXfXjXjXdXfX8XKX*X1.Y U U ( T U U U U T T ",
"I.Y.Q.Q.!.!.L.L.I.] ) 5.) 2.yXaXuX5X5X5X9X9XpXMX9X8X9X9X0X0X0XMX9X9XCX7X9.#.%.*.1.V C V ) ) G b l l l l l l u u u l l l j x c b U U U B C C m 6 >.#X&X$X&X;XuX0XwXV.&X2X&X&X2X&X:X:X:X$X7XpX#X0.0.1.U L ~ / / J.G.G.G.G.J.J.J.J.( ] { { '.|.].l.x.n.>.8 1 8 +.h.j.j.j.k.k.h.h.@.j.j.j.k.j.h.+.8 o 4 z J J g.p.` ` 3.6.W.{.}.OXOXOX{.{.{.[.Q.Q.).Y.Y.Y.Y.L.] Y V #XiXCXdX<XZ.Z.Z.Z.Z.Z.,XqXqXqXqXjXjX6XMXGX-X,.6 %.%.*.*.V ;.V B z 4 4 4 4 4 j j j j 4 4 j 4 4 4 c U U B B B B n n 6 < < ..v.GXCXNXxXjXdX6XhXjXjX9X9X9X9X9X9X9XqX1XkX2X0.V R T P P ~ ~ ~ ~ ~ ' ' ( ( ) ) ` { s.s.Q a f i.D K g.+.+.D.h.h.h.j.j.j.h.S.S.S.m.m.S.m.j.j.k.k.h.h.D.+.+.K J F a f t.i./ / / ~ ~ ' G.G./ g g g / / P L L I I b N Y 2.4.#X0XCXjX0XMXmX7X4X&XV.&X3XdXdX6XdXgX5XfXiX.X5 V U U U b b A A D D D D D A A A A A A A z b z z b k N n r r n C C *.;.4.#XmXnX9XfXfXdXfXfXnXnXmXmXnXMX6X9XwX6X8X%X7.5.] L.P.K.T.U.T.P.I.I.I.I.I.L.L.L.{ { { { { ` ! Q S g.g.F F u . 9 q $ O : o.+.D.o.: + q e 0 9 i i u s i s g h ).).Y.U.).).).U.U.U.U.U.U.U.K.K.' ' T U U Y <.<.2.0..X=XaXiX=XuX3X3X3X3X3X>X;X&X3X3X9X3X7X8X8X%X3.H H ) ) ( B l z z 4 4 l l l j 4 4 4 j j j v b L c N n n 5 6 m V <.2.4.2.4..XtXFXmXnXnXfXfXfX9XuXmXCXnXfXjXfX5XdX8XFXoX7.) B U U U U U ) ) ] ] ",
"I.Y.Q.Q.Q.!.I.L.{ ] ) 5.) 8.yXaXnX9X5X5X9X9XjXwX9X9X9XjXwX6X6X9X5X9XCX=X:.6 *.*.1.V N V ) ) B b l l l l l u u u u u u l l x v b ( U U V C C m M 6 #X7X2X;X;X9X3XMX&X&X0X:X&X2X2X:X:X:X$X0XpXM.0.0.8.U L ~ / J.J.J.R.G.G.J.J.F.J.~ ] ] ] I.}.}.x.l.c.c.M 1 o 1 +.w.h.j.j.j.j.h.@.j.S.S.j.@.| 1 o ; 4 J p.J J _ a.` 3.7.].}.}.OXOX[.[.[.[.Q.Q.Y.).Y.Y.Y.Y.] Y <.*.#XiXNX6X,XZ.Z.Z.Z.N.Z.,XqXeXwXjXhXlX6XjXJX&X=.6 m *.*.*.*.) V C z 4 4 4 j j j l l u 4 j 4 4 4 4 c U ) B B B B n m m : < 6 9.GXCXNXlXfXdX6XjXjXjXjXjXwX9X9X9X9X6X1XeX0Xv.<.R T P P ~ G.G.~ ~ G.~ ' ( ] ) ( ) '.|._.S a g.g.g.g.K 8 +.+.h.h.h.j.j.h.h.h.h.m.h.h.h.j.j.j.h.h.D.+.8 8 g.i.s s f i.u.u.[ [ [ K.K.G.G.J.J.g g / P P I L I v b U Y 8.9.#X0XCXjX0XMXpX3X4XN.B.M.;XjXfX>X5XlX;XfXiX.Xn V Y U B B b z A D D D D D D A A A F A A A b b b B k N N w w n C m V *.1..XmXmX8XfXdXdXfXfXnXnXmXmXfXmX5X6XjX6X8X%X7.5.] L.T.K.T.Y.Y.U.Y.I.I.I.I.I.E.I.I.{ { { { { _ ! D g.g.F F F i     q $ + : o.>.8 o O q 9 9 9 i i s s u a a i ).Y.U.U.).).).).U.U.U.U.U.T.K.K.' ' T U U Y <.<.2.0..X=XaXiX-XnX9X4X>X&X&X;X;X&X;X3X6X3X7XuXuX=X1.H H ) B B z 4 z l 4 4 l l l j 4 4 4 j j j v b L b N n n 5 5 m *.*.1.8.2.2..XtXFXmXnXfXfXfXfXuXuXVXCXnXfXMXfX5XfXnXFX*Xc.3.V 1.) 3.5.6.W.].].].",
"I.I.Y.I.I.I.I.I.W.6.5.) C 7.yXaXiX8X9X9X9X6X6X6X6XqXhXxXxXjXdXdX6XjXMXN.:.%.6 *.M C C Y 3.) B z l l u u u u u u u u u l l l l z ( ) Y B B C C m m 0.iX7X3X&X4X4X9X8X&X&X2X2X2X0XsX&X:X:X2XuX$X2.2.8.) L L ^ J.G.G.G.G.G.J.J.F.F.H.G.G.P.(.|.}.|.x.z.z.;.C # ; : | +.m.S.S.S.j.h.S.A.h.o.8 o # - & z F A J a.` ` ) 6.].}.}.}.[.{.{.OX[.Q.Y.Y.Y.).Y.Y.Q.E.] Y V *.$X3XNXqX:XZ.Z.Z.Z.Z.:X,X6X3X9XNXlXlXdX6XCX$Xo.#.m M M *.1.;.V C k 4 4 4 4 4 l l 2 2 4 4 4 4 4 4 z B ) ) Y B V V M n 6 < 7 o.2XHXNXnXnXfXfXwXqXwXwXwXjXwX9X8XgXfX4XqX7Xv.;.Y ' L P G.G.G.G.G.G.G.G.~ K.' ' ] E.[.@Xd.J D F D p.p.J K # 8 ,.h.m.h.j.j.h.@.@.@.@.h.h.h.S.S.D.8 o X D f d r.d g / ^ (.{ { ' ' ' G.G./ G./ E P P P I P L b U Y 1.4.c.%XpXCXwXwXwX9XwX,XB.,.n.&XfXfX>XdX6X6XfXnX4.;.C ) V B C B G G F A F F F D A A A D S A A b b c c c N N k k n C V m *.2.c.FXbX-XnXNXdX6XdXjXfXnXVXnXgXfXfXfXfXbXbXXX) U ] L.K.T.T.Y.U.Y.Y.Y.Y.T.I.I.L.{ I.{ ] L.E.` J D D S S S Z i 9   q - O O M %.5 + $ & 9 9 9 i h h h h a a i ).).).U.).U.U.).U.U.U.R.T.T.K.K.K.T U U U Y Y 1.2.0.#X=XiXiXiX8X9X6X3X3X3X;X&X&XV.3X>X;X&X7XuX#XH ) B B B b z j j j 4 4 4 l l l 4 4 j j j j x c b b b N n n m m M M 1.1.8.8.7.yXFXnXgXgXgXfXMXMXCXMXnX9X9X9XfXfX5X;X;X;X%X%X*X%X.X*X*XtXtXtXtXtX",
"L.I.I.I.] ] ] 5.5.1.1.1.1. XaXFXiX8X8X9X6X6X6XqXhXhXxXxXxXxXhXhXjXjXjXM.>.%.6 %.M C C Y ) ) U b l l l u u u u u u u u u l l l z B B B B B C V V m 9.7X-X3XV.>X>X7X9X7X2X4X2X:X:X:XsXsXsX2XuX2X0.2.2.1.U E ~ / ~ G.G.G.G.J.J.J.J.J.J.H.K.P.(.'.|.x.x.x.l.H k $ - o < +.,.m.S.m.@.S.m.o.1 : # & & j A G J J ` ` ` { '.[.}.}.}.|.|.[.Q.Q.Q.Y.Y.Y.Y.I.I.E.5.Y V V *.7X0XwX1X:XZ.Z.A.A.Z.rXqX6X6X9XfXdXvXdXxXCXB...%.M M V V V V V C z 4 4 4 l l l l u 2 4 4 4 4 4 4 c B ) Y Y B V C C m 6 > 7 ..&XAXnXgXfXfXwXqXeXeXeXeXeXwXjXNXmXmXwXpXpX#X1.V ) U T P P G.G.G.G.G.~ ~ ~ ~ P T ] ] |.l.a.J D D p.g.A G ; o 8 o.+.m.h.h.h.h.h.h.h.h.S.m.D.+.8 # ; u Q t.r.r.d g ^ { E.6.{ ' ' ~ ~ ~ G.G.~ P P ~ ~ L I L L U Y 1.2.9.&XMXCXwXqXqX4XqXqX:XN.C.>XgXgX<X<X<X>X5X-X;.V C C B C N C G G A D F D D S D D A S S D A b b c N c c c k k k n C m *.;.0.FXbX-XgX8XfXjXjXjX9XfXnXgXgXfXfXgXnXbXbXoX3.( ] ] ' P.Y.Y.I.Y.I.I.I.I.I.I.I.{ { E.L.L.] ` J J g.i.i.S !     . X X - Y  X#X2.> O .     . i i h h i a a i _.).U.U.).Y.U.Y.Y.Y.Y.P.P.L.L.K.L.' R R Y V V 1.:.0.#XiXiX7X7X8X>X>X>X>X3X2X&X&X:X>X>X5X7X-XiX.XY ) ) ( G B z l j j j 4 j l l l 2 4 j j j j x c b b b c n n n m M M 1.1.8.8.7.yXmXmXgXgXfXnXCXCXMXnXnXfXfXfXfXnXnXfX8X5X5X5X-X-X=X-X-X-X-X-XtXtX",
"W.W.W.6.6.6.7.7.7.2.4.4.0.%XaXmXiX8X8X8X6X6XqXhXxXxXxXkXkXlXlXlXxXNX0X9.%.%.m M m C C V ) ) B b l l l u l u u u u u u l l l l z B B U U V V V V m 2.*X-X&X&X>X>X3X9X9X3X,X:XV.:X&XN.sXN.&XwX2XM.2.8.5.U L W ~ G.G.K.K.K.T.J.J.J.G.H.U.P.P.[ (.|.x.x.x.z.l.z   $ > + 1 1 ..+.m.B.m.o.1 o O w q q z G J J J J J ` '.'.{.}.}.}.'.'.].'.Q.Q.Q.Y.I.I.E.E.6.] Y V V *.CXwX,X:XrXZ.A.A.A.rX1XeXqX6XwXjXgXdXdXBXwX9...=.M V V V Y V V V z l j l l l u l u u u 2 2 2 4 4 k B ) Y B B B N n C m 5 6 7 M.MXfXfXdX6XqXeX1X1XrXZ.Z.:X6XjXNXjXqXwXNX&X4.M C B L L L L P P P P ~ ~ ' ' ( ( U B 3.l.x.a.D D g.S p.a.4 ; o o 1 1 +.@.m.m.@.h.m.m.D.+.8 1 o ; j E f t.r.r.d g s.'.{ ) ) ( ' ' ~ ~ ~ ~ P I L L L L U U U Y ) 1.4.b.-XMXCX6X6X4X4X6XkXqX<X5X5XdXdXdX6X6X6X8X-X;.V C N C B N B G G A D D D D D D D D S S A A A b b L c c c k k n n M m *.*.2.bXbX-XgX5XfXjX>X:X3X9X9X5X5X8X8X8X8XiXtX*X7.) ) ) ' L.E.E.6.{ ] ] ] { 6.{ { 6.3.6.E.!.6.` J J D S S S ! l 4 & $ n  XyXaXaXtXXX1.k   9 i i h h h i a a a ).(.I.I.Y.Y.K.L.' ' T T T ' ( U ' U U B C C M *.:.b.=XuXuX-X=X3X>X:X2X3X3X3X3X;X5X5X>XfX8X=X=X.XV ) ) ) ) G b z l j j j l l l u 2 2 j j j j c b b b b b n n n m m M 1.1.8.8.8.*XiXgXgXgXfXMXMXmXnXnXnXnXnXfXfXfXnXfX8X8X8X8X5X7X-X-X-X=X=X=X=X-X",
"yXyXyX*X*X*XyXyX*X*X*X%X=XiXGXFXnXuX8X5X6X6XhXxXxXkXkXzXlXlXlXlXjXMX4X,...%.%.m n C C V ) ) U b z l l u u u u u a a l u l l l z ) ) ) ) Y Y V V M *..X-X&X&X>X>X>X6X>XV.N.N.N.:XN.N.N.N.N.4X4X$X,.2.1.B b W W ~ T T T T K.K.H.H.~ G.P.P.[ [ (.|.x.x.x.|.|.G   . w % O + 1 < o.,.o.1 # O $ q 9 x b J J J K K J ` |.{.{.{.].].].l.7.6.E.E.E.E.I.{ ] 5.1.) V V *.%.JX6X&X:X:XZ.A.A.A.A.rXrX1XqXkXNXhXdX<XAX0X:.6 =.M V V 1.1.1.1.) z l l l l u u u u 2 u 2 2 2 2 4 c B U U U B B B n C m 6 6 < v.MXjXdXqXqXeXeXrXZ.B.B.m.B.V.,XhXhXqXqXjX7Xc.;.H H B U U ( ( ' ' ( ] ( ] ) ` 3.1.H ;.K ` a.J J D S ! ! F 4 o o 1 o 1 | ,.m.+.m.B.m.8 1 o o ; & v / g d r.r.d t.s.|.) ) U U ( ( ( ~ L L I b b b b b c N N C M %.4.b.8XMXMX6X6X4X4XwXqXqX9X6X5X5XdXdX6XdXdX9XtX;.V ) V ) ) V B B G A S D D D D D D D D S D A A L U U U B c c k n C C *.*.M ;.tXbX-XgX9X9X:XM.B.&X3X6X4X6X9X9X9XuXuXiXtX.Xc.7.7.E.].].].].].].].].].].z.].].7.6.7.W.6.` a.p.D S S S D F   . $ N  XaXaXaXaXyX7.j .   i i h a h i a a Z I.E.{ I.E.] ] E.'.W.W.].].].].]. X].]. X Xc.c.v.v.#X7XMX9X;X;X>X>X:X>X3X7X7X3X>X5X6X5XfXuX-X=Xc.V ) ) ) ( ( b l l l u u u u u u 2 2 u 2 4 j c b b b b B n n n m m M 1.1.8.8.8..XtXgXgXgXfXMXMXmX9XfXfXnXnXnXfXfX8X5X-X-X-X-X-X;X-X-X=X=X=X=X=X-X",
"mXmXmXiXuXuXFXGXmXnXuX8XnXCXnX9XnXnX9X5X6X6XjXxXkXkXlXlXlXlXlXlXjXNX3X,...*.%.m m V ) 1.5.{ ) B b l l u u u a a a a a l l l v z { { ] ) ) Y Y V V M c.iX=X&X4X>X6X1XV.B.m.m.B.Z.B.B.B.B.B.:X6X&X9.9.1.H G ( ( ( T R Y Y ] ] ' ' P.' ~ [ [ [ d.'.|.x.x.|.|._ i   q e w > + : #.9., o * % $ q 9 I A J J J J K J ` '.{.}.{.XXXXXXXXoXXXXXXXXXXXXXXXXXXXXXXX Xc.c.b.CX>XV.V.A.A.A.A.Z.N.B.C.Z.rXeXzXkX6X>XAX0X&...%.M V 1.1.5.5.1.) z l 4 l l 2 2 2 u u 2 2 2 2 2 j z U ( U U U U B N C m 5 m : 0.CXkXhXeXeXeX1XZ.m.w.w.w.w.B.V.1XhXxXqXxXjX;Xb.c.c.XXXXXXXXoXoXoXoXoXoXXXoXoX*X*X.Xz.H K x.d._ D S Q Q S 2 X # @ 1 o o 7 o.+.m.m.o.1 o O ; q i v g d d r.d y.i.d.l.H H V V U ( ( ( ] { { { 3.3.3.) V Y 1.2.2.4.b.M.9XNXwX4X9X0X0XMXwXqX6X5X5X5X5XdX<X6X6X8X=X1.) ) ) 3.3.) B G A D S S S S S D D D D D D A A U U U U L c k k n n m *.*.V ;.tXtX-XfXnXqX&Xb.,.B.&X&X0X0X9XpXpXMXMXuXuX=X*XyX*X*XyX*X*X=XyXyXyXyXyXyXyXtXyXoX7.6.6.6.{ d.a.p.g.g.g.D F 2 ; ; . N XXaXaX*X1.k .   9 i a a a a a a Z W ` 5.5.6.6.1.6.XXyXyXyXyXtXtXtXyXyXyXtXFXFXmXuX9X;X5XdXdX6X5X>X>X3X3X3X3X7X0X7X7X;XjX9X9X7XiX7X4.Y ) ) ( ( ( b l l u u u u u u u 2 2 2 2 u j c L b b b B N n m m m M 1.1.8.8.8..XtX-XgXgXfXMXMXmXuXfXnXnXnXnXnXfX5X7X-X-X3X7X3X-X-X-X-X-X=X=X-X7X",
"7X5X9X6X5X9X9XMX9X9X3X3XwXwX3X3XMXnX9X6X6X6XjXkXkXkXlXlXlXlXlXlXjXjX3X,.o.;.%.M m V 1.5.5.6.) B b l l u u u a a a a u l l l v b ) ] ] ) ) Y Y Y V M 0.iX-X3X4X>XqX<XN.D.,.,.,.B.N.B.B.B.B.&XqX0X#X#Xv.c.z.].].].W.W.~.~.W.].z.].}.(.[ [ [ [ [ d.x.x.x.x.|.` l   q e q $ % m  XaX;.5 % O & q q x A J J J J G J ` ].].{.XXXXyXyXyXmXtXtXyXyXtXaXbXbXbXFXFXFXFXFXnXMX>XV.Z.rXrXA.A.Z.m.m.m.B.N.rXxXkXhX:XAX2X&.#.#.C V ) 5.5.5.5.` z l 4 4 u 2 2 3 u u u 2 2 2 2 u b L ( U U U U B N C n 5 #.: 9.CXBXxXeXeXeXeXZ.m.w.w.,.,.B.N.<XqXxX1XxXBXgX-X-X-XbXbXbXFXFXFXFXFXFXFXFXFXFXFXFXFX.X;.K l.d._ D S i.i.s.Z . X O + + o o 1 7 &.o.1 + % $   9 i h F.d r.r.d y.i.d.6.H ;.H 3.7.].XXXX+XoX*X*XyXyX*XoXc..X*X=X=X=X&X;X9XjX6X3X0X9X0XNXjXwX4X3X7X5X5X5X>X6X6X8XyX1.1.] ] { ] ) B G A A S S S S S D D D S S A A L L U U U L c c k n n m *.*.V ;.yXtX-XfX9XqX:XB.w.B.B.B.3X3X0X0X9X9X9X0X7X=X=XtXyXtXaXtX7XiXuXFXFXFXaXaXmXGXFX*Xc.1.1.E.{ d.d.p.D g.g.D D 4 4 & $ $ Y ~.*X2.- .   i i i a a a a a a Q [ 3.7.7.8.5.1.4..XaXaXiXiXiXuX-X-X=X-XtXFXVXnXnXfXlXjX6X6X6XdXfX6X9X0X4X7X7X7X7X3X&XMXfX7X7XuXtX8.Y ) ] ( ( ( b l l u u u u u u u 3 u u u u x b L b b L B N n m m m M 1.1.8.8.8..XtX-XgXgXfXfXnXmXnXnXfXfXfXfXfXfX8X5X7X7X5X5X5X7X7X7X7X-X=X;X=X=X",
"qXqXjXjXwXqXjXjXkXBXqX6XBXMX6XNXMXnX9X9X9XjXjXkXlXlXlXlXlXlXlXlXNXMX3X9.%.;.*.*.C V 1.1.6.6.] b b l u u u u a a a a a l l v v b ) ] ] ] ) ) ) 1.Y n 2.aX-X9X9X:X,X,XN.B.m.,.m.B.V.V.V.N.B.&X4X4X7X7X=X*X*XoXoX*X*X*X*X$X$X#X#X.XoX}.'.{ [ ( ` d.l.x.l.l.|.d.b i .   $ = *..XtXaX#X0.@ X & & j z G J J J ` K J 6.].W.W. X*XaXFX-X7X7X-X-XtXtXtXFXFXFXFXFXmXFXmXMX9X6X>X:X:X1X1XA.A.m.w.w.m.m.S.1XhXhX2XCXsX#.#.m V Y ) ] ] ] 5.5.z l 4 l l 2 2 3 2 2 u 2 u u u l b L P L L U U U N B n m %.: ,.pXBXkXeXeXeXxXrXN.B.B.m.B.N.:X,X1XhX<XvXhXdXfXmXmXbXbXtXtXtXiXiXiXmXmXmXnXnXnXnXiXoX3.H ` ` W A S s s u.Q 2 . . ; $ - + o 5 >.o.o + O $ . 9 h g ^.d r.r.d f u.d.7.3.2.2. X*XaXbXtXbXFXFXFXFXGXGXmX*X*XtXmXuX7X3X3X9XdX3X>X0X9X9XMXwX6X6X3X5X8X5X3X6X9X8XuXtX8.5.] ] ] ] ( G G G D D S S S S S S Z S Z A A b L L L T U b c k n n m V *.*.;.yXtX-XfX0XqXeX:XB.B.B.N.2X2X3X7X4X4X2X2X&X&X=X=X=X=XiX=X;X3X7XuXuXuXuXiXnXmXiX-X X1.) 6.( [ d._ D D D D J 4 . ; & $ $ w B w $ .   .   i i i i a a Z ! d.6.7.4.2.1.*.4.#XiXiXuXnXfX6X<X;X=X-X8XnXMXMXdXjXlXlXdX5X6XjXjXdXfX0X3X7X7X7X7X7X-XnX8X7X7XiXyX4.U ' ' ( ( ( W v l u i u i i i u u u u u u v b W L L L B N n C m m M 1.<.8.7.8. XtXgXgXgXgXfXnXCXnXnX9X9X9X9X9X9X8X5X3X3X7X3X7X7X7X7X7X=X&X&X&X;X",
"1X1XqXqX1X<X,X<XjXBX6X>XjX6X>XjXMXnXfX9XwXjXjXkXBXlXlXlXlXlXlXNXBXMX7X9.%.*.*.1.V 1.5.5.6.E.{ ( v l u u u u a a a a a l l v b b { { { ] ] ) ) ) Y 5 2.FX-XuX0X:X:X,X:XN.N.B.B.B.V.Z.,X,X&X&X&X&X2X2X-X-X=X*X*X=X*XsXsX$X$X$X#X#XyXXX].6.] ( ] l.l.x.x.l.|.l.A j q & $ k 7.tXFXtXmX=X6 o 4 & j b G J ` ` ` K ) l.].6.8.7.*XaXuX&X3X3X9X9X8XuXmXmXFXmXmXnXnXnXnXMX9XjX6X:X:X1X1X1XA.m.w.m.m.w.m.A.1XhX,XCX$X..%.m 1.1.] ] ] ] 6.6.b l j l l 2 2 2 2 2 u u l l l l b L P P P L L L c B n m *.< :.0XMXBXkXeXeXkXeXrXrXZ.N.Z.,XkXwX6XhXqXhX6X>X5XfX8XnXnXnXuXuX8X8X8X-X8XfXfXfXnXnXmXoX3.) ` [ [ ^ Q i.s i.E i   . . $ $ O * 0.=Xb.6 O $ &   i h d d d r.r.d f ! 6.7.c.4.0.oXFXIXFXtXtXtXiX8X8XnXnX9XuXuXmXCXMX9X9XjX6X6X>X>X6X4X7X9X4X4X3X5X8X8X5X5X0X0X8XiXtX3.) ] ] ] ] ( ( ( G A D D S S S S S Z Z Z A A b L L L T L b c k k n n m *.*.;.*XtX-XfX4XeXeX4XN.B.N.4X7X7X7X0X0X0X4X4X3X2X=X&X%X;X8X-X>X>X3X0XuXuXuXnXVXuXtXtXXX) B ] ( [ d._ D D D D g.J 4 . & . $ N k $ . q 9   i a i i i u u Z ! d.1.1.;.;.2.:.c.=X7X7X8XfXdXdX<X<X3X-X7X9XfX9XdXjXjXlXjX6X6XjXdX5XjX9X3X2X2X7X7X8X8X9X-X8XiXiX*X8.U ' ' ( ( ' W v u u i i i i i u u u u u u v L W L L L c N n C m m M <.<.8.W.8. XtXgXgXgXfXfXnXCXMXnX9X9X8X9X9X9X9X9X5X3X8X8X5X3X9X0X7X3X3X3X3X9X",
"qXqX6X6XqXhXqX6X6X6X6X6X9X9X6X5X9X9X6X6X0XwXjXkXxXxXjXjXjXfXgXnXCXCX7X,.%.:.*.*.V 1.5.5.] 6.] ( x l l u u u a a Z u l Z v v b ( { { ] ] ] ] ) ) V V ;.tXiX7X&X:XwX4X,X:X:XrXrX:XrX4X4X4X4X3X2X-X2X7X7X7X-X=X=X=X$XsXsXsXsXN.N.sX#X.X XW.W.6.6.l.l.l.x.x.l.l._ 2 q . $ N XXaXaX=XIXc.5 # 4 & 4 A J _ a.a.` J ` l.6.W.W.7..XuX7X3X4X6X6X6XdXMXNXNXVXnXnXfXnXMXnXfXfXjXjXhXqX1X1X1XA.Z.m.w.w.w.S.1XeX1XqXCXM...m V 1.) ] ] { { 6.6.B b z z z l 4 2 4 2 2 u l l l l L ~ ~ P P P L L U N N n m , #.sXCXNXMXwXeXeXeXeXeXeXwXwXpXpXMXMXjXhX6X4X3X9X9X8XnXuX8X8X9X8X7X7XiX-X8XdXdX8XnXmX*X) ] ' [ ^ ^ E s s f Q v   . $ $ . = 7.aXIXiX#Xn X &   . h d d d r.d d Q A G 7.4.2.0.=XGXGXmXnXnXnXfXfXjXjXwXwXMXMXuXMXMXjXdX6XjXdX6X6X6X6X5X3X4X6X9X5X7X-X;X>X6X0XuXiX*X3.6.] ] ] ] ] ( ( _ W D S S S S S S S D Z A A L L L ' T L L c k k n n m M ;.*.oX-X;X-XwXwXeX:X:X:X,X2X-X7X9XuX8X7X7X2X&X&X&X;X;X;X>X>X>X>X3X7X0XuXuXuX8XnXbXbX XY Y U ( ~ W [ _ _ D D J J G z & $ & w k &   . 9 i i u i u u i v W [ d.V *.*.;.2.:.b.=XCX8X9XfXdXdXhX>X&X2X0XwXjXjXdXdX6XdXdXdXfXfXfXfXjXwX7X=X=X7XiX8X8X9X-X7XiXiX*X1.( ' ' ' ' ' ( W v i i u a s h u u u 2 u i v L W L L L B N n n m m m *.2.8.8.8.c.tXmXNXgX5XfXCXmXnXnXMXnXfX9X8X7X9X5X7X7X5X8X8X5X3X9X9X9X0X4X4X4X",
"6X6X6X6XjXjX6X6X6X6X9X9XfXfX9X8X9X0X9X6X0XqXjXjXxXxXjXjXMXmXmXmXMXCX7X,.%.:.*.*.<.5.7.5.5.E.{ ' z v l l u u u Z Z l v Z v v b ( { { ] ] ] ] ] ) ) V ;.tXuX8X7X2XwX4X2X2XrX:X,XeXeX4X0X0X7X7X2X2X2X3X7X3X2X=X=X&XsXsX:XrXsXsXsXsX$X#X X7.W.7.6.].6.l.l.l.l.l.` j     $ w V  XyXIX#X;.@ ; & & j G J ` ` a.` ` { ].6.7.7.8..XuX6X,X<X<X6X6XjXjXjXMXMXfXfXfXfXfXfXdXjXjXjX6XqXhXvX1X1XA.Z.B.m.m.A.1XeX1XqXCXM.6 m V ) ] ] ] { { E.E.( B z z z l l l 4 2 2 l l l l v L ~ ~ P P P L L U N N n m , #.$XCXMXMXpXwXwXwXwXwXwXpXpXpXnXuXuXMXjX9X9X9X8X9X8XuX8X8X8X9X9X0X7XiXiX8X8XdXfXmXFX*X) ] ' P.P.^ E s s s Q v i     $ k 7.yXFXaXiXaX*Xz . . 2 f t.d d d d g E A V 2.2.:.9.*XGXGXnX8XNXjXjXjXxXkXkXkXkXMXjXwXjXfXdXdXjXfXdX9X9X9X9X6X>X6X6X3X-X;X;X3X0X9XuXtX*X3.] ' ] ] ] ] ( ( _ W D S S S S S S D D A A W L L L T T L L c c k n n M V ;.V oX-X*X;X4X4X4X:XsX:XrX2X-X-X8X8X7X-X=X2X;X;X;X;X>X>X>X>X>X3X7X0XuXuXuXuXuXnXbXbXXX) ) T ' ~ ' [ [ _ _ D D J J G z & $ $ k &     i i u u a a u i Z [ { { Y <.<.1.2.:.c.-XmX8XfXjXdXhXhX,X&X2X0XpXMXMXjXdXfXfXfXnXnXnX9X9XCXMXnX7XiXuXnXnX5X9X-X7X-XtX*X1.( ' ' ' ' ' ( W v u i u u u i u u u i u v b L W L L L b N n n m m m *.1.8.8.7. X-XmXNXgX5XfXMXnXnXnXnXnX9X9X5X7X8X3X7X7X3X5X3X3X3X9X9XwX0X0X0X9X",
"6X6X9XjXjXjX9X6X5X8X9XfXnXnX9X8X9X9X0X6X6X6XqXqXjXjXjXjXgXmXmXmXCXCX-X:.%.:.*.<.<.5.5.5.] { { ] b v l v l u u F F Z Z F b v L ' { { { ] ] ] ] ] ) V V yXuXuX0X2X0X:X&X2X0X2X4XpXwXwXpXuXiX7X7X2X3X3X2X2X2X&X&X&XsXsX:XrX:XsXsXsX:X$Xv.2.8.7.6.].6.l.l.l.a.l.{ G & q q & $ r 8.yX<.n $ $ & q c ( _ J ` ` ` ` { '.6.6.8.1.v.pX4X,X<X6X6X6X6XdXdXfXfXjXjXfXdXfXfXfXfXjXdX6XhXxXhX1X1X1XrXA.Z.Z.A.1X1X1XqXMXM.6 m V ) ] ] { { L.E.E.] U z z z l l l 4 4 l l j j l b P ' ~ P P P P L U N N n m , #.#XCXmXuXuX9X9XwXwXMXMXMXMXMXnXmXmXCXMXuX9XuXuXuX8X8X8X8X8X9XuX9XuXiXiX8X8XdXgXmXFX*X) ' P K.G.^ E s s a Q Z j   . . N ].aXFXFXaXGXc.4 . . 3 s d d d d p a W B B 1.;.;.9.*XVXVXfX5XjXjXhXhXxXkXBXBXkXkXjXjX6X6XdXfXjXfXdXdXdX9X9X6X<X<X3X3X;X;X3X6XwX9XuXtX*X) ] ( ] ] ] ] ) ( ( W ! D S S S S S D ! A A W L L L P P L L c c k n C *.V *.*.oXtX;X;X4XqX4X:X:X:X:X2X7X-X8X-X=X&X=X7X=X2X-X>X>X>X>X5X-X7X7XuXuXiXuXiXiXmXbXbXXX) ] ' ' ' ' ' [ [ _ _ D D _ _ G k & - N k q j v v v u u u i i W [ { ] Y <.1.1.2.2.c.=XmX8XfXjXdXjXjX6X:X2XuXpXMXMXfXfXMXnXnXnXnXuXuX9XMXMXMX8XiXuXuX9X7X9X7X8X-X-X*X1.( ' ' ' ' ' ( ( W v i u u u u u u u u u v W W L L L L B N n n m m 6 V 1.8.8.7. X-XgXnXgXdXfXMXnX9X9X9X9X9X9X3X7X5X3X3X3X3X3X3X7X3X0X9XpX9X9X9X9X",
"9X9X9XfXMXMX9X8X8X8X9XnXMXMXnX8X9X0X0X6X6X6XqXqXhXjXjXjXmXmXmXmXCXCX=X4.%.;.*.1.<.5.5.5.] ] { ] ( b l v Z u u F Z F F F b b ( ] { { ] ] ] ] ] ] ) C M *XiXuX7X2X7X$XM.2X0X4X0XpXpXpXpXuXiX7X7X2X2X2X:X:X:X:X:X:X&X&X:X:X:XsXsXsX4X:Xv.2.8.8.7.].l.l.l.l.` ` ` G j q $ $ $ $ w Y t w $ q q x L ( ( _ ` ` ` ` { '.E.5.1.*.v.uX,X:X<X6X5X6X6X6X9XdX9XjXMXjX9X9XfXfXjXfXdX6XhXlXxXqX1X1XeX1XrXrXrX1X1X1XqXMXv.6 m V ) ] ] { L.L.E.E.E.] B k z z l l 4 l l l u j v L ( ' ' ~ P ' ~ L U N N n m , #.M.CXmXuXuX9X9X9X0XwXjXMXMXMXCXVXVXVXnXuXuXuXuXuX9XuX8X8X8X8X9X9XuXiXiX8X5XdXgXmXFXoXY ' P K.G.^ E s s s E W v   . $ & N 7.tXFXtX.X4 ; ; . . h d r.d p s E ( B C *.;.=.9.*XCXCXfX6XxXhX<X6XhXxXkXkXjXjXjXjX6X5XdXfXfXgXfXfXdXdX6X6X6X6X5X>X3X5X6XwXwX9XuXtX*X) ] ' ' ] ] ] ) ( G A ! ! S S S S S ! ! W A W L L L P P L I b c c n C *.*.*.*.*XmXtX8X9XwXeX:X:XN.&X&X8X8X8X7X;X&X2X7X2X7X7X7X7X5X5X5X7X8X8XuXiXiXuXuXuXmXbXbXXX) ] ' ' ' ' ' [ { [ _ A A A _ ( G B V V B k z b v v u i i i v W { { ) Y <.1.1.2.2.c.=XnX8XfXjXdXjXjX6X:X2XuXpXpXpXfXfXfXfXnXnXnXnXuXuX9XdX9X8X8XuX8X5X3XfX5X8XiXtX*X4.( ' ' ' ' ' ( ( ( b u u u u u u u u u l b W W L L L L b B n n m 6 6 V 1.8.8.W. X=XgXnXgXdXfXnXnX8X9X9X9X8X5X7X7X5X3X3X3X3X5X3X3X3X0X9XuXuX9X0X3X",
"9X0X9XMXMXMX9X9X9X9X9XpXMXMXwX0X9X0X4X4X4XqXwXjXjXjXjXfXmXmXmXmXCXmX=X9.%.;.M <.1.5.!.6.6.I.I.I.' b l b v u 2 l F F Z b v b ( ] { { { { ] ] ] ] ) N C %XtXiX0X7X7XM.v.&XuX0X0XqX0X0X0X7X7X2X-X=X=X&X&X:X:X:X:X:X:X:X:X:X:X:X:XrXeX:XM.:.2.8.6.].'.l.l.l.` ` ` ` k & . & w w e e e q q e x I L W ( G ` ` ` { I.'.!.5.1.*.b.0X:XZ.5X5X8X8X8X9X9X9X9XfXMXjXfX9X9XnXfXgXdX5XdXNXlX6XjXjXjXqX,X,X,X<X1X<X6XjXv.6 m V ) ] ] { ] ] E.!.[.E.( b z v l l u l l u u l L W ' ' ' ' P ' T L U N N n m , ..0.CXnX9X8X9X9X0X6X6X6X0X9XnXMXCXCXCXuXuXnXnX9X9X9XnX9X9X9X9X9X9X8XiXiX8X5X5XgXnXbXXXY T P ' ' ' E s s a E W v   X & & ; 4 7.oX4.= ; ; ; X   f t.d p d a W ) Y V *.;.*.9.=XGXAXjXjXlXhXdX6XhXjXjXjXjXjXjX6X5X5XdXgXgXfXdXfXfXfX6X6XhX6X5X>X5X6XwXjXjX0XuXtX*X) ] [ ' ' ] ] ] ( ( A W ! S S S S S ! ! W A W L L L P P L I b c c N n <.*.*.*.*XmXnXgX9X0X6X,X&XV.&X&X8X9X3X2X&X&X2X0X2X2X2X2X3X3X3X5X8X8XuXuXuXuXuX8XiXnXmXbXXX) ] ' ' ~ ' ' ] { { [ _ W W W ( ) ) 3.) B z z l v v u i v E W { I.] ] Y <.<.1.2.:.c.=XnX5X9XjXdXjXjX4X:X2X0XpX9X9X8XdXfXfXfXfXnXMXMXMX6XdXnXnXuXnXfX5X>XdX5XdX8XiX=X7.( ' ' ' ' ' ' ( ( A l u u u u u u u u v W ( W L L L L U B N C m m m V 1.8.8.7.c.=XgXmXgXdXfXMXuX8X0X0X9X9X3X3X3X9X4X3X3X4X9X9X3X3X7X8X8X8X7X7X=X",
"9X9X9XpXMXpXpX9X9X0X0XwXpXpXwX0X0X4X4X4X4XqXqXjXjXjXfXfXnXnXmXmXCXmX=X9.*.*.M *.<.5.6.E.{ ] I.I.{ ( z z z l u l F F F b v b ) { { { { { ] ] ] ] ) C C *XtXiX0X0X8X%Xv.&X9XwX4X4X0X0X0X2X7X2X2X-X&X&X:X:X:X:X:X2X:X&X&X&X&X&X:X,XeX,XM.:.;.5.6.'.'.{ d.d.` ` a.` G k & $ $ & w N q q q x I L W W ( G ( ` { { I.E.E.5.) V b.6X:XZ.8X8X8X8X8X8X8X9X9X9X9XfXfXfXfXfXfXgXgXdXgXmXfX9XjXNXjX6X4X4X,X,X<X<XhXfXb.7 M V ) ] ] ] ] ] E.!.[.Q.] L b v Z v u l l u u v W ~ ' ' ' T T P P L U B N n m 6 } 0.CXMX9X0X0XqX6X6X,X,X4X4X6X0X9XnXnX8X8XnXnX9X9XfXfXfXfX9X8X5X8X9XuXuX9X<X6XdXdX-X XB R U T W ( W f g a E W b 4 . . & ; X - V n X ; & & X i / g p d g E ( ) V V *.;.;.0.*XCXAXNXlXzXlXjXjXjXMXMXfXjXhXdXdX5XdXdXgXdXdXdXfXdXdX6X6XhX<X<X>X<X6X6XqXjX6X8XtX*X) { { ' L.] ] ] ] ( ( A D ! S S S S ! ! W A W L L P P P P I b c c n n <.*.*.M .XtX-XgXfX9X6X6X4X2X3X3X3X3X2X:X&X&X2X2X2X2X0X7X7X3X7X7X8X9XuXuXuXuX0X0X8XuXiXbXXX) ' T ' ~ ~ ' ' L.] [ [ ! W W ( G H ) H H B z b A A Z Z W [ [ I.L.] Y Y <.<.2.2.:.b.&XnX5X9XjXqXjXjX4X2X2X0X9X9X5X5X5X5XdXdXdXdXjXjXjX6XdXjXfXnXnXfX5X>X5X;X5X8X-X*X4.) ' ' ' ' ' ] ( ( A v l u 2 2 2 u u v A W ( L L L L L U B N C m m m V 2.W.8.7.c.=XgXmXgXdXfXnXuX9X9X9X9X4X3X3X3X9X4X3X3X4X9X9X0X8X7X7X7X7X7X-X=X",
"pXuXpXpXpXpXwXwXwXqX0XqXeXeXeXqXqX0X4X4X4X6XqXqXjXjXfXfXnXnXnXnXCXmX=X9.;.*.m V Y 5.5.E.] ] ] { I.( b l l l l l l F A b b L ] E.E.I.I.{ ] ] ] ) ) B C *XtXiX0X9X8X;X%X&X6XjX9X4X4X4X4X4X3X2X7X7X=X&X:X:X:X:X:X:X&X&X&X&X&X&X2X2X,X,XM.:.;.1.5.'.'.{ a.d.a.` a.` ` K z ; X O - n & & q b W E Z W ( G G ` { { I.E.L.] ) V b.4X:X:X8XiXuXiX8X8X8X8X7X8X8XuXnXnXnXfXgXgXgXdXdXnXnXfXfXMXMX9X6X0XqX6X6XvXhXfXb.6 M H ) ) ] ] ] ] !.!.E.E.I.( b v Z l u u a u v E ^ ~ ' ' ' T P P L L L B B n m m 6 0.CXMXqX6XqXhXqX1X<X<X,X,X4X4X4X6X9X-X-XfXfX5X5XfXfXdXfX9X5X5X8XnXuXpXjX<XvXxX6X=Xc.N R U U L ( A f g g Q ! W l   .   & X X & - $ . . & q v / s p p g E ( ) V C *.1.;.9.*XCXVXNXlXlXlXlXBXNXVXNXnXjXjXdXdXgXgXdXdXdXgXdXdXfXdXdX6XhXvX<X<X5X6X6X6XjX5X7XtX*X) ] { ] L.] ] ] ] ] ( A D ! S S S S ! ! W b L L P P P P P I b c c n n <.*.*.M .X-X-XgXnX9X6XwXwX6X5X9X2X:X:X2X2X2X2XsX2X0X0XuX0X7X7XuX8X8XuXuXuX0X2X4X0XuXiXmXXXY Y T ' ~ ~ K.K.K.K.' [ ^ ! ! G G H ) ) ` ) ( _ _ _ _ [ [ [ [ ] ] ] R <.<.<.2.:.:.9.&XMX6XqXjXqXjXjX4X2X2X0X9X9X5XdXdXdXdXdXdXdXdX6X6X5XdXdX9X9XnX8X5X5XdX;X5X8XiX*X3.) ' ' ' ' ] ] ) ( ( A v l u 2 2 u v A W ( ( T L L L L L B N N m m m *.8.W.W.~.c.=XgXNXgXdXfXuX7X9X9X9X9X4X4X4X4X9X3X3X3X3X9X4X7X8X7X7X7X7X7X7X-X",
"pXwX9XwXpXpXwXwXwXqX0X4X0XqXeXqXwXqX0X4X6X6X6X6XjXjXjXfXgXgXnXnXCXmX-X9.;.*.m V Y 5.6.E.E.] ] I.E.{ W l l F F l l F A b b U ] I.E.E.I.I.] ] ' ( ) B C *XtX7X7X9XfX-X-X>X6XjXjX6X6X4X4X4X3X3X7X7X=X2X2X:X:X:X:X:X&X&X&X3X3X3X3X4X:X,XM.:.;.1.5.'.'.{ ` l.a.` ` ` x.3.K 4 - - & - & & z ( ( Z Z W _ ( ( _ { { I.I.L.] ) V v.0X,X>XuXiXuXiX8X8X8X8X7X7X7X8XnXMXnX9XgXmXmXfXfXfXfXfX8XnXnX9X9X9X9X6X<XhXjXjXb.6 M H ) ) ] ) ( ' 5.!.L.E.I.( W v Z u u u a a v ~ [ ' ' ' ' T P L L I L B N n m m 6 9.CXjXqX6XqXhXqX1XqXqXqX6X6X4X4X3X8X;X;X8XfX5X5XfX6XfX9X9X5X5XfXMXuXCXMXhXvXxX5X&X4.n Y U U b ( W Q f f Q ! W v u   . . . & & $ . j . . q W ^ g g s g W ( ) C n V 1.;.4.%XnXNXjXlXlXlXBXBXVXVXmXnXNXjXdXfXNXmXgXdXdXfXfXfXjXjXjX6XlXdXdX6XdXdXhXqXjX3X7XtXoX) ' [ ' ' ' ] ] ] ] ( W ! ! ! D D D _ ! W b L ~ P P P P L I I c c k n <.*.*.M .XtXnXVXgX5X>X5X6X7X;X;X2X:X:X2X0X0X2XsX2X0XuXuX0X2X7XuX9X9X9X9X0X0X4X4XwXuXmXmXXX) Y T ' ~ ' K.K.K.K.~ K.~ ^ W W G ) 3.6.6.'.l.d.(.(._.(.P.[ ' ] L.] Y <.<.<.2.2.:.9.&XCX9XjXjXjXjXjX,X3X0X9X9XfXfXdXdXdXdXdXdXdX6X6X6X5XdXdXfXfXfXfX5XgXgX5XdXnXiX*X2.) ' ' ' ' ' ] ) ) ) ( A z l u 2 l v W ( ' ( T P L L L B N N n n m m V 8.7.W.7.c.=XnXNXgXfXfXuX7X9X9X8X0X0X0X0X4X3X3X3X3X3X3X3X3X8X8X7X7X7X8X7X7X",
"0X0X0X9X9XwXwXwXwXwX9X0X0X0XwXwXpX9X4X0X6X4X6XjXhXdXhXlXjXfXfX8XnXnX=X9.;.;.n C ) ] 6.I.I.I.I.I.I.E.{ L v l z l 2 F A b v ( { I.I.I.I.L.' ' ' ] ] B C *X-X-X0XjX8X-X-X3X5X6X6X6X4X4X4X4X0X3X-X=X=X3X2X2X:X:X:X:X:XN.&X2X4X6XqX4X4XeX#X:.*.1.5.6.E.E.{ { ` ` 3.3.l.a.` G z z k z z b b b W W W W ( ( ] ] L.I.L.K.' Y Y 1..XuX4X4XuXuX9X9X8X8X9X9X5X9X7X-X9X8X3X9X3X8XnXMXnXnXuXnXnXnXfX9X5X5X6XdX<XqXqX9Xb.7 C 3.) ) ) ) ] ] ] ] L.L.[.P.W Z a S u u a v ~ K.L.K.' K.K.' T P L U R B N C m , , 0.9XdXjX6X6XqXjX6XjX6X6X6X6X>X>X5X>X;X3X5X9XfX9X8XnXnX5X5XfXfX5XfXmXVXVXCXNXjXdX8X#XV C U U T T ~ W Q / ! W W A A 2   . . & q & & .   l W ^ / a h E E E W b c B V 1.;.4.#XGXAXgXgXgXfXNXNXVXVXVXCXNXNXBXNXjXdXfXfXCXfXdXjXjXdX6X6XgXdXgXgXdX<X<XdX>X0XiXtXyX) ] ] ' ' ' ' ' ' ] [ [ W W ! ! D D _ W W W ~ ~ P P P P P I b c c k n V *.1.;.*XtXmXmXdX5X5X5X8X8X7X-X:X:X:X2X4X4X2X2X2X2X2X0X0X0X0X0X0X9X0X0XqXqX0X4XMXuXiXFX.XH Y U ' ~ ~ ~ G.G.G.G.G.G.~ ~ W ( ( U ] [.E.I.Y.I.I.I.I.P.' ' L.] T R V <.2.2.2.:.0.$XuXuXfXjXjXdX6X6X6X0X9XfXfXfX9X9X3X5XdXjXjXjXdXdXdXdXfXdXfXdXdX6XhXdX>XgX-X=XtX7.R K.K.K.' ' ] { ] ) Y H B l u u v W ' [ ' ~ P L P L U U B N n n n n V 2.8.4.4.c.#XiXGXnX7X8XpX7X2X2X2X2X0X0X0X0X7X7X7X3X3X>X3X9X9X8X7X7X7X7X7X7X",
"wXwXwX9X9X0X0X0X9X0X9X9X9X9X9XuX9X8X9XwX6X>X<X6XhXdXdXhXjXfXfXfXuXmX7X9.M C n V ) ] I.I.I.I.I.I.Q.Q.E.] L b b v l v Z v W [ I.I.L.I.I.L.' ' ' ( ] V V *X-X-X3X6X8X5X-X3X3X6X4X6X4X4X4X4X3X7X-X=X2X3X2X2X:X:X:X2X:XsX&X4X4X6X6X4XeXpX$X:.*.1.5.E.'.'.'.6.6.3.3.3.a.a.` ` ) J ) ) G B B b W W W ( ' [ I.L.Y.Y.Y.L.L.] 1.1..XuX0X4X9X9X9X9X8X8X9X9X9X9X3X;X8X9X3X9X8X8XuXuXpXnXMXMXnXnX9X6X5X5X6XhX1XqXqX9Xv.6 C 1.) ) ) ) ) ) ] ] ] L.[.I.[ W u Z a a Z v ' L.L.L.G.G.K.T T T T U U B N n m , , 9.pXdX6X3X5XdXjXjX6X5X6XdX6X>X3X6X5X5X5X9XfXfX9X8XnXnX8X8XnXnX8XnXmXmXmXVXVXNXgX8X%XH C B U T P P W W ! ! ^ ! W W v l u   & & & & j l A ! ! E E E E E W W L c b U 1.2.4.#XmXAXmXNXlXlXlXNXNXCXGXVXMXjXjXdX6X6X9XfX9XfXdX5X5XdXdX5X5XdXgXdXgXdXvX<X6X6X7XtXtX3.] ' ] ] ] ' K.] L.] [ [ _ A A _ _ G W W ~ ~ ~ ~ P P P P I I c c k n C *.*.;.*X-XuXfX8X5X5X5X8X7X-X=X:X:X:X2X4X3X2X2X2X2X3X3X0X0X0X0X9X9X4X4X4X4X4X0XpXuXiXFXXXV Y ( ' ' ~ G.G.G.G.G.G.G.G.~ ~ ~ W L T Q.I.I.Y.I.I.P.P.P.] ' ' ] T R Y 1.2.2.2.2.0.$XuXuXnXfXfXdXdXdX6X9X9X9XfX9X9X9XMXfX9X9X9X9X6X6XdXdXfXdXdXfX6XdX6XdXdXBX8X-XyX8.] K.K.' [ [ [ ] ) ) Y ) G A F Z ( ( ( ( ~ P ~ ~ P L U U B N n n n C V 1.4.4.0.c.%XiXVXiX7X7X8X0X0X0X0XuXuX8XuX9XuX8X7X3X3X3X4X6X9X9X8X7X7X7X7X7X",
"wXwX9X9X0X6X9X9X0X0X0X0X9X9X9X9X0X8XuXMXjX9XhXlXdXdX6X6X9XfXMXMXMXCXuX0.M 5 5 V Y ] E.I.I.I.I.I.E.[.[.I.( W b v F v l v ( { I.I.L.I.L.L.' ' ' ) ) B V *XiXiX9XwX9X8X7X7X3X4X4X4X4X4X4X4X3X7X3X=X7X3X2X2X2X:X:X2X:XN.&X,X,X4X6X4X0XpX$X2.*.1.5.E.[.[.'.'.l.6.3.` _ _ ` ` ` ` ` 6.) ( ( L L W ' ' [ { I.I.Y.Y.Y.L.L.] 1.1..XuX3X3X0X9X9X9X8X8X9X9X9X9X3X;X5X9X5XjX9X8X8X9XuXMXCXCXnXnX9X6X6X6X6XhXhXqX6X9Xv.M M 1.) ) ) ) ' ) ) ] L.L.Q.I.[ _ b Z F A W W ' L.I.L.~ ~ ~ P T T P L U c N n M 6 < ,.wX9X6X6X9XNXNXjX5X3X6X9X9X5X5XfXMXMXfXfXnXfX9X8X8X9X7X8XNXnXfXnXmXmXCXNXVXNXmXnX*X;.C B L P P P W W ! ^ [ ^ ! ! ! W A l j j j k G ( _ [ ^ E E ^ W E W L b c B Y 1.2.4..XmXAXNXDXlXgXfXgXMXNXGXGXMXfXdX6X5X5X9XfX3XfX9X>X>XjXNX>X>X<XdXhXlXlXdX6X6X9X7XtXyX3.] ] { L.L.L.L.L.K.] ' { ` G G ` ` G W W ~ ~ ~ ~ P P P P L L c c k n C *.*.;.*XiXuX8XnXfXfX9X9X8X-X=X2X2X2X2X3X3X2X2X;X2X3X3X4X4X9X9X9X9X4X4X4X4X4X0XuXuXiXaXXXV V ( ' ' ~ G.G.G.G.G.G.G.G.~ ~ ~ P L T Q.I.I.I.P.Y.P.P.K.] ' ' T R R <.1.2.2.2.:.0.*XuXuXuXfXfXdXdXdX6X9X9X9X9X9X9X9XMX9X9X9XfXjXjXdXdXdX6X6X9X9X6XdX6XdXlXNX8XtX*X1.] ' T ' [ { ] ) ) ) ) ) ) G A A ( ( ( ( ' ( ' ' P L U U B N n n n C *.2.4.4.0.v..X%X=XiX7X7X7X0XpXuXuXuX7X7X7X7XuX8X7X7X3X9XqX9X9X8X8X8X7X7X7X8X",
"6X6X0X0X0X9X9X9X4X0X0X9X9X0X0X0XuXuXuX9X9X9XjXNX6X6X5X5X5X9XMXCXMXuX=X9.;.M 5 C ) 5.E.E.I.I.I.I.I.E.'.'.{ ( F l Z l v W ] I.I.I.L.L.L.L.' ' ' ) U N C *XiXiX0XwX9X9X5X3X3X4X4X4X4X4X4X4X3X7X7X3X3X3X2X4X2X:X:X:X&XN.&X2X:X4X6X4XeXwX$X:.*.) ] { Q.Y.Y.'.'.E.{ ) ( _ _ ` ` ` ) ) { ) ( ( ' ' [ P.[ I.I.I.Y.Y.T.L.L.] 1.;.v.uX3X4X9X9X9X8X8X8X9X9XfX9X3X;X3X9X9XMX9X8X8XfXMXCXCXnXuXuX9X9X6X6X6XhXkXkX,X7Xv.M V 3.) ) ) ( ) ' ' ' I.K.Y.I.{ { G G b G ( ( ' K.I.K.~ ~ P P T T P L L b c n M 6 , ,.0X0XwXjXNXCXjX3X3X5X6X9XdX9X9X9XCXMXfXfXfXfX9X8X8X8X-X8XnXnX8XnXmXmXnXnXNXNXNXmX;X;.C B L T P P W W W ^ ^ ^ ! ! ! ! ( A b b G ) _ _ [ [ ! W W ^ W W L L b c N V 1.1.4..XnXVXNXBXgXdXdXdXfXMXVXAXCXlXjXdXfX9XfXfX3X9X9X3X6XNXNX6X>X>X5XgXzXlXdX<X>X0XiXtXoX3.( { L.I.I.P.P.K.K.[ I.] ' { ` G B G ( W L L P P P P P P L L b c k n n V *.*.*XiXiX7XnXnXfXnX9X8X7X7X7X7X2X7X0X7X3X2X2X3X3X3X4X9X0X0X9X9X4X4X4X4XqXqXuXuXiXtX XV H ( T P ~ ~ G.G.G.G.G.G.G.~ ~ ~ P L T !.I.I.I.L.P.K.' ' ] ' ' T T Y <.1.2.;.:.:.0.*XuXuXuXnXfXfXfXdX9X9X9X9X9X9X9X9X9X9X9XMXjXjXfXdXdXdX9X9X9XjXMXjXjXlXNXnXmXGXtX7.] ' ( ( ] { { ) ) ) ) ) ( G b b ( ( ( ( ' ' ' T U U U U B N k k n C *.8.0.0.0.c.0.v.#X7XiXiXiXiXiX0X7X=X=X=X%X%X#X=X7X8X9X9X0X0X9X8X8X8X7X7X8X8X",
"6X6X6X6X0X6X6X6X3X4X4X0X0X0X0X3XuXuXuX8X9X9X9X9XjXwX9X9X8XpXCXGXMX0X&X9.;.%.5 C 1.6.E.E.I.I.I.I.E.E.Q.'.'.[ W l v v W { E.E.E.L.L.L.L.' ' ' ] ] ) B M *XtX7X4X4X9X9X0X3X4X4X4X4X4X4X4X4X3X3X7X7X3X3X4X3X2X:X:X:X:XN.&X2X2X>X6X4X4XpX$X:.M Y ] L.I.Y.Y.Q.[.'.I.{ { { { { 6.{ ] ) 6.{ { L.L.P.P.P.K.I.I.P.I.T.L.' ] ) ) ;.v.uX6X6X9X9X9X9X9X9X9X9XfX9X-X&X3X9X9XnX8X8XuXnXVXVXmXnXuXnXnX9X9X6XqXwXhXqX2X-Xv.%.M 1.) ) ' ' ' ' ] ' I.L.I.I.{ 6.Y Y B B ) ( ' ' K.K.' ~ P P ' ' P L L b b z V m 6 0.wXwXMXMXMXMX9X3X9X9X9X9X9XfX9X8XnXfX9X9XfXfXfX9X8X9X7X8XMXfX8X8XnXnXnXnXMXNXmXmX=X;.B U U T P P W E W W ! / E E W W W W ( ( ( ` _ _ ( ( _ W W E W L L L c c N V *.1.4..XiXVXmXgXdXdXdXfXlXNXCXNXNXNXNXNXNXfXfX6X9X6X9XMXCXCXMXMX6X6X6XdXjXlXhX6X>X2XuXaX*X7.( ] ' K.K.P.I.P.I.I.I.] ] ` ) B C ) ( L L L P P P P I I L L b c c n n V *.*.*XiXiX7X8X8X8X9X8X7X7X3X7X7X7X7X0X0X0X7X3X3X0X0X9X0X9X9X9X9X9X4X4X4X0X0X8XiXiXtXc.C V ) U P P ~ G.G.G.G.G.G.G.G.G.~ P L T Q.I.I.I.K.K.' ' ' ' ' ' ' T Y <.1.1.;.:.:.0.*XuXuXuXnXfXfXfXfX9X9X9X9X9X9X9X9X5X9X9X9X9X3X5X9X4X3X3X0X0XuXpXMX9X6X9X8XmXFX*X6.) ( ) ) ] ] ] ) ( ( ( ( ( b b b G G ( ( ( ( ' T T U U U B B n n C M ;.2.4.4.2.:.*.*.:.0.c.0.0.0.9.9.:.:.:.;.;.;.>.v.=X7X3X2X2X3X3X5X3X3X3X5X8X8X",
"jXjXwX6X6X4X3X3X4X4X0X9X0X0X0X3XuXuX8X8X9XMXMX9X9X9XuX0X0XuXpXCXCXpX7X0.%.m n 1.8.6.W.E.I.I.I.I.W.W.'.{.[.(.! A Z W [ I.E.Q.!.!.L.L.' ' ' ' ] ] ) B V =XiXuXpXMX9X0X0X0X0X0X0X0X0X0X0X0X7X3X5X5X7X3X4X4X2X2X:X:X4X&X2X4X>X>X6X4X0XpX$X:.*.Y ] E.I.Y.Y.Y.[.[.).Y.(.'.'.[.'.E.6.] ] { L.I.I.L.L.P.P.I.Y.I.T.Y.I.L.] ) H ;.v.nX9X6X9X9X9X9X9X9X9X9X9X9X;X&X8X9X5X9XfXfXnXmXVXmXnXuXuXnXMXfX9X9XwXwX6XqX4XuX#X*.V V ) ] ] ] ] ] ] ' L.' I.E.E.6.B N B Y ) ( ' ' ~ ~ ' ' T T T P P P L b b N M m ..0.CXCXMX0X0X9XpXpXnXnXfX9XfXnXfX8XnXuXuXnXnXnXnXfXnXfX8X8XMXfX8XfXnXnXfXfXfXmXnXnX=X;.B U U ' P P L W W W E E E E E E W W ( ( ( ( ( W W W W W E I L I I L c c N N V ;.2.v.tXmXnXgXgXgXlXlXlXlXjXfXgXgXgXNXNXNXdX6XjX9X9XMXCXMXpXCXCXCXNXNXBXBXNXCXMXuXiXFXaXoX) ( ' ' K.P.I.I.P.{ { I.{ B z B H ) U U L L P P P I I I L L b c c n C *.*.:.*XiXiXuX7X7X8X8X0X7X7X0X7X7X7X7XuXuX8X8X0X9X0X9X9X9X9XwXwX9X0X9X4X6X0X0X0XuXiX=X0.M V ) T T ' ' K.G.G.G.G.G.G.G.G.G.P L L L.L.L.L.' K.' ' ' ' ' ' ' T Y V *.*.*.;.;.0.*XuXnXuXnXnXfX9X9X9X9X9X9X9X9X9X9X9X9X9X9X8X9XnXMXMXpXpXpXCXCXCXCXMXfXnXtXiXtX XY ) ( ) ) ) ) ] { ( W W W W W L ( ( A b b b U ( ' ( ( U U B B C C V *.;.*.*.*.M 5 n > > @ @ @ @ @ 1 1 1 1 + + + # 5 9.=XiX7X2X2X3X3X7X7X7X3X5X9X9X",
"jXjXwX6X6X4X3X>X6X0X9X9X9X9X0X9XuX-X#Xv.b.M.M.M.v.v.v.v.v.v.v.M.M.M.M.,.%.M m 1.8.6.E.E.L.I.E.Q.{.W.{.{.'.[ ! W W _ [ ] I.E.!.!.L.L.K.' ' ' T R Y C V yXuXuX9XwXwX0X0X0XpXpXpXpX9X9X0X9X9X9X9X9X9X9X0X0X4X4X4X2X2X&X:X4X:X>X6X6X0XpX&X:.*.V ] E.I.Y.Y.Y.Y.Y.).[.[.'.[.[.[.'.E.L.] ] L.L.K.L.T.K.P.Y.Y.Y.Y.Y.I.L.] ) Y ;.v.uX9X9XfXfX9X9X9X9X9X9X9X9X;X&X9X9X3X8XgXnXmXmXmXmXnXnXuXuXnXMXuXuXwXwX0XjX8XuX.X*.V Y ] ] ] ] ] ] ] L.K.' Y.I.{ ] N k U ) ( ( W ~ ~ P.' ' ' ' T P P W L b b N M 6 ..B.CXCXpX0X3X8XMXCXMXCXMX9XnXVXVXnXmXmXmXmXMXnXnXfXnXfX5X5XnXuX8XnXnXfXfXfXfXnXnXnX-X;.B B U ( P P P L ~ ~ / / / / / ~ W W W W W L W W W W W W E I L I I L L c c N V *.2.c.=XnXfXgXdXdXdXlXlXlXfXdXgXgXgXgXNXNXNXjXfXfX0X9X9XpXpXpXCXCXBXBXBXBXAXAXGXpXiXaXyX+X) ] ' ' ] { I.{ { { ] ] ( b k B ) ) ( U L L L L L I L L L L b c c n C *.2.2.*X=XiXiX7X7X8XuX0X7X0XuX7X7X7X7XiXuXuX8X8X8X9X9X9X0X9X9XpXwXwX9X0X0X0X0X0XuXiX=X4.M V V T T T T K.K.G.G.G.K.G.G.G.G.P I L L.K.L.L.' ] ' ' ' ' ( ( T U B V *.*.*.;.:.9.%XmXmXnXnXfXfX9X9X9X9X9X9X9X9X9X9X9X3X3X9XnXMX8X7X0X0XuXiXiXiXiX7X-X=X-X*X*XoX8.1.) ( ) ) ] ] ] [ E E E Q E W W ( ( W A A b b ( ) ) ) Y V V V V V *.*.*.M m n > @ 5 5 = + O O O O + 1 o + + @ : > > 4.=XiXiX7X7X3X3X3X3X5X5X9XfXfX",
"qX6X6X6X6X6X4X4X0X9XwXjXpXwX9X9XCX%X:.7 : 7 6 7 6 6 6 6 , , 6 ..7 7 ..%.=.2.M <.5.6.E.6.] E.Q.[.W.W.{.[.{ ( W W W _ _ W ' E.!.] L.L.K.' ' ] T R Y C V *X-X&X#XM.9X0X0X0XpXpXpXpXuXuX8X8X8X9X9X9X8X8X9X0X4X4X4X4X&XN.&X2X&X>X6X6X4XpX$X:.M V ) 5.I.Y.Y.Y.Y.Y.Y.).[.[.[.[.[.Q.E.L.I.I.I.T.Y.Y.Y.Y.T.T.Y.L.L.Y.I.L.] ) V *.v.iX8X9XMXnXfX9X9X9X9X9X9X8X;X&X9X9X7X7XnXNXVXmXnXnXmXmXiXuXmXmXuXuXuXpX9XuX-X=Xc.M V ) ] ] ] ] ] ] L.I.I.K.I.{ ' ( x j ( ( ( L I W ^ P.' ' ' ' T L L P L L B N m , ..M.pXCXCXpX0XuXmXVXVXGXCXnXnXGXJXGXGXGXGXVXVXMXfX8XfX9X-X-XuX9X7XuXfXfXfXfXMXMXnXnXiX2.C B b U L P P P P ~ ~ ~ ~ ~ P ~ ~ ~ ~ ~ ' ' ~ ~ ~ ~ ~ E E I I I I L L c c N V *.:.9.%XuXfXfX>X>X5XdXhXjXjXjXgXgXgXgXNXDXAXAX9XMX8X=X=XuXpXuXuXuXmXMXnXnXMXCXpXiXtX*X7.7.B E.) ] ] { { { [ [ ( b A ( G z B { ( U b b L L L I L L L L c c c N n *.<.*.#X*X=X-X=X7X7X7X2X2X2X7X7X7X-XtXiXiXuXuXuX8X9X8X0X9X0X9XpXwXwXwX9X9X0X9X3XuX7X=X4.6 *.V Y T T T T T P P G.K.K.G.~ ~ P I L I.I.L.L.' [ ' ] ' ( U U U B N M *.*.*.;.;.9.$XmXmXnXnXfX9X9X9XnXfX9X9X9X9X9X9X9X5X3XuXMX7X#Xb.9.9.9.9.4.2.:.:.;.%.>.M H 1.C 5.) ) ) ) ] ] [ [ E g g g f E E W ! ! _ W A A ( ( ) ) Y V V V V V 1.1.*.m 5 n > * O % - - % - - + + o + + + % > > 5 4.*XiX7X7X0X3X3X3X7X5X8XfXnXMX",
"6X6X6X6X6X6X6X6XjXwXwXwXwXwX9X9XuX=X%.: 1 o 1 : : : : : < > 6 6 6 6 6 5 m ;.1.Y 5.W.W.W.E.E.'.[.W.{.].{ ( _ _ ! v W [ ' ( ' ] E.] ' ' ' ' ' T Y B n 8.*X.X:.%.&.$X7XpXuXuXmXGXGXiXGXuXuXMX9X3X3X3X7X3X0X0XqX0X4X&XN.&X4X>X>X6X6XqXwX=Xb.*.C Y E.Q.L.Y.OX[.Y.Y.[.[.Y.Y.Q.E.Q.Q.L.L.L.I.I.L.T.T.Y.Y.Y.Y.Y.L.I.L.] ] ) C V c.-XnX-XfX9X9XMXMX9X9XMXMX9X3X3X3X9X9X8XnXVXM.n.4.>.:.>.:.:.4.9.9.,.9.9.9.9.:.;.M V Y ) ] ] ] ] ] ] L.I.Y.Y.I.[ W v v v Z [ [ W E E E W ' ' ' T U L U L U B B V C #.=.,.$X&X=X2X7XiX7X7X=X=X%X%X%X#X%X%X=X*XJXJX-X8X8X8XfX5X7X3X8X9XuX8X8X8XnXMXMXMXMXmX-Xc.H C B b L T I P ~ ~ P P P G.P ~ ~ ~ ~ ~ ~ ~ ~ ~ P I P ~ ~ P I I I L x e c Y 1.*.M :.v.nXBXdX>X>X<X5XdXjXlXBXNXNXgXgXgXgXNXNXMXMX=X..:.0.:.,.:.:.:.4.4.9.9.9.4.=.M C V ) ) U ] ] ] { I.{ ] ( W W W A b b ( ` ` ( b b b L W ( I I b c c c c n V *.2.2.*.*.*.:.:.:.:.:.;.*.;.:.:.;.%.;.:.>.b.GXuXuX8X9X9X9X9X9XMX9X9X9X0X0X9X3XMX7XuX=X#X%.M V Y U U T ' ' ' ' T P P ~ ' P P I L ' ' ' ( ' ' ( U U U c B Y Y C 5 M M %.9.v.=XiXGXmXnXMXnX8X3X9XfX9X9X5X9XjXjXdX9X5X8XMX8X7X&.1 1 1 : : : : @ + + # = n C ) ) ] ] ] ] ] ] ] ' / g g g g g / ^ ^ ! ! ! ! ! _ _ ( ) ) ) ) V V V V *.V C n n 5 = - = - - - - - & ; + + + + + + * > n 2..X=X-X=X7XpX9X9XfXfXfXfXfXfX",
"jXhX6X6X6X6X6X6XwXwXwXwXwX9X9X9X8X%X%.1 1 o o + @ @ @ @ @ > > > > 6 5 > m ;.1.1.5.5.5.] ] E.E.'.E.'.6.( ( _ [ _ Z W [ _ ( ' ' ' L.L.' ' ' T T R R N <.0.4.*.&.,.v.#X$X#X#X$X*X$X#X#X#X#X0XMXMX9X7X7X3X3X4X0XqX0X&XN.&X3X>X>X6X6X4XpX7Xv.;.*.1.1.W.L.L.Y.L.Y.Y.Q.Q.I.Y.Q.E.Q.!.] ' L.L.I.Y.T.U.Y.Y.Y.Y.T.L.L.L.L.Y Y V *.c.-XVXnXuX9X9XMXMX9X9XMXMX9X3X3X3X9X9X8XmXnX>.5 # o 1 # @ : : : : : : : : : : = n C U Y ' ' ] ] ' ] L.I.I.K.[ ~ E u u Z Q ^ ^ / / E E E W ( ' ' ' ' ' ' U U U V V m #.=.%.%.%.%.%.6 6 6 6 7 5 5 5 : 5 7 %.:.=XGXuXnXnXfX9X5X3X3X9X9XuX9X8XfXnXMXfXdXfXnXmX%X7.1.H B c c ' P I P G.K.G.P G.G.G.G.~ ~ P ~ P P ~ ~ ~ ~ P P I I I L U U c N n M ;.9.%XVXAXfX5X5X6XdXjXjXNXNXmXgXgXgXgXgXgXgXnX9X%X1 : : 1 + : : : : : : : : > > > n V ) ] ] 6.5.] { { { ( W W W A A A W ( [ _ _ W b b b L L L L L b B c b n V *.*.V m > > 5 > : : : : : : : @ # o + @ : ;.iXiX8XuX9X9X9X9X9XfX9X9X9X0X0X9X9XnX7XmXuX7Xb.c.0.V B B U Y T T ' T T T T T P P L T T T ( ] ] ( c B B B N N N n k 5 %.4.v.=XnXVXJXGXCXMXCXMX9X5X9X9X9X9X3X5XdXdX6X9X5X8XMX7X-X%.1 1 : : : > > > * = 5 n C V ) ) ' ' ' ] ] L.' ^ / g g g g g / ^ ^ Q S ! ! ! ! _ _ ( ( ) ) ) 1.<.*.V C C n n n w = w w = = - - & $ + + + + + % * r m 1..X=X-X2X7X9X9X9XfXnXnXfXfXfX",
"jXxXhX6X6X6XqXjX6X9X9X9X9XwXwX9X8X%X%.1 1 o + + + + + + * * * * @ > > > n V 1.) Y Y U U ( ) ) ( ` ` ` ( ( _ _ _ A W _ _ _ _ W W [ ] ' ' ' ] T R ) B V *.m 5 6 %.7 7 6 5 > 6 6 5 6 6 5 %.M.uXpX0X8X7X3X3X4X0XqXwX2X&X:X3X>X3XdXdX9XCX8XM.0.0.0.1.5.!.!.!.Y.Q.[.Y.Y.I.Y.Q.E.Q.!.] ] L.L.I.I.Y.Y.Y.T.L.L.L.L.L.] ) ) 7.c..X=XFXCX8X9X9X9XnXnX9X9X9XMX9X5X3X3X9X9X8XmXnX%.o o o # @ o + + + + + + # # + + - N Y ) T T ' ' ' ' [ ] ] ' ~ W E v a a f Q i.Q Q ^ ^ E E v b W ( T U U U U U Y Y V m , , : : @ @ # # + + # + o o o o o + o 6 *XGXmXnXnX8X6X5X3X3X9X9XuXuX8XgXMXMXdX6X9XnXCX-X%X.Xc.1.B c L L L P P P G.G.G.G.G.G.G.G.G.G.P P ~ ~ P P I I I I L L c k N V :.0.#X=X8XCXCXfX6X5X<X>X>X6XjXjXfXgXgXgXlXlXgXfXVXNX-Xo # + O + + + # # # # # + O + = n Y ) ] ] ] ] ] ] ` ( W A W A Z A W _ [ _ [ [ [ _ W v v b ( U L L B B b N C V C n = * % * @ @ @ @ + + + + + + + + # @ :.GX7X8XuXnXMXfXdX9X5X9X9X9X5X5X8X9XMX8XMXuXuX=X=X*X1.1.1.8.8.) U B U T ' ' T L L L T U U U ( ) U c B B V V C 4 - - ;.b.%XuXJXJXVXVXAXVXCXCXMXfX9X9X9X9X9X3X5X6X6X5X9X5X7XuX7X=X%.o # # @ % % % = w n n B B ( ( ' ' ' ' ' [ P.H./ g g g g g f / ^ ^ ! D S S ! ! ! ! A _ ( ) ) 1.1.<.C B C C C N k k k k w w w w & & + + + + % * > n M 2. X*X7X7X3X3X8X6X9XfXfXfXfX9X",
"jXjXjXqX6X6XqXqX6X6X6X0X9X9X9X9X8X=X%.1 # + + + + % % - - - - - - = n k n B Y ) U U U U U U b j A G ( _ _ [ _ A v A ! [ ^ ! W E ( ' ' ' ' ] ' T ) Y Y V 5 : : @ : : : @ @ @ * @ + o o : 9.uXpX9X8X7X7X3X4X0XwXwX4X&X>X9X6X6XjXjX9XpX0X=X%X$X.X0.1.1.5.!.L.!.Q.L.Y.I.Q.Q.E.Q.E.T ] ] L.I.T.I.Y.Y.Y.Y.L.] ] 5.6.6.XXyXmXmXGXVXnX7XfX9X9XnXnXfX9X9XMX9X3X3X3X9X9X8XVXGX>.o # o o + + + # + + + # * * # * k B Y U U ' ' ' [ [ ' ' ( W E v E E a a f Q Q f Q u././ / E ! [ s.{ ] ' U U Y ) ) V m > : + # # # # @ @ * @ # @ @ # + # @ + M *XGXiXnXfXfXfX5X3X3X0X9XuX8XnXmXNXNXdX6X6XjXfX9XiXiXyXXX7.3.B U U U I P G.K.G.G.G.G.G.P P G.G.~ P P P I I L I L b c k N ) z.=XiXmXmXnXMXMXfXjX6X>X&X&X>X6XjXdXfXjXlXlXNXNXNXnXnXiXo @ O @ > * * * - - ; - - % = N B U ( ( ' ( ( ( ( ( W A Z Z Z Z W ! [ ( ( _ s.s.s.[ W W b ( ( ( ( ( U B B B N n w = - - - % # # + + + + + O @ # @ : > 4.GXiXuXuXfXfXfXjXdX6X9X9X9X9X9X9X9XMX9X7X=X=X=X7X-Xv. X.X*X.X X1.V ) ) ( ( ( U L b ( ) ) U B N B B B N n C n n C ;.%X8XVXVXJXNX5X8XVXCXCXCXMXjXfXfXnXMXuX9X6X9X6X6X6X5X7XuX-X=X%.o @ # * - % - w w N B B G ( ( ' ' ~ ~ ~ ^ J./ g g g g g f / ^ [ ( _ _ ! D S S S ! ! ! _ ( ( ) Y V V B B B B B N k k k k k k w w - # + + % * - r n <.8..X*X7X7X2X&X6X6X9X9XdXfXfXfX",
"hXjXxXxXjXjX6X6X6X6X6X6X6X6X9X9XuX-X>.@ @ + + O O ; ; $ & & & - - k k c N B Y ) ] ] ] U B b b b A D J _ ` ` ( A l F ! ^ ! Q Q Q W W W ' ' ' ' T U Y ) V C 5 5 # # # + O O O O O * + + 1 ,.uXuX7X7X7X7X9X9X9XqX0X4X2X4XMXjXdXjXfXwX;X&X2X2XsX#X.X.X7.8.5.] ] !.!.I.I.Q.Q.!.E.!.R ] ] I.I.I.I.I.Y.Q.E.] ) ] ].oXyXFXGXJXmXnXMXNXMXMXMXfXnXMXMXfX9X9X9X3X3X3X9XnX9XiXVX:.o # + X O + # % % % % % - % - w N U U T T ' ' ' ' ' ( W W v a a E E E E E Q Q Q f / / f / f i._._.).I.] ) ] ) ) ) V C n > - - # ; ; ; + # + + + + + O O + + C *XFX-X8XfXnXMX9X3X3X3X8X0X7X9XnXnXfX6X6X6XwX6X9XuXmXiX-X*X*XXX6.U N L T P P P P P P P P T ~ P P I P P P P L b c k B 4..X*X*XmXVXCXMXnXnXMXfXNXjX6X<X>X6XjXNXfXdXjXjXlXBXNXDXmXmXiXo @ o % - % % % $ & & & & - k N U U U ( ( W W W W E S Z Z Z Z Z W [ [ [ ( ! ! ! p.s.[ [ [ [ [ ' ( ( ) ( ) Y B n w - - - $ & $ ; ; ; ; ; O O ; O O @ 5 4.aXmXnXuX9X9X9XdXdXfXjXMXMXMXMXMXMX9X9X3X;X&X&X&X2X#X$X=XiXtX*X.XXX4.1.H B B B B b ) ) ) ) B N N C C 5 - 5 M 2..X=XnXAXJXVXVXmX8XfXfXMXMXjXMXjXjXnXnXmXMX9X9X9X6X6X5X6X7XuX7X-X*.+ * = = w w w c c B B ( ( ( W ~ ~ ^ / / / g g g g g f E E W ( ( G ( ( _ D S S S S Q Q Q ! W ( B B ) ( U B B B B B c c k k k k w = * # # * - = r C 1.0.#X=X-X&X&X&X6X6X6X6X6X6X6XfX",
"qXjXjXkXjXjXjX6X6X6X6X6X9X9X9X9XuX-X:.@ @ + % O $ $ & & q q w w k c c B U U ] ] { { ] U b B ( _ J D D _ _ _ ( A l v W ! Q Q f Q ! W W ( ( ' T U R U Y V n n 5 * @ # # # - % % % + O + o :.uX7X7X7X7X7X8XwXwX0X0X3X2X6XNXjXdXfX9X9XN.M.&X&XM.v.v.$Xv.0. XW.!.!.!.I.I.I.E.!.E.E.R ] ] L.I.I.L.L.L.( ` l.].XXyXbXKXmXVXDXNXlXlXzXBXMXMXMX9XMXMXfX8X9X9X3X-X3XnXMXnX7XmX:.+ @ @ * > % - - - - - = w = w N B U ' ' ' ' ' ' ~ W W b v a h h a E E E E ! ! Q f / f g f s f i.u.[ [ ' ( ] ] ) ) V V C n k 4 4 - - - * * - % % * + + + * + m *XFXiXnXfXfXNXdX5X3X4X0X0X7X8X8XdX5X5X,X,X4X6X4X3X;X=X-XiXFXaXoX7.Y B L L L P P P P P P T P P I I P P x x c B ) z..XtXFXKXnXnXnXMXMXMXMXdX5XdXfXjXMXNXjX9X9XdXjXjXjXlXlXNXNXVXJXmXo @ % % - - - - w k k k k k N U U U L W ~ W E Z Z Z Z Z Z u Z Z W [ { { [ s.i.Q Q ! ! s._.[ [ ( ( ( ( ( ( ) U N k w w w - w - - - - - - % % * O O > m c.GXmXnXuX8X8X6X9XdX9X9X9XfXnXnX9X9X3X8X3XwX3X4X:X3X7X-X-XiXiXtXtXtX.Xc.3.B B B B B ) ( U ) ) C k = - 5 M 2..X*XaXGXnXAXDXgXNXgXdXgXfXfXjXdXdXjXjX9X9XMXMX9X6X6X6X6X5X6X8XuXiXiX:.@ = = w k c c c c U ( ( ( W ~ ~ ~ / / g g d d d g f E v b z C M C n B G _ ! S f s f f f S Z W W ( ( ( ( U U B B b b c c k k k k k - * * * = w n C 1.7.#X=X=X&X&X&X9X6X6X6X5X5X6X6X",
"jXjXxXkXkXkXjXxXjXjXjXwXwXwXwXwXuXiX2.: @ + % $ w w w w w k c c b L U U ' ] ] I.I.{ ) U b ( ) ` _ D J p._ _ G A l v Z Q Q f f f ! ! W W ( U U U Y U R V n > 5 * # # ; # $ & & % - O * + :.GXpXpX8X8X7X9X9X9XwX0X3X:X4XjX6X6X9X6X3X&XM.&XsXM.B.v.0.0. XXX X XW.] I.L.L.I.L.E.] R T ] L.I.I.L.I.I.` l.oXyXbXFXmXgX-XgXlXcXcXzXxXdXjXMXnX9XfXMX9X3X8X3X3X-X8XMXMXMXGXGX9.# o O O O % % - & & & w w w k c B U U T ( ' ~ P L b v v u h h s a E W W ( [ ^ E Q f g d d p d f Q ! [ ' ] ] ] ] ( B B C C k k 4 4 = = = = - - - * * % + * @ M *XGXmXnXnXfXNXfX6X3X0X9XuX8X8X8X5X5X6X6X6X4XqX4X>X&X&X7X8XiXtXtX*XXX7.) U T L L L L L L P P P I I P b x b ) z.oXbXKXNXmXlXDXNXCXNXCXCXfX6X5X5X9XdXMXMX9X0X4X9XwXjXjXjXfXdXdXnXKX=Xo O - $ - w w w w j j k c B U T T U L W W E E Z a a a a a Z a l A ' { ] ( ! i.i.Q Q ! [ s.[ [ ( ( ( ( ( U ) U N c c c c c q q - - - - & $ $ % O O > M 0.FXiXiX8X8X9X6X9XdX9X6X5X8X9X9X8X-X3X;X&XMXwXwX:X4XwX4X3X7X7X-XiXmXtX*XXX3.H B B G ) B B B B N n 5 C 2..XtXFXGXGXmXmXDXgXdXgXfX5X5XfXfXjXdXdXdXdX6X8XMXMXfX9X9XdX6X6X9X9XuXiXiX2.: - = w k c c c b L ( ( W W ~ / / E f g d d d d g f E z k > 6 6 6 > n B G D S S f s s s s a E ! _ [ ' ( ( ( ( U B B c c c k k k k 5 * - = = w n C <.0.%X=X=X;X&X>X6X9XdXdX6X6X5X>X",
"xXxXxXxXlXlXNXNXjXjXjXjXjXjXjXMXuXuX9.5 @ % % & w w w w k c N U ' ' ' ' ] ] ] ] I.{ ] ( ( _ _ _ D D p.a.a.` G B z z l D Q S f f ^ ! W W W W W U U U U Y N n n n = = k k w w w w w $ * o :.CX7X2X9X9X7X7X0X0XwXwX3X&X>X0X3X5X9X6X4X2X&X&X&X$XM.B.M.#X$X#X#XyXyX X6.] ] ] ] ] ] U U ] ] { I.I.I.{ oXyXbXFXKXmXmXnXgXfXdXvXvXvX<X1XjXMXwX9X9XMX9X3X3X3X3X;X5XMXCXCXuXiX9.: + * r % - w w w w k k N N c c U U ' ' ' ' W v v v v v i h h a Z b b U ) ] ( b E ^ f g d d d s s a E W ( ' { ] ( B B B z N N k k k w - - = = - - - % + @ @ M *XFXmXVXDXDXNXfX5X3X8X9XuXuXnX8X5X5XdXjXwXqXqXwXqX4X4X9X3X-X8X-XtXaXtX*X6.U B L L L L L U U I I L L c B 7.oXyXmXKXVXNXlXlXhXCXMXMXMXMXfX9X9X9X9X9X8X8X9X9XfX9X9XjXjXjX6X>X;XDXJX*Xo O 5 & & w w w j x x x c c b U U L L E E f f f s a a a Z D v j z ) 5.1.B l Z ! ! ! ! s.(._.d.[ _ _ ( ( ( ( U B c c c c k k w w w k k - & O - - - n M 0.iXiXiX8X9X9X9X6X6XjX9X5X9XMXMX9X3X3X&XM.9X6XwX:X4X4X3X2X4X9X8X8XuXiXbXyX.X3.H C C ) ) H V n 5 M ;..XyXFXFXFXGXJXGXDXDXgXdXgXlXdXdXgXlXlXdXdXdXdX5XnXCXCXMXdXfXjXjX6X9X9XiXiXiX2.@ = k k c c c b L b W W E E E f g g g p d d d g f E b n > < < , , , r 5 n z A S i.f g s s s f Q ! [ [ [ [ [ ' ( U U B c c c c k k 5 = = = = = r C <.0.#X-X7X7X8XdX5X6XdXjXjX6X>X&X",
"6XdXxXlXjXjXlXlXlXlXlXgXjXgXlXNX9XpXv.7 # = * $ k k k c c N U T ' K.L.L.E.E.L.{ ] ( W ^ s.s.u.! ! _ p.` H C 6 6 6 6 z A A ! Q f E Q Q / ^ ^ E v W b b U U c c c N k w e x x x j k & - O :.FXuX3XwX9X0X4XwXMXCXMX2XN.4X6X&X6X9X0X2X:X:X2X:X&XsXsX2X&X2X7X%X%X=XtXoX}.W.] ] 5.) c V ) 3.) ) 3.XXtXmXnXVXmXmXnXnXmXfXfXjXhXvXvXvXxXqXjXjX6X6X9X9X9X9X9X9X9X8X8X9X9XiXtX9.@ # = = w k e e e k c c c I L L T ( ( ( b b v v Z Z Z u i s a Z l b V *.*.#.m C B A A Z f d d d d g g g E / W ( ( ( U B B B N c c c c k k k k w & - * * > @ M tXIXmXDXDXgXgXdXdXgXdX8X8XfX9X9X9X9X6X5X6X6X0XwXwX9X0X9XuXuX7X7XiXiXaXtX*XXX) B N B U N c B U c ) k n oXtXFXKXKXmXmXlXgXgXlXjXMXMXwXwXMXjX9XfX9X8X8X8X8X8X8X5X5X5X6XjXjXjX9XMXnX*X# - & k 4 - = k c I I I P L U U U b Z E f s s s s s a Z A z 4 4 > n m m m 5 C H ` ` [ s._.s.s.[ [ [ _ _ G G B B c c c c c c c c k k 4 - - % - = - 5 *.0.tXiXmXnX5X5XfXjXdX6X5X5XfXNXNXfX6X&X&X>XjXkXqX>X>X0X0XuX0X0X7X7X7X7XiX7X=Xv.c.>.6 ;.*.M m m %.v.iXiXmXFXGXGXGXKXGXfXfXNXNXnXfXgXgXgXgXmXgXgXgXdX;X-XgXNXmXgXdXdX6X6XdXfX8X-X=Xc.* k c c c c b L ( W W E E g g d d p p d g g g f E l 4 : : < , , , , , < < 5 5 A D Q g g g g s s Q Q _ s.[ ( ( ( U U U U B B B b k 5 > 5 n > > n C *.2..XtXmXnX8XfX6X6X>X3X6X6X6X3X",
"hXjXlXlXlXlXlXzXDXDXZXBXgXdX>X>XpXpXv.5 @ * * & k k c c c U R T K.K.L.I.E.E.] ] [ ! ! ^ Q Q Q Q ! _ _ K M M ..o...6 M C G W ! ! E Q E E Q Q ! ! E Z v L L L L N N N c e x x x x x q - ; :.uXuXpX2X0XwXwXpXMXMXwXN.B.2X0X3X9X3X&XM.N.:X2X2X:X&X:X2X2X4X:XN.N.>X8XtXyXoX].6.) n $ V V 1.7. XoXtXFXnXNXMXMXMXnXnXfXnXjXjXjXhXhXxXxX<X,X,X,X4X6X6X6X3X3X3X3X7X8X9XnXuXiX4.# + 5 n N k k c c c c c b L P P W W W b z v l Z Z S S a s Z Z Z z C M #.#.#.#.#.m B B A E g d d d d d g g f E W ( ( ( U U U N N N N c c k k j j & - * * : # M tXJXnXmXgXdXgXdXdXdXdX5X5XdX5X5X8X9X9X9XfXMX9XMXpX9X0X9XpX9X0X0X8X7XiXuXiXtX*X7.V N N N B Y B k V C 4.FXGXGXGXVXNXNXgXgXgXdXjXMXMXwXwXwXwX9X9X8X8X-X-X-XgXfXfX8X5X5X6X6X6X6XMXVXtX# 4 ; j 4 4 4 k c I P P P U U U b v v a a g d g s a Z A G 5 5 : : < , , , , 6 C H { { (._._._.s.^ ! ! D G G B B b b c c c c c c c k k 4 - = - = - n *.c.aX-XiXnX8X5XfXjXdX5X5X5XdXjXNXjX9X&X&X:X6XjX6X,X4X2XuXuXuXuX7X7X7X7X0X7X=X&X%Xv.,.;.*.;.:.9.v.%XFXmXmXmXmXVXVXVXVXnXMXNXNXnXfXfXfXgXgXgXgXgXgXgX-XPXgXgXgXgXlXjXdX>X>X5X8XiXtXc.- n c c b b b W W W W E a g d d d d d g g g f E b 4 5 < < < < < , , } } , < 7 M G ! f g g g s s s S ! ! ! _ [ ( U U U U B B U b c 5 5 5 5 > > n m *.4.#XiXVXnX8X5X>X&X&X:X6X9X0X3X",
"jXlXlXlXjXjXjXjXdXfXlXBXBXBXjXjXCX2X9.6 : * * - N N N B N U T ] L.L.L.L.L.] ] [ [ ^ i.i.Q f f Q ! J G K M %.o.o...o.#.M C B ( _ ! ^ ! Q Q Q Q Q E E E W L b b U B N c c c c x x x j k # 2.iXuXCX2X0XpXMXMXMXwX0Xb.9.&XwX4XwX&XB.,.B.N.2X,X:X:X4X:X:X&XB.n.B.>X8XiXtXyX.Xc.4.V = n M 2..XtXFXFXFXMXNXCXCXMXnXnXnXMXjXjXjXhXxX1X1XV.N.N.:XqX6X6X6X>X3X5X8X8X9XuXMXVXFXc.@ # n n k c c c c c c B B L W W W b b v l l l Z Z Z Z a a D A A z m #...} | } ..#.M C z b f f g g d d d p g g E E ( ( ) Y U U B N N N c c k j j w - * * @ @ %.tXJXnXNXNXgXdX>XdXdXdX5X5X8X5X5X9X9XfXfXfX9X9XMXMX9X9X9XpX9X6X6X3X-X7XuXmXFXGX*Xc.H C 5 n C C V 1.;..XIXmXnXAXVXVXNXgXgXfXfXNXMXjXMX0X;X&X3X8X5X7X-X-X8XfXgXfX6X3X>X>X6XqXjXMXVXFX# 4 ; k k 4 k c c L P P L U U b b v u a s g g g a a Z b B 5 5 < < , , , , , > > C ) { { _._._.s.[ ^ ! W _ A B B b b b c L U c c c k k 4 = k = r * n ;.0.tX-XuXVXNXCXBXlXdX3X5X9XfXjXMXjXdX>X:X>X6X6X6X,X4X3X0XuXuXuX0X0X0X2X3X7X;X=X3X&XM.b.9.9.v.#X%X=X-XMXnXnXnXVXVXNXnXMXNXNXNXnXfXfXfXgXgXdX-X5XgXgXgXgXnXgXfXBXZXBXxXNXjXnXmXGXmXc.5 N N B b b W L W W W E a s p d d g g g g / ^ W z 5 7 < < < < < , , } } , < 7 C G ! / f f g s s s Z S ! ! [ { ] ( U U U U U U U B n 5 5 n n > r m *.2.v.*XiXiX8XfXMX3X&XV.&X>X3X;X",
"jXjXjXjXjXjXdXjXlXlXNXNXNXNXMXMX9X$X,.6 > * - = B B B U U U T ] L.L.I.I.L.{ [ [ ^ i.i.i.f f f Q _ K K M %.&.X.X.X.$.$.#.m M C B W ! ^ ! Q Q Q Q Q E E E v v v b U L c I L I I x x j k # :.iXuXuX2XwXCXCXMXwXqX4X,.,.:XjX6X6X&XM.,.b.N.:X4X2X2X4X&X&XM.,.,.b.3X9X=X-X-X=X%X#Xv.9.6 ;.v.=XiXmXCXMXMXNXCXCXCXMXMXCXMXfX9XqXqX1XrXZ.B.,.n.V.4X6X4X4X:X3X0XfX9X9X9X7XuXmXc.> - C n k c c c b U U U U ( W W W b v v v u u Z Z Z Z Z Z F z 5 7 6 ....| | | ....#.6 5 z v Q Q g p d d p d g g E W ( ( ( U U U U N N c c c k k k = - * @ > ;.tXGXmXVXNXNXgXdXdXdX6X5X5X8X9X9XfXfX9X5X;X&X9XwXMX9X0X9XMXwX>X6X6X6X5X9X8X8XmXiX=X.X;.C m M ;.c..Xc.*XmX-XnXNXNXNXNXNXmXmXlXNXjXMXjX3XM.B.M.5X5X5X5X5X5X8XfX6X6X>X&X&X>XwXCXwXCXmX# 5 ; z k k k c L L L P L U b b v v u h h g s s a Z z k 4 > > < , < < , , 6 , > 5 C B ( ( [ s.[ [ _ ! _ _ G G B B b b b L U U N N N k k 4 = = n > m *.0.tX=XiXVXCXCXCXjXdX3X5X9XdX9X9X9XdXjX9X6X6X6X6X6X4X3X2X2X2X2X2X0X9X3X9X5X3X;X;X;X&X;X%XM.M.M.M.M.%X5X6XfXNXNXNXNXfXnXNXNXNXnXfXfXfXfXfXfX5X5XgXfXgXgXgXgXfXNXZXBXNXNX9XuXiXiXyXz.n N B b U ( ( L b W W E E a g g g f f E / [ [ ) V ....| | | } , t , , , , < : 5 C _ ^ ^ / f f s a Z Z ! _ [ { ` ( U U ( U U U U B C m m m n > r n m M *.2.9.v.#X;X8X7X&X&X2X7X=X=X",
"jXjXjXjXjXjXMXjXjXjXNXCXCXMXMXMX$X0.:.M 5 > - w B U U U U Y ] ] E.I.I.I.{ { [ ^ ^ i.t.t.t.f f S J K M 6 o.&.&.O.-.$.$.$.#.#.m C b W ! E Q Q Q Q f f E E E v v b L U L L L I I I q k c ; ;.FXuX7X9XMXCXMXwXqX4X4X9.n.,XkX4X6X>X&XB.B.N.:X4X4X2X2X:X&XM.b.b.&XwX0X3X7X-X=X&X&X&X#X9.b.$X2X>X4XwXMXjXjXMXCXNXMXMXMX9X9X6XqXqX1XrXZ.n.,.,.N.,X,X:X:X2X3X6X9X6X3X7X7XuXaXc.> = C N c c c L U U U U ( ( ( W W v v Z Z u u u u u v Z A z 7 7 6 ..X.X.|  .| X.X.....6 6 k A E f p d d d d d h a E A G G ( U U U B N N N c c c k k = * * > ;.-XGXKXVXfXfXNXfXdXdX5X5X8X9X9X9XMXMX9X>XN.M.3X9X9X9X9XfXMXjXdXhXzXlXjXlXfXfX5X8XnX-X%Xb.9.9.c.#X%Xv.;XnXnXHXMXMXMXMXmXmXmXNXMX9XjXjX>XB.n.b.6X6X6X9X6X6X6X6X>X,X,X&XV.V.,XjXpXuXtX# n - N k n N N b L L L b b b b l u u h h h s a Z A z 5 : < < < < < < < < .., , > n N U ( [ [ [ [ [ [ _ _ _ ( G G b b L U U U B B N N k k = > n > n *.0.aXiXmXVXCXCXNXjXdX5X8X9X9X9X6X6X6XNXjX6X6X6X6X6X6X4X3X2X2X2X3X0XwX9XMXMX5X;X&X3X6XfX6X>XV.M.b.M.N.V.>XfXBXBXlXlXNXfXfXNXNXjXfXdXfXjXNXjXdXdXjXfX6X5XfXMXjXjXjXNXMXwX9XVXFXaX*Xc.C N U L U ( W b b b A W E Z a f a E E [ [ { ` ;.%.o.X.X.X.X...#.#.t , < : < < 5 n ( [ [ ^ ^ Q Q S Z A ! ! _ ( ( ( ( ( ) U U U U N C m m m r > > r n > > > 6 6 %.:.,.v.#X7XuXmXuXuX",
"NXMXMXNXMXMXMXMXMXMXMXpX9X2X&X#X9.*.%.M 5 = w w U U Y Y T ) ] ] 5.6.{ { [ [ ^ ^ i.t.t.f t.i.Q Z z 7 7 6 o.o.O.-.-.X.X.$.$.$.#.m V ( _ W E Q Q i.f a E Q E E v v L L L L L L I I x c B - 1.FXFXuXMXCXCXwX0X0X4X4Xb.b.6XkX>X6X6X4X:X:X&X2X4X4X4X2X2X&X&X&X&X0XMX4X6X,X:X:X:X2X2X:X:X&XN.N.N.:X1XeXjXjXjXjX6X4X4X4X4X4X4XqXwXqX1X,XN.B.N.:XrX,X,X:X6X0X6X4X3X9XuXmXJXGXc.5 n C B B B L U U U ( ( ( ' ( W A v v a a Z a a v v Z W G M 6 6 ..X.X.X.|  .| | X.X.| | ..5 C G ! f g d d d d d a a Z A A ( ( ( U U B N N c c c N k w * * : *.*XFXJXJXVXAXNXgX9X6X9X8X8XMX9X0XwXMXwX3X%XM.3X9XfXdXdXfXMXjXlXlXlXxXlXBXBXlX5X>X;X-X8X8X-X;X&X&XM.M.&X9XNXAXNXNXjXMXnXnXfXfXfX9XjXjX3XV.M.M.6X6XjX6X6X6X6X,X:X,X,X:XN.N.N.&X7X-X#X> n n n k N N N B B b b b A z v l u a h h h a E W G V m 6 , } } < < < < < , } ..6 m C ) 5.( ' [ [ [ [ [ _ _ _ ( G A B B U U B B B B N n n n n n = 5 *.0.iXGXIXJXJXJXCXfX9X8X8X8X8X9X9X8X5X9X9X6X>X3X6X6X6X4X4X2X2X2X3X6XwX9XjXfX6X>X>X6XjXdXjXhX<XC.B.b.b.B.V.6XlXlXxXjXNXfXfXNXNXjXfXfXjXMXCXCXNXMXMX9X3X6XMXCXCXjXjXwX0X9XuXGXGXtXXX7.V B U U U ( W b b b A W W E Z a E W [ { 6.1.H %.&.X.O.O.-.$.#.t t r > : : : < > > C ( ' [ [ u.u.! ! D ! ! A F A ( ( { { ] ] ) U B C n n n r = * = r > * > : : : 7 7 %.:.0.v.$X7XiX",
"MXMXMXMXMXMXpX9XCXpX2X$X0.,.%...%.6 m m * = n k Y Y Y Y ) ] ] ] 5.5.{ ` _ ! ! Q Q i.i.Q i.u.[ _ 7 o.....o.X.X.O.$.X.X.| ......#.2.5.{ _ W ! Q Q Q f a E ! W A b L L L L P L I I I c U k 1.*X=XVXCXCXpX9X8X9X9X4XB.B.6XjX>X6X6X6X6X,X>X4X6X4X3X3X4X2X3X4X4X9XpX4XqX,X:X:X,X4X4X4XeX:XN.B.B.N.Z.:X1X6XqXqX6X4X,X,X4X4X6XqXqXqXqXeXeX1XrXrXrX,X4X4XwXwX9X9X8X8XuXuX7X*X2.5 n B N U U L L L ( ( ' ( _ ( A v v Z a a Z Z Z Z W ( ( ) %.........X.| X.X.| |  . .| | | , 6 V _ u.f g g d d g s a Z Z Z W ( ( ( U U B B B B B N n r = * > M c..X=XiX7XMX8X5X5X9X9X9X8XuX9X0X9XMXMXwX3X&X9XjXMXfXfXgXNXjXdXhXhXhXlXzXlX6X>X>X&X>X6XMXNXjX9X&XN.N.N.&X6X>XxXjXjXjXfXfX9X9X9XdXdX9X6X>X>X>XjXhX6X6X6X6X6X6XqXeX,X:X:XN.B.v.v.v.9.> n n w N N N N B B B b A F F l F Z a a h a Z W ( H V %.#.$.| } } ....6 , , } } , , m *.5.) ) ] { [ [ [ [ _ _ G A A A G ( U B B B B B C N n n n n m M ;..X=X-XiXmXnXuX9X9XuX8X8X8XnXnX9X8X9X9X5X>X6X9XjX6X4X4X4X4X3X4X4X0X>X>X>X>X>X5XdXjXlXlXxXvX<XV.B.n.n.N.:X1XqXjXjXNXfXjXNXlXjXdXfXfXMXCXCXMXNXMX9X3X4XwXMXjX0X3X&X#Xv.b.v..X7.1.V z U U T ( W W A b A A W W W E E E [ { 6.3.;.#.o.X.X.O.O.X..., > = * * * : : < > > > N U ( [ s.s.s._ ! A A A F F A _ { '.E.6.] ) U N n n n t r = = > * > > > : : : : > , 6 m :.0.v.",
"CXMXuXuXuXuX0X7Xv.9.:.%.6 , , , > @ > n % = N N Y Y ) ) ] ] ] ] { ` ` _ _ ! E Q Q i.i.i.s.d.l.3.%.o.o.......X.X.$.$.X.} < < } ..*.1.1.` _ _ ! E u.Q E Q ! W A b W L L L P P I I L c N w C 7.v.iXmXmXuX8XuXuXuX7XB.b.3XjX3XwX6X,X4X>X,X4X4X2X2X3XMX4X4X0X2X3XpXMXkX1X,X4XqXqX4X,X:X:X:XZ.B.B.N.V.:X,X,XqX4X4XqXqX4X4XqXqX4X4X,X,XeXeXrX:XN.:X4X0X2X0XuXpXuX-X=X=X:.;.5 * n B B U U L L L L ( ' ' ( A v l Z Z Z Z Z Z Z A ( ` { 1.&...| } ....} ....} } | | | | | ..6 M 3.d.^ f g g g g s a a a Z A W ( ( U U B B U U B B N n w * > n M m %.4.9.v.=X=X-X8XuX8XuXuXpXuXuXMXCXCXMXfXnXCXNXNXgXlXlXjXdXjXjXlXBXBXdX>X&X6XjXxX6X6XjXlXhX>X&X&XB.N.,X:XqXqX6XdXfXnXnXnX9XdX6X5X6XjXjX6XjXjX6X,X>X,X6XqXkXqX4X4X4X&XM.9.:.2.*.> w N w U N N N B B z F F F F F Z Z a E a E W G G C m #.X.X.| } ..$.%.%.#., } , , , , m V 5.) ) ] { [ [ [ _ J A A A A G G G B B B V V B C n n C C C C 5 V m %.4.v.%X=X-X8XnXiX8XiXnXCXnX9X9XfX9X5X6XjXwX4X3X4X0X6X4X4X4X6X>X&X&X>X6XjXlXlXBXlXhXxXzXxX&XB.b.B.V.:X4XqXkXjXjXNXNXlXjXdX9X9XMXMXMXMXMXMXpX0X&X2X2X2X&X#Xv.9.:.M M M n n B U U T ' ( W W A A ( ( ( ( W W ! _ 6.6.4.;.%.o.X.O.O.O.X...< * - - $ % > > > < < < % r V ) ' { _.s.s._ A A A A Z A _ [ l.E.6.] Y U B N N N N r r r r = * > > @ @ : > > > > > 6 m m ",
"GXCXuX%X9.%.5 , , , < < < : : : * * * - = w k N N B B U ) ] ] ) ` G G _ _ [ ^ u.u.u.s.d.l.3.1.=.&.O.-.-.-.-.$...< , ............, #.*.1.6.'.[ Z E ! ^ ! ! W _ d.[ ( L W ' ' L L U U U B C n 5 5 6 6 %.9.#X7XCXGXM.%X7XuXMXwX0X0X3X4X4X3X2X2X3X6X9X4X4X3X4X0X0X4XjX6X>X6XwX6X>X:X4X4X:X:XZ.:XZ.N.N.N.V.:XeXkXeX,X:X4XqXeX4X:X:X:X:XN.B.,.B.2XCX0X=X#Xb.:.%.7 : @ @ * > n C U U U ( ' [ ' ( ' ' b z A A v u Z Z Z Z E [ { 6.` V M } | | } ..#.} , , , } e.$.$.$.| | ..6 M H { I.).P./ E / Q a s s Z A W W U U U U U U U B N n w w = > = * : : : 5 7 7 7 %.:.9.&XGXpXuXuXCXGXGXCXMXBXCXfXjXNXBXBXNXjXNXjX6X>X&X>X6XjXjXhXqXqXqXwXqX6XhXkXhX<XV.C.B.V.,XqXMXMX9X9X8XfX6X5X5X6X6X6X3XNXCXMX9X0XMXwX4X4X&XB.,.&...6 6 > 5 m C N U U R R U U B B A F F F F Z Z E E E W A G B C m 6 ..X.$.$.$.#., , > > , } , , , , , > n V 5.] ( ' ( W A A G G A A G G ( ) ) B B B B N n n n = * * = > * > > 5 5 5 7 6 %.4.v.=X7XiXiXuX8X7X8X9XMXMXMX9X4X4X6XwXwXwX6X>X&X>X<X6XjXjXjXjXfXfXjXxXjXjXkXNXqX&XN.V.:X>X4XwXjXjXjXlXNXNXCXMX9XnXuX8XuXuX7X%X9.,.%.7 : : : : 5 5 n C B B B U B U L W W W A A A A G ( ( ` { { ].8.;.;.&.O.O.O.O.X.< 1 + - & & ; O ; % * > > < t % % n ) { [ [ d.s._ A Z Z Z Z Z W _ { ] ] ] ] U Y R U N N N n r r r = = = * > > > > > > > > > ",
"=X#X9.%.6 : > 6 < > > : : : : : * % - = k k N B Y U U ) ] ] { ` J J D A ! ^ ^ ^ u.[ { l.7.2.=.-.O.O.-.-.-.&..., : > , 6 6 m 6 ..#.#.m V 1.l.l.[ _ _ ! _ _ _ ` ` [ ( ( ' I.I.L.L.L.] ] ) Y V C 5 @ : 5 6 *.4.v.v.#X=X7XmXCXMXMXMX9X9X4X4X4X4X4X3X3X3X2X3X4X4X4X4X6X>X>X0XjX0X3X&XwX6X,X:X:X>X:XV.N.B.B.V.rXeXeXeXeX4X4X:X&X&X2X4X:X:X:XsXN.N.M.9.>.%.6 5 : : : @ > n n V ) ] ] ] { ] I.I.{ { ' b A A A D Z Z Z E ! _ [ { 5.) V m } | } } #.m , > > > > , e.e.$.X.| | , 6 M 1.E.E.Q.' ~ ^ Q s p s a Z A W ( ) ] ] T ) ( Y U B N n n n = * * * > > : : : 5 7 %.:.v.iXiXuXmXCXVXCXMXnXCXAXBXlXjXjXNXNXMX9X3X;X&X3X9XjXjXwXjXwXwXwXwXhXhXhXqX1XZ.V.B.N.V.:X,X9XjXMXjX5X6X6X9X9X9X9X9X9XMXMX8X3X3X&XM.:.&.o.7 < : : > 5 n n N B U U U U U U B G A F F F F Z E E E W W B B C M 6 ....$.$.X.} , > @ * * < , , } , , , t r C ) ) ] ' ( W A A G A A A G G G ) ) B B B B N N n n k = - = > = > > > : > 5 5 > 6 %.:.9.v.$X=XuXuXuX8X7X7X0X9X9X6X6XqXwX6X>X&X>X>X6XdXjXjXjXjXfXjXjXjXjXNXMXMXMX6X2X:X&X&X:X4XjXjXjXMXNXjXfXfX9XuX7X=X%X#Xv.9.6 6 : : : : > > 5 n C B B U U U U U ( W W W A A A A G ( ) { { 6.7.2.;.&.-.O.O.O.X...: o O & q & & $ ; $ % > > < , < % r Y { { [ { d._ W Z Z Z Z Z ! [ [ [ ] ] ] R T R R R B N N N n n r w r = > = = * * * * * * ",
":.%.6 : : : : : : : * * * * * * - - - k k N N U ] ] ] ] { { { ` J D D A W W ! ^ [ { 6.7.2.=.-.-.O.O.-.-.&.#.> > > > > 5 n m m #.#.e., m <.7.].6.d.[ ( _ ` d.` ` ` _ _ { '.Q.E.E.!.!.5.5.5.1.B n - * * # # > m %.:.v.=XuXVXVXmXmXMX9X4X3X9X9X6X3X3X3X>X>X4X4X4X4X5X3X3X9XnX9X7X;XMXMX9X3X>X6X,X:XN.N.B.B.N.rX1XeXrXeX4X:X:X2X7X2X:X&X:X&XM.,.%.6 : : # + + # * - n n B Y ] ] I.I.I.{ I.'.{ _ ( b J A A ! ! Z Z ! [ [ { 3.1.V m m } | } #.m t > * w * * * > , e.#.| | } , m *.8.W.W.E.[ [ Q s p p s a Z W ' { { 6.] { E.E.E.] Y U N n k - - - - = > @ @ : : : 6 %.9.v.%XuXGXJXJXGXCXVXAXBXCXNXlXNXMX9X4X3X;X3X0XwXwXjXMXjXMXjXwXwXkXhXqXqX1X<XZ.V.N.N.N.V.,XjXMXNX9XdXfXfXfX9X9XnXCXCX7X$Xv.9.:.%.: : : # @ @ > n n N N B U U U U U T U G G A F F F Z E E E W ~ U B M m m ....$.$.$.} < @ + % $ % + > , , , , , #., m V ) ] ' ' _ _ W A D A G G G G G ( ( U U U B N N N k w w = = = = = = = * > > > > > 5 6 %.9.0.=X7XmXmX7X-X=X3X9XqXqXwXwX0X3X>X6X6XdXjXjXjXjXjXjXMXMXMXMXMXMXCXCXBXMX4X:XN.N.&XjXjXNXNXMXMXnXnX7X=Xv.0.9.:.%.6 @ @ @ * > 5 n n C C B B U U ( ( ) ( ( W W E A A A G ( ) ` 3.6.6.2.>.&.&.O.O.O.-.o.< # ; . q j   & & $ & - = > < < < @ > C ] I.{ [ { [ ! S Z Z Z Z E [ [ { ' ' ' ' ' ' T R U U U B N N k k k k w w = = = - - - - ",
"7 : : 5 5 > @ + % @ % % - - = = k k k c N N B U ] ] ] ] ` ` _ _ J D D D A W W _ { l.7.4.:.&.-.-.O.O.-.&.#.> * - w w w n n n m #.#.#.#.#.*.2.7.6.'.{ _ _ ` d.` ` ` _ _ { '.E.E.E.!.!.!.5.5.5.) B C n n - ; O @ 5 > M 2.b.#X*XiXmXGXCXuX8X0X4X3X3X4X3X4X4X6XqXqX6X5X-X-X8XnX8X7X7XMXMX9X6X6X6X6X>XZ.V.N.B.B.N.Z.rXrXeXeX,X0XpX0X2X$Xv.9.,.%.5 < : : @ @ # - - = w n B Y ) ] ] L.I.L.] I.'.{ ( G A J A A ! ! W [ { I.E.6.1.*.m m ..} } #.#.m r w w w w % % % * , } } | } } , #.<.8.W.W.E.[ ! a s s s a Z E ( ] { { E.E.Q.[.Q.E.] ) B B k k w = = = 5 > > > > @ > 5 > M 4..X=XiXGXJXJXVXMXMXBXAXBXNXwX9X3X;X3X9XwXjX9XwXMXNXMXMXpXwXNXjXqXqXqX1X<X:XZ.V.N.V.:XqXjXjX9X9X9XfXfXnXuXuX=X%Xv.:.m 5 : o > > * = = n n N N N U U U T T T ( ( ( G A F F F Z E E / ~ ~ ( U M m ......#.#.$.} , @ O O $ & - + @ > , , , } , , , m Y ] ] ] [ _ _ A A A G A A G G ( ) ) ' T U B B N N k k w w w = = = = = = > 5 > > > > 5 m %.:.v.-XGXCXiX7X2X9X0X0X0X0X6X6X6X6X6XdXdXjXjXjXjXMXnXMXMXMXMXMXMXMXBXBXMX4X&XV.V.6X9XNXMXMX9X8X7X#Xb.;.6 6 5 > @ > > > n n n n N B B U U ( ( ( ( ] ) ( W W E A A A G ) ` 3.5.5.5.;.&.&.O.O.O.O.-.#.+ & & . x A j & & & $ q % * > < < : : n ) I.I.] { [ [ ! Z a a a E ! [ P.[ ' ' ' ' ' ' T T U U U N N c c k k k w w w w = = - - ",
"5 : : : @ @ @ - % % - - - w w k c k c B U U U T ] ] ] ] _ _ _ _ D D D ! W ! [ [ I.'.7.2.=.$.O.-.-.-.-..., > w w q e w w > > m #.#.#.#.%.*.*.1.7.6.6.6.{ ` ` ` a.` J ` l.l.E.E.!.!.!.!.5.] ) ) ) Y V N k = - - - * = > 5 m :..X*XiXmXCXCXMX8X3X3X6X4X4X6XqXqXqX6X6X5X-X5X8X8X8X8XMX9X9XfXjXdX5X>X<XZ.Z.N.B.B.N.Z.rXeXeX,X2X0X7X&X9.%.6 < + o @ @ # % - - w k n N U Y ] ] ] L.L.I.Q.I.'.'.` G G G A D D A W [ (.'.E.6.8.<.%.#.....} ..#.#.m r - q q $ $ $ O + > , } ..X...} e.#.=.0.7.6.{ ! S s s s s a S W ' { { I.I.E.E.E.] ] ' U B B c c k k k w = = > = * * > > 5 5 M ;.9.#X-XmXnXMXCXCXMXjXjX9X4X>X>X4X9XMXjX0X9XjXjXMXjXwXwXfXjXjXjXqX1X1X1X<XZ.V.N.Z.<X1X<X6X5X9XMXMXuX=X%X;.%.6 @ @ * > * = = = w w k c c c L L T T T T ~ W W W A A F F Z Q Q / / W ( U V #...............< : + O $ q q q & % % : , } , , , , , V ) ] ] [ [ ( W A A A A A A G ( ( ' T T R U B B N N c k w w w w w w = = = * * > > > > > > 6 *.v.=XiXuXuXuX9X0X4X3X2X4X9X9X9X6X6XdXfXjXjXMXMXnXnXMXMXMXMXNXwXkXBXBXkX4X:XV.&X4XMXMX8X&Xv.c.:.M : # # @ * * r k k k k c N N U U U ( ( ( ( ( ) ( ( W A D D D A ( ` 3.6.6.5.2.&.+.O.O.O.O.-.&., O   9   v _ z j & .   & $ % > * < : @ > U ] I.] { [ [ ! Z a a a a Q ^ P.P.L.K.K.K.K.K.' P T T L L L b c c c c k k k k w = = = ",
"> : @ @ # O ; * - - - - w k c c c c c U U T ' ] ] { { { _ _ _ _ D D D _ _ [ d.(.'.'.7.;.&.X.O.-.-.-.X.6 > = w c e e e w w > t #...#.#.#.m C 1.W.7.l.'.l.` _ ` a.K K ` l.z.].W.W.!.!.!.E.] ] ) ] ) Y B N N n n w - - * # @ 5 M ;.v.$XiXCXVXMX9X3X6X4X6X6XqXqXqX6XdX5X-X5X8X8X8XuXnX9X9X9XjXdX6X>XrXrXZ.Z.N.N.N.N.N.:XeXwX0X$Xv.9.#.: + + + + # % % % = w k k N B ] ] L.I.I.I.I.I.[.Q.'.'.( b G G D J J A W { '.E.E.8.1.*.#.#.........#.m > - $ $ q $ . . O ; # : } | $.#.#.t #.#.8.7.7.l.[ Q a s s s a Z W [ { E.I.I.I.I.I.] ] ] U U U B B c c k k w w w = - * * > = @ # @ 6 ;.9.M.=XCXAXMXqXwXMX6X4X4X6XwXjXjXjX6X6X9XdXjXjXjXfXfXnXMXjXqX6XqXxX<X:XZ.V.V.Z.Z.:X6XfXnX9X-X#X9.;.: @ + + % * = r - w w w c c c c L L P P P ~ ~ ~ W W A A A F Z Z Q / / / ~ U U V #.X.X.X.X...6 < + + O . $ q e 9 & O O + , , , < , < > C Y ) ] ' ' ( W A A A A A A b G ( ' T T T U U B B B N c c w w w w w w w = % % % % * > > > : 6 %.:.v.*XiXmXpXwX0X0X4X4X9XMX9X9X9X6X9XfXjXMXnXmXnXmXNXlXlXjXjXxXzXzXzXhX<XZ.&X4XMXpX&Xb.%.6 5 @ + # @ * - - w w c c c c U U U U U ( ( ( ( ( ( ( G A D S D D D _ { 6.6.6.5.1.&.O.O.O.O.O.X.#.% . . 9 i A _ b j &     9   $ - : : : @ - N ] I.] [ [ [ ! E a a s s Q ^ P.P.L.K.K.G.G.G.G.~ ~ ~ ' T T L L U U U c c c k k w w = ",
"+ # @ * * # ; ; - - w k c c c b b b b U T T ] ] { { { { [ _ _ _ D D D _ [ d.(.'.'.].3.;.#.X.O.O.-.O...< * w x c L c y e r t , , ..6 m m m m <.7.W.].].l.a.` _ J K K 3.x.z.].].W.W.!.!.!.E.] ] ] ] ) Y Y U B N N n n n n > > * @ M :.b.#X-X7X7X3X9X6XqXqXhXhXhX<XfX6X5X5X9X8X9X9XMX9X4X6XdX6X<X1XrXrXrXA.Z.Z.N.B.B.N.:X4X$X,...< : 1 + @ @ @ * $ w k n N c c c B ] ] L.I.Q.Q.Y.I.I.'.[.{ G z G G J D _ _ [ { E.W.W.8.<.=.#.....| | ....6 : O $ $ c q $ . . ; ; + , | X.#.#.6 6 m 2.4.6.l.s.! Q f s s a a W ( { E.E.E.Q.Q.I.I.] ] T U U U b c c c c k k k k 5 = - % - - = = 5 5 5 >.9.#X;X2X,XqXMX4X6XqXjXjXkXjX9X6X6XdXdXjXjXjXjXnXnXnXMXjXjXhXeX<X1XrXZ.V.V.Z.:XqX9X;XM.9.%.7 : : * * * = - - - w w c c c L L L L P P ~ ~ ~ ~ ~ E Z A Z A F F Z E / / ~ ~ U Y V $.X.X.X.X..., # + ; O . q c x q q $ O + : , , , < < < 5 C ) ] ' ' ' _ ( G G G G G B G ( ' T T T U U U B U B N c k k k k w w w w w = * * * * * : : : > 6 %.2.v.$X2X3X0X0XwXwXMXMXMXjX9X9X9XdXjXjXmXmXmXgXlXlXlXlXhXkXzXxXxXxXvX<X:X:X&XM.,.o.7 : # # # * = - = k w c c N U U T T T T ( ( ( ( ( ( ( G G A D S S D ! _ { 6.W.7.5.2.o.O.O.O.O.O.X., % $   9 v ( _ G z j   9 9   $ - > : : : * k T I.I.{ [ [ ^ Q s s s s f / H.P.P.T.T.R.G.G.G.G.G.' ' ' T T P P L U B B c c k k k w ",
"@ # # # * - - k w k k k c c L L U L U T T T ' ' { { { { _ _ _ ! p.g._ _ { d.(.'.'.l.3.*...X.-.-.-.$., : - w x x ' U c w t t t < m 6 m m m m V 1. X].l.l.l.d.` J K K ` x.z.z.7.W.W.!.!.!.E.I.] ( ' ' ] Y Y U B B V N n w = r r 5 + : 6 :.v.&X7X6XjXjXjXxXkXkXxXhXdX6X6XdXfX9X9X9XCX9X3X6X6X6X6XhX1X1X1XrXrXZ.N.B.N.B.B.B.,., + + + + @ * + * k w k N B U U U U U ] ] L.I.[.[.[.Q.I.'.|.{ G G G G J D D ` d.{ E.{.W.8.=.#.#...| | } ..6 > * O $ & U b q . . O O + < } } ....6 6 6 ;.1.3.6.d.s.^ Q s s s a Z W [ { I.E.Q.Q.I.L.' ' ' T U L L c c N N c k k k n k = - - = = = = > : 5 7 %.,.M.:X4XeX,XqXkXBXBXMXjX6XdXdXdXdXfXjXjXNXMXnXuXfXNXjXjXqX1XvXxX1XZ.V.V.:X&X&XM.:.7 : @ > - * % - - w w w c c c c c I I I P P P ~ ~ ~ ~ ~ E Z Z F F F Z Z E / / ~ ~ U V m X.X.X.X.&...: + O O . . q L L x q & $ ; * , , } < , , > C ) { ' ' ' ' _ G G G J G G ( ' ' ' T ' T U U L U U B N N c c c c k k w - * * * = * % + * * > : > m =.4.M.$X&X4XqXwXMXMXNXNXfX9X9X9XdXfXgXgXgXgXlXgXlXhXhXlXxXvXhXxXzXxXV.M.9.&.7 1 @ : > * - = = - - k k c L U U L L T ' ( ' ( ' ( ' ( ( ( A D S S S S ! _ { '.W.7.8.:.X.O.O.O.O.O.X.< % & 9 i W _ _ _ b j   9 9   $ = > : : : * w U I.I.{ [ [ [ Q a s s s f Q H.U.T.T.R.G.G.G.G.G.G.K.~ ~ P P P P P L U U b c c k k k ",
"# # ; ; - - 4 k k k c c c b U U T T T ' ' ' ' ' ] I.E.{ ( A D D D g._ _ { E.'.'.'.z.:.#.-.$.X.-.-.} < > r w k b { ( b k w r t % t m m #.#.m M *.].W.E.'.'.'.{ J J ` K K ` 3.].W.W.W.!.E.E.I.{ ] ] ] ] ] ) Y Y Y Y V V N N n r w * > > : 7 &.b.:X&X>XjXBXNXjXjXjXjX9X9X3X3X3X9X9XMXfX9X9X9X9XfXdXhX<X<X1X1X1XZ.N.B.B.,.o.: o + o @ * * - = k k N B B U U ( ( ' ' ' ' I.Y.[.[.[.[.E.E.E.` b G J G J J A d.'.d.'.].7.;.%.%.......< } , > # O $ & j W E E i X ; - O + < ............%.2.6.6.{ d.[ E f s s a Z E [ { I.[.Q.E.E.I.' ' P L U L b N N N N N n k k k k k w = - - - = = > + # : < &.b.:XeX1XqXwXqXwXMXCXMXfXfXnXfXdXdX6X6X3X&X&X&X6XjXqX,X6XhXhX1X1X,XV.B.9.>.7 1 1 # * % & & - w w w w w c c c c L L P P P P P ~ ' ' ~ ~ b F F F F Z Z E / / g / W U M #.X.X.X.&...: + O O $ . q b ( W L j . & ; O > , } } < < > n V { ] ] ] ' _ G G G G G G ( ( ' ' K.' T T U U U U U U c c c c c k k k 4 = = = - - - - % * * * > > > > %.9.&X0XwXMXwX4X6XjXjXjXjXdXdXfXfXgXlXNXNXlXgXfXlXfXdXjXlXlXlXjX<X,.7 1 1 1 # 5 = = = k k k j j c c b L L U T T ' T T ( ' ' ' ( ( A A D S Z Z ! _ [ d.d.6.7.2.&.O.O.O.O.-.-.} @ O & . i ! ! Z ! W v 9   q & $ $ % : : < > w U I.I.I.I.[ ` _ D a s s s f ^ P.Y.T.T.T.T.K.K.K.K.K.' ' ' ' ' ' P P T U L c c c c c ",
"- ; ; ; - 4 k k k c c c b L U T T T ' ' ' ' ' ' ] E.E.{ ( D D D g.g._ ` { E.'.'.6.7.=.$.-.$.X.-.&.t > > w - k ( d._ G z q w r w t t m #.#., m V 7.W.'.'.'.'.{ _ _ g.` K ` 3.7.W.W.W.E.E.E.I.I.{ ] ] ] ] ] ] ) Y Y Y Y Y Y V N N n * * > : : >.>X&X>XqXkXxXjXjXMXwX9X9X3X3X3X9X9XnXfX9X9X9X9XnXfXjXdX6XhXxXxXeX<XN.,.: : : o O # - - = k k k N B B ( ( ( ' ' ' ' [ P.I.[.[.[.[.[.Q.'.E.` b G G G J J A d.(.d.'.l.4.%...o.......< , , - & $ & q l E f E i . $ $ O % : 6 ....| | ..#.1.7.6.I.(.{ ! f s s s a E ! [ { '.!.L.!.I.' ' P L L L b B N N N N N k k k k k k = = = - - - - # 5 : 1 7 ,.N.:X1XwXkXeX6XwXMXCXnXnXnXfXdX6X6X6XV.N.N.&X>X6X6X>X>X6XjXkXNXqXN.,.7 < : : @ + & k & q w w w w w k c c c L L L P P P P P ~ ' ' ' ~ b A A Z S Z E E / / g / W B V ..O.X.X.o...: O O $ .   q v W W Z j . & & $ > > , } < , < 5 V { ] ] ] ' _ ( G G J G D ( ( [ L.K.K.' T U U U U U U b b c b c c k k k 4 4 4 = = = - - % % * % % > 6 %.9.$X4XqXkXjXqX6XhXdXjXjXjXMXjXfXgXNXNXBXNXNXgXBXlXfXfXgXlXfXfX6XM.>.1 1 : 5 * - = w k j j z l v v b L L U T ' ' T T T ' ' ' ( ( A A S S S D W _ { { { 6.4.:.&.O.O.O.O.-.-.} + O ; . 2 E ! Z E E l 9   & & & $ % > < < > r B L.I.I.I.{ ` _ D S s s s f ^ P.T.L.T.P.P.K.K.K.K.K.' ' K.' ' ~ T P T T L L c c c c ",
"; ; ; - = k k N N N B b L U U T T T ' ' ' ' L.L.] E.E.( A J J D g.p._ { { E.'.'.6.3.=.$.$.-.O.-.#.r > r - & b ` d.` _ A j e w w r t m #...6 m V 1.6.].'.'.{ { d.p.a.J K K 3.7.].W.W.!.W.E.E.I.I.I.I.] ] ] ] ] ] Y Y Y Y Y Y Y V V n r > + : ,.0X>X>X<X6XqXwXjXjXwXwX9X3X3X3X0XMXfX9X9X9X9XfXnXfXfXdX6XqXhXhXxXkX,X,.1 o + o # * - w n n N B B B ( ( ' ] ] ' ' ' I.I.(.[.[.[.{.{.[.'.'.( b A G J J J D d.|.d.'.l.1.M 6 ........< , > - & .   j v a a E v & . $ $ O * , ....| | ..m 1.7.E.I.(.P.^ f s s s s Z E [ { Q.E.] L.L.' ' P L L L L B N N N N N c k k k k k w = = = - % ; # @ 1 o 7 9.&X:X:X1XkXjXwX9XMXMXMXMXMXfXdX6X6X6XV.V.&X>X6XhX6X>XjXjXwX6XjXjX&XB.< 1 o : * O O w q w w k k k k k c c L L L P P P P P P ~ ' ' ' ' b A A Z Z S E W / / / / ~ B #.X.O.O.X.o.6 @ O O . .   j v E E Z l . & & $ * > , } , , < > C ) { [ [ [ ( ( G J J A G _ ' { L.L.K.' T T U U U U U U U U b b b c k k k k k k w w w = % % * + + > %.9.B.&X:X2XqXjXjX6X6X6XdXdXjXMXNXfXgXlXNXBXNXNXNXNXlXgXfXgXgXfXdXjX6XM.o.: : 5 > = w k k k c c v v v b L L ( ' ' ' ' T ' ' ' ' ( ( W ! S S S D _ _ { { { 6.2.:.$.O.O.O.O.-.&., + O $ . i Z E E E W v     $ &   $ $ * * < > w N ] I.I.I.{ ` _ ! S s s s f / P.Y.L.T.T.P.P.K.K.K.K.K.K.' ' ' ' ' ' T T L L L c c N ",
"- - - = k k N B B B U U L L U T T ] ' ' ' ' L.L.] E.{ b z J p.D g.p._ { E.E.'.'.6.3.=.$.$.-.-.-., > * = - w B d.d.d.d.( j e e w r r m #...6 m M 1.6.].'.(.d.d.d.a.p.g.J J ` 6.].].].W.W.E.E.I.{ E.E.E.] ] ] ] ] Y Y Y Y Y Y R Y N V C * 5 4.&XMX6X>X>X>X6X6X9X9XwXwX0X4X3X3X9XNX9X9X9X9X9XdXfXfXdXdX6X6X1X1XeXqXkX&X&.1 o # n - w n N B B B U ( ( ' ] { ] ] ' ' I.I.Q.[.[.[.{.{.{.}.'.( z A G J G G A d.|.{ '.6.1.m 6 ..} | | < , * &       l E a s E E j . . $ O % , , ..| | } , *.8.6.E.(.{ ^ f s s s s a E W I.'.E.] ] ] ' ' ~ P L L U U B B N N N c c k k k k w w = = - $ ; # o o : 9.2XqX2XN.:XeXkXMXNXMXMXMXnXMXjXjX9X6X6X<X6XhXxXkXxXjX6XAXNX6X>X4XjXjX9Xb...o o @ - - & q e k k k c c c c L L L P P P P P P P ~ ' ' ' ' b A Z Z Z S W E ~ / / / W B %.X.O.O.X..., + O $ .   i i a a a E v   & & $ * > , } < , , * n ) { ] [ [ [ ( J J J D A _ [ { L.K.K.' ' T T T T T U U U U U b b c c k k k k k k w w = - % * + @ M 0.2X4X2X&X&X:X4X6X6X6X6X6X6XdXMXMXfXfXgXlXNXNXNXNXfXfXfXfXlXlXlXNXlXdX3XM.>.@ # n n k k c c c c c c b L L U ' ' ' ' ' ' ( ' ( ( ( ( W ! S S S ! _ ` { { { 6.8.=.$.O.O.O.-.-.&., O O $ .   l W E E A x     $   . . & * : < > = N ] I.T.I.{ { [ ! S s s s f / P.I.I.I.P.P.L.K.K.K.K.K.K.K.K.K.' ' ' T T L L L c N N ",
"w w w w k k N B c B U L L L U U T ' L.K.K.K.L.L.' { ( z l _ p.g.p.p.[ { E.'.'.'.l.1.=.$.O.-.-.$.> - - - q k ( d._ s.d._ c q e e > > t m 6 6 m m V 5.].'.'.'.(.d.p.p.p.J _ ` 6.].].].W.W.W.E.E.E.E.E.6.6.] ] ] ) ] ] ] ] ] ] Y Y N V C 5 ;.=XGXuX9X6X>X>X,X6X6X6XwXwXwX6X6X6XjXNX9X6X6X6X9X6XfXfXdXdXjXjXqXqXqXqXwXGX$X%.+ # n n C B B B U U ( ) ' ] { I.] ] ' ' I.I.'.[.[.Q.[.[.{.}.{ A A A A J G G A d.'.{ E.6.;.m 6 ..} | | < > -         v E s h f E j . .   O % : , ....| } 6 *.8.6.6.{ [ ^ f s s s s s E W I.[.E.] ' ] ' ' ' ( P L L U U U B N c c c c c k k w w w w - - ; # o # 4.-XCXMX3XV.V.:X6XjXNXMXMXnXnXfXfXjXjXjXjXjXxXxXxXjXjXjXjX9XjXwX9X9X9X0X9X0Xv.6 o + k k w q j c c c c c c b I L L P P P P G.~ G.' ' ' ' ( b A Z Z Z S E E ~ / / / L V #.X. . .X...< + O . .   i u a s s f v   & & $ * > , } , , , > n ) ] [ P.[ [ _ _ _ _ A G _ _ [ L.L.K.K.' ' ' ' ' ' T U U U U L b c c c c c k k k k w = - * * @ 5 2.$XCXMXwX2X&X&X&X>X6X6X6X6X6XdXjXMXfXfXfXjXjXMXjXjXdXfXfXfXjXNXNXNXNX5XfXmX#X%.@ > n k k c c c c b b b L U ( ' ' ' ' ' ' ' ' ' ( ( W W ! Q S D W ( { { { 6.6.8.:.$.O.O.O.-.&.#., O ; $ .   j W _ W v j             & * * < > * k ' I.U.P.P.[ [ _ S a s s a Q [ I.I.I.I.I.L.L.P.P.K.K.K.K.K.K.K.' ' T T U L U B N N ",
"n k k k k c c c b U U L L L L U T L.L.L.K.K.L.L.' ] U j z _ p.p.p.p.[ { '.'.'.'.l.;.=.-.O.-.-.X.> - & - w c ( [ _ p.d._ b e e e * > , , , ..m m V 5.'.'.'.'.(.p.p.p.g.p._ ` 6.].].W.W.W.W.].W.E.W.E.E.6.] ] ] ] ] ] ] ] ] ' T U U C C 1.#XFXGXMXMX9X6X>X6X6X6X6X6XjXjXjX6X6X9XjX6X6X9X6X6X6X5X5X5X6XjXjXjXwXqXwX4XCXuX#X%.+ 5 V V Y U U U T ' ] ] I.I.I.I.] ] ] I.E.[.[.Q.E.E.'.}.}.{ z A G A J G J _ (.[.{ E.7.1.m ....} } } , > & .       l E s h a E i . .   $ % @ , ..X...} #.*.8.W.E.I.{ [ Q f s s s a E / (.[.I.] ' ] ' ' ' ' ( T U U U U U U b b c c c c k k w w w w = - o 5 :.%XmXCXnXMXqX>X&X&X>X6XwXMXnX9X9X9XjXjXjXjXjXhXdX6XdXjXjXjX9XjXNXMX9X9X9X8XmX-Xb.m # - k w j c c x c c c c L I I L P P P ~ G.~ G.' ' ' ( L W A Z S S Q E ~ ~ G./ ~ L V #.X. . .X.} : O $       i i a s s f v . & & $ - * , } < , , > n Y ] K.P.[ [ _ _ _ _ J G ( ( [ ] L.L.K.' ' ' ' ' ' T U U T U U L b c c c c c c k k w - - * = m ;..XtXuXpXpXqX4X>X&X&X6X6X6XdXdXjXMXMXfXfXfXfXfXfXfXfXjXlXNXNXjXfXjXNXgXgXgXVXmX#X;.@ 5 k k c c L L L L L L ( ' ' ' ' ] ' ' ' ' ' ( ( W W ! Q S ! _ _ 6.E.E.6.6.8.:.$.O.O.O.&.&.#.: O & .       b ( W x q   $ q       & - : > > * r Y Y.U.T.P.{ { s.! a a s a Q ^ [ I.I.I.I.I.I.I.P.L.P.P.K.K.K.K.' ' ' T U U U B N N ",
"n n k k k c c b L U U L L L U T T L.L.L.L.K.L.I.] ) B z A p.a.p.p.u._ { '.'.'.'.7.;.&.-.O.-.-.} * - & & q k b ( [ p.d._ z j e w * r t , ..#.#.m M 5.].'.(.'.(.[ p.g.g.a._ _ ` '.E.E.E.W.W.].].].W.W.!.E.6.6.] ] ] ] ] ] ] ] ' U ) B 1.oXFXFXFXVXCXMXjX6X6X6X<X>X6XqXjXjX6X>X6XdXdXdXdXdXdXdXdX6X5X6X9XjXjXjXwXqXqXpXuXFXv.5 > V V Y Y ) ] ] ] ] I.I.E.I.I.I.] ] I.E.[.[.'.E.'.'.}.}._ l G _ A J G J _ d.'.{ E.7.*.m ....} } } , r & .       j W s s a v   .     $ O % < ..X.X.} #.*.8.7.6.{ I._.i.f s s s a f / P.).I.' ' ] ' ' ' ' ' ( T T T T U U U L b b c c N n k k k 4 = = # :.*XnXuXnXVXBXCXqX:X&X&X&X3XMXMXjXjXwXjXjXjXjXjXdX6X6XhXjXjXjXCXMXwX0X9X9XuXCXuXmXtXc.C - & q k c c c I I L L L I L P P ~ ~ G.G.G.G.' ' ' L L W A S S S Q ! ~ ~ G.J.~ L C #.X. .X.X.} @ O .       9 i a s s Q l .   & $ - + , } < , , , m Y ] L.P.P.[ [ _ _ _ _ _ _ ( ' [ K.L.L.K.' ' ' ' ' ( L P T ( T U U U c N N N c c k k = = = m ;..X-XmX8X9XwXNXMX6X>X&X>X>X6X6XdXjXjXjXjXjXjXfXdXdXdXdXfXjXNXMXjXjXjXNXNXNXmXgXVXmX.XM 5 n n c B U L L L L U ( ' ' ' ' ' ' ' ' ( ( ( ( W ! ! Q Q ! _ ( 6.E.E.6.6.8.:.$.O.O.X.&.&.#.> O ; .     . j U c q     $ q 9       - > < , % r Y Y.U.T.P.P.d.s.! S S a a Z W [ (.I.I.I.Y.I.I.I.I.P.L.P.P.K.K.K.' ' T U U U B B N ",
"n n k k k c c L L L T T T T ( ' L.L.L.L.L.L.I.E.] ( B G J a.p.g.p.p._ d.'.'.'.'.7.*.$.-.O.O.O., @ - - & & q b ( d.d.{ _ c k e e r t m #.#.#.#.m C 3.].'.I.'.(.d.p.g.p.a.p._ { '.'.W.W.W.W.].W.W.W.W.W.E.E.E.E.E.I.I.L.] ] ] ] ) Y H c.tXFXmXnXJXCXCXjXjX6X<X>X>X>X6XxXjX6X>X>X6XjXjXjXfXfXdXdXdXjXfXjXjXNXMXwXwXMXpXmXJX=X%.5 5 V Y ) ] ] ] ] ] E.E.E.E.E.I.I.I.] E.[.{.[.'.[.].|.|.G l G _ A G G G _ d.'.{ E.7.*.#.} } } } } t r $         j W a s a u   .     $ O + < ..X.X.| ..=.8.8.6.{ { (.u.Q f s s a f Q [ (.I.' ] ] ] ' ' ' ' ' ( T ( T T U U U U L L b N n k k 4 5 5 * M %XJXmX-XnXVXMXCXwX3X>X&X&X2X9XNXMXjXjXwXjXjXjXjX6X<X6XhXjX9X6X6X3X3X9X9X9X8XuX7XiXmX*X4.n w c c c b I I I I L I L P P ~ ~ G.G.G.G.' ' ' ' L v A Z S S S E E / / J.G./ L C #.X. .O.$.} @ O . .     9 i a a a Q j . & & $ % + > ..< , , , m Y ] I.P.P.[ [ _ _ _ _ G A W ( [ [ I.K.K.K.' ' ' ' ( P T ' ' ' T U U B B B N c c k k n n 5 M c.tXKXmXCXMXMXMXMX6X4X>X&X&X>X>X6X9X9X9XNXNXjXjXfXdXdXfX6XdXjXjXjXjXNXBXNXAXDXnXnXmX=Xv.n C N B B U L L U U ( ( ' ' ' ' ] ' ' ' ] ( ( ( W ! Q Q S ! _ ( E.E.6.6.6.4.:.$.O.O.X.&.&.#.> O $ . &   . q c q     . q q 9 9     - > < < < > Y T.U.P.P.I.d.{ _ S S Z Z Z A [ (.I.I.I.Y.Y.Y.Y.Y.L.L.L.P.P.P.K.' ' T U U U B N N ",
"n n n N N N c L L T ' ' ' ' ' ] L.L.Y.Y.T.I.I.E.] ( ( ( ` a.a.p.s.s.{ { '.'.'.6.4.=.-.-.O.-.-.< % - - & w q w b { l.{ b j w e e r n m #.#.#.#.m M 1.].'.'.'.'.d.p.g.p.p._ _ ` { '.].].W.W.].].].].W.E.6.E.E.I.I.I.] ' ] ] ( ) ) V 7.yXFXIXFXFXCXCXMXdX6X5X<X>X>X>X>X6X6X6X>X>X>X>XdXBXBXjXdXdXfX9X9X9X9XwX0X9XpX9X0XuXGXiX9.6 n n Y 1.) ] E.E.E.E.Q.E.E.I.] { E.] E.Q.[.'.'.}.}.}.{ A A J J J J ` G _ l.'.'.W.7.M , ....} } } , * &       q q i E a u 2 . .     . $ + : ..$.| | } #.2.W.6.] E.(.s.i.Q a s a a Q ^ P.(.I.{ I.] ] ] ] ' ' ' ' ' ' ' ' T U L L L U k N N k = n m m #XmXJXmXnXnXNXnX9XjXjX6X&X&X&X&XwXjXjXjXwXjXjX9XjXdX6X6X6XdXjXjX9X9X3X3X8X8X9XnXuXiXFXFX*X1.k k c b L L L I L P P L P ~ ~ ~ ~ G.G.G.' ' ' ( L b Z S S a a a Q / J.J.J./ W V #.X.O.-.$., + O $         i v E Z v     & $ $ $ % > , , } , , , V 5.I.P.P.[ [ _ _ _ G G G A ( [ [ ' ' K.K.K.K.' ' ' T ' ' T U T U U N N B N N N k w C 5 M c.-XmXmXnXnXuXuXwXMXjX6X>X:X>X>X:X>X6XwX6X9XjXMXMXMXMXfX9XfXfXjXMXNXNXNXNXNXNXNXNXnXnXnXmX7.M k B U b L ' U U ( ( ' ' ' ' ' ' ' ( ( ( ( ( _ _ p.i.Q ! _ { 6.6.{ 6.7.4.:.$.O.O.O.&.$., * + $ $ $ $     q j     9 q 9         - > , , > > Y I.Y.I.I.I.{ { ` _ D D F Z A _ (.I.E.E.I.Y.Q.Q.Y.I.L.P.P.K.' ' ' T T U U B n C V ",
"C C C N N N c U U T ' ' ' ' ] ] !.!.!.Y.I.I.I.I.{ ) ( _ ` a.a.p.p.d.{ '.'.'.'.l.4.=.-.-.O.-.-.< * - % % w w q k ` { ( z & q w w w r m #.#.....6 M 1.].'.'.'.'.{ D D g.p.a._ _ _ l.|.}.].W.W.].].].W.E.E.E.E.E.I.] I.I.] ] ] ) B 1..XtXtXiXGXGX8XCXMX9X5X5X5X6X5X6X,X>X>X>X<X6X6X6XjXNXfX5X5XdXjX9X9X9X9X9X9X9XMXMXMXnXuXiXv.%.5 C V 1.1.] 5.E.E.Q.'.Q.E.E.I.E.E.I.E.'.{.{.{.}.}.|.` A A G J J _ G G ` l.6.6.7.8.m , } ..} } } < % $   9 q q & 9 E Z u 2 . . . . . $ ; : #.$.X.| } #.2.W.6.] E.I.[ ! Q a s a f Q [ (.'.'.E.E.E.I.I.L.L.] ' ' ' ' ] ' ' ' T T T U U N N C 5 @ m 4.tXFXKXnXnXnXNXnX9XfXMXjX6X>X&X&X&X4XjXNXMXCXNXjXdXdXdXdXdX9X9X9X9X9X9X8X9X9XuXnXnXuXmXmXtXXX) k k c b L I I L L P P ~ ~ ~ G.G.G.G.~ ' ' ( ( W A ! Q S a a f Q / / / / E W V #.X.O.-.$., + O $ $       9 x c j j     & & $ $ % > , , } , , , V 1.{ I.{ [ ( ( G G G G G A W [ { P.' K.K.K.K.[ ' ' ' ' ' T T T T U R U B N N N n n n M 4.%XmXNXnXnXnXuXuXwXMXjX6X>X>X>X&XV.&X6XjXMXjXfXfXfXMXCXMXjXfXjXjXMXMXMXMXCXMXnXnXnXnXnXnXmX*X7.C n B Y U L U U ( ( ' ' ' ' ' ' ' ( ( ( ( ( _ _ i.! S ! _ ` 6.6.6.l.z.4.:.&.O.O.O.$.$., + O $ $ $     q x x 9     9 9 9 9     - : , , < t 1.E.I.I.{ { { { ` _ J A A F F W [ I.I.I.I.Y.Q.Y.Y.Y.Y.Y.P.P.K.K.] ] T U N k n C 1.",
"V M M C N N B U U T ' ] ] ] ] L.!.!.I.I.I.I.I.{ { ` ) ` ` a.a.a._ d.'.'.'.'.'.z.7.=.-.-.-.-.&., % w w w w w & w B B z 4 & w e w w r n m 6 ..6 6 M 2.].{.'.'.'.d.a.J g.a.a._ G ( ` l.].|.].].].].].].W.E.E.'.Q.Q.I.I.I.{ ] ] ) ) oXtXFXiXiXGXVX8XCXfX5X5X5XdXfXdXjX6X>X>X>X6X6X6X6XdXdX>X&X&X5XfX9X6X6X9X9X9X9XMXMXCXMX7XuX2Xb.;.M C V 1.5.5.6.E.'.'.Q.E.E.E.E.E.E.E.[.{.}.}.}.|.d._ G G G G G J G G l.'.6.6.7.8.#., } } } } } < % q 9 q q &   . u u i   . $   . . $ ; > #.&.X.X.} #.2.~.6.5.6.{ { [ ! Z a a E Q ^ s.(.'.'.E.E.E.I.I.L.L.{ ] { ] L.L.] ] ] ' T U B C C C n M c.-XGXmXnXnXnXfXfX8X5X9XMXCXjX6X>X,X&X:X4XwXjXMXMXNXfXfXfXfXdX9X5X3XfX9X9X9X9X9XfXfX9XMXnXiXmXtXXXH k c c L I L L P P P ~ ~ ~ G.G.G.~ ~ ' ' _ W A A ! Q S a a Q / / / J./ / W V %.X.X.-.$.< + O $ $ $ $ $ $ q c j .   & & & $ $ % > , , } } , 6 %.1.6.{ { { ` ) G G ) ` _ ( ( ( [ [ ' ' [ K.I.{ ] ' ' ] ] T T T T U Y U B B B C C C n 2.#XtXmXnXgX5XuXuXuXfXfXdX6X6X6X>X:X:X:X>X4X0XMXfX9X9XMXMXMXMXMXMXMXMXMXMXMXMXnXnXnXnXnXnXnXnXmX*X7.V B ) ) B U ( T ( ' ' ' ' ] ' ( ( ( ( ( ( _ _ ! D D p.` 3.6.5.3.3.3.1.*.o.-.O.-.-.$., + O % $ . 9 i v v v i 9 9 9 9 9 9   & - : < , < m 1.W.E.6.5.6.6.6.3.3.` ` ( ( A W ( { { { I.I.Q.Y.Y.Y.Y.Y.I.L.K.[ [ ] Y B N n C *.2.",
"*.*.M C C N B U U T ' ] ] ] ] L.L.L.L.L.{ { { { ) ) ` ` a.a.a.a._ { '.'.'.'.'.].0.:.-.-.-.-.&.: - w w w w w $ - k k k k k w e w w w r 6 6 , , 6 m 1. X].'.'.'.'.a.J J J _ J J _ _ ( ` 6.].}.].].].W.E.E.Q.[.'.Q.[.I.{ E.] ) 7.oXFXmXnXmXVXnXMXCXMX9X5X5XdXlXlXfX6X6X6X4X6X6X3X>XdXjXdX>X&X>XfXfX9X6X5X9X9X9X9XMX9XMX9X7XMXMX&Xv.:.%.M *.1.5.6.E.E.E.E.E.E.E.'.'.Q.'.{.{.}.].l.` G G G J J G G G G ` z.l.6.]. X2.#., } } } , , < w q 9 9 q $ . . v u 2 . . .   .   & O > #.&.X.X.} ..:.7.8.5.E.{ { { _ W Z Z Z Q Z ! [ { { { 6.E.E.E.I.L.I.L.I.I.L.L.{ ] ] ' T U N C C M ;..XiXGXCX9XfXCXNXfX>X;X5X9XMXCXNXjXqXqXqX,X:X>X>X3X9XCXnXMXMXMX9X8X5X7X9X9X9X9X6X9XdXfX5XjXMX8X-XmXtX*XC N b b L L L P P P ~ ~ ' ' G.~ ~ ~ ~ W W W A A A Z Z S S Q ^ H.G.G./ / W V &.X.X.&.$.< + O ; $ $ & $ $ w B N & &     & $ $ $ > , , } } , 6 %.2.5.6.3.{ ` ) ) H H ) ` _ _ ( ( ( ' ' ' ' { { [ ] ] ] ] T T T R Y U B B V V C V V V c.tXFXnXfXdX;X9XuXuX9X9X9X6X6XjX6XqXqX4X&X&X&XjXfXMXMXMXMXMXMXMXMXMXfXfXMXMXMXCXMXMXnXfXfXfXnXmXGXyXc.H Y Y ) ( ( ( ( T T ' ( ( ( ( ( ( ( ( ` ` _ _ J _ a.3.7.7.7.7.7.7.2.:.&.-.-.-.-.$.} < O % $   9 i E E a a i 9 9 9 9 9   & = < , } , m ;.7.7.7.6.3.7.4.4.z.7.6.l.{ ` _ _ ( _ ' { I.Y.Y.Y.Y.Y.Y.I.K.' ' ' ) V C C V 1.4.c.",
"2.*.M M V V U U U T ' ' ] ] L.] L.L.] ] ] ] { { ( ) ` ` a.p.p._ _ { E.].'.'.'.].9.:.-.-.-.-.&.: & q q w e w & w z k k k k k e e w w > 6 6 , , .., <.W.].W.W.'.'.l.K G G J G _ ` ( A A ( { '.].].W.W.W.E.Q.[.'.'.'.E.6.6.) ) XXFXKXnXfXNXCXnXfXMX9X9X6XdXlXNXgXdX9XjXjX0X9X6X3X&X9XCXBXjXMXCXCXfXdX6X6X6X9X6X9XjXfXMX9X3X9X3X&XN.b.:.M %.1.5.5.6.E.E.E.E.'.'.].'.[.{.{.}.|.d._ A A A G G G G G ` ` 3.z.6.6.]. X2.#.} , } , , , * w q       $ $ & _ E l   . . . . .   O @ ..$.X.X.} #.2.7.7.6.E.6.6.3.{ _ W A S S A W _ _ ` ` { 6.E.E.E.I.I.I.I.I.L.{ { { ] ] T U V V V ;..XiXGXnXnX5X6XNXNX5X>X-X5X8XnXMXjXjXjXkXBXqX:X>X&X&X3XMXuXmXMXMX9X8X9X9X8X9XfXdXdXdXdXjXhXjX9X8X8XuXFXFXH B c c L L L P T T ' ' ' ' K.' ~ W W W A A D A A A Z Z Z E ~ G.~ G./ P B M X.O.X.&.o.< + O $ . . $ $ $ k H G b &     & $ $ $ > , , , , , ..=.2.8.5.3.3.3.3.3.3.H H G ( ` [ [ [ ' ' ( ' [ { ] ] ] ] ] ' T T R Y B B B V V V V ;.0.*XmXnXfXgXdX>X9X9X9X9X9X6X6X6X6XjXkXkXqX:X&X&X&X3XMXAXCXjXwXMXCXMXMXwXwXjXMXMXVXCXMXMXfXdXdXdXfXJXJXtXz.V B ) ( ( ( T T T T ( ( ( ' ] ` _ ` ` ` ` J G G K 1.;.2.<.1.1.;.;.=.&.X.X.X.$.#., @ O $   9 i a g g h h i i 9 9 9 9 9 & > , } } } 6 *.1.2.8.2.;.;.;.2.2.2.3.z.].'.(.(.` _ ( { I.I.I.Y.Y.Y.I.L.L.[ ' ) ) V V V 1.4.c..X",
"v.:.%.M V V U U T T ' ] L.L.L.E.] ] ] ' ( ( ( ` ) ` ` a.a.J J J ` 6.W.].'.'.].].0.:.-.-.O.-.o.@ & q q q e w w N ) H z k k w e e w - > m 6 , ....6 1.W.].].{.{.].z.x.l.` ` G G A G ( ( ( G G ` 6.W.W.W.E.Q.'.'.'.] '.'.3.) z.yXFXgXBXNXdXjXAXCX9X9X9XdXjXlXlXfXfXMXCXCXwX9X9X;XN.M.3XCXVXBXAXVXfXjX6X6X6X9X6X9XfXMXjX9X6XjX>X&X>X&Xb.>.%.;.2.6.5.6.E.E.E.'.].].].[.{.{.'.'._ A z J J G G G K ` l.z.z.z.7.7. X X2.=...} } , , , * w q 9   .   q c [ ! Z i . . .     . O + ..X.X.X.X.#.2.0.7.!.E.E.8.7.6.6._ _ ! ! ! ! _ _ ( ( ` 6.E.E.E.I.I.I.{ I.L.I.L.{ ] ] ' U Y n M c.tXmXuX9XjX6X6XhXjXdXdXlXfXfXfXfXfXjXkXkXkXqXqXwX&XB.M.7X7XiXuXnXuXuXuXnXfXjXNXlXjXdXfXjXzXqX<XdXMXnXiXmXz.1.N c U L L L L L P T ' ' ~ ~ ~ W W A A A A A ( ( A A W W ~ ~ G.G.G.~ ( *.&.O.X.X.o.< + O $ . . . & q B ) ` ( k & . & & $ % > , , < , , ..=.2.8.8.3.3.4.4.3.3.3.` G ( ( ( ( ( ( ( W ( [ { { ] ] ' ] ] ] Y R Y V V V V V V ;.2.#XtXFXnXfXfXfX5X9X9X9X9X9X6X6X6X6XhXjXqXqX4X>X&Xn.M.;XCXAXMXjXMXMXMXMXwXjXjXMXMXCXCXCXMXjXjXdXdXfXmXJXFX*X3.C B U U U U T ( ( ( ( ( ` ` ` ` _ ) 3.1.K z 4 5 m m , , > > 5 , , | ..| , } , : + O $ 9 i a g g d p h a E x 9 9 9 q & r e.} $.} 6 m m %.*.*.M m #.%.%.M *.6.].].'.'.d.` [ { I.I.I.Y.Y.Y.Y.I.L.] [ ] 5.1.*.*.;.0..X=X",
"#X9.:.*.*.V B U T T T ' ] L.L.5.] ] ] ' ( ( ( ) ) ` 3.a.` _ p._ l.].].].'.'.'.z.c.:.-.-.-.-.o.# & q q q e e c U { ) G z j q e e q - - n 6 , ..#.m 2.~.].].{.{.].z.c.z.l.` ` G A G ( _ ( G b ( { 6.E.E.E.E.I.I.I.] E.6.1.7.*XbXiXfXlXlXjXjXBXMX6X9XjXjXjXfXfXfXfXCXCXCXCXCX9XB.>.>.M.fXCXnXMXnX9XjXdX6X6X6X5X5XdX9XjX9X6XjXjX6XjX4X&X9.:.;.2.4.3.5.6.6.E.'.'.'.'.E.E.E.{ _ ( A A J J K G G ` l.z.z.z.z.7.7. Xc.2.=...} } } 6 , > q 9 9   . & c ( W ! E l q           O + ..X.| | X.$.:.0.8.5.6.5.2.8.6.3.` _ ! ! ! W _ _ _ ( ) { 6.E.6.{ { { { L.{ { { ] ] ] ' Y V V 4.*XFXmXuXMXdX6X6XdXjXlXlXNXnXnXnXfXjXjXjXkX1XqXBXwXB.o.&.b.%X=XiXmXmXnXnXnXnXNXNXNXfX5X5X6XzXhXqXxXNXnXuXiX*X7.V B U U L L U U T T ' ' ~ ~ W W W A A A A G ( ( G A W W ~ P G.G.G.~ ) *.-.O.X.X.X.< o O $ . . . q b ( _ _ ` B q . $ q $ $ * , , , , , } #.=.;.;.;.;.;.;.;.;.3.) H ` ` ( W ( ( ( ( ' { I.I.] ] ] ] E.5.] Y Y Y V V V V ;.4.c.tXiXVXMXfXjXjXdX9X9X9X9X9X6X6X6X6XjXqX6XwXBX4XM...o.9.&XMXMXMXMXMXMXMXMXMXMXMXMXCXCXCXMXjXhXhXdXjXdXnXKXtX.X1.B U U U T ( ' ( ( ( ( ( _ _ _ _ ) 1.;.H 5 4 : < , , , , > , , } | < < < < < @ O O   i a g g d d p p a E x 0 9 9 q % t e.} $.} 6 6 6 ..#.6 6 6 6 #.m m V 2.].].[.'.'.` _ [ I.I.I.Y.Y.Y.I.I.I.] ] ] 8.2.1.2.2.c.*XaX",
"&XM.9.:.*.V V Y R R U T ' ] ] ] ] ] ) ) ( ( ) ` ) ` ` ` ` ` a.l.].]. X].W.7.7.0.0.,.-.-.-.-.&.@ & q q q q q c ) ( ( G G b c e q q & = m 6 , ..o.6 =.2.7.7.7.7.8.:.9.4.1.H ` { ( G b G ( ( ( ( ) { 6.6.I.I.L.{ { E.] ) 3.XXtXGXnXfX<X<XNXNX6X>X6XjXjXNXjXdX5XdXgXMXCXAXJXJX7X,.1 7 b.9XMX9X9XfXfXNXdX6X6X5X5X5X9X9XMXdX5XjXjX6X6XwX4XM.,.;.;.2.8.5.5.5.6.E.E.E.E.] { ] ( G A A G D J J ` ` 3.4.z.4.2.4.4.4.4.4.&.&.X.| | | ..6 > $ 9 9     & b _ ! ! ! W j &   .     O + 6 X.X. .X.$.=.2.2.<.1.<.*.=.*.V B G A A Z A W _ ( ( ) { 6.6.6.{ { { L.I.{ ] ] ] ] ' ) Y C 4.#XtXuXCXMXfX<X<X6XdXBXDXNXfXnXnXnXnXjXjXjXqX,XkXAX4X&.1 1 %.M.*XiXmXCXMXnXfXfXlXNXlX6X>X;X:XhXxXkXjX6X9XnXFXFX.X1.V ) ( T U ' ' ] ] ] ] ] [ W W W A A G G H H V B B H ) U R T T U U V #.X.X.X.$.o.< + O $ .     l ( ` _ J _ ( j . & & $ $ % > , , } , , } #.6 m 6 m m m m m n C ) { d.[ ( ' ( ( ' { I.Q.I.] L.] ] E.E.] ) ) V V V V ;.1.c.*XtXiXnXMXfXfXdX6X8X9X9X9X6X5X6XhXhXkXjXqXBXAX:X,.1 1 o.v.7XMXuXuXnXMXMXMXMXMXMXMXMXmXCXMXNXjXhXdXdXdXnXKXmX*X7.H U T ' ' ' ' ( ( L G ( ( ( _ ` { 1.1.H n 5 : , } , , < < , < | | , < : < < * % &   i a g d d d d p g f v i 9 9 $ % r e.} e.} , 6 ........6 ......#.#.*.5.].|.[.'.(._ ( [ I.I.I.Q.I.T.I.I.L.] ] ] 1.2.2.4.0..X-XGX",
"sX&XM.:.*.;.V C N U R R T T ' ' [ ' ) Y Y Y ) ` 3.` ` ` 3.3.3.2.3.2.4.2.:.:.,.,.-.-.-.-.-.-.&.: $ q q & & c G ) G G ( _ A j j k $ O > #.#.X.X.X.X.o.o.&.&.=.=.-.-.$.&.%.C 5.].'.{ { 5.{ ) U ) { ] ] L.L.L.' ' ' ] U V 3.*XmXnX8X9X9XjXfX5X3X6XNXMX9X9XfXfXdXdXlXBXNXjXJXGX9.: : : 7 #XJX8X&XqX:XdXjXjXdX6X5X5X9XMXfXfXfXfXjXjXNX4X4X:XM.9.>.;.4.1.5.5.5.] ] ] ] ] E.{ ( G ( _ _ [ [ '.|.3.;.>.&.>.o.o.%.&.&.O.O.O.O.O.X.X.$...> $ q q .   j A _ D D ! _ ( j   .   . ; = 6 ..| |  . .| ....#.m #.} | } , m C B k z v v b ( ( ) ] { { { { L.L.L.] I.T ] ] ] ] U B *..XiXuXnXfX9XdX5X6XdXjXMXNXVXVXVXnXgXjXNXjX0X6X9XCX9X9.: o 1 1 :.v.GX7XuX9XNXjXjXlXzXlX<X>X>X>XjXkXkXwXjXMXCXMXnXiXoX8.) 5.5.] E.E.5.!.!.!.{ ' W W W W W ( ) ) *.*.m m M m m M m m 6 7 7 7 ..X...#.6 > % $ $ . j v _ _ _ D D J _ b & . . O % > , , < < < < < < < , } | | | } , 5 k ( (.(.P.I.P.P.~ ~ K.Q.Q.I.I.' L.L.] { 6.] Y <.V *.;.;.4.#XmXnXnXnXfXfXlXlXjXnXnXnXnXfXjXhXxXhXzXhXAX:XAX9.7 o o 1 6 v.mXGX8X8X9XnXMXfX9XdXCXuXmXCXCXCXjXdXdX5XfXfXnXKXmX%X4.B U ' ' G.G.~ ~ A z G G _ ` ] { ) 3.H 5 # 7 6 , < , , , < < < < < < < , , + $ & i h g d d d d d d d d g E 0 9 q $ r t e.e.} } } } } ..........o...7 M 3.].|.'.(.s.E v ' [.[.Y.T.Y.Y.Y.L.L.] ] 5.<.7.2.2.v.*X-XmX",
":X2X%Xc.;.*.*.V V Y Y Y T ' ' ' [ [ ] ) Y ) 1.` ` ` ` 3.3.;.*.=.%.M %.#...X.X.-.-.O.O.X.X.$...< % q & & j b ( _ G G _ _ W v j j - O > =.&.X.O.O.O.o.O.X.O.-.-.-.O.O.$.#.V 8.{.{.'.'.W.6.) U U ] E.!.L.L.K.' ' ' ( B )  X-XnXMXjXMXfX9XfXfX9XfXMXMXdXdXjXjXdXdXlXlXjXAXCX#X%.# o + : :.=X8X3X>X>XjXjXjXjXdXdXfXfXnXnXfXfXfXfXfXMX6X4X0X-Xv.>.M ;.H H ) ) Y ] ] ] 5.E.{ ( G _ { (.(.(.|. X4.;.&.O.O.o.o.o.+.O.O.O.O.O.O.O.O.-...> $ & $ . & z A S S D S D A b j .   . ; - , ..| | | | | | | , , , | | | } , m C k b z v v L L ( ] I.{ I.I.I.I.P.L.L.] I.' ) ] B V 0.=XmXmXnXfX5XfX<X5XfXfXMXCXVXmXfXNXDXjXdXMXMX9XAX3Xb.7 o o o # 5 ;.=X-XmX9X6XqXkXzXBXzXkXxXxXkXAXBXkXjXkXMXNXMXuXiX=Xc.5.1.5.6.!.!.!.!.!.5.] ( A v W _ ( ) 5.<.*.#.#.#.#.........7 7 7 7 ......6 m m > + O $ & x A ! p.! D D J p.A j   . ; - > t , , < < < < < , } | | |  .| } m n ( (.(.I.I.I.P.~ W K.Y.Q.Y.L.K.L.] ' ) ) Y V V V *.;.4.b.=XmXnXmXfXgXgXgXfXfXnXnXnXnXjXjXxXxXxXzXqXjXjXM.7 1 1 1 1 : ;.#XuXGXnXnXnXfXdXdXdXjXnXmXCXCXMXMXfXgXfXgXfXfXmXmX;Xc.V U T K.G.G.G.W A A G G ` _ [ { ] 5.1.5 : , , < < , , , , , , < 6 , , , , * $ . i h d d d d d d d d d g h i 9 q w n m #.#.#.} $.#.#.....| | ......7 7 1.].].'._.! a v ' Y.Q.Y.Y.Y.Y.P.L.] ] Y Y <.8.2.2..X=XiXFX",
":X4X2X#X4.%.*.<.<.<.5.] ] ' ' ' ' [ ] ] ] ) ] ) ` ` 3.6.3.*.#.#.#.%.#.....X.X.X.$.X.$.$.$.$.#.> - q & q b ( _ D D D _ _ ( b j q - O > =.=.&.X.O.+.O.O.X.&.-.-.$.O.X.X.#.*.7.{.[.}.}.|.E.] U Y ] E.I.L.L.' ' ' ' U ( z.*XmXnX9XNXNX9X5X9XMXMXnXnXMXdXfXjXlXhXjXlXkXjXAX-X%.# # o # : 5 ,.7XfX3XjXjXjXlXjXjXfXjXMXfXfXnXnXfXfXfXfX0X4XMXCX%X:.M M ;.1.1.) ) ] !.E.E.E.{ ( B ) '.'.}.}.}.XX4.>.&.X.O.O.O.O.O.O.O.O.O.O.O.O.-.-.$.m % $ & & l A A Z S Q S S A _ b & & . $ - > 6 } | | | | | | , , , < } } } , , t n B b v v v b ( ' I.I.I.I.Y.Y.Y.I.K.I.I.U ) ) V 1.*XuXGXCXMXfX5X6X5X5XfXfXnXMXmXnXgXNXDXNXdX6XwXMXCXv.7 o o o o o o : 0.=XGXMX4XwXkXkXzXzXzXzXkXkXkX2X&X,XkXkXjXMX9XuXiXyX X1.5.W.E.E.E.!.!.5.] ( b b W _ ) ] 5.<.*.M #.#.#.......7 6 ............6 m m > + O - j b W _ p.g.D D p.p._ z 4 $ O - > t , , < < < < < , 7 } | | | | } t m V 6.I.I.Y.U._.~ E P.Y.Y.Y.K.K.K.' ' ( ) Y C V *.;.2.c.%XiXGXNXNXNXlXlXlXfXfXNXVXNXNXlXlXxXxXkXZXjXjXJXo.o o o o o 1 : ;.%XJXnXnX9X9X9XjXhX9XMXmXmXMXnXMXMXMXfXnXgXfXnXmXiX*X3.U U K.G.G.G.~ W A G K _ _ ' ' ] 3.1.m : , < < , , < , , 5 5 > 5 > > , t > & . i g d p d d d d d d d g E i q q % t m t #.#.e.#.#.6 ......X.X.X.X.7 6 ;.z.'.d.^ a a a ~ I.Q.Y.Y.P.P.K.] ] Y Y V <.8.4.c.*XFXFXKX",
"2X4X0X=Xb.%.%.<.<.<.5.] T ' ~ ~ ' ' { ] ] ] ) ) { { l.z.4.=.#...#.%.o.o.X.X.$.$.$.$.$.$.$.$.#.> - q q j b ( ! D ! ! ! ! _ W x q - O > *.:.$.X.-.O.o.o.X.-.-.-.$.O.X.$.#.*.8.].'.}.[.(.{ ] ) ] ] L.L.L.L.K.' ' ' ( 6.oXFXmX9X6XjXjX8X3X8XnXMXfXfXMXjXjXlXNXlXjXjXMXMX7X9.: o : + > : # 6 v.8XMXCXdXfXjXfXdX9XdXfXfXjXMXMXMXjXfXfX9X6X9XMX=Xv.:.*.2.2.8.5.5.!.E.{.E.E.{ ( B ) 6.'.}.|.}. X4.&.o.O.O.O.O.O.O.-.O.O.O.O.O.O.-.-.$.t $ .   j b W ! S Q Q S S ! ! W c q . $ % > , , } | | | | | < , , < < , < < , t n B b v v v I ~ ' I.I.I.I.Y.Y.Y.Y.L.I.] Y ) Y C  XtXVXCXuXnXfX5X6X5XdXdXfXMXMXmXnXDXgXgXDXCX7X3XVXM.%.o o o + o o o + %.b.7XCX9XqXBXkXkXkXkXkXhXqX,XN.B.:XjXjXjXjX9XuXFXFXoX5.1.W.{ I.L.E.E.E.] ] W b W ( ) ) 1.V *.M m ..........................6 m m > O O & j ( _ ! i.! D g.p._ _ G k & $ $ > > > , < < < < < < , , < | | | | } t *.7.E.I.U.U.H./ / P.Y.Y.I.L.K.' ' ' ) Y Y V V *.2.4..XtXGXVXNXNXlXlXlXlXlXlXNXNXNXlXlXlXxXxXhXBXjXAXCX: o o o o O # 1 5 4.=XnXnX9X6X6XjXjX9XMXmXMXnXnXMXMXNXmXmXnXfXnXnXmXbXXX) U ' G.G.K.~ W A A J _ _ _ ( ] 5.;.m : , < < } < < : > 5 > * # # @ : > * & . i f d p d r.d d d d d g a i q $ O * > > > t < > > > > , ..X.X.X.X...M 1.|.(.^ E a a E ~ ).Y.I.I.L.K.] ' Y Y Y V 1.8.0.#XaXJXJXGX",
"4X2X3X2XM.:.%.*.<.<.<.Y T ~ ~ ~ ~ ' ' ] ] ) ( ( { { l.7.2.=.$.$.X.X.X.X.X.$.$.$.#.#.#.#.#.#.#.> % & w b W ! ! Q ! Q S E W W v j q O * *.:.=.&.&.&.&.&.&.&.-.-.$.X.X.&.$.#.2.W.{.'.(.[ [ [ { ] ] L.L.L.L.K.' ' ( ) XXbXFXnXjXxX6XfX9X8X9XfXfXfXMXMXjXjXMXNXNXjX9X9X8Xb.7 : @ + @ @ @ @ : %.M.CXnXfXfXjXfX9X6X6X9XfXMXMXCXMXMXjXfX5XfXfX8X8X=Xv.:.2.4.7.8.5.5.E.[.E.'.E.] ( ` { l.|.].XX X:.&.X.O.O.O.O.O.O.O.-.-.O.O.O.O.$.$.#.m $ . 9 v A A Z f i.f f Q Q E W ( k & $ % > > , 6 < < , , < < < < 7 : < < } } t t N c v E v E W [ U.T.L.P.Y.Y.Y.T.I.L.] ) 1.C C *XiXmXmXuXMXfX5XdXdXdXfXNXMXMXCXnXNXgXgXlXNXCX9X7X6 : o o + + o O + o : M v.CXMX0XBXBXBXBXzXkXxXhXqXV.N.:XxXxX6X6X9X8XFXFXyX7.1.6.] L.I.I.E.I.{ { ( W W ( ( ) 1.V V M 6 6 ......X.......#.#.#.#.#.m M M > + O - z _ _ ! i.! i.g.p._ _ _ z & $ $ - r > > > < < , , , , , , , < | | } } =.W.I.P.J.J.J./ ^ H.U.P.T.Y.K.' ' ] ] Y Y V *.;.4.c.%XmXJXVXmXgXlXlXlXlXlXlXlXNXjXlXjXjXxXxX6XCXMXGXv.o # o o X O # + # 6 9.iXnXuX9X0XjXjXwXMXMXuXuXnXMXMXNXnXmXmXnXnXnXnXFXyX7.U T G.R.R.P ~ W A J _ _ _ ( ) ) V 5 : < , < , < + + % - ; O O O O O O O X . . a s p d r.d r.r.d d g a i   X O # + + % % + O O O O : } |  . . .#.*.3.l.s.f h h a E H.).Y.Y.I.I.L.' ( Y Y <.<.8.4. XyXGXIXJXGX",
"4X&X&X3X$X9.%.=.q.<.<.] T ~ ~ ~ ~ ~ ' ] ' ' ( ( ` ` 3.4.:.=.$.$.X.X.X.X.$.$.$.#.#.%.=.*.#.*.#.r O $ j b W ! ! i.Q Q S E E W v j q $ = *.=.=.:.:.&.&.&.&.&.=.-.-.o.o.-.&.=.q.~.{.'._.^ ! ^ [ [ ' I.I.L.L.K.' ' U 7.yXFXFX9XNXBXhXfXfXnXMXfX9XfXCXjXMXjXjXMXNX9X7X=X#X%.o : > O + + + @ @ : :.=XuXMXMXMXMXfX9X9X9XfXjXMXMXMXMXMXMX5XmXnX9XMXMX$X:.9.0.7.8.5.] E.[.I.Q.E.{ ] { d.d.'.'.]. X:.o.X.O.O.O.O.X.X.X.X...X.X.X.$.=.=.#.N q 9 x L W Z a f t.f f t.f a W [ B w & - n > 5 m m ....} } } , , 7 : < < } } t n c v a a a a E ~ U.U.P.P.T.Y.Y.L.Q.] ] 1.Y C *.tXuXVXmXnXNXfX5X6XfXfXjXNXNXMXCXMXdXDXDX5XNXHX8Xb.1 o o + + o O # + + o 1 %.uXCXMXCXBXBXzXlXkXxXxX<X:XV.,XkXkXhXdX9X9XmXGXtX.X7.1.{ I.I.I.I.{ ] ] ( A b W G ) 1.H M 6 6 ......X.X.......m m m M m V V C n * - N ) ` _ ! ! i.i.g.p._ ` ` G 4 $ ; % > > > > * : > > , > , 7 6 < | | } } =.W.I.H.J.F.g f J.U.U.P.P.U.K.K.' ] Y Y V V ;.2.9..X-XVXVXmXfXgXlXlXlXlXlXlXfXgXfXlXjXjXxXjXjXAX9X-X%.o + o ; O O O O + : M %X7XCXMX9XwXwX0XpXuXuX9XfXnXMXMXfXMXNXnXfXnXnXmXtXXX] U K.R.G.G.~ W W _ _ _ _ _ ` ) V 5 : < , , , < + + O O X X X O O X X O ; &   a h p d r.d r.r.d d s a l 4 ; O @ o X O $ $ $ . X O @ , } | | } #.V ) [ Q s h h a / H.P.Y.Y.I.I.] ) U Y <.1.2.0.0.#XFXIXJXJXmX",
">X&X&X3X&X0.:.=.q.2.<.Y T ~ ~ ~ G.G.K.K.' ' ( ( _ ` 3.3.:.&.$.O.O.O.X.X.$.#.#.m *.M V C m *.*.t % - k ( ! ! Q i.f f f E E W b j & $ = m m *.#.m #.#.#.#.#.#.$.&.o.o.&.$.$.q.~.W.I.s.^ Q Q ^ ^ P.U.Y.T.K.' ' ( ) XXtXGXmXfXNXzXhXMXnXnXMXfX9XfXNXjXMXMXfXjXMX9X;Xv.:.: + * * + % % * * @ > 6 4.-XmXMXMXMXnXfX9XfXdXdXdXdXfXjXMXNXgXnXnXfXMXMX&X0.0.0.0.8.5.] I.[.I.E.E.{ _ [ [ ^ s.d.|.z.:.&.O.O.O.O.O.| < < < : > > 5 6 C N N N q & j W ^ Q a f g y.t.f s a S _ U w $ - = * = 5 m m m 6 , , , , : : < < < < , C b Z g g h h E H.U.U.U.T.T.Y.Y.L.!.Y 5.Y C M 9.iXmXVXnXuXMXfX5XdXdXfXjXMXMXMXnXnXdXlXNXfXVXmXb.7 o o + + + O O % O # + o 5 =XuXCXwXjXkXjXhX6XhXhX:X&X:X<XxXkXxXjX6XMXVXmXmXtX.X3.{ I.I.I.{ { [ [ ( W b A A ( ( G M 7 6 ..X.X.X.X.} , < > 5 n n n C n n r - w B 3.` _ ! i.i.i.i.i.! _ _ z & . O O * % % + + + % % > : : , , < < | , , V { H.F.F.F.g g J./._.U.P.Y.T.K.' T R V V *.4.4.b.%XnXVXNXfXfXgXlXhXhXhXjXjXdXdXdXfXjXlXlXNXCXJX=X9.: + O % ; ; O O O O # : 4.#XuXMX9X6XqX6XwX9X9X9XfXfXfXMXMXMXMXnXnXfXfXnXbXtX].U ' K.G.R.G.P L W _ _ ! _ _ ( G n 5 > , < , < + O O O X X X X O O * C 1.5.( W a p d d d r.d d d g ! { 3.4.;.%.= O O $ $ $ & . O @ , #.#.#.#.V H A Z s p p h g H._._.U.P.I.] ] ) Y Y 1.2.2.0.0.*XIXIXKXGXVX",
">X&X>X3X&XM.,.=.q.q.<.Y T ~ ~ ~ G.G.K.K.' ' ( _ _ _ l.z.4.&.$.O.O.X.X.X.....m n r r r r * t n > r k z ( _ Q Q f s f f E ! W b j - & - * > r > + : : : : @ < e.&.&.&.&.$.$.q.~.E.[ u.i.t.f / /.U.U.T.K.' ' ] ] 3.*XtXGXCXMXjXkXhXMXuX9XfXfX9XfXfXjXMXMXfXjXMX5X&X9.5 @ > * * > % % * O * m + 5 *XuXnXmXnXfXfXfXfX6X6X6X9XdXfXMXNXNXmXgXfXMXwX2X$X0.0.0.8.] ] I.[.!.!.E.[ W Q Q f Q ^ d.l.;.&.O.O.O.O.X.< 1 + + O O O ; - w w e k & .   b ! E f f s t.t.s s a Q A N % X O O O O # ; + + + @ < < : : < < < < < r B E f g g h h / H.U.U.U.T.T.Y.T.L.] R 1.V n ;.v.mXuXmXuX9XnXfX5XjXfXdXfXjXMXnXnXfXBX5X5XJXJX%X6 o # @ + + + - % O O # # + @ v.=XCXuXMXCXjXqX<X<X6X>X6XxXxXxXkXhX6X6XCXVXmXFXmX*X4.] ] { { { { { { [ W E W Z ! ! F 5 7 7 o.$.X.| } < < + + ; & & & - - % % ; - C ` ` _ ! i.i.i.i.i.D _ G z . X O O O O O O O O O O O O + , , < < , 6 n G [ J.F.F.F.g g J./.`.U.P.T.L.' T R R V <.2.9.4.b.-XVXVXNXlXlXlXlXhXhXdXdXdXdXdXdXhXlXlXNXCXMXVXv.5 # + X - O $ ; O O O + # 5 9.-XuX9X4X0X0X0X0X9X9X9XfXfXfXMXnXnXMXnXfXfXnX-XFXXXU ' G.G.T.G.P L W _ [ _ p.[ _ G z 5 5 > < < < + O O O X X . . O - V  XyXyXoX{ Z h p p r.r.d d d Q (.@XyXtX-X#X;.= & $ . . & . O % n M M M ) ) _ Z h p p p g / /._._.P.P.I.' ) Y Y <.2.2.9.0.0.=XIXJXFXGXmX",
":X:X>X>X:XN.9.&.q.=.<.5.] ' ~ ~ G.G.G.' ' ' ( W _ _ ` z.9.=.X.O.O.X.X..., : % % $ $ $ - % % % O + = C G D Q f f f f Q Z ! _ b ; & $ - = % % > > * * * % + + , #.&.&.$.$.=.<.Y ' _.i.t.g g f H.U.U.K.Y.' ] U B XXFXmXiXnXNXBXkXhXMXuX8X5X9XfXdXdXlX6XfXCXMXAX8Xv.%.5 * * > = * - - - - > > 5 m %.7X7XiXuXuX9XfXfXdXdXdXfXfXfXdXgX-XnXmX9XqXwXeX2X0.2.2.7.) ' Q.[.!.W.Q.I.^ Q s s s f i._ H %.X.O.X.o.o.6 + O ; . &   . . j j q x k k z l v E f s t.p p s a a Z A C C 5 ; ; O X X O O O O O O + : < < < < < > c Z a g d d d g / U.).U.U.T.T.T.L.L.] 5.Y C M 9.&XiXCXnXuX9XnXfXfXfXNXNXNXNXNXNXMXjXlXlXAXNX-X>.X 5 # # # % ; $ ; ; - ; # # @ 6 v.iXuXMXCXBXNXlXxXxXhXxXlXlXxXhXqX6X6XjXMXuXnXnX*Xc.5.6.E.{ ] [ [ [ ^ ! E a a Q Q S C 6 6 ..$.$.$.} < + O $ & &   & & ; % * % * C 3.` _ ! p.i.i.Q p.J G G G z k 4 O X % O X O O O $ $ O + , e.} < 5 z Z Q t.^.^.F.F.g J./.H.H.T.T.P.K.K.' U R <.2.8.4.b.%XmXAXnXfXjXfXdXjXdXdXdX6X6X<XhXdXdXZXBX9XMXCX#X;.# + = - O $ $ $ O ; ; # # o M v.uXCXMX0X2X9X3X3X4XfXMXMXMXfXfXfXfXfXfXfXfXVXtXFXB L K.I U.K.G.~ ~ ^ ! ! ! ! ! ! _ ` K 5 # > > % O O $ $ X . $ O C #XaXyXyXyXoXd.a p d d p d p g _.UXUX*X-X-XKX.Xn - q q . . $ & & k ) ) ( p.S u h p p p d f J./._.P.P.K.L.] Y Y <.<.2.9.9.4..XmXIXJXKXnXnX",
"&X&X&X:X2X&XB.9.=.=.<.<.] ' ~ ~ G.G.G.' ' ' ' W [ _ a.l.4.=.$.X.X.X.....< + O $ q $ & & O O * > m M H G D ! S s f Q Q ! A A z 4 4 = w r = r r % - % & % % % t #.&.$.#.#.*.Y ' ^ i.t.t.t.f / H.U.U.T.I.L.' U 1.oXFXmXnXNXBXBXlXjX9X8X8X5X9XfXjXjXdXdXjXCXCXCX%X:.6 > * > = - - - - - = = > > > 6 0.#XiXmXMXnXjXdXdXdXdXdXdXdXfXfXPXnXgX9XqXwXeX:XB.9.9.7.5.] I.Q.!.!.E.I.^ Q f d p s f ! ` ;.&.&.o.&.o.: + O & & &   .     . e ] XXXX|.d.! Z a s s p p s s a D d.XX.X.XXX8.- X & . . X O O O + > < < < > > k b E p d d d d g H.U.U.U.U.T.T.I.L.L.Y Y V M ;.v.7XMXVXCXnXnXnXnXfXfXfXjXjXjXjXfXfXdXNXfXAX-Xb.7 o # * % % $ $ $ & $ - # * * @ 5 4.$XuXuXMXCXNXlXxXxXhXhXlXlXkXxXhX6X6XjXfX9XuXnX-X*X7.6.6.{ { { { [ ^ ! Q a s f y.f G %.%.#.#.#.#.#.: + O & &       & = C 1.7.0.4.3.` J J g.g.! ! p.J ` 3.z.XXXXz.1.- % $ $ $ $ $ . . O % > , < 5 C D f t.r.r.^.^.F.g J.H.U.U.T.K.T.K.' T U V <.8.8.9.b.;XMXVXmXfXjXjXdXjXfXdXdXdX6X6XdXdXhXBXjXfXCX-X9.5 # * - % ; & $ $ ; O ; # # o > :.%XmXCXuX3X9X3X3X5X9XMXMXfXnXnXMXnXfXfXgXfXnXmXFXH b ] P K.K.K.K.' [ _ ! ! ^ Q ! _ _ K G n n - O X O $ % $ . X O V *XaX*X*XyX*X|._ a p p p p g u.@XbXyX*X-X%XFX*XB $ . 9 9 q $ . & L [ [ E s s p p p p p g J.H._._.P.P.[ ] ) Y Y *.1.2.2.9.0.#XmXJXJXmXnXfX",
"&X:X&X&X2X4XsX0.:.=.<.1.5.] ' ~ ~ G.~ ~ ' ' ( W _ _ ` ` H ;.%...X.o...6 > ; O $ q $ & & O - 1.c.%X%X.X3.J D ! S S S ! ! A G ` z.XXz.1.C = w w w q & & - - - n #.#.$.#.*.) ' ^ t.y.r.r.t.i.H.I.L.T.T.L.L.U U  XyXFXVXMXCXBXBXNXjX9X8X8X8X9XjXlXlX5XdX9XMXAX-X9.6 > > n n r = = w - - = w r * = > %.0.iXmXmXMXMXjXfXdXdXdXdX6X6X5XgXnXfX6XqXwX4X:XM.v.9.8.W.E.L.E.!.!.E.I.[ / g d y.d g Q _ 3.>.%.%.%.%.5 * % $ $   .   q q B {.UXtXFXbX@X|.! a f s s s s a S l.oXtXaXFXFX*XH ; . . . . $ $ $ & > < < > n z A a g p d p d g / H.U.H.H.U.P.T.I.L.] Y V M %.9.%XuXMXMXnXnXnXnXfXfX9XfXfXfXfXfXdXdXfXNX6XgXv.7 # # O - - - & % & & % ; ; - - # @ M 4.iXuXMXMXBXBXlXhXhXhXlXzXlXjXjX6XwXNXMX9X9XnXuXtXc.8.1.] { { [ [ [ ^ Q a s s y.s D H ;.V M m m m % $ & & q       & H z..XyXyXoXz.l.` J J g.p.i._ J z.XXoXtXtXoX.XV - O $ . . $ . . . $ r n C B _ i.t.r.r.r.^.^.F.F.J.H.U.U.T.K.K.T T U R Y <.8.0.b.#X8XNXNXNXNXjXjXjXjXdXdXdX9XdXdX<XdXBXlXdXnXCXv.M + @ 5 - O & & & $ ; O O O O + + 5 0.-XmXuX7X0X4X3X6X9XMXMXfXMXMXMXMXMXjXfXfXfXnXFXz.B ' ' P T.K.K.' [ [ ! ! ^ i.Q i.g.g.J K z & . O $ $ $ $ - . X C .XtX=XtXtXyXoX|.A u s s h ^ @XUXbX*X=X-X*XmXoXB & . 9 9 q $   x W u./ s p p p d p p d g H.U.U.P.P.P.[ ] ) Y <.<.2.2.0.0.v.*XmXJXJXnX8XfX",
":X3X2X&X2X0X:XM.:.:.=.1.5.] ' ' ~ ~ ~ ~ ' ' ' ( ( _ _ J K H %.%.o.#.%.m 5 & $ q q $ & & % V .XaXVXVXFX*Xx._ D ! ! ! D A G ` oXKXIXbX*Xc.C = w e q q q q & - n V =.=.*.) [ ^ t.t.r.r.r.t.^ P.I.L.K.T.' ] U ) yXFXFXmXMXMXNXNXfXfXnXnXuXfXfXjXjXlXdX9X5XCXJX#X%.> > r n n n w w n w w w r n r r n 6 2.$XuXVXnXfXNXjXjXjXdXdX6X5X5XgXgX6X6XwXkXqX:X$X#X9.1.7.E.] I.W.W.E.I._.^ f g t.d g f ! p.` 3.M H H n - q q . 9     . . 1.yXaX*XbXbXyXUXd.u s s s f s Z d.oXbXtXmXiXbXtXXXz X . .     . . & k > r C B W E p p d p p d g H.H.U.H.H.U.U.Y.L.L.] Y C m ;.v.8XMX9X8X8X9XnXnXnXfXfXfXjXjXjXfXfXfXdXfXfX%X%.1 # * # - = - - - - - & ; ; - - * * > m #XiXGXCXMXZXZXxXlXlXlXNXlXjXjXwXNXCXNX9X8X9XuXiX#X7.1.) { ] ] [ [ [ ^ f s p p s Z A ( ) H V C n & .         9   k z.yXyX*X=X=X.Xc.x.` J p.p.p.D K .XoXoX*X*XoXyX7.= X $ X . 9 .   . . k U ' W Q g r.r.r.r.^.F.F.J.H.U.U.P.K.L.L.T R R Y <.2.2.0.v.=XnXnXfXNXNXfXjXjXjXdXdXfXwXjXjX5XjXBXfXMXCX-X:.5 O = n = & - & & & ; ; O O O # + # %..XiXFXuX9X6X6X6XjXMXMXnXMXMXMXMXjXjXfXfXfXmXFXoX) b ' P K.K.' ' ' [ _ ! ^ i.i.i.i.g.p.p.G z & & $ $ O O . X O C  XyX=X*X=X*X*XXX_ u a s a _.UXbXyX;X=X-XtX*Xz.k & q 9 . . 9 v E E g p p p p p p p h g /.).Y.P.P.P.P.[ ) ) <.<.2.2.9.0.c..X=XFXJXJXnXfXfX",
"2X4X2X&X;X9X2X#X9.:.=.1.1.] ) ' ~ G.~ ' ' ' ' ( ( _ _ J G K 3.;.M M M C 4 & & q q q & $ = 7.tXFX;X>XnXKXyXx.D F _ _ D z z x.tXKXFXFXIXFX Xn q e q e x e q $ w C 1.) ` [ ^ f t.r.r.y.t.i.P.I.!.!.L.L.' ) U 3.FXFXmXnXnXMXMXfXgX8XCXMXMXMXMXjXNXNXBX9X5XAXGXb.7 6 > r r w w k k k k w w k n n n n , M 0.iXGXnXfXlXlXlXlXjXfXdX9X6XfX6X5X6XjXkXwX4X&X$X0.*.1.] ] L.Q.Q.Q.Q.I.[ / f g g g g f i.p.p.p.a.( j . . 9 q 9     . . ) yXaX%X-X-XyXbX@XZ u s f a u D @XbXyX-X-X-XbXFX*XH . . .     . . 9 c b B W E f s p p d p h g H.U.U.U.U.U.U.U.Y.L.] Y Y C m 4.=XCXNX5X9XfXnXMXMXMXMXMXNXNXNXNXlXlXlXjXMXCXb.: # @ - = = - - - - - - - & & & - = = * : 9.iXIXAXjXAXAXlXZXDXBXlXjXjXwXwXMXCXMX9X9X9X9XuX=X X1.) ) { { { I.P.[ / a s p p s a Z ! ! _ A v       . .   9 q k  XtXyX.X#X=X%X.Xz.` J p.p._ D K oX-XoX*X*X*XbX7.- . $ . . 9 . . . 9 a ~ / f d d r.r.r.d g F.J./.P.P.P.T.L.L.L.T R Y Y 1.2.0.0.#X8XCXnX9XMXNXdXjXjXdX9X9XwXMXjXjXdXlXlXfXAXnXv.6 * # 5 n = & & & & $ O O ; ; ; # @ # * ;.*XFXmX9X6X6X6XwXjXMXpXMXMXMXMXjXfXdXdXMXnXmXbXz.B ( ' ' ' ' ' ' [ [ [ ^ u.u.i.i.i.g.g.f.! v i . X . . . X X X n c.=X=X-X=X=X*Xz.A F F _ @XbXbXyX*X-X-XyXz.C . .   9 . 9 i E / g p p p p p p p h g J.`.Y.Y.I.K.K.[ ' ) Y <.2.2.8.0.0..X.X-XKXJXJXNXnXgX",
"2X2X:X;X-X3X7X&Xb.9.:.;.2.5.] ' ~ ~ ~ ' ' ' ) ' _ _ _ D D J K K H H H B c q 9 9 q q & $ n c.tXmX6X:X>XnXbXoXx.J J J G G x.oXbXmX-XbXIXIXXXn q x q 9 e q q q k B _ _ u.i.t.t.t.g t.t./ ^ P.I.I.Y.L.L.T U 1.XXFXFXnXnXMXNXNXmXnXnXnXmXCXMXMXNXBXBXBX6X3X8X%X>.: 6 m n w w n N N n n k w k k w r r > > *.#XmXCXfXdXjXjXhXjXjXfXfXdX9X5X>X6XhXkXjXwX9X7X.X4.1.] ] E.I.E.Q.'.I.I.P.^ / f g g s s f i.i.p.! v 9 9 9 9 . .   2 & k  XFX-X8X-XtXbXoXp.Z a S S D x.PXbX;XgX;X;XmXtX7.4 . . .     .   i v W W E a p p d d h h g / H.U._.U._.U.U.U.I.L.' Y N C *.v.8XAXlXdXMXMXNXMXnXfXfXfXCXCXNXNXNXlXlXMXCXiX%.o > * - k w w - - - - - - - & & - = > > @ %.#XCXCXNXBXZXzXDXDXBXNXjXjXjXwXwXwXwXwX9X9X9XuXiX#X7.1.` { E.I.I.I.[ ^ Q f d p p p p s f Q Q Z i i i       q q k 3.oX*X%X%X%X#X%Xb.x.` _ _ _ J x.%X;X%X-X-X*X*XV ; X & . . 9     h g g g g d r.^.^.d d g g J.H.P.P.P.K.L.L.L.L.R R Y 1.1.2.0..X-XnXCX9X8XnXMXdXjXjX9X9X9XpXMXMXjXjXjXjXnXnX#X>.: = 5 5 4 4 & & & & $ ; ; ; ; ; O * # + n 0.yXFX9X1X6X6X0X9XwXpXMXMXMXjXfXdXdXdXMXnXmXKXoX` ( ' ' ' ' L.I.P.[ [ [ H.u.u.i.i.S S i.u.! A l 2   . $ $ . X ; 4.*X=X&X7X=X*XXX` F F l.@XbXbXyXyX*XoX X3.A 2 .   i i v h h h d p p p p d g g / H.U.Y.Y.I.L.' ' ' ( Y Y <.2.2.0.0.c..X*X-XKXJXJXNXnXnX",
"2X2X2X3X3X;X;X7XM.b.:.;.2.5.5.] ~ G.~ ' T T ] ] _ _ D S F F D J K ` ` ` ( c q q q 9 $ - = ;..X=XlXhX5X-XPXbXoXx.G G K x.oXbXKXgXmXmXFX*X1.w q e q 9 9 9 x x b W Q t.t.t.t.t.t.F./ ^ [ [ L.I.T.L.K.' ' U ].tXaXuXuXfXnXNXNXNXNXVXnXmXCXMXMXjXlXBXjX6X3XM.>.7 5 5 n n n n N V C N n k k n n n = > > : > :.#XnXMX5XdXdXdXhXjXjXjXjX6X6X6X6XhXhXjXjXnXmXtXXX5.5.!.E.L.I.[.[.E.E.I.P.P././.t.g p p p p y.i./ / P x 0 9   2 2   X 4 4.%X-X-X-XbXUX|.! S S ! |.oXbXbX-X;X;X;X%Xc.5 X . . .   9 i i v Z E a s p p d d g g / ~ K.U.U.U.U.U.U.P.I.L.] Y U n V 0.=XCXnXfXlXNXNXNXfX9X8X9XfXNXNXNXNXlXlXlXjXCX#X: # 5 * = k k k k k = = = = - & & - - = > * 5 ;.M.9XCXjXjXZXlXBXNXBXCXNXMXpXwXqX0X9XwX9X9XuXiX=X.X3.` { 6.] ] ] { [ ^ / f d d d d p p g f a a a u i 9 9 q & & z 4..X*X&X$XM.%X%Xb.x.J _ a.l.oX;X-X%X=X=Xv.;.4 O X .   9 9 i i g t.^.r.r.^.^.^.^.g g / H.K.K.P.P.P.L.L.] ] ] R R Y 1.2.2.0.$XuXCXMXfX9XMXMXMXjXjXwX9XuXpXMXMXfXjXdXMXMX%X>.5 5 5 5 k k 4 & & - - - - $ ; ; ; ; * * # # C  XtX9X6XqXwXwXjXMXMXMXMXMXMXfXdXdXdX9XnXmXKX*XoX` ( [ L.I.I.I.(.I.P.P.P._.u.i.i.i.f s i.u.u.! ! b 2 X & G 3.l.z.b.9.M.3X=X%X*X].G J @XoXbXyX*XoXXXx.l.` ` _ u i v v g h h p p p p d d g J.H.H.P.P.L.L.L.L.' ' ' ( Y <.<.2.0.0.0. X*XtXFXJXJXDXnXgXfX",
"0X2X2X0X3X&X&X8X&Xv.:.:.2.8.8.5.' ~ ( ' T ' ] ] { _ _ D S F D D D J _ d.[ L x q q . $ & O O M b.M.<XlXdXPXKXbXoXK K K z.-XKXmXgXmXnX*X4.4 - q 9 x 0 9 i I W ~ ^ d r.r.t.t.g /.H.^ ' ] ] L.I.L.K.K.' ] U XXIXtX8X8X9XfXnXNXNXNXVXmXCXCXMXfXdXdXjXjXNX9Xb.7 5 6 5 - k n n N B B N k k k n n n w = m > + : 4.7XCX5X6XdXdXdXjXjXMXMX9X6X6XqXqXqXjXjX8XnXFX*X5.5.!.] L.I.[.[.E.!.I.I.P.U././.i.t.t.y.p p g f J.J.J.E 9 i 2   2 4 4 M b.M.-X-XyXbX@Xf.D F p.oXbX-X%X8X;X-X%Xx.7 ; X . & .   i E / Q g g p p d d d d h / G.U.Y.Y.Y.U.U.U.P.I.L.] ] Y V n 1.#XFXVX5X>XlXNXNXNXNXnXgXnXNXnXmXmXlXjXjXfXfXCX9.1 > 5 # n k k k k k k k k k - w - - - - > > > : :.-XAX9X6XDXgXgXNXAXAXAXNXwXjXwX6X0XwXwX9X9XuXiX*X4.) ) ] U ] ] ] [ [ u./ f d d r.d d p p p f f Q u i q q     4 V z..X.X#X%X%X;X*Xc.K ` l.c.%X;X-X%X.Xv.4.5 * & . . 9 9 i / g g r.r.r.^.^.^.F.F.g J.U.P.K.' ' ' K.L.L.] R R R Y Y 2.8.2..X=XCXCXMXnXnXMXMXMXMXjXwX9X9XpXMXMXdX6X5XCXVXb.7 # m 5 5 n z k 4 4 - - - & ; $ O ; - % * * O ; ;.*XuXjXjXjXMXMXCXCXMXMXMXMXjXfXdXdX5XNXfXPXPXbX` ( { I.I.Y.Y.I.I.P.Y.I.P.s.u.i.i.t.f i.i.Q ! s.s.G j j ) |.x.x.z.n.n.;X%X%XtX.XH 3.bXbXyXoX@Xx.x.a._ ! d._.E v E a h p p d d p p g f /.`.`.U.P.T.L.L.L.L.' ' ( U Y 1.2.8.0.0.0..XyXGXJXHXJXmXfXfXnX",
":X:X:X:X:X:X,X4X:XM.0.:.:.2.2.1.) ( ( ( ( ] ] ] { { ( ( ! ! ! S ! ! i.! ! ! W ( l 4 ; & - 5 ;.>.n.M.;XgXnXPXPX;Xx.K >.%X8XgXAX9XMX%Xz.K 4 2 j e q e x E f F.F.g r.r.d g /./.P.[ { I.E.E.E.I.L.L.I.' ] V yXtXGX8X8X8X5X-X8XCXCX6XfXnXnXNXMXjXjXjXAXMX#X:.6 7 m C w w n n n n N N k k k k k k k k 5 # 5 * 5 .XJXnX>XjXzXdX6XfXMXMX6X6X6X6XqXqXjXjXMX%XGXtX4.1.1.E.I.I.I.I.I.I.L.K.K.P.P.P.^ ^ / Q f y.t.t.t.t.g g f i   . 4 ) ` H &.,.M.-X*XoX@Xx.F K x.;X-X;XtXtX=X.Xz.l.J A z & . q v a g g d p d d d d d g g / H.U.Y.Y.I.L.P.Y.P.I.Q.] 5.5.C V M c.-XVXnX5X5XlXNXmXgXNXDXDXVXmXNXfXnXfXCXjX6XJXM.%.@ > n = - k c c c k k w k k k k - - - - * > m 5 %.v.uXJXAXnXNXMXMXMXCXBXNXjXxXjXjXjXjXwX6X4X7XiX=X4.V Y ) U T ' K.I.P.P.^ / g g g d r.r.r.y.y.g f Q E 2 . j G J ` l.z.XXoX*X*X*X.XoXc.K x.%X%X;X;XoXb.x.;.M H C - . 9 E / g r.r.r.r.d d F.F.F.F.J.H._.U.U.T.L.T.L.L.!.!.Y R V V <.2.2.9.#XiXCXfX9XfXfX9X9XNXNX9X6X9XNXjXjXjXjX6XNXmXiXM * C n k k k k k - & & & & & & & $ O ; ; - * # # C 4.VX9X9XMX0X9XMXBXjXfXdXfXfXfXMXNXjXfXgXgXPXbXXXH ] I.I.Y.[.I.K.Y.I.(.(._._.u.i.f i.i.i.Q Q p.f.|.G G ` z.x.x.x.x.x.oXoX*X-X%Xv.M.7X-X*XoX|.s.i.i.Q / u././.u.^ / d d p p p g f / _.).U.U.U.T.T.T.T.K.K.' ( ( ) 1.<.2.8.0.0.c.#XtXJXJXJXJXCXMXMXMX",
"&X&X&X&X&X:X:X:X:XN.0.:.:.2.2.2.V H H ( ) ] ] ] ] ] ] ] [ _ ! Q S Q i.i.i.! _ _ A z 4 4 C 3.z.c.n.n.C.;XPXPXPX-Xn.>.n.-XNXVXVXnX7Xb.x.x.d.A k q e x I g g F.F.d ^.r.t././.P.I.{ E.E.E.E.E.Q.I.I.I.' ) H tXFXGX9X7X8X-X;X3XjXjX,XdXfXfXNXNXjXjXjXCX7Xv.=.6 m n n w k k n N n n N k k k k k k k k 4 - 5 * * 9.iXmX9XlXzXjX6X9X9X8X3X3X3X4X6XqXjXjX3X7XmXFX.X*.1.8.I.I.L.L.L.K.K.K.K.K.K.K.[ [ ^ / i.t.t.r.r.r.r.t.g a i i G l.].z.9.9.b.M.oXUXoXb.K >.b.-X-X-X;X*X.Xz.a.p.s.d.( q & x E f d d d d d d d d g g J.H.P.T.Y.T.I.K.P.P.Y.Y.Q.] 5.1.C M ;.v.tXmXgXdXfXBXNXNXgXNXDXKXKXmXnXnXnXNXCXNXMXpX4.6 @ = n k k k c c c j w w k k k k w - - - * > > > 6 9.=XGXJXMXMXMXMXNXBXBXNXxXhXhXhXhXjXwXqX4X0XuXtX X1.) ) ' ' P.P.P.P.I.P.P./ / g g d d r.r.p p s Q ! v i l ` a.x.x.x.x.XXoX*X*X%X%Xb.>.c.%X%X%Xv.n.x.K K ;.;.V k j i g g d ^.^.r.r.^.F.F.F.J.J././._.).U.U.T.K.L.L.L.] Y V Y <.2.2.2.0.#XuXmX9X9XMXjX9XjXNXNX9X6X9XjXjXjXjXlXdXNXnX.XM - N k c N c k k = 4 4 4 & & & & & ; ; ; # # # # 5 ;.mXuX8X8X9X9XfXMXjXfXdXfXfXfXMXMXfX9XfXdXfXmXoX3.` I.I.Y.Y.Y.L.I.Y.Q.).)._./.u./ Q Q i.i.p.p.p.d.G G ` x.l.x.x.a.x.x.@XoX*X%X$XsX2X*XoX|.f.i.t.t.g t.i././.u./ t.g d d p h g H._.Y.Y.Y.Y.U.T.U.U.R.R.K.' ( ( ) 1.1.8.8.0.0.c.*XiXJXJXJXAXCXCXMXMX",
"&X$XN.N.&X&X:X&X:XN.v.,.:.:.2.2.V V ) ) ] { ] ] ] ] ] { { { [ ! Q Q i.i.! ! ! _ J J z 4 3. X Xc.n.n.n.b.;XPXPXPXb.>.M.mXKXmX%X%XM.x.x.|.|.'.) c e I E g g d r.r.t.^././._.P.I.E.E.Q.'.[.Q.Q.Y.Y.Y.{ ) 1.FXJXVX9X5X8X8X-X3X6X6X6X5X8XfXjXNXjXNXjXwXN.,.M M M n n n N c k c k k z k k k k k k k k 4 4 5 - * M .XGXNXlXlXlXjX5X7X7X3X>X>X>X6XqX6X6X&XCXmXIXyX;.1.8.I.L.K.' ' ' ' K.K.K.K.P.[ [ [ ^ ^ i.t.t.d d r.t.f Q u v l.XXXX.Xv.9.4.c.b.oX;X*Xn.4.%XbXtX-X.XXXx.a.J p.f.(.{ b c L E f s p d d d d d g F.J.H.U.T.T.Y.I.T.K.K.P.Y.I.I.] 5.1.m M 0.%XFXmXdXgXBXDXBXNXNXNXNXNXmXnXgXNXfXCXMXCXJX$X6 > * > n k k c c c k j q q k k k k k w - - * * > > > %.M.mXGXMXMXMXMXCXNXNXlXlXhXhXhXhXjXjXqX0XuXuXiX*X7.) ] I.L.I.U.P.P.(.(.P.H.H./ g g d d d d s s Q [ W v W d.f.x.l.a.x.x.x.oX*X%X*Xb.:.b.;X%Xb.n.x.K K K 3.3.) G b E f g d r.r.r.r.^.^./.J./././._.).U.U.T.K.K.K.L.L.] Y Y Y <.2.2.2.0.*XVXnX9X9XjXjXfXjXMXNX9X6X9XjXjXdXjXlXlXNX-X4.5 5 N k N B b k k k k j 4 4 & & & & $ & ; ; # @ # @ 5 iXmX8X7XnX9X5XjXjXjXfXdXfXfXnXMX9X5X9XdXgXmX*Xz.` E.Q.Y.Y.Y.Y.I.Y.Q.[.).(._./.^ Q Q ! u.s.p._ J J J ` l.l.z.x.a.x.x.x.oX*X*X=X-X*XoXx.f.u.i.t.t.t.t.i.u.i./ f t.t.t.g g f / _.`.Y.Y.Y.T.T.T.T.U.R.R.K.' ( ( ) 1.8.8.0.0.0..X=XFXJXAXAXAXAXBXCXMX",
"&X&XN.N.sX&X&XN.&X$XM.9.:.:.2.2.*.1.1.5.6.6.6.!.] !.!.E.E.I.[ [ ! ! ! ! ! D D D D a.A z z.XXz.z.n.n.n.n.M.;X-XPX%X4.;XmXPX-Xn.n.x.x.x.f.f.|.'.U b W / g d d t.t.g / /./.P.I.E.'.[.[.[.).).).Y.Y.Y.E.5.3.FXGXnX8X8XnXnX8X7X5X6X6X-X8XfXfXjXNXjXwX3Xv.%.6 m M n k N N c c c c c z k k k k k k k k k k 4 = = 5 4.mXVXfXfXlXjX6X5X9X5X3X3X4XqXqX6X4X&XMXmXJXFX0.;.8.] K.' ' T ' ' ' K.K.K.P.[ [ [ [ [ ^ i.f d d d d g i.Z W |.XXc.c..Xv.c.c.z.c.%X-Xb.9.-XtX*XoXx.x.a.p.i.u.p.s.d.[ ( W Q a p p s g g g g g J.J.H.U.U.U.U.P.L.K.K.K.K.K.L.] 5.1.C *..X-XKXmXfXNXDXBXNXNXNXmXmXnXnXnX-XVX9XCX9XNXJX,.5 n n n n k c c c c j j & & k k k k k k - - - * > > > 6 9.=XVXnXMXMXCXCXNXNXlXlXhXhXhXhXjXjXwXqX9XuXuXtXXX1.) I.L.Y.T.T.P.Y.Y.U.P.P.H./ f f g g t.f a Q ^ ! W s.(.f.p.a.f.x.x.x.z..X.X*X#Xc.M.;XoXz.3.3.K K K ` ` ` ( / / t.r.d r.d d g ^./.J.J.H.H.H.U.U.U.P.T.K.K.K.K.L.] ] Y Y <.8.2.2.v.=XGXuX9XfXMXMXjXjXMXMX9X5X6XjXfXjXjXdXlXnX%XM 5 n C B B B b k k k k k j 4 & & & & & & ; ; # # # # # =XCXuX7XnX9X;XjXMXjXfXdXfXfXfXnX9X9X9XfXgXmXtXXX` { E.I.I.Y.Y.L.Q.Q.[.[.(.(._.P.^ ! ! ! _ _ J A D _ ` ` ` l.x.x.x.x.x.x.oX.X#X=XoXx.f.p.i.i.t.t./.i./ / / f f f i././././._.).).Y.Y.Y.T.T.T.U.U.R.G.K.' ( ) ) 1.8.8.7.0.0..XtXGXGXAXVXBXAXAXAXCX",
"7X&X&X&X&X&XV.N.sXsXM.0.,.:.:.:.1.2.8.6.6.E.!.!.!.!.!.!.E.I.I.(.[ [ _ ! ! ! ! _ D d.J G x.XXz.z.n.n.n.n.b.v.%X-X-Xn.-XmXbXPXx.x.a.x.|.f.p.|.].( W / f g d d r.g / H.P.P.I.I.[.[.[.).).).Y.Y.Y.Y.I.E.6.z.FXVX8X8X8XfXnX8X7X3X4X6X3X8XfXfXjXNXjX4X&X9.%.6 m n n k N N N N B B b z & & & j k k k k N k - k n * *.-XJXNXfXlXlXdX9XMXfX9X9X6X9X6X6X4X3XuXGXGXIX*XM ) ] ' ' ' ' ' ' ' K.K.P.K.P.K.P.P.[ ^ / f f g d d g i.Z A |.@Xz. X XXXoXc.4.c.#X7XB.0.iX-XoX@Xp.p.p.i.i.u.u.s.s.[ s.^ Q s s s f / f f J.J.J.J.H.H.H.U.U.U.P.K.K.L.' ' ] ] 5.1.V ;.*XmXJXmXgXNXDXlXNXBXNXmXfXgXnXnXfXAXfXVXfXwXpX%.> m C n k N B b c j j & & & 4 j k k k k w = - * > 5 > 5 ;.#XuXCXMXNXCXCXNXlXjXlXjXhXhXhXjXjXjXwX0X9XmXaX.X5.) I.L.L.Y.T.Y.U.Y.T.I.P.U._./.i.i.Q i.Q E Q ^ E E s.f.f.f.f.f.f.x.x.x.c..X*X%Xv.%X%Xb.x.K a.a.K J ` _ _ ! Q f r.r.r.d g g F././.U.H.H.J.H.H.U.U.U.G.K.K.K.K.' ] ] <.Y 1.2.2.9..XiXVX9XdXfXMXMXNXMXfXMX8X5X5XfXfXfXjXdXNXgXv.5 5 C C B B b c z z z z z k j 4 & & & & & ; - - # # # # v.uXGXiXuX7X;XjXjXjXfXdXfXdXfXfXnX9X9XfXfXmXbX*X3.] L.I.L.Y.).K.Q.E.Q.Q.Q.(.I.I.P.[ _ W _ _ G D D D _ G z J l.l.x.x.x.x.z.z.z.z.|.f.g.i.i.i.i.f i.f g g g g g f i./.`.`.`.).).).Y.Y.Y.U.T.T.H.R.G.G.K.' U Y ) 1.8.8.0.8.0..XtXJXGXCXCXBXAXJXAXVX",
"0X2X&X&X:X:X&XN.sX:XsXM.9.:.:.:.2.2.8.7.6.E.!.!.Q.Q.Q.!.!.Q.(.).'.l.d._ ! ! ! ! Z p.! D a.l.z.XXx.n.n.n.n.n.v.%X-XM.PXbX*XoXx.x.x.f.f._._.l.` A ! Q f d d d t.f _.(.I.I.I.Q.[.[.).).).U.U.U.Y.Y.L.{ 7..XtXmXuX9X9XfXnXfX9X6X6X9X5XfXfXfXjXNX9X;XM.:.M m C n n n N N N B B B z k & & & & 4 k k k N k w k n - C v.VXNXlXlXjXdXdXNXMXMXjXjX6X6X6X6XMXMXGXFXIXtXM C ) ' ' ' K.K.K.K.K.K.P.P.K.K.P.U.I.[ E E f f t.t.f Q Z A d.x.x.oX|.z. X Xc.v.$XsX#XM.tX*Xx.x.g.i.u.i.i.f.f.s.s.! _.u.f f f f / ^ H.H.H.J.H.H.H.H.H.H.U.P.K.K.K.' ' ' ] ] 1.<.*.2.-XmXJXVXmXDXBXjXNXNXNXMXfXgXnXNXNXAXnXVXMX9X&X6 > n n n k B B b z j j     4 4 4 j j k k k = = - > > > > %.b.7XGXCXCXVXCXNXMXjXlXxXjXhXhXjXjXjXwX0X9XuXaX*X7.] ] K.I.Y.Y.Y.Y.U.P.L.I.Y.)._._.u.^ ^ ^ ^ ^ ^ E f ^ s.f._._.f.f.f.x.a.x.b.%X%XM.%X%Xx.a.J J a.a.` a._ ! Q f g r.r.r.g g J.H._.).U.U.H.H.H.H.R.U.U.U.G.G.K.' ' ] ) <.<.8.8.2.0.*XiXVX9XfXMXfXnXNXMXfXMX5X5X5XfXfXfXMXfXNX-Xn.5 5 C N B B z z z z z z z z j 4 4 4 4 & & & - - # # # * :.=XGXuXiX7X3XfXnXfXfXdXfXfXfXfXMX9XfXfX8XmXmXyXz.) ] I.L.I.).K.Q.Q.E.Q.Q.Q.Q.I.'.I.' ( A G G _ D D _ A 4 4 G J l.x.z.x.x.l.3.a.f.i.S i.u.u./ f a h h g g g g t./._.`.`.).).).).Y.Y.Y.T.T.T.H.G.G.G.K.' U U ) 1.8.8.7.0.0.#XaXJXVXBXBXAXAXAXAXAX",
"7X3X2X2X:X:X:X&X:X:X:X#X0.:.:.:.=.2.2.8.5.5.!.E.Q.Q.Q.Q.I.I.Y.[.}.|.'.d._ ! S S D ! ! _ a.a.l.x.x.c.c.n.n.n.b.v.M.oXbXPXoXx.x.a.`.f.f._.f.s.! Z f t.t.y.g t.i.u.).[.[.[.'.'.[.[.(.(._.U.U.Y.Y.T.I.] ].*XtXnXMX9XfXfXnXnXnXfXjXjX5XnXMXfXjXMX3X&Xb.>.6 M M n k N N N c B B b j 4 & & 4 4 4 k k N c k k k k - 5 :.-XfXNXlXhXjXlXjXMXCXMX9X6X3X6XwXMXCXMXmXIXiX4.C ] ] ' K.K.K.K.G.K.K.P.K.G.K.U._.(.[ ^ / E ^ ^ ^ ! ! D A J p.f.x.x.x. XXXc..X#X#X$X#X*X Xa.p.i.i.u.i.i.u.i.! s.p.u.i.i.i.i.Q ^ P.P.H.H.H.H.H.J.H.J.H.H.P.K.K.K.' ' ' ] Y Y *.*.0.mXmXVXNXNXNXBXNXMXNXMXjXdXdXMXCXCXCXnXMXCX7Xb.6 n n n n N B b c j j 2   2 4 2 4 j j j k k w = - = > 5 5 6 :.$XCXCXVXVXCXNXjXjXlXlXjXdXdXjXjXjXwXwX9XuXmXyX].] ] L.I.Y.U.Y.Y.Y.Y.L.I.Y.).).(._.s.[ [ ^ ^ / f s Q Q p.f.f.f.f.d.x.a.x.x.b.b.b.v.c.x.a.J J _ ` _ _ ! Q f t.t.r.r.r.f J.H._._.U.U.U.H.H.J.J.J.J.J.R.G.G.~ ' ' ' ) Y 1.8.0.9.v.=XFXmXfXgXNXgXfXNXmXgXnX5X-X5XfXfXnXNXmXnX%X%.7 n B B B B b b b b z z z z j j j j 4 & & & - - # # @ @ %.#XmXmX7X7X8X7XfXfX9X9XfXfXfXfXMX9XfXfX5XgXmXyXXX) ' E.L.L.I.] Y.E.Q.Q.E.E.E.E.[.E.{ { _ ( _ _ D D _ D 4   4 4 G 3.z.x.x.l.` a.f.i.Q Q ! E a i i i h g g g d t./._.).).).).Y.Y.Y.Y.U.T.P.T.H.H.G.K.K.' U U Y 1.8.8.~.~. X*XFXIXVXBXAXAXAXAXAXAX",
"=X=X3X3X:X:X:X:X:X,X4XsX0.,.:.:.%.*.1.1.5.5.E.E.Q.Q.Q.Q.Y.Y.Y.[.{.{.{.'.d.[ ! ! ! ! s.f.d.` ` K x.x.c.c.c.b.b.v.4.b.yXyXx.x.|.f._._._.s.D ! i.f s t.t.t.t.i.s.(.(.'.[.[.[.Q.[.[.).).).).Y.Y.Y.I.[.] ].yX-XnXCX3X8X5X8XfXfX9XwXjXfXMXNXfXfXMX3XN.9.%.6 M C n k B B c c b b z j     4 4 4 4 k k z B c N N k - n M %X8XNXlXjXlXBXNXfXMXMX9X>X>X6XjX6XAX7XCXJXiXv.M ] ] ' ' ' ' ' G.K.P.P.K.G.G.U._.P.P.P.[ [ [ [ [ _ ! _ _ A F D J x.z.XXXXc.c..X#X.X.Xz.x._ D p.i.u.i.u.! l l ! f.i.t.i.i.i.^ ^ P.P.P.H.H.H.H.H.H.J.J.G.G.G.K.K.' ' T ] Y V *.;.v.GXmXmXmXNXNXBXAXjXMXMXfXdXdXMXCXMX9X9XuXCX-X:.6 C N N N B B b j j j 2 2 2 2 2 2 j j j j k w w = > > 5 5 6 %.v.uXCXVXVXCXMXjXjXlXNXjXjXdXjXjXjX9XjX9XuXuXyXXX6.' K.I.Y.T.T.Y.Y.Y.Y.I.Q.[.[.(.(.(.I.P.^ E f g g f S Z D p.|.|.l.a.d.x.a.x.z.z.c.3.a.a.a.a.` ` ( Z ^ / t.t.r.r.r.^.g ^ H._.U.U.U.H.H.J.J.J.J.J.J.J.G.G.~ ~ ' ( Y Y 1.8.0.9.v.tXFXiXfXlXNXfXfXNXmXfXnX5X-X5XfXfXnXNXnX8Xv.5 M n H H B b b b b z z z z z j j j j 4 & & & & - - - * # 6 v.iXFX7XiXuX;X9X9X9X9XnXfXnXMXuX9X9XfX5XfXmXtX*X1.) E.L.L.I.' I.I.Y.Q.E.E.E.E.E.Q.'.E.{ _ _ W ! S ! _ l   . . ; G 6.l.l.l.a.a.f.u.u.! E i 9 9 9 i h J.^.d d t._.).[.[.).Y.Y.Y.Y.Y.U.U.T.H.H.G.G.K.' T U U Y <.8.~.~.~..XyXGXIXVXBXAXAXAXBXAXSX",
"&X&X;X2X>X:X:XV.:X:X4X2XM.9.:.:.=.*.*.1.5.{ I.I.Q.Y.Y.Y.Y.Y.).[.{.{.{.{.|.(.s.s.s.f.f.s.d.l._ 4 G ` z..Xb.c.c.c.c..XoXz.x.f.f.|.|.(._ A Z Z s s y.y.t.t.i.^ { E.'.'.'.[.[.[.).).Y.U.U.U.Y.Y.Q.!.Q.]  XyXiXnX4XjX9X8X8XfXfXfXjXjX8XnXfXNXMX5X3Xv.,.6 m V n k N B U b b b c j 2   2 4 4 4 & & k z b c c c c N n 5 9.8XVX5XfXlXfXjXNXMXfX6X3X3X6X6XNXMXnXVXCXGX-Xm ) T T ' ' ' ' K.G.G.G.K.P.P.P.P.P.~ P.I.[ ' ] ` _ _ _ D F F u 2 _ ` l. X X X X X Xl.` a.s.! ! s.u.Q A l   l s.u.t.t.t.i.u.^ P.P.P.K.K.G.H.H.J.J.J.J.H.H.K.K.' ' ' ' B V V m :.=XGXVXNXNXNXNXCXNXMXfXjXjXjXfXjXfX9XnX8XuXiXv.%.%.C N N U U b v l u u 2 2 2 2 2 2 2 j j j k k k w r > 5 m m m 9.iXnXVXVXNXBXBXfXBXBXBXNXjXdX9X9X9XwXjX9XnXaXoX6.' L.L.Y.Y.U.Y.Y.Y.Y.Q.Y.Y.(.Y.I.I.(.I.^ a h g g g a u u 2 z ` |.|.l.f.x.x.x.K 3.x.a.p.d.` ( b i i E f t.t.d d r.r./ ^ H.P.P.U.U.H.J.J.J.J.J.J.J.J.H.~ ~ ' ( U Y 5.8.7.2.2.#XiXFXnXNXgXgXNXBXfXgXfXfXgX-X-XnXnXfXnXVX8X>.6 C C ) B G G b b z z l l z z z l j j j j & & & & - * * * 5 ;.*XGXuXiXuX7X8X5X5X9XwXwX9X9X9X9X9X9XfXfXnXmXyX].U ] E.{ P.I.I.I.I.Y.Q.Q.Q.Q.[.E.E.[.'._ A ! ! S Z D A l   . . & z 6.|.l.a.p.p.s.s.A i   9 9 9 i / /.g d r.^.`.).).Y.Y.Y.Y.Y.Y.Y.P.T.T.H.J.J.G.G.~ T U U Y Y 8.8.~.~. XtXIXKXfXNXAXBXBXSXSXAX",
"=X=X;X2X>X:X:X:X:X:X4X2XM.9.:.:.=.*.V 1.{ { L.I.Y.Y.Y.Y.Y.U.).[.{.{.{.{.}.|.(.d.d._.f.d.f.l.a.F 4 z K x.c.c.c.c.c.c.z.x.|.|.f.(.[ ( b j l S f y.p y.y.i.! [ 6.W.'.'.'.[.[.[.).).).).Y.Y.Q.Q.!.!.!.5.XXyXiXnX6X9X9X9X9XnXnXfXjXjX8XfX9XMXfX9X3Xv.:.%.M V N N U U U L L b z j 2   2 4 4 4 4 4 4 k b b b B N N n n 2.-XVXfXfXlXjXBXNXNXjX9X6X6X0XwXNXjXMXCXMXVX-X;.1.Y R T ] ' ' K.G.G.G.K.P.P.P.P.P.K.I.I.] ' ] [ [ _ D D S F u 2 4 k G 3.z.].|.@X|.a._ p.s._ ! ! W l 2   j W s.Q t.t.t.i.^ ^ P.P.K.K.K.K.H.H.J.J.J.J.H.H.K.K.K.' ' T U V *.*.0.iXVXVXNXNXNXNXNXMXMXMXjXMXjXjXjXjX6XfXuXuX7X0.M M V N N U U b v j u 2 2 2 2 2 2 2 2 2 j j k k k k r n n m m m :.*XmXGXVXmXVXNXfXlXNXlXjXjXfXfXjXwXjXjX9XiXtXoX6.) L.K.I.T.T.Y.U.Y.Y.Y.Y.Y.Y.Y.I.I.).(.[ E g d d g f Z u     z ( _ l.f.f.f.x.x.x.l.d._ _ b k j   i f g t.r.d d d g / ^ H.P.P.P.H.H.J.J.J.J.J.J.J.J.H.~ ~ ' ( U Y 8.8.0.2.0.$XaXFXnXfXgXgXlXNXfXfXgXNXNX5X-X8XfXfXVXVX=X;.6 M C H B B b b b v v l v l z l l l j j j & & & - - - - = > %.#XGXFXiXuX7X8X8X5X9X0X9X9X0XuX9X9X9XdXfXnXmXtX X) ] I.[ P.I.I.P.I.I.Y.Q.Q.Q.Q.E.E.'.(.[ W ! ! S Z D A b 4 . . & j z _ d.d.d.(._ v j   9 9 9 9 v / f g d r.^.`.).Y.Y.Y.Y.Y.Y.Y.Y.P.P.H.G.J.G.G.~ ~ U U U Y Y 8.8.~. X.XiXIXKXfXNXBXNXNXAXAXAX",
"7X-X-X2X>X>X:X:XZ.:X:X:XM.9.,.:.=.*.V ) ] [ [ K.Y.Y.Y.Y.Y.T.Y.[.{.{.{.}.}.}.|.|.(.(.f.d.d.|.f.J   . & z ;.7.c.c..Xz.l.l.|.|.s._ x e q q l Q t.y.y.y.t.i._ ] 8.W.'.).'.'.[.Q.Y.Y.).Y.Y.Y.Q.Q.!.!.E.5.XXtXmXMX6XwX9X9XfXnXnXMXjXjXfXnX9XMXMX9X7Xv.:.*.*.V N N R U U U L v j 2 2 2 2 4 4 4 4 4 4 k b b U U N N N n %.#XnXNXjXfXfXNXMXmXMXfX9X9XjXjXjXNXjXCXfXnX5X4.1.Y U T ] ' ' ' K.G.G.K.K.P.K.T.L.K.I.Y.] ' [ [ s.! S S D D F l   & k B ) 6.|.@X@Xf.D ! s.! A b x   . . j _ u.f f t.i.i.H.H.P.P.P.K.K.K.H.H.J.J.J.H.H.P.G.K.K.' ' T Y V *.:.#XGXVXNXNXmXNXNXMXMXMXMXMXMXNXjXjXjX3XfXMXuX=X4.m M B N B U U b l u u 2 2 2 2 2 2 2 2 2 u j x k k k w n n m m 6 =.v.mXGXVXnXNXNXjXlXjXjXfXdXfXjXMXjXkXhX9X8XtXoX].] ' L.I.P.T.Y.Y.Y.Y.Y.Y.Y.I.I.I.I.(.).P./ g d d d g E v 9 . . j z _ d.f.f.d.x.l.l.l.A z q &     i g g d r.d d g F.J.H.H.H.H.H.H.H.J.J.J.J.J.J.J.J./ / ~ ( ( U Y 8.2.9.0.v.=XmXmXnXNXfXjXlXNXlXNXNXNXNX5X3X9XnXnXVXVX.XM m V B H B b b A F F F F F l l z z l j j j k - - - - - = = * n c.aXGXmXuX8X9X9X3X3X6X0X0X9XuXuX9X9XdXdXnXmXtXXX) ] I.] I.P.I.P.I.Y.Y.Y.Y.Y.Q.Q.'.(.(.{ [ W ! S S Z A W l . . & &   l _ d.d.d.b   . $ & 9 9 9 E J.g g d r./.).).Y.Y.Y.Y.Y.Y.Y.T.P.G.G.G.J.G.~ ~ T U U Y Y <.8.7.~. X#XFXIXVXNXAXAXAXAXAXSXAX",
"8X7X7X3X>X>X:X:XN.&X:XsXM.9.,.:.=.*.V Y ) ' ' ' K.I.Y.Y.P.K.Y.[.{.{.{.}.}.}.}.}.'.|.|.d.|.|.l.d.l   X ; k V 4.c.oXXXl.l.|.d.Z l 9 e e x W u.t.y.y.y.i.[ ] ] 5.W.'.(.(.).Q.Q.Y.Y.Y.Y.Y.Y.I.!.!.!.5.5.oXFXVXMX6XjX9XfXnXnXMXMXNXNXMXnX9XMXfX7X%X,.%.*.*.V N B R L U U L v u 2 2 2 l 4 4 4 4 4 4 4 z b U U U N N C C c.-XNXNXfXfXMXfXnXMXfXfXfXjXNXNXCXMXNX6X5X>Xb.*.Y Y ) ] ] ' ' ' K.K.K.K.K.K.T.L.L.Y.Q.L.[ [ [ i.Q S S S D F z j & & & k G l.@X@Xf.! ! ! A l j     $ & z ! i.t.g t.i.H.H.H.H.H.H.G.G.G.H.H.H.J.J.G.G.K.G.K.K.K.' ] Y C *.2.$XGXBXNXmXgXmXMXnXfXMXMXMXMXjXjXjXdX>XfXVXuX.X;.m C B U U U U v u 2 2 2 2 2 2 i i i 2 2 i j x c c k k n n m m > %.0.iXVXVXnXVXDXCXNXjXjXfXfXfXfXMXjXjXqX9X8XtX*X X] ] L.I.I.I.Y.Y.Y.Y.Y.Y.Y.I.I.I.I.I.(._.H.f g d d g f E i 9 .   & j A d.|.x.a.a.l.d.l &       9 / g d r.d d g F.J.J.H.H.H.H.H.H.J.J.J.J.J.J.J.J.J.~ ~ ~ ' T U ) 8.2.0.0.v.-XFXmXnXNXlXlXBXlXfXjXBXdXfX7X5XCXCXnXmXGXc.m C H H G G b b F F F F F F l l v v z j j j k w - - - - - = * > 2.=XGXVXuXuXuX8X3X3X3X4X0X0X9X9X0X9X6XdXfXmXaXoX5.] { ] I.P.I.I.Y.Y.I.I.I.Y.Y.Y.I.I.(.(.[ W D ! S Z E ! v . . $ $ .   l A A b j & & & .   9 9 ^ /.g g g t./.`.).Y.T.Y.Y.Y.Y.U.P.G.G.G.G.G.G.G.' ( U ) ) 1.1.8.0.~. X*XKXJXVXAXAXSXAXAXAXAXAX",
"8X7X7X3X3X:X&XV.N.N.sXsXM.9.,.:.=.=.V V ) ( ' ' K.K.I.I.P.K.I.[.{.{.{.{.{.}.}.}.|.|.|.l.|.|.|.|.G j . ; & 4 H z.XXXX].|.'._ v j e e c b _ f.i.y.y.t.p.` ] ] E.[.).).Y.Y.Q.Q.Q.Q.Y.Y.Y.Y.I.I.!.!.] 5.*XFXCXMX6X6X9XfXnXnXMXMXMXMXfXfX5XnX9X&XM.%.%.:.*.N B R R U U U b l i 2 2 u l 2 4 4 4 4 4 4 z b U U U N N N n 4.%XNXCXMXfX9XfXgXfXfXfXfXjXNXNXAXNXNXdX5X5X#XV <.1.] ) ' ' K.' K.K.K.K.K.K.T.Y.T.Y.Q.L.{ { s.Q S S S S D A A z & $ $ $ 4 ` }.|.(.s.! Z l 2     $ & q v Q t.t.g f H.H.U.U.J.J.H.H.H.G.H.H.G.G.G.G.G.G.G.G.K.K.] Y Y C M 9.=XAXBXNXgXgXfXfXnXfXnXnXnXfX9X6X6X6X5XMXVX7Xc.%.M C U U U U b l i 2 2 3 3 3 i i i i i i i u x c c k k n n n m 5 m 4.-XVXJXmXVXVXNXBXNXNXfXdXdXfXnXjXqX1X6XuXtXyXXX] ] ] I.I.I.I.I.Y.I.I.Y.Y.Y.Y.I.I.I.Y.(._.H.g d d d g g i 9   .     2 A d.l.d.` l.( i     q 9 i / d d r.r.r.g J.J.J.J.J.H.H.H.J.J.J.J.J.J.J.G.G.G.~ ~ ~ ' U Y <.2.8.0.0..XiXmXmXmXjXhXjXlXjXdXdXjXNXfX3X3XCXAXuXuXaX4.n M H H G G z F F F F F Z v l l v z z l j j j j & - - - - = > > *..XFXGXiXuXuX8X3X3X4X4X4X0X0X8X0X6X6X6XdXnXiX*X6.] { ] I.I.I.I.Y.Y.I.Y.Y.Y.I.(.(.I.I.'.I.( A ! S Z E ^ L 9   . $ $     j b i   . q q     i i u./.g g g g /.`.Y.U.U.U.U.U.U.P.T.G.G.G.G.G.~ ~ ( U U ) ) 1.1.8.0.~..X=XJXJXDXDXNXBXBXBXBXDXSX",
"-X7X7X3X3X:XV.N.N.N.sXsXN.0.,.:.q.=.*.V Y U ' ' K.L.I.I.I.L.I.[.{.{.{.{.{.{.{.{.].].|.|.|.|.|.|.( k & & & ; 4 H z.}.}.'.{ b i 9 x x x b ! u.i.t.y.S _ { 6.I.Y.[.Y.Y.Y.Y.Q.Q.Q.Q.Y.Y.Y.Y.I.I.I.E.) 3.*XFXuXwX,X6X9XfXnXnXMXMXMXMXfXMX9XMXfX;XM.%.;.2.*.N R R R T T L b j i 2 u l l 2 4 4 4 4 4 4 z b U U U B N N M ;.v.nXVXNXNXfXfXgXgXfX9X9XjXNXNXAXMXNXNXjXlX8Xm <.5.1.) ( ' ] K.K.K.K.K.K.T.T.U.R.Y.Q.I.{ { { ! ! Q Q S S E W j & $ $ O O k ) '.(.s.A l i   . $ $ . q W i.t.t.d f H.U.Y.U.U.J.J.H.J.H.J.H.G.G.G.G.G.G.G.G.G.' ] Y Y C %.v.0XMXBXlXfXgXfXnXMXnXnXfX8X5X5X5X6X6XfXMXVX;X4.M M C U U U ( b j 2 2 i 2 3 i i i i i i 2 2 u l c c N k n n n m m m ;.=XmXJXVXmXmXnXNXNXNXfXfXfX9X9X9X1X,XjXnXtXtX*X{ ' [ L.I.I.I.I.I.I.I.I.Y.U.I.I.I.Y.Y.)._./.f g d d d g h 9 9 $ $ w .   b ` l.3.` z     & q 9 i g d r.r.r.^.^.H.H.J.J.J.H.H.J.J.J.J.J.J.J.G.G.G.~ ~ ~ ( T U Y <.1.8.2.0.#XiXmXmXNXfXhXlXlXjX6X6XfXBXMX;X&XuXCXuXuXtX;.M V H ) G G A F Z F F Z Z F l l v z l l j k j k w - - - - - > > m c.aXGXiXuXuX8X0X3X4X0X4X0X0X0X0X6X6X6X9XuXiX*X7.5.] ] I.{ I.I.Y.Y.Y.Y.).).Y.).(.I.E.'.E.] W ! Q Z Q ^ E i 9 . $ & & . j ( v 9 . .     9 i h i./.g g / J./._.U.U.U.U.U.P.P.P.H.G.G.G.G.G.~ ~ L L B Y ) 1.<.2.0.~..XtXJXJXDXBXNXBXBXBXBXAXHX",
"-X-X7X7X3X>X:X&X:X:X:X:XsXB.,.,.q.=.#.V Y Y T ' ] ] L.I.I.L.I.[.{.[.[.[.{.{.{.{.].}.|.|.|.|.|.|.{ c & j 4 . & k B 6.E.( b x 9 9 x i x W ! u.i.i.i.D _ 5.E.I.(.).Y.Y.Y.Y.Q.Q.Q.Q.Y.Y.Y.P.P.L.I.I.U 5.*XmXuX0X>X6X9XfXnXnXnXnXMXjXMXNXfXCXnX=X#X:.:.2.V B Y T R T ( L v i i u u l u 2 4 4 4 4 4 4 z b U T U N N C C M b.uXnXnXCXnXnXgXgXfX9X9XjXNXjXAXNXNXZXjXBXVXm *.2.1.) ) ] ' K.K.K.K.K.K.L.T.U.R.U.Y.L.] 6.{ _ ! ! Q Q Q Q ! v q $ & % O O - H ( ( l 2       . $ . i ^ i.y.r.r.t./.).Y.Y.U.J.J.H.J.H.J.H.G.G.G.G.G.G.G.G.G.~ ] Y Y V *.#XCXCXCXlXfXgXfXMXMXMXfX8X5X-X>X5XdXjXNXnXnX#X;.M V C Y U U U v u 2 2 u u u i i i i i i i i u j x c c n n n n m m m *..XnXJXmXnXnXmXNXNXNXfXfX9X9X9X9XqX,X6X9X-XbXyX6.( ' ] [ [ [ [ [ I.I.I.I.P.I.I.I.Q.Y.Y.)._.J.g d d d g g i 9 q q q & .   z ` ) z j   q q 9 i h g d r.r.r.^./.H.G.J.J.J.J.H.G.J.J.J.J.J.G.G.G.P P ~ ~ ~ U U Y <.<.2.2.0.$XFXKXmXmXfXxXkXlX6X>X&X>X9X9X3X7XpXMXuXmX*X*.V ;.V ) G A A F F F F Z Z F F v v l l l j z j j w - - - - - > > n 2.yXFXiXuXuX8X0X0X0X0X0X0X7X3X3X4X6X6X6X9XiXyX7.] ) ( { ' I.I.I.Y.Y.Y.Y.).Y.Y.Y.E.Q.E.E.E._ ! ! Z Q ^ W x 9 q $ $ q j A _ _ v 9 .   9 i i g t.t.f g J././._.U.U.U.U.U.P.G.P.G.G.G.G.G.G.~ ~ L b B V ) 1.<.2.0. X.XiXJXDXDXDXNXlXNXlXfXNXAX",
"7X-X-X3X3X,X,X:X:X:XrX,X:XB.,.,.q.=.#.*.V Y U ' ] ' ] L.I.I.E.E.[.[.[.Q.[.{.{.{.XX}.}.|.|.|.|.|.'.c   & k $ $ 4   b b j j x x q x i v ! s.u.i.i.i._ ` 5.6.I.P.).Y.I.I.I.!.!.I.Y.Y.Y.P.K.' ] ] ] U 3.yXFXuX9X,X6X6X9XfXfXnXnXnXnXMXMX9XfX3X&XM.:.:.1.C N T T U T ( b v i i u u l 2 2 4 4 4 4 4 4 j b U U U U N B n 5 9.-X8X8XVXNXmXmXfXfX6X9XMXCXjXAXjXjXBXdXlXCXm *.1.1.] ] ] ' L.K.K.K.K.T.L.T.U.R.U.Y.L.] 5.{ ` _ ! Q Q Q Q E v 9   & % O O $ 4 z v i         . q 9 v i.t.y.r.t.t._.).).).U.U.U.H.J.J.J.J.R.G.R.G.G.G.G.G.~ ' T Y Y *.=.$XJXCXCXlXgXgXfXMXMXMX8X5X-X>X-X6XjXCXNXfX8Xv.M M V C Y U U U v u i u u u i i i i i i i i i i x x c c N n n n m r m %.0.-XGXnXnXnXCXAXlXjXjXjX9X9X9XfXqX,XwX9X-XFXaXz.( ( ' ] [ [ ' ' I.I.I.I.I.I.I.L.E.I.I.).).H.g g d d g g i 9 $ $ . &   X   z z   9   q 9 9 i h ^.r.r.r.r.^./.H.~ G.J.J.H.H.G.G.G.G.G.~ ~ ~ P P P P P L U B V <.=.2.2.0.=XGXKXnXgXdXhXhXdX:XN.B.M.V.>X9XpXCXMXuXmX#XM V ;.V ) G z F F F F F F Z S F F l z l l z z k k k w - = = = = > > *.*XFXiXuX8X0X4X0XqXqX4X4X2X4X4X4X4X4X0X8XiXyX].5.) ( [ ' I.L.L.I.I.I.Y.Y.Y.Y.Y.Q.Q.E.!.'._ _ ! S Q Q E v   q q q k U _ _ [ ' b 9     i 3 f t.t.f g / _._.U.U.U.U.U.P.K.G.P.G.G.~ ~ ~ ~ ~ ( U B B V 1.1.<.<.0.v.#XmXJXDXSXDXjXdX6X>X&X>X5X",
"2X3X4X4X2X:X2X2X2X2X2X:X:X$X0.&.:.=.#.M V V Y U Y T ] ] ] L.E.Q.E.{.{.W.{.{.{.+X].XX}.].'.|.@X|.|.G & & & & & & . j b v j j x q e x v W u.i.i.i.p._ ] !.!.E.[.I.Q.I.L.L.!.L.!.Q.!.I.I.L.] ] L.5.V .XtXmXnX9X6XjXhXqX6XjXNXNXfXfXnXAX9XdX,X&XM.>.:.V B U ' ' T T ' A l 2 2 u l l 2 2 2 4 4 4 4 4 j c b ( ( U U B n V *..XmX-XfXfXdX6X9XjXjX9XdXNXNXCXBXjX6X6XjXGXV V Y Y U ) ] ' L.K.K.K.L.L.L.T.L.I.L.L.L.L.L.] { [ ^ ! f a s a E j   & $ O X . . i u 2 .       9 . 9 a f y.t.y.f /._.).).).).U.`.U.U.U.U.J.J.J.R.R.R.G.G.G.T T U V C m 9.7XGXCXCXnXfXgXlXMXNXNX>X5X5X5XdXnXnXnX8XAX&X9.*.C V Y Y Y T L v u i i i 3 3 h h h h h i i i i j c c c k n n n > > m m 9.%XCXnXfXMXlXhXkXkXwXwXwXwXfX9X6XqXqX3X7XiX*X.X) ) ) ] ] ' ] I.] I.I.I.I.I.I.I.I.'.I.[ (././ d d d d h I q . q       . 2 v v l j 9 9 9 9 h g d r.r.r.r.t.u.~ ~ ~ H.G.G.P.K.' K.' ' ' ' ' T ' ' ( U U B B C *.2.2.2.v.iXJXmXfXNXfXhXjXhX:XB.B.B.B.B.:XwXwXMXMXuX2.;.V H ) G G G A F F F F Z Z Z Z Z l l z b c k x x j j - - - - > : > M v.FXGX-X7X3X4X4XqXeXeXrXeXrXrXeXpXeX4X7XaXtXXX5.U ) ] ] I.L.I.I.I.I.Q.'.I.E.[.[.Q.E.[.{.6.` W S S S Q W i . $ q c ] ' ( ] { ( j   i i 3 t.t.t.t.t./._.(.U.P.Y.I.T.L.K.K.K.P.P.' ' ' ( ( Y V V V <.1.2.2.1.2.9.#XmXJXJXVXDXfXfXgX&Xb.M.5X",
"4X0XwXqX4X2X2X4X0X4X4X3X3X&Xb.,.&.&.&.*.;.;.V V Y ] 5.5.] ] ] !.E.W.W.W.W.{.W.{.{.}.}.].].|.@X|.|.` j & - & - q ( ( [ { [ L x e e x b _ s.u.i.i.s._ ( E.!.!.].].].E.E.E.E.] ] ] ] ] ) Y Y Y Y Y ;..XiXmXnX9XqXkX<XV.N.&XdXNXnXfXnXVX9X6X:XV.M.>.;.C B U ' ' ' ' ( A l 2 2 l l l 2 2 2 4 4 4 4 4 4 j b ( ) U U Y N C M v.mXfXfXdXfX9X9XjXjXdXjXBXNXNXNXdX5X5XdXCXM C V Y ) ) ] ( ' ' ' ' L.L.I.I.L.L.L.L.L.L.L.] [ [ [ ^ Q a s a S l   & $ .   j v W E v v 9 . . q . i Q f g t.g / /.).).Y.Y.P.H.U.J.J.J.J.R.R.R.R.G.G.K.K.K.' ] 1.<.*.%.v.aXGXpXMXnXgXdX6XdXjXjX<X6X5X5X5XgXnXnXfXCX#X4.*.C Y U Y Y ' L v u i h 3 3 3 3 h h h h i i i i j c N N N N n n n n m m :.M.uXnXfXfXjXqXkXkXkXkXkXwX9X9X4XqXwX0XuXiX=X.X1.) ) ] ] ] ] I.] 6.E.E.E.E.E.E.E.E.6.I.(.`.J.g d d d g E x . &     2 a E Q ! W L 9 9 i 9 h g d r.r.r.t.i.u.[ ' ~ ' ' ' I.[ ' { E.{ ' U U U L L U B B B C C V *.=.:.M.uXJXmXgXNXNXjXjXjX:XB.n.D.N.V.4XjXwXMXMX7X;.V V H ) G b A F F F F F F Z Z Z Z l l z b c k x x j j & - - - n > > m 0.iXGX-X7X8X4X4X,XrXN.B.m.w.B.Z.rXeX2X7XiXtX.X8.B U ) ] ] ] ] ] ] { 6.6.{ 6.E.W.E.E.E.E.6.` _ A S S Q E j . $ $ q b L ( b k q     9 i h t.t.t.t.i./.(.I.P.L.I.L.L.] ' T L ' [ [ { { ` 3.2.2.1.2.8.4.0.0.c.v.v.*XmXJXJXVXJXNXNXDXfX>X5XAX",
"0XwXwXqX4X2X3X4X4X4X2X2X4X&XB.,.&.>.:.,.4.2.;.1.1.1.5.6.6.6.6.6.]. XW.8.W.W.7.W.].].].l.|.|.|.|.@Xl.z . & - & k { { (.[.[.' c x c c W s.f.f.u.p.s._ ( 6.5.5.{.XX+XXXXXXXXXXX].W.W.W.7.7.W.W.7.8.c.*XmXmXnXjXjXkX<XB.n.B.>XNXVXnXnXVX9X4X&XN.M.:.*.C N U T ' ' ' ( A l l l l l 4 2 2 4 4 4 4 4 4 4 j B ] ] ] Y Y V C 5 0.iXmXmX6XjXdX9XfXjXjXMXBXNXCXNXfX5X5X9XCX;.m m V ) ) ) ( ( ( ) ] ] ] L.E.] ] ] ] ] ] ] ' { { s.s.Q S a a Q v j & $ $ q b W E Z E W x . $ q . v ^ f s t.f / _.).Y.Y.Y.I.P.P.K.~ ~ G.K.K.K.~ ~ ' T U U U U V M m =.#XGXJXuXfXmXgX5X5XqXqXqXhXhXdX6X5X8XfXnXMXMXv.;.V C Y U R T T L v u i h 3 h h 3 h h h h 3 i i i x c c c N N n n n C m m #.v.7XMXnXfXjXhX<X1XeXkXkXjXfX9X4XqXwXwXMXuX-X#X;.H V Y ) ) ) ] 5.5.5.5.5.5.E.W.6.6.6.E.[.[.U.g d d d g E x   .     u ! [ E E [ [ 9 . i i h g d r.d d t././.P.[ P.I.{ { '.E.6.].].].5.) U B U U ) B B B V M M %.:.0.=XmXVXnXgXmXjXjXjXNX6XV.B.B.>X,XjXMXjXMX9X=X;.V C H ) B b z F F F F F F Z Z Z Z F v b b b x x x x j j - - - m > > n 2.*XFXiX=X-X3X6XqX:XB.,.,.,.w.N.rX4X4X2XiXiX*Xc.1.) 1.5.6.6.6.6.].].].].].]. X X].].6.5.6.{ _ D S S Q ! b   $ . X   9 l j . .   9   i f ^.t.t.t.i._.(.{ { E.E.!.!.5.] ] E.}.+XoXyXyXyXtXyXyXyXyXtXtXiXiXiXtXiXnXVXAXJXVXAXNXNXDXAXDXAXSX",
"4X4X0X4X4X2X2X2X2X2X2X2X2X&X$XM.N.V.&X&X=X=X*X*X*X.X.XXX*XyX*X.X.X.Xc.4.7.7.7.7.7.z.l.l.l.x.|.x.@X|.z . & & $ k ( ( { (.I.U c e k b _ s.f.f.p.! p.W U 6.5.] XX*XaXyXyXyXyXtXyXyXyX*X*X*XyXyX*X*X.XtXiXuXnXjXjXkX,XB.,.n.&XNXNXnXmXmXfX3XV.M.v.:.*.C B U U U U U ( b l l l l l 2 2 4 4 4 4 4 4 4 j x b ( ) Y Y Y V n 5 :.=XVXMX6XfXdXdXfXjXjXjXjXNXNXNXjX9X6XdXVX9.M 5 M V V H H H ) ) ) ) ) ) ) 5.6.5.6.6.6.] ] { { d.s.u.S S S ! A j & . $ w c v v v W W j . q q . v s.Q s t.Q ^ (.[.Q.Q.E.E.E.' ] ] { L.I.I.I.I.{ ] ] ) ) ) V M m M :.$XGXJXuXgXNXgX5X6XjXeX:X1XqXhXhXfX5X8XfXMX8X9.%.M C Y U R R U L v i i h 3 h h h h h h h 3 i i i i x c c B c k k n m m m #.0.-XCXnXfXjXjXB.B.N.,XwXNXMX9X6XqXwXwXMXnX7X*X4.;.H ) ) ` ) ) 6.8.8.8.8.8.7.7.7.7.7.].'.[.)./ d d d g f a 9 .   . 2 A ! E E ! ' 9 . 9 i g g g r.d d t./._.(.I.I.'.6.6.].z.].oXXXoXoX X7.3.7.XXoXXXXXXX.X.Xv.v.v.%XuXCXmXmXnXgXfXdXjXBXNXhX1X1XqXqXkXMXjXMX9X%X;.V V ) ) G b A F F F F F Z Z Z Z F F F b b c x x x x j k w = - n > > 5 ;.#XFXFX=X=X3X4XwX,XN.m.,.,.m.Z.eXqX4X2X9XuX-X.X X X XXXoX.XXXoX*X*X*X*XyXyX*X*X*XoX X6.l.{ _ ! S S Q ! A   & $ . . .     .   j     i /.t.t.g f u._.I.{ 6.W.].W.W.8.8.8.W.yXbXFXIXIXJXIXJXJXJXJXJXJXJXJXJXJXJXAXAXDXDXDXNXNXNXNXDXSXAXNX",
"2X4X4X4X4X2X2X3X4X4X4X4X:X&X:X4X>X>X>X3X3X-X8XiXGXiX-X*X=X-X*X*X*X%Xb.:.4.0.7.z.z.z.3.3.l.x.x.|.@X@XG   & & & k c ( { [ L x e q c b _ a.f.f.p.! ! W U 6.5.5.+XyXtXtXtXtXtXiXiXiXtXtX=XiXaXiXiXtX=XtXtX7X9X9X6XjX:XB.,.n.V.5XnXnXVXnXMX4X&XN.v.:.V B B U U L L L L b j j l l u 2 2 4 4 4 4 4 4 4 j j c b U U U U V n 5 ;.#XnXfXfXdXdXdXdXfXjXfX5XdXjXMXMXjXdXjXMX=Xb.4.c.c.c.c. Xz. XXX Xc.c.c. XXXXXXX XW.W.E.E.E.I.{ [ _ ! S S ! A j   . . &   j A W v j   . $ $   A s.S a i.Q ^ P.E.!.!.W.W.].) 6.].XXXXoX+X+XoXoXXXXXXX.X.X.X Xv.0.v.=XVXVXfXgXgXgXdXqXeX:XB.Z.Z.:XqXdXfX9XfXMX=X:.M V B Y R R R U b v i h h 3 h h p h h h h h h i i i x c c B c k k n n m 6 #.9.=XmXCXnXjXNX,.,.B.V.qXBXlX6X6XqXqX6X9X9X8X-X#X.Xc. XXX X X X.X.X.X.XXXXXXX.X.X.XXX X6.'.).J.g d d g g a i     . . j v W / ! x 9 9 9 i f ^.g g d d f /._.(.{ ) 3.6.3.7.4.c.*X-XiXFXtX%X#X=XmXFXFXFXFXFXFXiXiX7XuXMXnXnXmXmXgXNXjXfXjXjXjX6X6XjXdXjXjXfXNX8X%XM H V ) ) ( A A F F F F F Z Z Z Z F F F b b c x x c x j j k = - r n n 5 V .XFXFXtX-X-X3X3X>XN.B.,.,.m.N.1XqX,X>X6X3X;X%X%X*X=X*XtXyX*XyXtXiXtXtXmXiXtXtXtXyX.X7.7.{ [ ! Q Q Q ! A     $ .   .     .   9 9 i E u./ f f / /.(.I.] 5.8.0.0.8.2.2.8.7.*XFXFXKXKXVXAXAXVXVXVXAXVXAXAXAXSXSXSXDXDXNXDXBXAXAXNXDXSXAXDX",
"2X3X4X4X4X4X4X4X4X4X4X:X$XN.&X4XqXqX1X6X6X9XfXnX;X=X;X%Xv.b.M.%X&X%Xb.>.:.4.9.c.z.z.l.l.l.x.x.|.|.|._ 4 & & . & & U ] L x e x j B G ` a.f.f.p.p.A W ( { ] 5.+XaXiX7X7X-X7X8XuX7X7X7X7X7XuXuXuX7X-XiX-X-X9X6X<XqX:XV.B.N.&X5XnXVXVX8XMX6X&X$Xb.:.V B B U U L L L L v j j l l 2 2 2 4 4 4 4 4 4 4 j x c U U U U Y Y C C M v.8X8XMX9XdXdXdXfXjXfX5X5X6XdXjXfXdXfXnXGX7X-XmXFXFXmXbXbXbXbXbXtXtXiXmXyXtXyXoX X7.6.E.E.E.{ [ _ ! D D ! W z   . . . . . v b i . . . $ $ j ( _ Q S Q ! [ [ E.5.W.W.~.c.2. X*XyXtXtXaXtXtXtXtXtXtX-X-XtXiXiX7XiXiXnXnXnXgXgXdXdXqXrXB.w.m.m.B.:XhXdX9XfXMX&X=.m V B U R T T ( L v i h h h h h p h h h h h h h i i x b b b c c n n n n 6 %.4.#XiXmXfXfXkXn.m.B.Z.hXBXlX6XjX6X6X6X9X9X8X8XiX-X-XtXtXtXyXyX=X=X=XtX=X=X=X=XtX=XyXXX5.{ ).H.g d d d s a u   & & . .   v Z u   9 9 9 h / /.g g d g f /._.P.{ ) 1.1.2.4.:.c.-XuXuXuX8X8X9X9X9XtXtXiXiXuXmXuXuXMXMX9X9XfXmXNXmXNXNXfXfXdXdXhXjXdX6XdXfXfXNX8Xv.M H H ) ( ( A A F F F F F Z Z a Z F F Z b b c x c c x k j k - - w r n 5 M .XaXFXiXiX-X-X3X3X:XV.N.N.V.:X1XqX1X,X&XV.N.M.%X=X=X=X7X-X=X-X7XiX8X7X7X7X-X-XiXtX#X4.6.{ [ ^ E E E W _ j &   .   .           v _ ^ / / / / ^ _.(.E.5.1.2.2.9.2.2.2.9.c.tXGXGXJXAXBXDXAXSXSXSXAXAXAXSXNXDXSXSXDXDXDXDXNXAXAXAXAXAXSXAX",
"4X4X4X4X4X4X2X2X2X:X&X&XN.M.N.&XV.V.V.V.&X&X&XN.M.%X&X%XM.M.&X&X&XV.n.>.>.:.4.0.4.4.z.z.l.l.x.|.x.|.` z     & .   j c x x e c c G ` d.f.a.p.p.p.A ( ' ] Y 5.*XtX7X9X9X8X3X9X0X0X0X0X0X0X0X0X0X8X7XiX-X-X9X6X3X6X6X,X>X6X9XfXnXVXVX-XMX6X&X&X9.;.V B U U U U U U U c j j l l l 2 2 4 4 4 4 4 4 4 j x U ] ] ] ] ) Y C C M b.8X7XjXfXfX6X5XfXNXNXfXfXfXfXdXfXfXfXNXMXuXnXVXmXKXKXmXmXmXgX8X8XnXuXnXiXiXtX*Xc.8.8.W.W.E.{ [ _ _ D D W ! A 4 . . . . X j j . .   $ $ & ( _ ! ! Q Q ^ [ ] ] 5.8.7.0.9.9.#XiXuXiXiXiXiX-X-X-X8X8X8X8X9XiXiXiXuXuXnXnXDXgXPXdXhX1XN.w.w.w.,.m.V.qXhX6X9X9X#X%.M V B T T T ' ' W v i h h h h p p p p p p h h h i i v L U U B B N n n m m %.2.#XiXVXnXfXjXV.V.Z.1XkXzXjXdXdX6X6X6X9X9X8X8XnXuXnXFXFXmXiXiX8X8XuX8X7X7XiXiXpX7XiX*X3.{ '.H.F.d d d h g E i j q & . . i i     9 9 i E u.f g g g g / _.P.{ ] ) ;.;.;.2.4.v.8XuX6X3X3X6X6X6X3X8XnXnXuXuXpXMXpXpX9X9X9XnXnXmXmXmXmXmXgXjXlXlXNXdXdXdXfXfXmX-Xb.M H H ( ( G A A F F F F S S Z Z a F Z Z b b c x c c c x k k = - w n n > C c.tXFX-X-X-X-X7X9XwX6XqXqXqXqXqXqX<X<XV.N.B.M.M.&X&X=X7X2X7X7X7X7X7X7X&X&X;X=X7X-X#X0.5.{ [ [ ! E E W [ b z & .   . . j j x v ( [ [ ^ / ^ ^ ^ P.(.E.1.2.:.:.:.9.9.9.9.v.-XKXVXDXZXBXzXZXDXDXDXDXDXDXAXDXDXSXSXSXSXSXSXAXNXNXDXAXAXAXAX",
"4X4X3X2X2X2X2X:X2X&X$X&X$XN.N.&X&X:X>X6XjX6X>XV.V.N.N.&X:X:XN.N.:X&XB.,.>.:.:.4.2.4.z.z.l.l.l.|.|.|.l.G 4 4 4 . & & q c x q x c G ` x.x.a.p.p._ W [ ] ' U 5.*XtX=X6XfX9X3X3X4X3XwXwX0X4X4X4X4X0X7XiX-X-X9X5X>X6XxXjXjXNXMX9X8X8XnX;XMX6X&X&X9.*.V B U U T U U U U b j j l l l 4 4 4 l 4 4 4 4 4 j c ( I.E.L.' U Y C V M c.7X-XfXfXdX5X3X6XNXBXNXNXjXdX6X6XfXlXNXMXnXVXnX8XnXNXfXNXgX5X5X5X6X9X9X5X8X8X#X0.2.8.].6.E.6.{ ` _ W A A _ ( j . .     . q   .   & $   q ` [ D ! ! ! [ [ ] ) Y <.2.2.:.9.$XiXuX8XuXuXuX8X5X7X5X5X5X>X3X0XuXuXuXuX8XfXmXmXgXgXlXrXm.w.w.m.w.m.V.1XqX6X6X9XM.%.C V U U T T ' ~ W a i h h h p p p p p p p p h h i i v W ( U U U B C n m m %.2..XiXGXCXfXjX<X1XeXkXlXxXfXfXdX6X9XdXfX9X8X8X5X8X9XCXCXnXuXnXfX9X9X5X7X7X8XuXuX-XtXoX1.{ '.P.J.g g d p f Q u   & w & &       i i   i ^ /.g g g f / /._.I.L.] ) V M ;.2.4.v.7X9X9XjXjX6X6XhXjX9XMXMX9X6X0XwX0X0X4X0XMXCXfXfXnXNXNXNXNXfXdXdXdXjXfXfXfXfXmX-Xb.V H ) ( ( ( A A F F F F S S S Z a Z Z A b b c x c c x c j k - = n n n = n c.tXaX*X=X-X-X-X7X9X4XwXjXwXqX4X,X,X:XN.N.N.N.N.N.:X2X2X3X3X3X=X2X3X3X&X;X;X=X7X7X#X0.] { { [ W W W W ( b G z 4 j 4 2 b A ( [ [ W ^ ^ ^ ^ H.[ I.I.5.1.2.:.:.:.,.9.9.9.v.-XKXVXAXAXZXZXZXDXSXDXDXDXAXSXSXSXDXDXDXDXSXSXHXNXNXDXAXDXNXAX",
"2X2X2X:X2X2X2X2X2X:X&X&XN.N.&X&X:X4X0X4X3X3X>X>X&X&X&XN.N.&XN.N.:X:Xv.:.:.=.*.2.2.8.z.].'.` { '.|.|.|.` G j     &     j x x x b ` l.l.a.p.p._ W W ' ' ' B 5.yXaX8X7X3X3X9X3X;X&X;X3X9XwX9X9X9X9XuXuX8X8X8X9X9X9X3X6XdX9X5X5XdXnXnXnXMXMX9X%X9.M C U U T U U U U U c j j l l l l l 4 4 4 4 4 4 j j q L { ] ] ] R ] V C M 4.FX8XCXCX5X-X5XgXfXfXNXNXNXlXfXfXfXgXmXnXnXnXnXnXnXnXnXnXNXNXfXfXjXwX6X6XjXnX=X4.;.7.7.7.6.E.E.{ _ _ _ _ _ ( z j   . . .   & & . .   q ( ( ! ! ! ! ! ^ [ ' ) ) 1.2.:.>.9.=X0XmXCX9XMX9X3X5X5X5X5X>X>X3X0X0X0X9X9XfXmXgXgXgXgXxXZ.w.w.m.m.w.m.Z.hXjX6X5X8X,.%.M N U T T T T ~ W E a h h h p p p p p p h p h h i i v L ( U U B B N C m m *.:..XaXGXnXMXjXkXkXkXkXkXjXfXfX6X9X9X9X5X5X9XfXfXfXnXMXMXnX9X9XdX6X6X5X8X8XfXfXfX8X-X*X3.{ I.P.J.g g d g g Q E j & . $ &   2 i . i Z Q / / f g f / /._.P.[ ' ) Y V V ;.2.4.v.7X9X9X9XxXjX6X<X<X6X9XjXwXwX6XqXwX4X3X3X5X9XfXnXmXmXnXgXgXfXjXjXjXlXNXdXfXdXmXgX4.H ) ) ( ( ( A A Z F F F F S a a Z Z Z Z v c c b b c x x c k w = n C > > C 4.yXFXtX-X=X=X-X-X3X3XuXwXwXwXqX6X,X:XN.N.N.N.N.M.N.sX&X&X&X&X&X&X;X7X8X;X&X7X7X=X#Xc.] I.I.P.[ ^ W W _ _ ( ( G G G b _ _ [ [ [ ^ ~ ^ P._.P.I.I.] ] <.;.:.:.:.,.0.0.9.c.tXJXVXDXAXZXZXZXDXDXDXDXSXSXDXDXDXDXDXDXDXAXSXHXSXDXNXNXNXAXAX",
"2X2X2X2X2X:X:X:X:X:X&X&X$X$X&X:X2X4X0X0X3X3X3X:X>X>X:X:X:X:X:X:X:X:XB.:.:.=.=.2.8.8.W.].'.{ ` { l.l.|.l.{ G z 4 & & k c c j b ( d.l.l.a._ _ _ W ~ ~ ' ' B 5.yXiX8X-X3X7X5X7X;X&X&X3X8X9X9X9X9X0XuX9X8X8X5X9X6X9X5X9XdXfX8X5X8XfX8XnXMXMX0X$X9.M C U U T T U U T ( b j j l l l l l l 4 2 4 4 4 j j j U I.L.] ] T ) Y C n 4.FXuXCXMXdXdXfXmXfXgXNXNXNXlXgXfXgXfXnX9XuXnXnXnXnXNXNXnXMXMX9XjXjXwX6X:X6XfX=X4.*.8.8.7.6.6.6.{ ` _ _ _ _ _ ( b j . X   q q . . & k b ( ! ^ ! ! ! ! ^ [ ' ) ) 1.4.:.&.v.7XuXmXMX0X9X3X3X3X5X5X5X5X5X5X6X9X8X9X9XfXfXgXgXgXlXkXZ.m.w.w.w.w.m.Z.qXwX9XnX-X:.M C N T T P P P ~ ~ E a h h h p p p p p p h p h h i i v L ( U U B B N n C m *.*.v.iXmXnXMXNXkXkXkXkXkXjXfXgX8X9X9X8X5X5X9XdXfXfXjXjXMXjX9X9XdXdXdXdX8X8XdXdX8XfX-X*X) ] [ P.H./ g g g g f E v j q q q       i u E ^ / / / f / H.P.P.P.] ' ' ) Y V 1.4.0..XiXuX8X9XjXfX6X5X5X6XwXjXjXwXqXqX6X4X3X5X5X9XdXfXnXnXnXnXgXfXfXjXfXjXNXfXfX8XmX8X4.H ) ) ( ( ( W A A F F F S a a a Z Z Z Z v b c b b c x x c k w - n M r 5 m 2.*XaXtX-X-X-X-X-X-X7XuX0X9X9X9X4X2X:X:X&XsXN.N.B.N.sX$X#X$X&X&X&X&X;X-X&X=X-X-XiX$X4.] I.I.P.[ [ [ _ _ ( ( ( ( ( ( ( [ [ [ [ [ ^ ^ [ P.P.I.I.I.] ] Y ;.:.:.:.9.0.0.0.v.iXJXKXKXAXAXZXDXDXDXDXSXSXSXSXAXDXDXDXDXDXJXJXHXSXAXDXDXDXAXAX",
":X:X2X2X2X2X:X&X2X2X2X&X$X$X&X:X2X7X0X7X7X7X3X;X3X4X4X:X:X2X2X2X:X:XB.,.:.=.%.2.8.8.W.].'.E.{ ( ` d.|.|.|.d.( b . & q k c b ( (.d.d.d._ _ [ [ ~ ~ ~ ' ' B 3.yXtX-X-X-X7X-X-X=X&X&X;X7X7X7X7X7X9XnX9X9X9X9X9X9X9X8X9XfX9X8X5X8XfX8XuXMXMXuX$X4.C B U T T T U T T ( b z j j j l l l l 4 4 4 4 4 j j x ' E.L.] ] T Y ) V n :.GXuXCXfXfXfXNXNXNXNXNXBXBXNXgXfXgXfXfX9XuXnXnXMXMXNXCXnXfX9X5X9XjX9X3X>XdXjX-X4.M 2.1.5.5.] { { ] { { ` _ _ _ ( B j . . j j & q b ( ( [ ^ ^ ! ^ ^ ^ ^ ' ' ( ) 2.:.&.&.v.iXmXmXnX3X8X;X3X3X3X5X5X5X5X8X8X8X8X9X9X9XfXgXgXgXDXzX1XN.w.w.w.w.B.:XqX9X9XMX&X;.M C B T P P P P ~ ~ E a h h h p p p p p p h p h h i i I L U U U U B N C C C *.*.v.iXFXmXNXNXBXkXkXBXBXjXnXNX8X8X8X5X5X5X9XfX9XfXjXMXMXwXwX9X6XdXdXdXgXgX5X-X5XfXtX*X) ( [ P.H.^ / f a a a E W b b c x j i i v W ^ ^ / / / / H.H.P.P.K.' ' ' ) Y Y 1.8.7..XmXiX8X8XfXfX5X5XdX6XwXjXjXjX6X6X6X3X6X5X6X9XfXnXMXgXgXgXgXfXfXfXdXjXNXfXfX8XmX8X4.H ) ) ( U ( ( A A F F F S S a a Z Z Z Z b b c c b c c x c k w = C V n 5 n ;.*XtXtXtXtX-X=X=X-X7X7XiXuXuXuX0X3X:X:X:X:X:X:XN.N.N.$X#X&X=X-X=X&X&X-X-X-X-XiXFX*X5.] L.I.I.I.I.P.[ [ [ ' ( ] ) ) ) { { { P.P.[ P.P.P.P.I.I.L.] ] Y *.;.;.:.9.0.0.0..XaXIXKXKXDXDXAXDXDXNXDXSXSXJXJXAXAXAXAXAXAXJXJXHXHXSXAXAXAXAXAX",
"&X&X:X2X4X3X2X2X2X4X3X:X$XN.$X&X2X7X7X7X2X3X3X;X3X9X4X:X:X:X2X2X2X2XB.,.,.=.%.<.<.5.6.W.].{.'.{ ) ` { l.|.|.l.{ B k w k ( { { d.d.d.p._ ( [ [ ~ ~ G.~ ' b 3.yXtX-X-X8X7X-X=X=X=X&X=X=X-X=X=X7X9X9X9X9X9X9X9X9X8X9XfXfX9X8X5X5X8X-XuXCXVXuX$X4.C B U T T T T T T ( U b l j j l l l 4 4 4 2 4 4 j q b ] E.L.' ' T Y ] Y n :.GXmXMX8XfXmXNXNXNXNXDXNXBXNXgXfXgXgXgX9XfXnXnXMXMXMXMXMXfX3X;X5XnXfX6XhXlXCXiX9.M 1.1.5.] ] ] ] ] { { d.` _ _ _ ( B z j b U U ( ( [ [ ! ^ ^ ^ ^ ^ ^ ~ ~ ( U ) 2.:.&.&.M.uXmXuXuX8X9X3X3X3X3X5X5X5XgXdX8X8X8X5X9X9X8XfXgXgXDXlXxXrXB.m.w.m.Z.eXMX9X8XuX=X;.M C B T P P P ~ ~ ~ E E h h h p p p p p p h h h h i i I L U U U B B N C C C *.*.v.tXmXnXnXjXBXkXkXBXMXMXnXnXfX8X8X8X5X5X9XfX9XfXMXMXMXjXwX9X6X6XdXdXgX-X;X;X5XfXbX*X) ( ' P.H.^ ^ / E E E E E v L L L L ( ( [ [ _.^ / / / / H.P.P.I.K.K.' ' U U B Y 5.7..XiXuXuX8X8XdX5X5XfX6X9XjXNXjX9X6X5X6X5X5X9X9X9XfXfXfXgXnXmXjXjXfXdXdXNXnXnX8XnX8X4.B ( ) ( ( ( ( b A F F F F a a a Z Z Z Z v b b c b b c c c k w = C V n 5 n ;..XtXtXtXiX-X-X=X-X7X-X7XiXuXuX9X3X2X&X&X:XeXeX:XN.N.&X&X=X7X7X=X&X=X-X=X-XtXiXaX*X7.] L.L.I.I.(.I.P.(.P.{ { { { ] ] I.I.I.(.I.P.P.P.P.I.I.L.L.] ] Y *.;.;.:.2.0.0.0..XmXIXKXKXJXDXDXDXNXDXDXAXJXJXAXAXAXAXAXAXJXHXHXHXHXSXSXAXAXDXNX",
"&X:X2X4X4X4X4X2X2X4X4X2X&X&X&X:X2X2X7X2X3X5X5X>X3X9X4X2X&X2X2X2X2X2XM.,.:.:.*.<.<.1.7.E.'.{.{.{.) ) ( _ d.'.|.}.}.6.) ) 6.l.d.[ s.s._ _ ( [ K.G.G.G.~ ~ b 3.yXtX-X8X8X7X7X-X-X-X-X=X=X=X=X&X=X0X6X6X0X9X9X9X9X9X9XfXfX8X8X5X5X8X-XuXCXCXuX%X4.C B U T T P T T T ( ( U z j u u u 2 2 2 2 2 4 4 j q U I.I.L.] ' ' T ] ) n :.GXiX7X8XgXgXgXgXgXNXDXNXNXmXmXgXgXgXgXfXfXMXMXNXMXnXnXNXfX>X;X-XgXgXfXlXlXNXiX9.m 1.5.5.] ] ] ] ] { { d.{ _ _ _ ` { ` ) ) { '.E.[ ( ! ^ ^ ^ ^ ^ ^ ~ ' ~ P U ) 2.:.&.&.#XaXuXiXuX8XnX9X>X>X3X5X8XfXfXfX8X5X7X7X7X7X8X8X8XgXgXgXlXxXrXN.N.Z.eXBXMX8X8XuX-X>.M V B T P ~ P ~ ~ ~ / a h h h h p p p p p p h h h i i L ( L U U U B B N C C *.%.c.-XmXnXfX9XAXBXkXBXMXnXfXfX8X8XuX8X8X8XnXnXuXnXMXMXMXjX9X9X6X6X8XfX8X-X-X;X5X9XiX*X) U ' P.^ ^ ^ ^ ^ / E E E E E W ( [ 6.'.I.I.P.^ ^ H.H./ U.U.I.L.L.K.K.' U U B Y 2.7..XiXmXiX8X8X8X8X8XfX9X9XwXMXMX9X9X5X5X5X9X9X9X9X9X9XfXgXnXnXfXjXjXjX9XNXMXnX8XnX8X4.C B ) ) ( ( U b A F F F F Z a a Z Z Z A b b b c I b c c c k w = C M 5 5 n ;..XtXtXtXtX-X-X=X-X7X-X7XuXuXuX9X3X>X&X&X:X:XrX:XN.B.sX&X2X2X&X&X&X=X-X=X=X-X=X=X#XW.] L.I.I.I.).Y.I.).(.(.I.I.{ ] ] E.I.I.(.Y.P.P.U.P.I.I.I.L.' ' Y ;.;.:.:.2.0.0.0.v.tXIXKXKXDXDXAXAXAXDXAXAXAXDXDXAXAXAXDXDXAXHXHXJXSXSXSXAXDXNXNX",
"2X3X4X4X4X2X2X:X2X2X2X2X:X:X2X4X2X7X7X-X3X8X5X3X3X5X4X3X2X0XuX0X2X2XM.,.:.:.*.2.1.1.7.E.W.'.{.}.].6.) ( _ { l.'.].].W.6.{ ` _ [ _ ^ [ [ ' ' K.G.G.G.~ ~ b 3.yXtXiX7X7X7X7X7X7X7X7X=X&X=X$X#X$X&X&X:X3X6X9X9X9X9XfXfXfX8X8X5X5X8X8XuXCXCXmX*X4.C U U T T T T T T ( ( ( b j u u u 2 2 2 2 2 4 4 j j ' I.L.L.L.' ] U ) Y n ;.FX-X=XfXgXgXdXgXgXNXNXmXmXmXmXgXgXgXgXfXgXjXlXlXjXfXfXBXfX5X;X5XgXmXgXdXdXnXiX0.C 1.5.!.L.L.L.] ] { { { d.d.{ { { { { 6.) ) 6.{ ( W [ ^ ^ ~ ^ [ ' K.K.K.L U ) 2.:.&.&.$XFXuXiXuX7X9X4X,X3X5X9X9XfXfXfX8X5X5X7X3X3X7X8X5X5XgXdXhXkXhX1XeXeXkXjX8X8XuXFX-X;.M V U T P G.P ~ ~ ~ / E h h h h h h h p p p h h h i i ~ ' L U U U B B N C C *.%.c.-XnXnXfX9XAXMXwXMXMXnX8XiX8XuXuXuXuX8XnXnXuXnXMXMXMXMXuXuX4X9X9XuX8X8X5X3X5XuXiXyX) U ' K.^ ^ ^ [ [ [ ^ ^ E / / E W { 6.E.{ [ [ ^ H.H.H.H.U.P.L.L.L.K.K.P U Y V ) 8.7..XiXFXuXiX8X8X8X5X8X9X8X8X9XuXfX9X8X8X8X9X9X9X9X0X9XfXfXfXfXfXfXjXjX6XNXMXMX8XnX8X4.C B ) ) ' ( ( b A F F F F Z a a Z Z Z Z b b b b I b b c c k w = m m 5 5 6 *.#XaXtX-X-X=X=X-X7X8X7X8XuXnXfX5X6X6X,X:XN.N.N.N.B.B.N.sX:X2X2X&X&X2X2X%X=XiX7X*X#X X] L.I.I.I.Y.I.P.).(.(.(.I.E.E.] E.I.I.(.Y.P.P.U.I.I.I.L.L.' ' ( ;.:.:.:.2.0.0.0.c.tXJXKXKXDXDXSXAXDXDXDXDXDXDXNXDXDXDXDXDXSXSXSXSXSXSXSXAXDXNXNX",
"4X4X4X3X2X2X:X:X:X&X&X:X2X4X4X3X2X0X3X3X3X5X5X>X>X3X3X3X2XpXpX0X:X2XB.,.:.:.=.2.1.1.1.6.E.E.'.{.XX].6.{ ` ` { { 3.6.7.6.) G _ _ ! ^ [ [ ' K.G.G.G.G.P ~ b 3.yXtXiX7X2X2X7X7X7X2X2X2X&X&XM.v.B.M.N.V.&X>X6X9X9X9XuXuX8X8X8X8X8X8X8XuXnXCXmX*X4.N U U T T T T T T U ' ] b l u u u 2 2 2 2 2 2 2 2 c I.E.L.L.L.' ] ( ) V n 2.FX-X7XNXNXgXgXgXNXNXNXgXgXNXNXNXgXgXgXfXdXgXgXlXlXlXgXlXlXgXgXgXgXmXgX6X5XnXmX0.n Y 5.L.L.L.L.] ] [ { { { d.d.d.{ { { ) ) ( ) [ _ ^ [ ^ ^ [ ' ' ' ~ K.K.T R ) 2.=.&.-.$XmXiX8X8X4XwX4X,X,X6X6X9X9XfXfXgX-X5X3X3X3X0X8X8X5X-XgXdXdXhXxXxXkXkXwXuXuXFXGX-X;.M V U ' P G.' ' ~ ~ ~ E h h h h h h h p p p h h i i v W ' L U U U B N N C C *.%.9.*X-XgXnXfXBXjXqXwXMXuXiXtXiXuXnXnXnXnXnXnXnXnXMXMXMXnXuXuX0XuXuXuXuXuX9X9X9XuXiXyX) T ' K.^ ^ ~ ' K.P.[ ^ ^ / / Q ^ [ { ] ' [ ^ ^ ^ H.H.H.K.K.L.L.T.K.G.P U V Y 1.8.7..XiXmXuXuXuX9X8X7X8X8X8X7X8X9X9XuX8X8X8X8X9X9X9X0X9X9X8X8X8X9X9XjXjX0XNXMXMX8XnX8X4.B ) ) ) ' ' ( ( A A F F S S a a S Z Z Z L L L I I b b c c k w = M m 5 5 m *.#XmXtX-X=X%X=X7X8X8X8XfXfXfX5X5X6X6X,XV.N.B.N.N.B.B.N.N.sX:X2X:X:X&X2X&X2X7XiXtX$Xc.] L.L.L.L.I.Y.Y.Y.I.I.I.Y.E.E.L.E.Q.Y.Y.Y.P.U.U.P.L.L.L.L.' ' ( *.:.:.:.9.0.0.0.c.tXJXKXDXDXDXDXDXDXDXDXDXDXDXNXDXNXDXDXDXDXDXSXSXSXSXSXAXAXAXAX",
"2X2X2X2X2X2X2X2X:X&X&X&X:X2X2X:X0X0X3X3X3X6X5X>X>X>X>X2X3X0X2X2X2X2XM.,.:.:.:.2.2.<.) 6.E.6.E.'.W.'.'.'.'.'.d.6.6.W.].6.{ _ _ _ ^ H.P.P.K.~ G.G.G.G.P P b 3.yXtXuX3X=X=X2X2X2X2X2X&XsX$XM.9.9.v.B.M.V.;X3X9X9X9X9X9X9X8X8XdX5X8X9X9X9XMXmX=X4.n U U T T T T T ' U ] ] W l u u 2 u u u 2 2 2 2 2 L Q.[.' L.L.' L.] ) V C 2.FX7X9XNXDXNXgXNXAXDXgXgXfXgXNXNXNXgXgXgXdXgXgXlXlXlXlXfXlXNXgXgXlXgXgXgXdXVXVXc.n V ) ] ] L.L.] [ { { { ` ` { d.d.{ { { { { { [ [ [ ^ P.P.P.K.K.~ ~ P K.T U <.2.=.&.,.#XmXiX8X8X9XjX6X4X4X6X6X9X9X9X9XdX5X5X3X3X3X7X7X9X5X5XgXdX>X6XxXqXwXjXMXmXmXFXmX*X;.C ) ( ' P ~ ' ' ' ~ ~ E a h h h h h h h h h h h i i v ~ ' L T U U B N n n C *.%.9.%X-X8XnXNXNX6X4X0X9XuXuXuXiXnXnXnXnXnXnXnXnXnXMXMXMXnXuXuX9XuXuXnXnXnXMXMXuXnXiXyX) T ' K.~ ~ ~ ' L.I.P.G.H.H.^ ^ [ I.] ' ' K.P.~ ^ H.H.G.G.K.K.K.K.K.P L U V V 1.7.0..XtXmXuX9XuX9X7X-X7X8X7X7X7X8X8X9X9X8X9X9X9X9X9X0X9X9X8X5X7X3X6X9XjX6XjXMXMX8XnX8X4.H ) ] ) ' ) ] ( A A A D Z Z a a Z Z Z Z L L L I I b c c c k w = M m 5 6 m %.#XmX-X=X%X%X;X8X9X9X8XfXfXfX5X5X5X6X:XV.N.N.V.V.N.N.N.B.B.sX:X:XN.B.&X&X2X=X-XiX$X4.) K.L.L.L.I.Y.Y.P.P.U.I.Y.I.L.L.Q.Q.Y.).Y.U.U.Y.P.I.L.L.K.' ' ( *.=.:.:.2.0.0.0.v.tXJXVXDXDXAXAXDXNXDXNXAXDXAXDXDXDXDXDXDXDXSXSXSXSXSXAXAXAXAXAX",
":X4X4X2XsXN.$X:X&X&XN.$X2X:X&X:XwX6X>X&X&X>X3X>X>X&X&X&X2X3X3X3X7X2XM.9.:.=.%.=.*.1.1.5.5.E.Q.'.E.'.{.[.E.I.'.{.[.{.[.Q.I.I.[ ~ H.G.J.G.G.G.G.G.G.G.~ P b 5.*X*X-X=X=X&X&X=X7X7X2X=XsX#XM.B.B.M.M.M.$X:X3X3X7X9X9X9X6X5X5X5X5X5X5X7XwXCX9X%X4.n B U U T T L U ' R ] ] ' b l u u u 2 2 u 2 2 2 l I.I.I.I.' ' K.L.] Y V C ;.mXuXnXNXNXBXNXNXNXgXfXNXNXlXgXfXgXdXdXgXgXfXgXmXNXNXNXgXmXgXgXgXmXNXmXNXgXVXGXv.m V 1.) ] ] ] ] ] ] ] { { { I.I.I.I.E.] ) ] ] ' ' G.G.P.K.G.G.G.~ ~ P T U C *.2.:.,.,.#X8XuX7X8X9X0XMX4X3X3X4X0X9X9X9X9X7X-X3X9X3X9X9X5X7X3X5X9XfXdX9XCXnX8X5XgXgXnXnX*X;.V ) U P P K.K.K.K.K.K.G.E g h h g d d d h h v i i I P ~ ~ P L U U U B N C m *.%.0.=X8X8XfX9XAXBXjXdX9X9X8X8X9XnXnXnXnXnXnXnXnXnXnXnXnXfXnXfX9XfXfXnXnXnXnXnXnXuXFX*XY ] T ~ ~ ~ P.P.K.L.T.Y.P.P.P.P.L.' ' ' K.K.G.H.H.H.G.G.G.G.G.K.' ' L b N *.V *.2.4.v.mXiXuX8X5X9XfX6X;X-X7X8X8X9X9X9X5X9X5X6XfXfX9X8X9X5X6X9X3X2X2X9XMXjXlXfXgX5XnX-X4.) ' ' ' ' ' ' ' ( W A A A Z Z Z A A A b L L L L L L b c c k w = M M 5 5 m ;.%XiX-X-X-X-X-X-X5X9X9X9XfX9X5X5X6XjX4X:X&XN.N.N.N.N.B.B.M.N.&X&XM.n.b.#X&X7X=X=X$X2.) ' ] L.L.I.Y.Y.Y.P.I.I.Y.I.L.L.Y.Y.Y.Y.U.U.U.P.T.P.L.L.' ' ' Y *.:.2.2.0.0.0. X.XiXJXVXVXAXAXAXAXDXNXNXAXAXAXDXBXAXAXDXNXAXAXDXSXSXSXAXAXAXAXAX",
"2X4X4X2XsXM.M.$X&X2X&X&X&X&X&X>X4X4X>X&X:X>X3X2X4X3X2X&X2X3X4X0X7X2XM.9.:.:.=.:.2.1.1.5.5.E.Q.[.'.[.[.[.[.'.[.[.[.[.[.Y.I.I.P.K.R.R.J.G.G.G.G.G.G.G.P L c 3.*X*X=X&X&X&X&X&X&X=X2X$XM.M.M.M.M.M.#X#X#X$X=X7X9X4X3X6XdXdX6X>X>X>X;X;X9XCXMX=X9.n B U U T P L T T ' ] ] [ ( A u u 2 2 2 u u 2 u W '.'.I.I.I.L.K.] ] ) Y C ;.FXuXfXNXBXBXBXNXgXgXfXfXfXfXfXgXfXgXgXnXmXmXNXNXNXNXNXnXNXNXgXmXNXNXgXNXfXmXGXv.6 V 1.) ] ] ' ' ] ] ] ] { L.I.I.I.Y.I.] ] ] [ ' G.G.G.K.K.G.G.G./ P L T U V <.2.:.:.,.$X8XuX7X8X8X9XuX2X3X3X3X3X4X6X9XwX9X3X8X9X5X3X8X8X5X5X9X9XfXfXuXVXmXgXgXgXgXgXnX*X) U ' T T P K.K.K.' K.K.G.G./ g h h h h h h h x x x I ~ ~ ~ P P U U U N N n m *.%.0.=XuX9XfXdXNXjXdX6X5X6X8X8XuXnXnXnXnXfXfXfXfXnXfXfXfXfXfXdXdXdXgXgXnXgXfXfXMXuXFX*XY ' T K.K.K.K.P.P.T.Y.Y.Y.I.L.L.L.L.' K.K.G.G.H.G.G.G.G.G.G.G.G.' ' L B C V C *.2.0..XmXuXnX9X5X6XdX6X>X7X8X8X8X9XdXdX6X>X5XdXfX9X3X-X3X5X6X9X9X3X3XwXCXBXZXBXNXgXmXFXc.) ' ' ' ' ' ' ( ' ( W W W W Z Z A A b b b L L L L L c c c k k k M *.5 5 m >.*XuXiXiX7X8X7X5X5XfX9X9X9X9X9X5X5X6X9X4X:XN.N.N.N.N.M.M.N.$X&X&XN.B.,.v.#X=X$X$X=X X) ] ] ] L.I.I.Y.I.I.I.I.Y.I.I.L.Y.Y.Y.Y.U.U.U.P.P.P.K.' ' ' ' Y *.:.2.2.0.0.0.0..XiXHXVXNXAXAXSXAXNXNXNXAXSXSXAXDXAXAXAXAXSXSXAXDXAXAXAXDXDXDXDX",
"0XwXpXwX2X&X$X$X&X2X7X2X&X&X3XwX>X>X4X>X>X>X>X&X6X3X&X&X&X2X3X0X7X2XM.,.:.:.=.2.2.1.1.5.] E.Q.[.[.'.Q.'.[.[.[.Q.[.[.[.Y.L.P.P.P.G.R.G.G.G.G.G.G.P P P U c 5.*X*X=X&X&X&X&X&X&X&X$Xv.9.v.M.M.M.$X$X#XM.M.$X2X0X3XfXMXMXdX>X>X>X5X;X>XjXAXMX=X0.n B U U T P L U T ' ' ] ] [ W v u 2 u u 2 2 u Z ! |.'.I.I.I.I.L.] ] ) Y C ;.FXnXMXNXNXNXNXgXfXfXdXdXdXgXgXgXfXfXfXNXNXNXNXNXNXNXmXNXNXfXfXmXNXNXgXgXdXnXVXv.m M 1.) ] ) ' ' ] ] ] ] ] ] I.I.I.I.I.I.] ] ' ' G.G.H.G.G.G.~ ~ ~ P L U U V 2.2.:.:.,.&X8X9X7X8X8X7X8X;X2X3X3X3X3X9XjXMX9X9X9X9X5X7X7X8X9X9X9X9X9X9XnXmXmXmXgXgXgXfXnX*XH B ' T ' P ~ K.K.P G.K.K.G.G.g g h h h h g a x c I P ' ' ~ P P T U U N N n m M %.0.=XuXuXfXdXdX6X5X5X5X9X9X9XnXnXnXnXfX9X9X9XfXfXfXfXdXdXdXdXjXdXgXgXfXfXdXfXMXuXiXoXB T T ' ~ K.K.P.P.T.Y.Y.Y.T.L.L.L.K.' ' K.K.G.G.G.G.G.G.G.G.G.G.' ( U B C V m V 2.0.v.iXuX9X8X3X5XdX6X3X7X8X9X8X9XfXdX6X;X9XCXMXfX9X5X7X3X5X9X7X7X7X9XMXNXBXjXgX8XmXiXz.U ' ' ' ' ' ' ( ' ' ( W W W Z A A A b b L L L L L b c c c k k k M *.m 6 m >.%XFXiXiXuX9X8X8X9XdX9X9XnXnX9X9X9X9X9X6X3X&XN.N.N.sX&X&X:X:X2X3X;X&X>.b.#X2X=X$X#X4.) ] ] ] ] I.I.Y.I.I.I.I.Y.I.I.I.I.Y.Y.Y.U.U.U.U.K.K.' ' ' ' T Y *.:.2.2.8.0.0.0..XiXJXAXVXAXAXJXAXDXNXNXDXAXAXNXAXDXAXSXSXAXAXSXSXSXHXHXHXHXHXHX",
"9XpXpXpX0X7X=X=XsX=X7X=X$X&X2X3X&X>X6X>X>X>X>X>X6X3X2X2X2X3X3X3X2X2XM.,.:.=.=.:.2.1.1.) ] I.Y.Q.[.E.I.E.[.[.Q.Q.Q.[.Q.I.L.K.P.P.K.G.G.G.G.~ ~ ~ I P I U N 8.yXtX=X2X2X2X=X&X&X&XM.9.9.v.M.M.M.$XsX#X#X#X$X&X=X0X9X9XfXfX6X5X>X>X;X;X9XMX9X=X0.n B U U T P L U ' ' ' ' ] { [ A l u u u 2 2 v _ { '.E.I.I.I.I.L.L.] ] ) n ;.FXCXCXNXNXNXNXNXfXgXdXdXdXdXgXgXfXfXfXNXNXNXNXNXNXnXfXNXmXfXfXfXNXnXdXfXfXmXGX#X6 m 1.Y ] ] ' ' ] ] ] ' ' ] L.I.I.I.I.] ] ] ' ' G.G.G.G.G.~ ~ ~ / P L U B V 2.2.:.,.,.&X8X8X-X8X9X7X7X3X3X6X4X3X3XwXNXwX9X9X9X9X5X3X3X8X9X9X9X9X9X9XnXnXnXmXmXgXdXgXmXyX1.U T T ' P ~ K.K.G.G.K.K.G.H./ g g h h h a E I L T ' ' ' ~ ~ ~ T U b N N N m m %.0.=XuX9XfXdXdX6X5X5X9XfXfXfXnXnXnXnXnXfXfXnXfXfXfXfXdXdXdXdXdXdXfXfXfXfXfXfXnX9XiX.XB R T ' ~ K.K.P.T.T.Y.Y.Y.I.T.L.L.K.' ' K.K.G.G.G.G.G.G.G.G.G.~ ' ( U B C C m V 2.0.v.iXnX9X3X7X5X9X6X5X8X9X9X8X9XfXdXdX5XjXCXfX9X9X9X7X9X9X9XuX7X0XuXMXfXjXfXNXnXFXFX XY ' ] ] ] ] ' ' ] [ [ [ W W Z A W A A L L L L L L L b c c k k k C *.6 5 6 ;.*XGXiXmXnX9X8X8X9X9X9X9X9XnX9X9X9X9X4X6X4X2X&XN.V.:X:X3X4X4X3X3X3X2XB.M.#X=X7X=X#X;.Y ' ] ] ] L.I.I.I.I.I.I.I.I.I.L.I.Y.Y.Y.U.U.U.U.K.K.' ' ' ' T Y :.:.2.<.8.8.8.0.c.iXHXJXAXAXAXSXSXAXNXNXNXNXfXgXAXNXNXAXAXNXDXSXSXAXAXAXAXSXHXHX",
"7X7X7X7X7X7XiX7X=X7XiX7X&X2XuX=X:X3X4X>X2X>X3X3X0X0X9X9X9X0X3X3X2X2XB.,.:.=.%.=.2.1.1.) ] ] I.Q.I.I.I.I.Q.Q.Q.E.Q.Q.Y.L.' ' K.K.K.G.G.G.~ ~ ~ ~ P P L U N 4.tXiX-X3X3X3X2X&X&X&X#Xv.0.M.#XM.M.$X=X$X$X=X$XM.$XuX&X&X-XuXMXMX3X&X&X&X3X3X&X#X0.V U U U T P L U ' ' ' L.L.L.[ _ ! v l 2 2 v { |.}.'.'.'.I.I.I.I.I.] ] ) C ;.GXGXAXMXNXNXNXNXNXjXjXdXdXdXdXfXfXfXfXNXNXNXNXmXnXgXfXfXfXfX5XdXgXgX5XfXNXVXJX#X6 r 1.) ] ] ] ] ] ] ] ] ] { L.L.L.L.] ' ( ' ' K.G.G.G.G.~ ~ ~ ~ P P L U N V 2.2.:.:.,.%X7X7X-X8XnX8X3X9X9X9X0X4X4XwXNX9X3X3X9X9X8X7X3X8X9X9X9X9X8X9XuX8XnXnXgXfXgXnXmXtX3.U T T ' ' K.K.G.K.K.K.K.K.G.H.^ / E a a E W ( ' ' ' ' ' ' ' P P L L N N N C m %.0.7XmXuXnXjXjXfXfXfXfXMXMXMXnXMXMXMXnXnXnXMXfXfXfXfXfXfXfXdXdXdXfXfXfXfXfXfXfX9XiX.XB T T K.~ K.K.P.P.P.Y.Y.Y.I.L.L.L.' ' ' K.K.K.G.G.G.G.G.G.G.G.P ' T U B r C m V 2.0..XmXnX8X7X5X6X9X6X6X8X9XuX9X9XfXdX9XdXdX9X5X8X9X9X8X5X8X8X7X7X2X7X7X-X5XdXVXmXFXFXXXY ' ] ] ] ' ' ' ] { { [ ^ W Z v W W W W L L L L L U L c c k k k C M 5 5 6 ;.*XGXiXmXCX9X8X9X9X5X3X9X8X9XnXnX9X9X3X0XwX4X:XN.N.N.&X2X4X3X2X&X&X&X3X&XM.#X$X$X=Xc.Y ) ] ] ] L.L.L.I.I.I.I.I.I.] ' I.L.I.T.Y.U.U.P.P.K.' ' ' ' ' Y :.:.2.=.2.8.2.2.0.-XHXJXSXSXAXAXSXAXNXNXNXNXfXgXNXNXNXDXDXNXAXHXHXJXVXVXAXJXHXHX",
"9.9.9.9.9.b.v.v.v.v.#Xv.v.-XGX7X3X4X3X>X>X3X6X6X9X0X9X0X9X0X2X&X&XsXB.,.&.&.%.%.2.<.1.) ] ] I.Y.I.I.Q.I.I.I.Q.Q.I.Q.Y.L.' ' ' K.K.K.G.~ ~ ~ ~ ~ P P U U C 2.=X-X-X3X3X3X2X&X&X&X#XM.M.M.M.v.B.$XsX$XsX=Xv.9.v.=X%X#XM.#X-XuX9X8X=X&X;X&XM.v.4.V U U U ' T U T ' K.L.I.I.I.{ { d._ v u l [ |.}.}.'.[.{.[.Y.I.I.I.] ] ) C ;.JXGXAXMXjXNXNXNXNXNXNXjXjXjXjXjXfXfXfXNXNXNXmXnXgXgXfXfXgXdX5X5X8XfXdXgXDXAXJX*X6 > 1.) ] ] ] ] ] ] ] ] ] { I.I.L.L.] ( ( ' ] K.G.G.G.G.~ ~ ~ ~ ~ P L U B *.2.:.=.&.&.%X7X7X-X9XuX8X7X9X0X9X0X4X4X6X9X9X3X3X9X9X8X5X8X9X9X9X9X9X9X9XuX8XuX9XfXdXfXmXmXtX1.Y T T ' ' K.G.G.K.K.K.K.K.G.P.P._.^ ! W ( _ ] ] ] ' ' ' ' ' P P L L c N N C M *.v.iXVXnXMXCXNXNXjXjXMXMXMXMXMXMXMXnXnXnXnXMXfXfXfX9X6XfXfXfX6X6XfXfXfXfXfXfX9X8XuX*XV ' T ' ~ ' K.P.P.L.T.T.T.T.L.L.L.' ' ' K.K.K.K.G.G.G.G.G.G.G.T T U B B n C m *.2.9.v.iXmX8X3X8X9X9X5X5X8X9X9X9X9XdXdX6X6X5X6XfXMXMXMXCX9XuXuXiXiXiXiXuX8X9XfXVXmXmXtX XU ' ] ] ' ' ' ' ] [ [ [ ! W v l A A W ( ( U L L U U U B c k k k n M > 5 6 ;.*XmXiXmXmX8X7X8X9X5X9X8XuXnXMXMXMXMX9X9XwX4X:XN.N.B.$X:X4X4X2X&X&X&X3X7X&X&X#X#X$X XY ) ] ] ] ] ] L.I.I.L.L.I.L.] ' L.T.L.T.Y.U.P.P.P.K.K.' ' ' T Y *.:.=.*.<.2.1.2.c.tXJXAXSXSXAXBXAXAXAXAXAXAXNXNXfXNXDXDXAXSXAXNXVXnX8X7X8XnXnXnX",
"1 : : : : : : > : : 6 6 6 v.iX-X3X4X3X>X3X0X0X4X4X3X3X3X3X2X&X&X$X$X0.:.&.%.#.%.*.<.<.) ] L.I.I.I.I.Q.Q.I.I.Q.Q.I.Q.Q.L.' ' ' ' K.K.G.~ ~ ~ ~ P P P U U C 1.*X=X=X3X3X3X2X&X&X&XM.M.v.v.M.M.B.M.$X=X=Xv.:...%.9.9.:.>.&.,.b.v.M.b.b.v.b.9.:.;.C Y U T ' ' T T ' L.L.Y.I.I.I.(.(.d.W v ( '.}.{.[.{.[.[.[.Q.I.I.I.] 5.) C ;.GXCXCXMXjXjXNXNXMXjXjXMXMXNXNXNXNXNXNXNXNXNXNXNXnXnXnXfXgXfX5X;X5XgXgXfXNXNXJX=XM > 1.Y ) ] ] ' ] ] ] ] ] { I.I.I.I.] ] ' ' ' ' ~ ~ G.G.~ ~ ~ ~ ~ P L U Y <.2.=...%.&.%X7X8X-X8X8X3X3X6X9X9X0X0X0X6X6X0X3X3X5X9X9X8X9X9X9X9X9XnXMXnXuXiXiX8X9XdXfXNXmX*X1.U ] T ' ' K.G.G.K.K.K.K.K.K.P.P.P.(.d.{ ` ` ) ] ' ' ' ' ' ' ~ ~ T U B N N n *.=.v.iXmXnXMXNXNXMXjXjXMXMXMXMXMXMXMXnX9X8X9X9XfXfX9X8X5X6XfXfX6XdXfXfXfXfXfXdX9X8XmX*X) ] T P ~ ' K.P.K.K.K.K.K.K.K.K.' ' ' ' K.G.K.G.G.~ G.G.T.K.K.K.T U B N C V m M 2.9.v.7XMX8X5X9XdX5X3X3X7X9X9XfXdXdX6X<X5X5XdXCX8X%XM.%X#X%X%X*X=X=X=X=X&X&X&X-X*X*X*X7.T ' ] ' ' ' ' ] [ [ [ _ W Z v u v b b ( ( ( U U U U U B B c k k n m 5 m m ;.#X=XiXuXuX-X;X3X5X-X7X3X7X7X8X9X8X9X9X9X0X4X:XN.N.B.sX:X4X4X3X2X&X&X&X2X7XuX=X#Xv.4.1.] ] ] ] ] L.L.L.L.L.L.I.L.] ] L.K.L.L.T.T.P.K.P.K.' ' ' T T V *.=.%.*.*.1.2.2..XnXJXDXAXSXAXAXAXAXAXAXSXAXSXSXNXAXDXNXSXHXfXM.,.:.>.>.:.4.4.,.",
"1 1 : 1 1 1 + : + o + 1 1 9.iX7X3X3X3X3X9XwX9X3X0X4X3X3X3X2X&X&X$X$X0.:.&.%.#.%.*.<.1.5.] L.I.Y.I.I.Y.Y.Q.Q.Q.Q.Q.[.Q.I.' ' ' ' K.K.~ ~ ~ ~ ~ P P L U U C 1.=X=X7X7X3X3X2X=X&X&X$XM.0.0.B.M.M.M.$X7XsX:.< 1 : < 1 1 1 1 : : : : 7 7 o.&.o.%.*.V Y U T ' ' T ' ' L.L.T.Y.I.I.(.(.'.( b { }.+X}.{.[.'.E.Q.Q.Q.Q.I.] 5.1.C ;.GXCXfXMXjXjXMXjXjXdXdXNXNXNXNXNXNXNXNXNXNXNXNXNXNXmXnXfXfXfX-X;X5XfXNXgXNX8XGXiX*.> Y Y ) ) ' ' ' ] ] ' ] { I.I.I.I.L.] ] ] ' ' ~ ~ G.~ P ~ P ~ P P L c B 1.2.%.6 o.,.%X8X8X7X7X8X3X7X4X9X9X9XwXwX9X6XwX5X3X8X9X9X9X9XMX9X9XfXMXMXMXMXuXuX8X5XdXjXnXmXoXV U ] ' ' ' K.G.G.K.K.K.K.P.P.P.[ [ d.'.l.3.) Y Y T ' ' ' ' ~ ' ( ' U B c n n *.=.v.iXuXuX9XMXMXjXfXjXMXMXMXnXCXCXMXnX8X5X7X5XfX9X9X8X5X5XdXdXdXdXfXfXfX9X9X6X6X9XVX=X1.] T P ~ ' K.K.K.K.K.K.K.K.K.' ' ' ' ' K.G.G.~ ~ ~ G.K.K.K.K.K.' U B N n m > m 9.v.#XmXMX8X8XfXfX5X>X>X3X9XfXfXfXdX6X>X5X5XfX9XM.o.7 6 7 7 6 %.%.%.%.%.%.%.%.>.:.2.4.C ' ] ] ' ' ' ' [ { [ ( W W v u u j l b U ( ( T U U U U B B b c k n m n m %.;..X*X=X7X-X%X%X;X;X&X%X%X#X%X&X&X&X&X9X9X4X2X:X:XN.N.N.&X2X2X2X2X2X&X=X=X&X7X7X*X#X4.1.] ) ) ' ] L.I.L.L.L.L.I.L.] ] L.K.T.L.T.L.P.K.K.K.' ' ' U U B M %.%.*.=.2.2.4.%XVXJXNXNXSXAXAXAXAXAXAXAXAXAXAXSXHXAXNXSXHX&X>.1 1 1 1 : : : : "
};
