/* XPM */
static char *_5128c44325a4d1a9724527b3353b6c3KDqN1W9zzJo4Qe33[] = {
/* columns rows colors chars-per-pixel */
"600 600 256 2 ",
"   c #030102",
".  c #0B0706",
"X  c #170904",
"o  c #1A130A",
"O  c #191717",
"+  c #100F12",
"@  c #271709",
"#  c #261B16",
"$  c #2F1609",
"%  c #2A231A",
"&  c #372719",
"*  c #38260E",
"=  c #292726",
"-  c #372B26",
";  c #3A3329",
":  c #393737",
">  c #2E2F31",
",  c #1E2023",
"<  c #442C18",
"1  c #49331B",
"2  c #55381B",
"3  c #482A0D",
"4  c #442D25",
"5  c #4C3B2C",
"6  c #473627",
"7  c #553B27",
"8  c #443B33",
"9  c #4B3C34",
"0  c #463A38",
"q  c #543D35",
"w  c #4D2D2B",
"e  c #603A23",
"r  c #59432B",
"t  c #4C433B",
"y  c #494337",
"u  c #544333",
"i  c #53443C",
"p  c #5C4B3B",
"a  c #594837",
"s  c #544A34",
"d  c #65482A",
"f  c #654B36",
"g  c #69533A",
"h  c #74583A",
"j  c #73502D",
"k  c #6C4F28",
"l  c #3B3D42",
"z  c #1D3744",
"x  c #453E42",
"c  c #3D4345",
"v  c #494747",
"b  c #544B44",
"n  c #5B4C44",
"m  c #564A47",
"M  c #5C534C",
"N  c #595347",
"B  c #545353",
"V  c #5C5B5C",
"C  c #5A5656",
"Z  c #4F4E51",
"A  c #644D45",
"S  c #63544C",
"D  c #685747",
"F  c #745B46",
"G  c #6B5C54",
"H  c #655A56",
"J  c #745D55",
"K  c #6B4E4A",
"L  c #796349",
"P  c #6A6259",
"I  c #73635C",
"U  c #796658",
"Y  c #706851",
"T  c #5C5D61",
"R  c #635E62",
"E  c #646364",
"W  c #6C6B6C",
"Q  c #696666",
"!  c #7B6B64",
"~  c #756A66",
"^  c #7A726A",
"/  c #747374",
"(  c #7C7B7C",
")  c #797677",
"_  c #6F6F72",
"`  c #5D6260",
"'  c #3D413A",
"]  c #876038",
"[  c #856849",
"{  c #846A58",
"}  c #897359",
"|  c #947452",
" . c #846D64",
".. c #83736C",
"X. c #897568",
"o. c #947969",
"O. c #8B7B74",
"+. c #857A77",
"@. c #947D74",
"#. c #8E6E68",
"$. c #956E59",
"%. c #7D817C",
"&. c #8A827B",
"*. c #97857A",
"=. c #97836C",
"-. c #A48979",
";. c #AC8D74",
":. c #A98459",
">. c #C99F75",
",. c #7C7D82",
"<. c #837E82",
"1. c #7D8284",
"2. c #848384",
"3. c #8C8B8C",
"4. c #898686",
"5. c #978B86",
"6. c #99928C",
"7. c #938E92",
"8. c #949394",
"9. c #9C9B9B",
"0. c #999696",
"q. c #8D8F92",
"w. c #A48D85",
"e. c #A6958A",
"r. c #AB9B94",
"t. c #A39D9C",
"y. c #A79995",
"u. c #B39D96",
"i. c #B4998A",
"p. c #AAA29C",
"a. c #B3A39C",
"s. c #B8A69A",
"d. c #B6A38F",
"f. c #9D9DA1",
"g. c #8C9BA5",
"h. c #A39EA2",
"j. c #B49EA0",
"k. c #9EA2A4",
"l. c #A4A3A4",
"z. c #ABA5A4",
"x. c #ACABAC",
"c. c #A8A7A8",
"v. c #BBABA4",
"b. c #B3ADAC",
"n. c #B6A9A6",
"m. c #BCB2AC",
"M. c #B6B2AB",
"N. c #ACADB2",
"B. c #B3AEB2",
"V. c #B4B3B4",
"C. c #BBB5B4",
"Z. c #BCBBBC",
"A. c #B8B7B8",
"S. c #ADB2B2",
"D. c #9DA19D",
"F. c #C6AB99",
"G. c #C3ADA6",
"H. c #C3B3AC",
"J. c #C8B6AA",
"K. c #C4BAB4",
"L. c #CBBBB4",
"P. c #C3BDBB",
"I. c #CBBDBA",
"U. c #C4B5B3",
"Y. c #D2BDB7",
"T. c #D3B9AA",
"R. c #D2AD94",
"E. c #BDC1BD",
"W. c #CCC2BC",
"Q. c #C6C2BB",
"!. c #D3C3BC",
"~. c #D8C6BA",
"^. c #DAC4AF",
"/. c #E4CBB9",
"(. c #EFC597",
"). c #BCBDC1",
"_. c #ACB6C1",
"`. c #C3BEC2",
"'. c #D4BEC1",
"]. c #BDC2C4",
"[. c #C4C3C3",
"{. c #CBC5C3",
"}. c #CCCBCC",
"|. c #C9C7C8",
" X c #D3C5C3",
".X c #D4CAC4",
"XX c #DBCBC4",
"oX c #D3CDCB",
"OX c #DBCDCA",
"+X c #D8C6C4",
"@X c #D4D2CD",
"#X c #DCD2CC",
"$X c #DAD3C7",
"%X c #CDCDD1",
"&X c #D3CED2",
"*X c #D4D3D3",
"=X c #DBD5D4",
"-X c #DCD9D5",
";X c #DAD6DA",
":X c #DCDBDC",
">X c #D5D7D9",
",X c #CDD2D1",
"<X c #E2CDC7",
"1X c #E3D4CC",
"2X c #E8D6CA",
"3X c #E3D5D2",
"4X c #E4DAD4",
"5X c #EBDCD4",
"6X c #E3DDDC",
"7X c #EBDDDA",
"8X c #E7D6D5",
"9X c #F2DDD6",
"0X c #F2DACC",
"qX c #DDE1DD",
"wX c #E4E1DD",
"eX c #ECE2DC",
"rX c #EAE3D7",
"tX c #F3E4DC",
"yX c #F8E7DA",
"uX c #F5E7D3",
"iX c #DDDDE1",
"pX c #D7DBE3",
"aX c #CED8E2",
"sX c #E2DEE1",
"dX c #E9DEE2",
"fX c #F4DEE1",
"gX c #DEE2E4",
"hX c #DEE8F3",
"jX c #E4E3E3",
"kX c #EBE5E4",
"lX c #ECE9E5",
"zX c #E5E5E9",
"xX c #EAE6E9",
"cX c #ECEBEB",
"vX c #E6E9E9",
"bX c #F3E5E3",
"nX c #F3EAE4",
"mX c #FCECE4",
"MX c #F3EDEC",
"NX c #FBEDEB",
"BX c #F6E6E6",
"VX c #F3F1ED",
"CX c #FDF3EC",
"ZX c #FDF5E8",
"AX c #EDEDF1",
"SX c #E7EAF2",
"DX c #F2EEF1",
"FX c #F9EEF2",
"GX c #EDF2F4",
"HX c #F4F3F3",
"JX c #FBF5F4",
"KX c #FDFAF5",
"LX c #FAF6F9",
"PX c #FEFCFD",
"IX c #F5F6F9",
"UX c #EDF1ED",
/* pixels */
"+.=X=X@X-XHXc.V.qXjXHXvX/ O   H B jXZ.[.B W 3.@X=X4X4Xi p * r 7 * < 2 r r 2 1 6 * 5 . . X ~ Q oX=X`.oXoXjX6X8.2.l D.l.V.Z.*X-XjX6XvXPXPX*X[.Z.UX>XjX[.V.*X:X*XE T N.f.iX>X%X, v Q V 0.4X X4X XtXs.u.X $ $ 2 3 7 2 7 7 < & * % & o &.4.6XkXwXPXPX7.8.) jX>XxXvXcXcX,Xk.k.c l _ A.A.jX6X2Xe.e.o.X.J s.F.mX9Xs.s.i O.*.+X5X! L.~.7X7XH.Y.L.8X1XO.y.OX!.n.8X8X..u.y.v.H.9XBXtXU.n.y.L.v.J ~ BX+Xn.3X4Xz.b.b.M.b.#X#Xb.K.p..X#X~ +.H {.3XMX8XOX+.5.; ; H 0 B 8 m 6.oX*XDX:X:XjXPX>XZ.) ) xXvXHX>X|.vXqXvX}.*XjX}.:X>XjX/ ) ) V.E.qX,XAXiXsX0.f., + O % # - & p p D g N y ; y = = > V P P G D L h j j f g g g f f f d e e h h g g g *.+.v b 8 % @ 1 1 L g a i Z >   + = O }.gXzX%XgXIXHX|.> > |.S.gXSXjX( / ).iXzXPXiXPXPXjX[.*XV.A.[.;XQ.JXJXeX6.0.5.&...S G X.O.2X2XrX~..XN n & u.@.!.L. X XK.6.+.C.n.MXp.y.C.b.eX{.P.I P 8 Q..Xp.a.5.tXtXO.5.M M i &.^ m.z.+.=X{.&.+.b b b U.Q.Q.K.y..XXX5.r.m H H *X*XZ.E ~ m m 9 r.y.NX4XjXHX,X,X,XPXPX`.> = V v jX>X,X1.1.2.3.oXLXJX@.O.w f J f w f $ & - @ n.KXJX#XkX4XxXPXl.x.3.8.[.KXPXW ^ . ( ( sX>Xl.P.W V B }.Z.cXxXxXxXHXcXM.M.}.>X>X].}.IXPX9.q.: ].N.PXPX8., O 3.q.9.*XoXKXMXZXO.U @ $ q q b q 8 o + R LXcXDXJXJXx.t.kXjXMXjXvXx.x.|.,X|.8.( q.2.:X6XKXXX1X5.I U u.u.0XyXJ.G J r.a.I U.U.y.H.H 7X7XU.y.",
") #X=X=X4XHXc.S.:X*XIXHX2.+   V Z *X).|.C V 8.wX=X4X4Xn A & a r 1 2 7 7 7 7 1 1 * * . . @ H ^ oX`.dX6XoXjX:X8.( V 8.8.V.[.>X6XjX:X:XHXPXx.*X}.*XHX*XV.x.>X*X|.E T Z.c.jX).>X> = W Q p.4XOX#XOX<Xu.i.$ $ $ 7 2 2 2 2 2 < < & & % o +.2.6XwXwXKXPX7.3.2.-XvXjXAXxXLXzXV.8.> l E ].).vXkX4Xe.e.o.o.J s.F.mXyXa.a.q *.w.~.8X! L.~.7XXXU.L.7X!.H.u.&.<XU.Y.tXXX&.a.a.H.I.1XXX8X XU.y.L.H.I G <X1X X.X=XM.z.z.z.m.#X-X{.p.p.6XoX~ ~ P I.#XkXdX X+.+.x v m b 8 0 b y.wX|.}.cXcXxXPXV.}./ ) vXxXPX}.}.cXcXjX>X*XjX:XvX}.,X( _ / A.E.qX}.HXiX:X3.<.> , # # @ & & p g D r n y ; y % % > C M Y D D F h j j f g g g g f d d d d h h h g g *.4.Z v ; & $ 7 1 g g p y ' =   + = : N.;X:X>XvXzXPXA.: : S.].SX,XzX2.,.Z.zX;XAXPXLXHXvX[.*Xx.S.V.*X}.KXMXkXb.p.O.5.^ S D X.=.~.XXtX!.m.H H - 6.a.1XL.3XH.n.y.&.z.n.oXm.C.z.b.MXoX{.H P t 4X.Xy.6.e.NXtXw.&.! S ; +.6.y.n.t.oXQ.~ +.t b P n.z.W.K.+.W.3Xy.n.S P H @X*XZ.E ~ m m 9 u.e.nXMXcXlX>X>X%XPXIXA.x = B Z ;X,X>X/ W 4.8.{.JXNXO.O.w A K 7 q K $ & & - y.NXkX3X=X6XcXcXc.V.3.2.sXPXLX4.B   _ / :X6Xl.l.V Q E [.x.vXPXDXHXlX*XE.b.@XqXjX|.|.PXPX9.8.Z A.A.IXPX%.> > / 4.A.{.oXMXNX7X..X.& @ n 9 9 i m # o Q FXcXFXMXMXl.t.lX*XzXHX*XV.l.}.].].8.2.2.+.:XcXKX XOX5.I J e.e.yX2XG.! ..r.e...H. X5.5.e.7X7Xy.z.",
") #X4X=X-XcX0.9.V.A.cXjXV.2.( <.0.}.0.9.Z C z.kX6X4X5Xn A $ 1 < 1 7 7 1 1 7 7 1 * * & & - = # m R '.}.}.oX>X&XxX9.A.A.:X>X:X-X;XPXPXA.V.E *X*XjX:X8.E W *X*XHXV.x.[.iXsXW ( / ( l.l.{.#X3X8XBXG.q D @ $ 3 e e 2 2 2 7 2 < < & & o +.&.6XwX6XJXLXA.S.[.cXIXx.f./ C 8.[.%X4.3.) ).].cXlX4Xe.e.X.X.L F.G.mXyXs.u.9 a.a.XX1X! v.m.L.!.n.y.6.! +.J.L.3X5.6.m.!.I.XXI.3X!.e.P ..5.H.3X..&.u.y.#X4Xa.p.p.M.C.z.&.&.t.K.~ Q.Q.Z.M.) P 4X=X=X{.I.5.M H m H 8 m v t.z.}.=XcXjXHXHXHXA.: = 9.9.jX*X>XV Z W [.|.HXvX>X*XQ.D.0.p.A.E.qX@XIXPX%Xh.0.E C > + + # # % * 5 g D r N i : ' % , = N N G D g h h j j k g g g f f d d j d j j h h F ..^ y : % & * a f g L D 8 = , . + .   v |.gXjX:XcXjXvX:X[.9.8.>XvXjXiXIXAXIXSX[.%X).Z.xX:XvX8.0.S.C.Z.6X=XbX=X#Xp.6.O.O.U D p X.e.$XmXKX4X~.G 8 ; H.v.L.U.I.3XOX{.{. XK.n.y.t.{.Q.#X~ Q P 7X$Xy.a.n ! &.~.$Xn.u.L.W.1XI.Q.m.{.#X.XQ.P ; y ~ +.4X4X5.W.n.i m # ~ +.@X*XZ.E ~ m n q u.r.bXMXlXjX,X0.0.AXxXzX`.P.`.Z.cXS.E.V ` 8.9.*XNXNX@.@.q A A 4 < K w q & % b r.I.KX6XMXcXxXiXxXZ T l.;X6XMX;X3.b.l.:X}.) ) 3.>X*XHXjXxXPXPX*X-XD.qXqXPXUXE.x.S.PXPX,XgX].PXPXgX|./ Q W c.x.sXxXJX6XBXO.& 4 5 r u 4 6 m m # X ~ dX6X6XsXLXA.A.MXMXPXHX) v : Z.jXGX[.A.8.2.>XMXlX.XXX5.! J e.e.yXCX~.p 4 - q 6.8X3X5.+.I.e.6.0 M ",
"^ #X4X6XwXcX7.3.( 2.}.,XwXHXLX[.{.b.C V : x h.=X7X4X5XA A X $ $ 1 2 1 < 1 r r 1 7 6 5 9 & # # - # Q W [.jX:X|.V.*X>X*X:X[.:XLXPXZ.|.E E E jXZ.jXHXE     / 2.*XV.|./ / B Q ) V.t.-XkXKXrXbXI.v.4 u g 7 7 d e e 2 e 2 7 7 w 4 4 - o &.2.6XwX6XVXJXx.x.-XjXvXV v . O ,.iXiXg.f./ ).|.HXlX4Xe.w.} } U G.J.mXmXs.r.q L.J.+X~.J O.....! +.U.r.4X$XL.OXn.6.y.n.y.+.^ ^ t t 8 ; 0 # # S &...tX$XW..X6..Xb.b.b.p.Q.Q.K.M.OXC.4.Q ^ eX@X4X=X{.5.+.b 8 m H M b 0.6.eX=XeXVXjXPXxX[.|.9.}.:X[.}.vX}.[.+   O cX:XcX>X8.9.2.3.3.x.b.Q.VXkXqX-X+.v Z m C H 0 0 = - & $ & r g p N b 8 y % % = t i D D g h h j k k k j j j d d j j k k d h { { Y C > = % & & g L a g p % X O . . : : + = : }.>X:XzXzXHXAXA.).V.N.N.SXAX|.c.l.= , W W |.*X}.Z V 3.x.b.P.C.4XkXCX$X4Xr.&.*.*.X.F n ...XrXKXKXK.G i 5.n.+.e.5.I. X5.6.K.I.`.bX3Xn..X.X6.+.&..X.X5.y.H.~.v.p.5.a.v.e.n.n.bXMXI.Q.b.CXbXy.N H &.5.4X#X+..X4X6.5.t ..I @X*XA.P ~ n A q r.n.bXkXzXHX}.v Z Z.}.DXLXLXxXxXLX,.%.: Z 3.q.*XBXNX<.*.9 f f 4 7 q < 6 p i # - o n.C.MXlXcXPXPX*X*Xx.xXsXHXVX6.-XA.2.) C R A.cXcX-XHXMXDXPXE E 2.vXIXHXqXB v v }.IXIXvXl.N.A.( 2.q.x.p.zX{.-XDX6X~ &.& u u Y 5 & - q n 9 X X / PXLXLXMXKXl.z.oXwXKXHX8.3.9.cXvX}.0.9.%.<.&XLXLX#XOX5.! U e.i.ZXyX~.J Y p q y.a.n.5.O.XXH Q ; 0 ",
"~ OX6XeXlXHX8.3.q.&.[.>X:X*XsX&XoXb.C C : 0 h.;X=X=X8XS A X $ $ 1 2 2 3 2 r 7 1 1 7 < 6 @ - ; ; = x H ;X:XA.}.|.*X>X>X:X[.jXzXcXZ.V.W V ) *X|.PX>XB   + 3.9.:XA.c.( ( B +.P t.x.-X-XeX$X7Xa.a.J A f d d d 3 2 d e 2 2 2 7 6 4 - o &.4.wXkX6XVXHXA.V.jX:X:XZ v .   / gXvXk.k.1.%X[.UXlX4Xw.-.} { J J.J.NXmXs.e.u L.L.~.~...&...! P &.n.m.bXnXK.K.&.z.y.n.a.~ G P b b 6 8 8 # % P 5.5.nXCXOXW.6.n.Q.C.m.0.Q.K.P.z.P.t.0.6.^ bXeX#X7XOX5.^ b m b M M B 6.t.6XkX=X=XVXPXPXZ.Z.8.>X|.:X>X:X|.A.+ + = ;X}.>XHX3.8.W 3.8.V.b.|.KXPX=X}.W H R m 0 m 8 ; 4 9 6 & & r f D N M y y % % % ; y S D g g h j k k j k j j j k k j j d e g =.*.b b ; ; % ; & f F f r r # o = , O = 0 > > : *XZ.*XZ.>XcXAX|.[.f.c.|.zX[.>Xx.N.  . Q E *X}.}.W / 8.Z.V.M.b.}.#XrX4X7Xy...O.*.*.P n +.Q..XCXCX~.i - y.n.n.5.O.C.K.0.7.z. XoXbX3Xy.oX#Xp.&.^ $XrXp.*.H.XXH.&.&.a.L.&.n.y.nXKX{.4X{.wX=XQ.~ M &.6.#X4X+.!..X5.O.; ..~ oX*XC.G ~ m n q y.a.bXbXVXPX,XZ v A.|.dXcXxXDXPXPX1.1.' Z q.3.*XNXNX5.5.w q f 7 q 7 7 < A q # % - U.m.PXVXzXLXcX*X).0.jXjX-X6XC.l.[.4.3.Q Z *XcX-X>X-XHXjXcXW E D.lXcX-XjX: : ' HXvX>XjXZ.Z.}.4.) 3.l.3.oXoXFXKXKX~ G - A u D a $ 4 a i 5 @ # ~ 3XkXJXVXPX0.x.-XoXPXPXV.2.0.:XDXjXq.9.q.3.|.MXJX4X1X*.! ! r.u.mXCX~.G Y n n !.u.u.y.6.OXN H 0 0 ",
"~ OX4XwXkXVX3.2.3.4.Z.}.}.*X:XsXMX&XW Q v Z z.6X#X#X8Xn A X $ $ 3 1 2 2 2 d d 7 * 1 @ $ X - - # x .   _ P.Z.:X,X}.*X*X:X:XHX*X[.l.9.*XvX|.*X*X}.HX3.v B Z.A.:Xl.B.O + +.t.p.=X{.CXwX1Xv.a.9 p F $ $ 3 7 e 3 2 e e 2 3 < < 1 < & X +.4.wXkXwXJXJXp.l.*XcXHX2.3.` ` S.vX>X) / / |.].cXkX4Xw.-.{ { F J.J.yXyXu.e.n ~.~.8XmXL.XXXXW.XX4Xy.m.P +.m.U.5.m.y.$XbXL.y.6.~ ^ H M P +.+.6.4X4Xy.p.p.n..XU.m.C.K.5.) ~ 5.t.b b M b.{.VXOXOXG ~ M M m M 0 v 0 6.kXlX-X=XlXPXHXl.Z.W 9.jXPXHXvXjXvXcXHX8.x.|.*X;X[.*XB E / @XE.jXlXVXkX@X) ^ o M G ; # m I H q n p a 6 r a D M M t i ; ; % - 6 A F g g h j k k j k k k k k k j j k e g *.5.8 0 ; ; - y 5 f F L a r ; - y ' > H y - O   b v @XjXxX*XvXPXPX8.V l 3.0.SX[.;Xl v B Q *X,XxX,X[.x.V.S.c.x.{.}.#XeXeX.Xp.e.^ ! ..*.P ! ! L.8XCXL.8XS A Y...5.n.t.n.n.6.3X6Xm.n.t.m.t.m.$X^ K.K.CXKX~.p.s.5XnXv.n.m.5XOXm.n.5.Q.=Xy.0.#X$X4XKXCXKXCX&.L.L.e.6.8 5.&.@X*XA.G Q m n q u.r.BXJXUXvX}.3.q.iXiXsX&X&X=X|.DXA.].` ` q.8.{.JXJX5.@.4 q K 7 q q f 6 f q 4 % . 9 ; n.K.oX-XjXIXjX;X9.4.3.2.0.|.Z.V ) b.V.KX{.-XPXcXPX[.V.[.oXS.UXHX:XvX> : v [.*XHXPX/ = c Q 2.7.*XcXJXCXOX~ ! & & D q 6 4 f & 6 7 4 6 # # G PXCXkXwXHX/ ^ 2.3.oX}.xXcXPXPXUXZ.C Q 3.3.}.cXKX8X1X*.I U r.u.yXyXF.n D S J 1X5.e.y.6.BXu.a.n.n.",
") #X=X-XwXVX8.3.2.8.A.[.V.[.}.xX=X6X+.W v Z 0.&X3X8X5Xb p $ < * 3 < 1 2 2 r d d 7 1 X X @ - 9 8 # + O C [.A.*X>X*X}.[.}.:XMX[.*Xl.9.:XHXA.A.>XvX:X8.v B l.Z.jXx.b.    3.6.p.oXC.rXtX4Xr.e.p 4 F < 3 < 2 3 e 2 3 d 2 3 < < < & & . ) &.wXkXwXJXJXZ.A.[.xXjX3.2.E _ c.>XzX3./ ,._.).xXkX4Xe.-.{ { D T.J.yXtXr.e.G ~.+X1XnXXX4X5X.XW.$Xp.U.) ^ M.z.y.p.m.nX#XK.6.&.^ ^ H M M &.5.6.4XlXy.p.m.m.m.K.W.P.b.p.~ ^ +.+.8 0 P .Xm.3XKXQ.^ ..Q G M v ; b M z.=X6XjX6XzX6XPX8.V.9.8.PXxXPXxXvXxXHXxXV.V.[.|.jX*X}.W Z / Q.@X-XkXKXlXnXQ M X ~ Q 0 - ; G n n A p g 6 5 r D D D s b y y - % - p D f f h j j k ] k k k k k k j j d f F O.&.- ; = - & p p D F L 1 1 6 ; y ' : m M 0 o X : b Z.V.qXjXvXIXLXc.v Z 8.c.AXA.A.v > E E [.[.jXxX*XA.S.V.c.z.Q.}.@XwXeX4Xp.r...^ +.I ! I +.~.+XCXL.+XJ I v.5.r.n.y.m.n.5.=XbXK.C.n.t.U.W.K.^ K.4XCXCX$X!.s..XW.m.n.v..X#Xn.p.p.OXOXy.b.W.3XrXnXnXNXZX&.a.a.y.e.4 5.5.*X*XA.H Q b m 9 a.y.MXVXcXqXE.S.f.iXsXsXB.`.DX;X>X,X,XE ` ( 4.P.LXJX@.O.4 f K 7 g 7 w q K D 9 . # & - p.m.MXjXsXiXxXDX2.4.( 4.P.x.9._ ) V.[.xX;X|.PXKXjXP.c.*X:Xx.cXVX:X|.: > : [.,XcXPX/ Z v 4.7.9.{.kXkXKXtX..U q @ q 7 a f g 4 6 5 4 6 # @ I KX6X@X=XLXW / 4.3.>XvXPXHXPXvXvX,XQ W l.8.>XjXjX#X1X*.Y G e.u.yXmXG.D G G  .7X5.O.u.5.7XM.a.u.y.",
"^ OX#X-XkXPXS.M.:XqXxXjX( : = 3.3.6Xx.t.H B t.MX3X7X7Xi A < f 7 7 2 2 2 2 3 2 7 7 1 $ $ q # % . . # . O Z.[.}.*X,X:XcXPXHX|.W ) *X:XxXjXV.V.V.:XcX*Xl.V.jX>X[.E C +.&.z.wX=X6XVX#X4Xr.# & & @ 5 g f < $ $ j h k j e 2 3 < 1 < &   ^ +.6XkXwXJXJX3.2.2.[.>X|.jXiX>X>X].].B Z ,.A.A.lXkX4Xe.w.} { D !.T.yXyXr.u.U L.H.v.m.5.&.O.P ~ y - % 6.p.m.m.W.M M &.5.4X#X.X#X#X#XeXW.oXW.$Xm.m.n.p.y.6.P .XK.$XW.OXt 0 # - C eX#XkXeX4X.X^ N m b t b v C t.6.-XMX6XcXwXHX@XA.> > 9.3.UX[.Z.) 2.x.jXvXxXxXHX}.}.h.9.9.8.|.lXeXwXVXoX&.^   o o H i 0 i @ 6 & D A r a < 1 7 D D D p N y i ; % % s A f f h j j k ] k k k k k k j j d h D ! ..- ; % % % A g D g F * 1 a N G P P ; ; - 8 t X   v Z A.HXjX}.vXHXx.c.4./ iXAXLXjXxXxX[.PXHXxXxXjXLX,X*XV.l.S.Q.Z.|.Q.lX.X3Xy.&.6.&.P M S O...9X9X9XH.Y.! r.y.C.'.=X3Xz.t.6.5.y.6.t.6.eXrXU.&.5.^ 6.p ..n P S 5.+.^ H ! 5.4.y. Xz.4X$Xn.H.K.n.M.n.y.! 6.u.m.G.6 O...*X*XC.H Q b m 9 y.y.CXkXVXPX|.A.[.PXIXc.+ . C T vX>X]./ / %.7.-XPXJX+...w f K 7 < f F F < 4 q & @ X . 6 8 P.-XxX:XjXvX[.*X: 0 ) 9.8.{.[.cXHXxXPXPX;XHXc.:XPXPXHXZ.UXwXUXHX[.V.Z.PXHX*X%XZ ( / A.t.wXMXCX7X7X..X $ w w w f 4 F q 7 7 r u 5 @ $ +.bXMXKXKXKXC &.Z.[.cX>XcXvXjX>XjXl.c v 8.3.vXzXjXOX4Xw.J G e.u.yXmXJ.U I U ..XX^ !  XH.KXOXOXXXXX",
"~ #X#X-XwXVXA.E.wXjXvXjX4.O > 8.4.kXh.B.v Z x.6XdX3XOXm A w q f 7 2 1 2 2 1 2 7 d 7 @ @ q # # .   + O = B.Z.*X}.|.vXvXcXPXc.3./ >X>XHXxXZ.x.l.HXHX|.V.A.|.vX[.E Q ^ ) b.6X=XeXrX.X4Xr.@ & & 4 * D F * $ $ d ] d j 2 3 < 1 < * % . W ) wXkXwXKXVX8.( &.V.>X:X:XgXzX;X[.[.Z T W ].).jXkX4Xw.w.o.} J T.J.ZX0Xs.s.U !.L.m.a.6.&...! I N % % 5.5.W.n.Q.H H 6.5.#X4X.X#X#XrX#X.X$X{.$Xm.U.p.n.y.y.^ .X.X{.m.#Xb 8 - # Q Q.eXbXbXW..X^ b N b t m t b y.6.kXkXcXcXjXHX|.A.> = 9.8.vX[.Z.) 3.9.xX*XHXHXvX[.sX9.x.0.3.{.kXkXrX6XeX+.^ X X # i n A 5 $ & & g F p r r < < L D D S p N t - % % y s p f d g d k k k k k k j j j k F f U P H : ; % % % D D F F L & * D D p Y Y 6 % - t 8 o o ; y A.vXHX}.*XPXx.B.( q.&XzXIXiXIX:XjXvXcXcXcXlXHX,X:Xx.x.V.|.Z.C.P.MX4X=X4.6.&...I H I ^ O.!.NX5XY.H.+.n.y.I.U.OX6Xp.n.y.4.6.6.z.6.#X#XI.+.&.5.O.b G G S I O.+.^ I M y.&.y.K.P.$XW.I.m.m.r.H.y.r.I r.r.r.L.9 O.+.*X*Xb.Q G m q 9 r.a.BXMXHXvX,X,X].PXPXB.+   C E :XgX,XW E 8.2.;XJXJX+...w f g 7 7 7 F F 6 4 7 * * X . & b K.MXjX-XsXzX|.Z.0 0 +.8.3.[.*X:XDXcXLXPX*XjXB.xXvXPXHXS.kXqXcXHXQ.[.V.HXPX;X*XZ <.3.8.b.=X7XJX9XBX .$ $ 4 w 4 7 q f f 7 7 7 q q @ X ^ bXCXHXHX:X/ ) Q.@XjXxXxXvXvX:X>Xl.v B 3.8.;XjXxXOXOXw.J G r.e.yXmXT.J J ....!.O.O.H.H.eXeXW.7X X",
"^ =X=X4XjXKXE.|.-X*XvXvX8.O + : B -XV.l._ ) 0.;X&XOX3XH J 9 w 4 X @ * 2 r r 7 7 1 7 5 4 n . X . o > : 4.zX*X|.*XjXHXPX[.`.v 7.8.:XvX}.}.v v : }.[.,X3.x.x.9./ _ / x.P.-XkX=X6X-XKXeXn.# & . X * f f 7 7 2 h h 2 e e 7 2 w w 7 9 X W ^ 4XwXwXKXLX) 7.V.HXHX>X:X*X}.}.).A.B T _ %X].cXMXrX*.*.} { A J.G.yX0XJ.J.*.I G H S M b i t y t - - C N 6.5.6.= o O # S 6.z.b.n.Q.K.U.K.m.Q.p.p.&.&.C N % P ^ m..Xb.- - P ^ Q.eXeXOX$X5.+.b C ~ b ; M y.C.kXMX-XoX*XHXPXZ.3.3.x.x.|.[.|.W (     B jXjX*X[.9.9.4.4.f.9.b.zXMXKX4X4X^ 9 b i 5 & 5 i D p 5 6 & g D g g 7 $ $ a g F D A N s ; % % : y p g f L g k j j k d d j j d 2 g g D t x = ; % - ; D D F F r * < F D r p 6 @ @ & 6 - X   . . C [.*XvX:XjXHXIX[.N.[.jXAXHX%XcXHX;X9.3./ 2.vXDX*XQ Q W A.[.Q.S.Q.6XlX4X4Xt.5.6.G S I I *.Y.8XmXNXv.q H ~ 6.O.+.5.0.6.z.m.z.C.I.p.5.W..Xz.&.+.S n 5 ; ; - ; i W.H.KXCXt.6.y.b.Q.I.4X4Xv.r.&.5.O.n.n.n.L.9 +.5.;X*Xb.Q I n b q y.r.BXkXcXjX|.S.[.PXDXZ.B x W E cX,X|._ ` 3.4.}.JXJX+.O.4 f f 7 d e g h g D a * $ * 6 & X 0 z.oXxXcXDX&XcXV.0.( -X[.PXLX>X:XPXjX*X) E V.HXPX*XoXZ Q.A.VXvX:X}.jX*X}.,.2.) h.l.cX4XKXbX<X5.w.4 $ $ w 7 7 g F K F g f q q u $ @ +.NXMXlXVXPXx.V.cXjXzXHX3.B B Z.>XjX3.3.l.9.jXDXxXOXXX5.I G r.e.yXmXT.D S 5.5.OX5.O.e.&.5.&.! 5.O.",
"~ #X#X-XwXHXZ.E.D.l.vXIXsX9.c.b.3.x.t.8.Z B 0.DXkX6X7XH J q q 5 6 < * 3 < 1 r f 7 < $ X -   o - # z.P.xX;X*X*X,XPX|.,X2.3.[.[.Z.vXcX|.}.O = = *X|.vX9.9.O O V V.z.;X6XjXlXMXVX6XoX4XCXe.w.# . & K f f d 3 j d 2 2 e 2 $ X @ @ X o ^ ) 6XkXkXPXKXA.x.V.jXjXx.9.v C 3.A.,Xk.0.1.S.A.jXkX2XO.X.F F D ~.L.tXuX~.~.v.v.n.n.n.a.a.p.p.p.n.y.y.5.&.m.m.z.+.y.6.6.+.6.6.y.p.K.U.m.U.m.Q.6.6.5.6.^ +.P &.H +.5.P P +.W.m.MX3XK.^ +.b M H t i t P n.eX}.}.6X6XPXPX[.|.0.;X>XPXIXvX>XvXZ.Z.) E x.vX*Xx.l.v _ 2.A.Z.LXxX=X3X$X~ ..t n & 8 ; D u 5 6 r g f F g g g { 1 $ @ r r g D p n t ; - % - ; p D g Y L k j j d d f g g h r Y ! H : l = = @ - y D D L L * @ $ r r r D s u p n i 9 6 - % # . C B *X:X).AXiXHXzXc.Q W ;X;X[.}.V.: : . O A.|.qXS.[.3.A.S.x.Z.b.jX*XkXMX{.4X5..... .G S ! I 8XmXLXu.Y.S M # = 4.P. XMXoX+.Q +.m.U..XOX.XW.W.W.v.r.n.H.H.XXKXeXnXy.y.m.n.6.kX.X5.r.U. X3XtX5XY.9X7X5X8Xn  .^ *X@Xz.P H m b q u.n.JXMXUXHX,X8.2.sXAXPXFXDXzX&X,X1.3.` B 3.0.@XJXKX! ..$ f f h h d 2 7 f F g 7 a 4 a 6 ; % 0 > `.[.cXsXcX}.6X6XjXcXjX}.PXPX}.8.9.W ) xXHX:X8.x.  ( Q wXcXzXB : E W Q 4.x.jXjX;X=XbXU.u.G #.q { K F f e d d 7 7 f f 7 5 q @ @ +.MXMX6XjXPXZ.|.DXHX[.P.O O > qXgXUXD.8.8.<.;XcX6XOX.X5.I J e.e.mXmXY.J D v.v.mXH.K.I.~.+X+X+XOX1X",
"Q #X=X6XwXVXx.c.c.x.PXjX*Xc.B.3.x.9.3.l.V v f.jXxX=X#XS H 9 9 9 5 1 1 1 1 7 r a 6 & % 4 0 # . > 0 t.t.sX-X*X:XcXPX[.|.8.( jXx.l.sX>X}.|.v v : x.V.*X2.3.+ = ( x.V.jXxXjX*X6XkXMX=X@XrXe.O.X @ X w 4 f f 2 h d e 7 7 < $ @ @ @ o # ) +.wXkXwXJXMX[.V.[.jXxX9.N.v > 3.>X>XS.k.q.A.A.wXeX1XO.X.F D A ~.J.2X5X~.!.J.v.n.n.n.a.a.p.p.p.z.y.M.5.y.M.z.z.6.6.&.&.+.6.p.n.n.W.K.m.U.m.Q.y.0.5.5.I ^ P H +.^ ^ H &.+.C.K.CXOXOX..~ b m b b y S H y.m.oXVX;XjXPXKXV.B.x.cXPXHXcXcXjX:X}.x.W / Z.*XjXx.9.v _ 2.Z.h.xXxXMX=X4XO.I i 9 i u & A 7 r 6 r L g h g f g { 3 * * 2 1 f g p n N 8 ; ; ; - b H N G G g g g f a p g g g s U ..b : l = % o & n D D L F * * * 1 7 s L D r p a 6 - ; ; - - # C v }.*X%X:XiXIXLX).Q W A.).%X[.A.: ' O O l.gX>XS.E.3.c.A.V.V.V.;XoX6XsXoXlX6.O.O. . .I ..! 8XY.bX X XM M ; ; +.I.P.6X3X5.6.+.U.K.Q.#XOX.X$Xv.n.r.r.v.m.!.eX4X4Xy.t.b.t.z.#XOX&.a.I.XXXXmXCX7XmX7X3X+Xn ..O.oX}.c.P G m b q v.n.JXNXVXPX,X/ 2.zX;XxXcXsX=X;XcX/ / V Z q.D.|.JXKX~  .@ f f h d d 7 1 7 f f g D < < & ; - ; ; }.x.iXDXxX*X6X;XKX:XvX>XHXHX*Xc.8.) 4.}.PXPXA.9.  4.W cXLXjX0 v W / 4.2.c.;XIX;XMX4Xy.y.#.o.w f f h d 7 d f d 7 7 q 7 6 6 @ o +.4XMXxXxXIXZ.|.HXLX}.[.O : v >X:XDX9.8.8.4.jXLXMXXXXX5.G G r.e.yXyX^.I n v.r.3XL.L.K.OXXXXX1XL.!.",
"~ 4X7XkXkXVXp.8.C W ,X|.jXVXPXoX[.|.v : : v x.jX;X&X6X~ ~ 9 - & 5 7 1 1 < < < < & 4 - 8 o ; x b.b.6X}.sXxX6XHXPXl.2.9.vXPX[.-XP.>X*X:X:X2.9.8.*XV.jX( ) ) / x.jX*X:X*XsX;XjXZ.Z.Z.Z.6XeXNXa.u.@ i 5 a q < f d j g 7 < < 4 - & % % ) ) -X-X-XMXkXl.p.*X>XxXW (     ,.>X|.q.q.q.|.|.vXeX4X*.=.L F D ^.J.2XrX<XXX~.5X5X5X5XrXrXrXrXrX4X$XnX.X4X4XOX8XeXeXCXnXeX4XeX1X3XtX4X$X#XOX5X$X$X4XnX#XnXCXeX8X8X.XOXeXXXBXKXH.^ 5.H m m H m 8 b p.y.VXVXPXwXlXPXZ.x.R V }.PX>X[.V.l.Z.*XvXPXxX>X:X*XvX3.3.8.}.A.PXLXsX6XJXH t % ; S 9 u 5 5 q 7 f < 1 L g g g k g h 3 2 r < 1 f g g G P b ' y : > Z C b M C N M N N b b N N s p ^ ^ ' : c = - # 6 D D D g a 7 r r g f r f 7 r f D A i 5 6 6 9 = .   V W jXAXiXiXAXLXx.c.) Q }.|.HX9.x.9.8.*X:XgXGXPXgX].|.V.Z.`.A.|.&XxXsX=X#X5.O.&.*.n b A O.@.7XmXNXH.I.G m M K.C.z.y.; ; t +.+.+.n.U.m.p.$XmX7XW.!.$X XH.P H - b n.K.Q.n.K.H I I G S ~ I  .*.e.v.v.n ! ! oX*Xb.~ ~ S m q r.y.BXeXlXIX].V E %X%XdXFXFXDXLXHX_ E Z Z 3.9.{.NXKX! ..X w < 1 2 e d j h g f a < $ $ q 9 6 - - v v A.cXvXxXxX|.PXvXPXPXjXcXP.&X;XsXvX>XcXHX}.Z.P Z.z.KXLXA.= > / 3.8.7.xX;X;XLXdXy.m i p K * < 3 e e f [ [ g 7 7 f q 6 4 X @ O.MXLXDXSXcX9.0.Z.V.Z.[.2.}.|.HXUX>X) / 3.3.;XxXkX XOX5.S A d.u.yXyX^.U D L.L.BX3XXXH.v.5...! i i ",
"~ 6XeXwXwXcXp.8._ / Z.A.*XxXDX-X*XQ.' B : v N.).;X&XdX^ ~ 4 # @ u r 5 1 & & < & & 6 0 ; X x x B.h.&XsX[.-XcXPXPXx.9.2.:XHX*X{.}.:XqXxXxX3.l.8.[.*XQ.W V / E x.cXAXjX%XzX;X:Xl.x.[.Z.@X4XOXn.n.X 5 5 4 4 < d 7 g f 7 < 4 5 - # # - +.^ #X=X-XJXVXZ.V.:XjXxX/ E   . _ [.>Xf.f.q.A.|.jX6X4X*.*.F g Y G.v.<X5X1X2X1X5X5X5XrXrXrXrXrX7XtX7XmXOX3X1X1XtXmX$XnX3XeX8X4X4X3XtX3X1X4X1XeX1X4X4XtX1X4XmX1X4X7X X3XnXmXBX7X7X..~ S b 0 b b M N r.y.VXrXVX-XwXPXV.l.W Z zXAXPXA.Z.9.8.jXPXHXcXPXvX}.*X4./ 3.*X).:XcX&XlXkXN G % # u a & 4 D f g g < < g F F h g h f 2 d f * 3 d g g Y I M y v ' : Z B v B B b Z Z v v v Z b N M Q P : l c = = & 5 G D F f r 7 f f h g f f r f p a a 5 4 4 8 9 ;   # Z v |.cXzXsXzXIXc.N.V W AX;XHXl.8.9.x.*XgXIXPXPXcX].|.N.V.A.B.|.`.;XMX6XI.5.O...5.G K K  . .<X9XBXI. XN R v K.oXn.y.v ; - ~ &.+.p.U.$XK.!.mXNX~.!.1XW.r.N ^ 0 ; p.b.P.W.I.I N n H ~ ! G 5.y.v.H.n.J ! G @X@Xb.Q Q n b q r.r.kX7XcXHXE./ E |.sXLXcXxXDXjX:X( W c v 3.0.oXKXKX~ U X w 7 7 e e d h F h f 7 g & X & 6 9 % = = = A.PXHXjX>X>XcXPXPXPXsX*X0.>XsX*X[.|.HXPX>X@X( b.{.KXPXc.: > 8.8.h.8.iXxXLXxXMX5.n q K f < 3 3 e d j F F f 7 q r 7 & $ . X +.xXzXsXIXPXc.k.,X}.oXl.2.|.>X:XDX,XW _ 9.l.vXHXJXI.+X5.S A s.s.yXyX~.U I J.L.XXJ.~.v.a.&.! G 9 9 ",
"^ 7X4X=X-XVXS.x.3.2.[.[.A.x.B.cXUX}.%.9.> Z ).zX*X|.&XC m # X X X @ & 6 5 5 < * X . X . : z.B.LXPX&X6XxXPXcX|.[.V x.].PX:X>Xv B 3.8.jXVX[.Z.[.:X>Xl.2.8.A.A.>X%XiXAXHXPX[.A.3.V.l.c.=X6X#X3X3Xu.$ 6 $ 6 q 7 < 7 < < < 6 6 ; - - # ^ ^ #X-XwXPXLX( 3.x.,X].0.c.D.l.A.|.>X,.1.1.].[.wXwXrXw.*.U L Y *.X.r.r.r.p.r.a.p.p.p.a.p.p.p.a.m.G.U.H.I.L.XXG.L.H. X!. X8X~.!.I.XX X XOX+X1XXX3X<X5X1XXX7XOXOX7X4X1XOXW..XU...n t M M m i P p.p.eXwXnXoXeXKXPXx.Z v _ 2.jX).|.v v +   l.jX>XZ.*X9.2.2.8.9.Z.;XDXHXPX=XoXQ ; # 8 9 4 D U A 4 r g g h h g h k d 2 g r g f g $ $ r g g D P N y l c : v Z c Z v ' c c : : c c ' y y y t = > > = % u a D D D r 7 7 f r r r r g F D g r 5 5 u u t 8 b = > O O T iXzXIXiXzX%XzXZ.[.9.N.xXHXPXHXvXcX>X,Xk.k.gXPXvX0.q.,.Z.%X`.`.;XoXNX1XY.5.w.!  .J A A @.<XBXNXBXI.n.~ ^ Q v M M M H 0 8 P &.P ^ ^ O.p.a.&...+.^ I ~ 0 8 M ~ y.b.S I H ! ..H G S H 9 9 9 q A n 5.e.*X@Xc.H H b q 9 n.n.BXbXJXVX,XS.c.AXAX&X4.7.}.|.GX].S.E ` 3.4.*XKXJX! U & f h f d e d h f g g r * * 4 A A ; # # o   E ;XzXjX*XvXPXHXvXjX/ <.sXPXHX:X>XZ.DX6X:XKX-XlXKXkXP.3.) 4.c.c.sX6XAXLXcX( ) # & w J F d $ 3 e j j h K K K 7 7 w * * X X ) LXxXiXSX>XT Z 8.9.;XHXHXHXDXcXPXV.B ` 3.8.;XcXMXI.L.&.G J d.i.yXyX/. . .*.O.! H n n n n i i 6 ; ",
"+.kX4X@X-XPX|.|.Q.E.IXjX( O   E E }.,X}.Z E q.*X;X&X:XR C # o # X X X . . X X X . . b v b.LX&X;X;X&XLXxXsX6Xx.l.3.jX|.vXcX8.O   W V xX>X*X/ W V B 8.8.9.>XjX>XIXcXiX*XAXiX:XW C ) _ z.V.Q.kXI.bX5.5.& @ @ X X * < 7 u 4 $ o X X   P Q @X6XwXJXcX8.&.E S.V.>X[.*X,X|.].|.: > Z ,X%XVXJXZXs.i.=.=. .O.P ..I I I P P P I I ! ! ~ ! ~  .I G ~ I S J I I ! I J A O.G J G ! ! ! ..! ..I ..! ....! O.....~ ! ^ O.! +.P t ^ n i t S H r.tXtXeX#XwXKXnXZ.V.8.iXjXDX%XiX%XZ.W / v Z [.V.jXE E v 3.8.V.).cXDXiX:X&XC Q o ; ; G 9 5 5 f u f D f 6 g g r g g * $ r 1 L s a $ $ r g g D G b t ' v ' v v ' v c > > > > > > : : : ; % : = = , > & D D D a a * * r f r 7 2 3 2 r 5 u q 5 p A u & & 8 - - = :   W Q >XzXIXAXHXIXIX[.Z.V.Z.*X*X|.jXZ B   . / HXHXN.V.B 8.3.h.c.|.{.3X!.7XOX8X@.....J #.4 5.O.8X+XmXNXeXOXkXkX6XCX6X7X6X4X.X#X$XmX1X+XrXtX5X$X~.OXbX7XbX7X4XU.OX.X{.!.W.L.J.a.L.n.v.L.L.L.L.L.v.<X X-X*Xz.H S b q q n.n.BXbXHXlX*X:X,XPXIXc..   v v :X,X,X_ W q.3.zXbXmX@.@.a g f 2 2 2 ] | g d g a D q q 6 q @ X o O = V.MX*XvXxXPXzXjX<.( W ) xXjXjX( E O [.Z.MXDX{.9.4.Q W 3.x.l.;X&X:X;XLXcXiXZ.C.- $ X q f [ e e [ $.[ [ g f f w 7 7 w q % # +.LXDXHXPXSXW ,.gX:XcXcX>X[.*X>X*X|._ ) 8.8.-XMXJXW.H.O.U ! u.e.mXyXtXs.G.u.r.w.y.r.r.r.r.y.e.e.w.",
"6.@X-X-X@XKX|.}.}.|.AXzX2.  O E V vXA.}.V v l.}.iX*X:XV C O O # X X . X X X X .     0 v A.sXsX&X*XHXjXPX*X:Xx.l.8.}.[.cXcXl.O   E T >XAX*XQ 2.Z T ( 9.9.jXvX;XcXzX%XzXAXzX*X_ Q W Q V.}.A.&X*X-X6.&.# # . X X - 6 9 9 4 % o X X . B E :XwXwXHXVX3.&.Q x.[.,X@X,X[.[.[.].c > B ,X|.HXMXZXs.d.o.=.X.! ! ....U I I I I I I I ! ! ! ! ! I J ! I G J G U ! I G J ! ! G J I I U ....! U ! O.O. ...X.....^ ! ! ^ ^ ! ! i S n n ; I G r.tXtXtX$XeXCXPXC.V.0.UXcX:XcX%X%XZ./ W v B V.%XiXQ _ : 0.8.Z.).SXAXzX;X[.H C - ; - D n 6 u p r a A a f A f A D A * $ u 6 P p p @ @ 7 g f D D s 8 y t t t y y t v > : > = = > > = : : = % ; % # ; < L g a f p @ # 6 n a 5 7 $ d f i 9 9 5 5 f a < * 7 & & t # o H W :X:XcXxXLXHXHXZ.V.x.Z.*X*X*X:Xv E     8.gXjX[.V.V 4.8.N.B.V.*XwXoX#XeX.X&.! O.I ..& X.w.~./.yX5XnX7X=XnXmXeXbX4XeX7X$XXX4XeXeX$X1X7XtX1X~.XXeXtX7XeX5X.XW. X!.K.U.W.W.v.v.m.v.U.H.U.I.I.I.I.{.=X-Xn.H H m q q j.v.BXeXVXVX*X}.;XcXPXV.. . Z v iX}.,X_ E 9.3.6XMXtX@.@.f 7 j e 2 2 [ [ 7 d L a p a p 6 6 % o o % = [.:XcX:XzXLX:XjX( ( ) W HXxXjXW _ > b.*XzXHXE.9.2.W 2.( x.x.;X%XiX*XAXHXAXB.b.; X X q 7 [ 7 e [ $.] h j d g 7 q 6 i 9 - % +.MXKXPXHXjX/ / gX>XxXPX;X|.A.lX}.Q./ +.3.4.=XkXJXI.H...I I e.w.mXNX<XJ.s.a.a.d.6.r.y.y.y.y.y.y.y.",
"E.lXwXkX-XHXQ.[.%X[.IXPXV., , v B Z.l.V.E W x.jXjX:XvX3.9.2.8.p.&.&.&.4.5.4.4.4.z.9.{.}.xX&X&XDXLXPXPX*XA.|.:XxXvX*X[.cXvX[.B W 9.V.|.).iXZ : 3.1.V.zXiXgX;X>XN.).x : Z.PXSX0.f.v l ) 0.8.[.%XjX@X4Xb.z.b % # - - ; 4 - # @ # # O P / wXjXwXlXwXM.Z.b.-X@XQ.E.Q.*XV.D.l.V ` _ [.).xXkXeXd.i.} X...!  .....! ! ! ! ~ ! ! ! ^ ......O.#. ... .! !  ..... . ...X...! !  .!  .X...!  . .O...U U ! Y I P P G S M M M n n i S H a.v.tX4X4XZXnXKX{.M.V E xXzXqXAXgXgXzXAXiXHX;X|.iX;X>XB ) / A.V.zXiXzX;X:XE W = o 8 - ; Y G i p g p D p q 7 5 4 u G J # & M b H ; - . X 3 f g Y Y P M b b b b b s b M i n b y y i s y ; y : ; ; & & 5 1 h g D f 5 X X ; S A D F * 7 7 - : b n n A a 3 * a 5 # 6 N ; X o _ ( xXvXvX[.-XKXPX8.C v [.&XcX) 2.' : D.*X*X>XvX*Xl.l.l.9.|.c.x.jXlXwX4XQ.5.*.I ! U 5 6 w.o.J.!.XXL.H..X.XL.K.XX4X4XXX.X1X4X1X8XXX X1X8X5X3X8X!..X7XBX8X3X8X4XuX5XrXuXrXrXyXtXtX7X7XkXdX3XOXOX*X=Xn.H H m x x r.j.BXkXwXwXqXvXjXHXIX;X_ / 3._ jXA.).W T 8.3.zXJXNXw.w.K 7 2 * 3 3 h [ F L L 6 9 q 9 6 ; X - % K.b.DXxXjXHXIXHXx.c.}.*X*XjX:XzXPX_ ( O |.}.PXcXV.= > 3.3.q.zXvXIXvXIXGXAX>XzXcXPXn.8 & 6 1 [ d e ] [ h j d f a $ $ X # # @ # +.PXMX6XjXPXN.l.zXcX:X:Xv v : oX@XbXP.C.5.) kXPXNXG.H.O.I ! s.a.mXZXuXtXtXrXyXmXyXeXtXBXmXNXnXeX4X",
"@XlXqXwX-XHXZ.Q.|.).PXAXN., , l E x.x.x.W E l.vXvXjX:XD.9.3.8.9.&.4.6.6.5.4.4.4.9.t.[.&X>X`.&XPXcXHXPX,X[.A.HXPX*X}.:XPXvX:XB B V.V.|.>X*XB : ( W x.xXVX*XjXPX0.c.c : |.LXcXx.f.= v q.S.l.[.[.iX-X}.z.z.v ; ; - # = - = # # # - = E / @X:XwXHXcXc.Z.E.=X|.[.|.}.[.Z.V.x.E E _ V.).6X4X4Xd.e.} } ! ! ! ! ! I I ! I I ! ! ! ~ ! ! ..O. .! #.! I U ........O.@.@.O.J J J I !  .! I .. .....!  ...I P P I H n i b b i t 8 N P p.n.1X#X#XCXCXCXC.z._ V PX,X:XSXgX>XgXjXiXgX*X>X;XiXiX_ W 3.).).iXiXAXDXcXv Z = o t - ; P P a p p p F a a f u 6 i G I # & H H M % % X X * g p P D P N b N M N N b N N 5 r y 6 6 y y 6 y s u 6 6 - ; u d g g L u &     - N 9 A A $ f a - > 0 t 5 5 5 < 6 6 6 6 i H :     W <.vX>XxX}.;XPXPX8.v Z jXoX*Xl.( Z v x.:X|.*X>X:X8.V.l.9.|.A.t.HXjX-X-X#X&.O.O.G X.u 5 U F /.~..XL.W.1X4XXX~.!.$X1XXX.X$X$XXX8X~.L.~.1X5X1X1XL.!.5XtX5X5X7X1XrX2X2X2X2XrXyXtXtXeXeXBXBX7X3X=XP.Q.r.H G m m x j.r.NXNXeXwXwX-XjXPXPX*X/ E ,.8.HXZ.}.) B ( 4.HXBXNXw.r.F f 7 3 3 2 g g g D D p 5 i i 6 &   ; o 0.P.LXPX:XcXPXIXA.9.jX6X*XPX*XPXPX/ ) O Z.|.PXPX0.O = 9.2.x.PXiXiXzXIXIXAX>XiXPXDXC.# & & 7 F 7 d h [ [ h h F f @ $ @ & - # # &.JXlXvXjXzXx.S.jXjXcX:XB 0 0 Z.Q.wXP.b.+.Q 6XKXeXG.H...G I v.J.mX9X0XuXyXuXyXmXmXtXtXmXZXCXNXBX7X",
".XwX@XwXqXHXA.Z.q.8.xXzXzXl.).>Xl.[.3.%.Z v 8.*X*X>X:X:X:XjXjXcX@X-XwXwXwX-X-X-X{.;X:X;XzXIXDXHXPX9.2.2.>X:XHX[.Z.l.8.}.[.HXA.[.xX[.*X|.8.2.9.x.Z.jXvXxX}.>XvXE Z v V }.%XjXiX>X,XN.8.( 2.).l.l.HXkX=XMX@X=X{.C.I.`.'.I.K.K.I.{.t.E.b.kXwXwXcXjX=X-X@X@X*X-X-X@X@X[.[.,XA.|.A.[.}.jX6X4Xm.v.d.d.p.p.p.p.r.y.y.y.y.y.y.y.y.r.r.r.5.w.5.*.5.5.O.&.! ! ! !  .....! ........&.&.&.+.I I ! ! I ! ! P P Q ~ P C N M C M P ~ 0.M.4X4XCXCXnXKXKXC.0 0 +.2.[.,X}.B B _ pX>XvXzX>X>XN.l.q.3.,.|.SXvXGX:X}.B v + O O > % ; % : ; % & & - 6 - 6 6 % @ & 8 6 - - M M t o % % o $ 5 5 D G I N b b M N i p n n f h D g g D F D p A p p u u u f g g D L 4 & % = o 0 # u i $ D F ; ; 0 0 8 q p a f 6 6 n S b : > : + . 2.cXzXcXPX:XxXxX3.3.9.A.PX}.xXPXjX*X[.>XPX:XcXcXHX[.A./ ( l.}.A.wXlXCXQ.1X&...U *.*.f 5 U I I I ! ..+...! ..O.&.O.+.O.O.O.*.O.O.O.O...O.&.O.O.&.*.O.&.*.O.*.X.=.=...X.*.&...^ ..+.O.+.+.^ &.4.+.m H n n b v.y.BXVXVXVX@X3._ ).|.cXHXHXzXjXjXW E : C D.9.sXbXNX5.e.A f f d d F g r f g p p S n - # @ b U.P.PXJX;XcXPXHX;X3.;X*XcXPX}.*X[.HXDXP.*XA.HXDX*X}.2.3.2.V.x.qXcXiXIXPXAXjXzXzX>XiX;XLXt.a.a 5 7 f d 7 f F f f g u i n 9 n b ; - 6.4XkXPXHXzXV.|.PXvX[.Q.= P b kX6X-X9.6.0.6.6XKXKXY.L.O.I ! e.d.~.<X~.<X<X~.~.~.~.~.+X+X~.~.+XXX<X",
"@XwX-XlXjXHXV.S.V T V.[.HXAXAXiXzX}.: : : : x.*X>X>X>XcXjX>X*X*X@X@X=X-X-X*X*X*X:XcX;X&XSXPXAX|.|./ E 8.cX:XjX:X> O O }.>X*Xx.Z.2.8.8.2.0.S.l.*X*XxX}.jXVXPXPXA.;XS.D.GX[.Z.S.A.gXjX>X4./ 1.1.c.A.}.}.;X-XsX=XMXdX6X4X6X6X6X4X;XcXLX:XUXwX*X:X*XcXvXwX*X:XjXjX-X:X-XvXGXjXGXiX>X;XjX:XwX.X2X2XuX2X4X4X4X#X1X#X#X#X#X#X#X#X#X#X#X4XeX4X4X7X5X3X4X4X7X7X4X4X4X4X4X4X#XOX$X#XXX XW.$X.XOX.XW.W.W.C.C.Z.P.K.C.M.b.b.z.Q.}.kXkXwX=XwXkXPX{.b.y.HXLX;XHXN.0.3.  + , A.A.%X].q.1.` 1.4.].[.vX].].PXPX}.D.9.D.3.3.8.C ~ P I P H Y ! I Y ! P n 6 - t P P P C _ W C - : 8 6 & 6 8 M G P 8 b M S N p p A g r d d d f g g g L F F F D D D D D D D p X X o o   - % S G 4 A A     # ; 8 9 9 4 4 9 ; - 0 : = > # O = . 2.7.HX*XxX*XPX*XHX8.3.V.xXxX>X>XjXx.3.= = 3.xX:XV.}.: > 7.&.( [.Q.eX4XCXXX5X..O.U U  .U ! ! ^ ^ ! I I P G P P G H G I I ! !  .! I G G ! I G G J I  ...I U U ! U G D I I H H S M M M b v y b M 0 N m S n u.y.bXeXVXKXE.C W %X*XHXIXcXAXHXHX8.8.V B 3.8.cX7XfX....& < w 7 f f 6 < f p & X X o X ; 4 U.NXJX=X-XcXHXjX,.8.4.HXcXoX*X_ W 3.xXMXcXxX;X}.>XB.A.) x.9.*X:XDX>XLXcXjXc.f.l.%X].%XiXHX=XnXr.r.r r q 3 1 g f 7 u p S S 4 - % X o 7.JXVXPXvX}.( / 8.l.Z.S.A.[.-XMXlXP.Q P 9.t.{.6XnX!.L.e.w.5.*...*.*.o.O.O.X.X.X. .X.O.@... ...*.e.",
"Z.qX-XlXjXLXV.x.V E N.).;XAXSXcXjX:Xv B : : V.*X*X|.}.cXxX>XjX:X-X-X=X-X>X>X>X;X*X;X&XiXPXHXSX>Xx.) W l.HX:X[.Z.> = + }.*X|.l.l.9.l.3.W 9.S.9.vX>XHX>XxXHXcXxX*X,XS.c.HX,X>Xx.V.jX>X,X) 1.W ) Z.|.-X;X}.;X:X*XPXjXsX6X6XsXjXsX:X*XwX>XjXwX>XjX>X}.}.jX*X:XqXjXxX:XvXPXDX%X,X%X>X:X:X-X-X$X4XrXyX-X4X-X-X4XwXeXrX4X4X4X4X4X4X4X4X4X4X4X3X7X7X3X4X4XrX7X4X#X#X4X3X4X=X=X=X=X#XOX.XoXOX#XoX{.{.{.Z.Z.Z.P.Q.P.Z.A.V.c.Q.}.lXcX:XjXMXPXPXC.P.t.}.*XDX*X;Xh.q.O   > ,X>X*X>X3.( Q ,./ [.%XgX>X>XGXjXA.3.0.8.q.2.%./ ) ^ P H H P ~ Y P P M b 0 : b C B P V Q W C ' ' y 8 & ; i N ~ I t b M S n p f A f d d j j j g g F L D D D D D F p f D D n @ % % O . - - M n 9 5 4 . . # 0 t 9 9 ; 5 i ; % 0 0 = = x   +   8.) HXvXcXcXKXzX&X3.t.[.>X>X*X:XjXx.l.O O 9.jXvX[.Z.v : 0.3.0.Z.x.4XVXnXm.1Xw.O.I @. .I ! ! ^ ..G S G G I I P G H G I ! ..! ! ! U I I I G G G I ! ....J G Y ! ! G D Y I I I H S m b 0 0 y t M t M m S i e.y.nXrXlXKXQ./ E [.[.zXAXHXPXzXvXq.4.v V 9.0.jXFXJXO.@.& 4 4 w q A a 5 n p & o X o X t t #X4XkX6XwXPXPXHX,.3.3.xXxXHXHXE V V 6X;XxXPX*X*X|.b.9.3.x.l.qX:XHXzXcXIXjXl.S.f.[.).zX}.xXPXKXn.r.6 & w $ * a A u u A A H ; - - o o t.MXxXHXHXjX4.( S.l.C.|.[.lX@XkXwXb.P C p.b.=XJXKXL.J.e.u.r.*.X.@.*.X.{  .{ X.X. .U  .X.X. . .@.-.",
"p.@X@XwX:XLXA.V.x.x.;X|.8.8.q.[.[.cX3.8.v v 9.:XjX*X>XPXHX>XcXvXvXlXvXvXjXjXvXAXHXHXAXHXPX).).N.|.vXjXA.>X}.vXPXv B : [.[.jXx.8.> = W 3.V.*X|.:X@XvXjXHX:X-X}.*X|.|.[.qX9.q.= , D.S.PXV.l.O O 1.[.}.cXxXDXDX>X;XzXjXsXsXsXsXzXcX>XvXvXcXxXjXvX:XjX>XPXjXlXqX:XxXDX*X;X;XzXIXvXiXgX:X=X@X@X$X$X$X#X-X@X@X-XeXwX-X-X-X6X4X6X4X6X4X6XeX6X4XkXeX6XrXkXeX6X=X=X4X6X4X-X-X6XjXjX6X6XkX*X=XwXwX-X6XjX:XlXcXHXcXxXlXcXHXjXUXjXHXHX:XxXHXb.C.t.`.xXPXMXsXAXPX|.pXN.8.f.GXvXA.x.v B 3.[.[.GXgX}.vXgX:XgXvXGXIXGXIXvXqXHXUXJXlXlXlXrXeXnXnX4X=X4XeX4X6X-XoX*X}.*X:X@X}.}.|.-X{.C.Q.&.&.P y i M n a u f g d d d d d d d d g g p A A i p n y 5 u p I P ^ ^ / E ( ) 4.&.5.! ^ H Z V ^ ^ ~ ^ ^ ^ H M C C B v v : Z Q = V B }.Z.>XjX*XHXDX6X|.2.9.8.[.[.A.9.x.: : x.*X:X}.V.V / P 4.0.7.3.}.bX4XCXnXL.*..... .5.&...O.&...^ O...........^ ..O.*.&.&.O.........+.^ ^ +.O.+.*.&.! ....*.*.....O.O.! ....! G H S n H C P M S n S t e.a.bXeXnXVX@Xb.V.PXHXA.v : 8.x.HX*X;X/ C 4.3.AXdX6XM H . X X X X & 4 $ o X X X . ; 0 m.I.PXeX6XPXMX6X[.*XV.[.Z.HXvXjX}.= = 0 cXcXHXxX) / W 3.2.x.>X>XHXgXPXIXgXPXIXZ.).,.l.0.N.).|.*XzXkXKXr.4 $ X X & i u 9 i @ - X o #     5.cXcXHXHX>XE B S.V.wX|.wX@X-XQ.|.) t v 5.0.OXKXCXK.J.w.w.w.*.e.e.e.*.O.O.X.o.=.X.X.X.X.X.#.o.*.-.",
"9.@X-XqX*XLXZ.V.V.c.}.*Xq.3.,.}.|.cXl.l.v B 3.:X>X|.:XPXPX:XPXcXxXcXUXvXiXiXSXIXzXAXIXSXPXA.[.V.x.HXPXl.>X:XvXjXB Z : Z.[.gX3.8.> = ) &.c.*X:XjXjXlXLXPX*X>X}.}.}.[.|.gXl.9., > S.D.vXS.E.+ + 2.*X[.AXzX>XjXzXzXzXxXxXiX;X>XzXDX*X>XjXjXjX:XvXjXxX}.xX>XcXvXjXcXcX;XvXjXjXcXjXiX>X*X-X-XqX@X@X.XwX-X*X@X:XkXwX=X:XqX:XqX:X:X:X-X6XwX6X-XwXwX-X4XlXwX-X@X-XwXwX-X6X:XjXlXjX:X:XjX*X-XzXlX:XjXcXvXjXxXHXcXvXvXHXPXzXcX*XvXLXvXPXLXP.A.c.V.cXsXDXDXsXSX>XzX).N.k.zXvXZ.|.B v 4.[.[.:XcX,XHXUXqX>XqXGXgXIXHXvXUXVXUXVXUXVXVXwX-XlXCX6X*X=X6X;X*X*XoX*X}.,X*X[.}.*X*X}.|.Q.@X( %.V v i M S a u f g f d d d d r r a g g p S M y i N 8 p 8 8 ~ ^ ( W / E ) +.&.+.6.Q ~ V Z V / _ W ~ / ) G Q C : Z E l v Z v : Z C B.Z.jXHXsXDXjX>XjX) 8.) *X}.[.l.8.> = l.vX[.[.|.V E B 9.x.&.3.Q.wXkXnXmXL.5.6.I O.O.*...O.*.....O...............O.*.O.&.&...! I ..O.! ..O.+...O.*.......O.O.....+...! O.O...I H H M P C P N M N H m y.r.4XwXVXkX{.[.A.PXAXZ.v v 9.0.vX}.|.E T 9.3.jXLXxXm S . o X X X # & # @ # o .   ; 8 Q.6XeX6XwXLXPXcX[.[.*X|.V.cXLX6XjX= + : >X:XPXHX) V V 2.3.l.qXgXIXDXvX:XcXLXPX).N.T S.V.S.N.,XjXvXMXKXm.o o $ o # i M i t # - . . o   . t.cXxXxXcX:X` B E.V.wX-X=XwX-X|.V.~ t m y.p.@XKXKXm.L.r.w.5.*.e.=.5.@.X.X. .X.o.X.*.X. .{ X.o.*.*.",
"_ :XvXlXqXHXZ.A.|.>XjXcX9..   Z v PX[.V.W ) 8.|.[.HXvXjXvX9.&.W V V _ 8.f.f.0.( ,._ q.f.,.x.0.zXxX,X*XvX*X[.vXxXx.[.Z.*XxX|.E W 2.+.P.b.wX6X:XHXlXoX-XMXzX-X0.C B HX*XvX/ / +   4.4.qX>X>X) 2.E 9.4.A.A.%X).A.[.).[.}.%XzX|.;X|.zX>XvX*X:X*XxXvX:XvXxX:X:XjX>X>X*XjXiXjX%XAXxX;XvX*X}.-XqXqXqX-XlXkXVX*XlXjXwXqXHXlXwXIX-X:XwXHXVXVXwXJXwXlXlXjXHXVXVXMXVXcXcXlXHXcXiXPXcXHXcXIXIXPXcXPXcXqX>XAXPX,X;XiX;XiXgXgXzX>XgXvXLXzXvXx.: : P.B.jX|.|.v Z c.;XsXSXzXiX%X|.3.4.3.1.,XgX:XvXvX>XqX>XcX:XHXqX>XqX-XqXvX-X-XcX}.-XPX@X@X-X-XxX:XsXjXjXvXxX:XiX>X:X>XPXUXvXqXgXUXHXIX3.7.: = - % @ @ * @ 7 1 2 2 $ $ < < 6 o o . % O . O O + o b M kX6XwXzXvXAXxXzXJXPXlX=X-XAXAXHXHXxXzXMXlXlXVXcXjXcXHXGXHXPXvXPXxX6X*XPXPXvXzXxXjXHX*X*XxX}.:X:XVX*X:X>XHXcX*XUX>XjX:X*X*X*X-X@XQ.}.lXVXwXeXrXbX1X7XOX5X3XtXL.7XXX1X$X1X$XXX4X8X+XI.W..XXX$X5X4X.X.X1X1XW..X.X.X.XXXXX.X!..XK.W.L.$X!.XXXXI.H.v.#X X!.m.W.m.C.Q.6.p.z.p.m.{.$X6X6XKXKX@X@X|.IXPXA..   V Z LX|.|.T / 3.3.IXiXdX8.h.+.+.5.@.@.5.5.5.5.4.5.b.z.eX{.PXkX-XPXJXjX6XV.;XvXPXPXZ.vX*XHXcX9.9.V.zX>XxX:XH 8.3.x.x.>XIXvXqX,XV _ W iXiXHXAX1.Z Z V.%Xc.%X|.vX}.MXn.I.t 8 H b y t t 8 0 - 0 v v H V.cXVXcXcXjX[.[.HXVXqXqX|.p.x.|.Q.[.9.3.x.z.kXKXbXeX4XH.L.L.a.a.w.e.u.w.e.J.G.e.e.e.e.e.e.e.r.i.e.",
"/ :XjXjX-XHX[.[.|.[.>XxX9.    V B xXV.V.W W 9.*X}.vX:XvXxX9.) / W W ) 0.9.8.8./ 4._ 8.q.,.f.f.cXzX:XHX}.>X*XHX*X[.V.Z.xXIXE.E E 2.4.M.M.6XkX6X-XlX=XlX-X=XwXt.C V GX*X:X2./     8.3.,X>X*X8.) E f.q.).c.%X[.>X[.%X|.%X[.>X%X>X%XcX:X[.xX>XvX*XvXHXxX[.cXcX*XxX[.iXHXjX*XiXsXiXAXvX:X,X-XkXwXqXqXlXlXvX>X:X-XjX:XVXHXIXHX*X,XqXUXPXcXcXHXvXlXjXjXlXcXcXLXVXUXcXHXIXAXvXPXvXHXAXcXcXcXzXHXcXxXzXjXgX>X*XvXgXAXAX>XIX>XiXAXvXvXPXc.: x x.V.sX`.|.B v 4.sXsXiXDXIXZ.).l.9.D.8.|.*X,X:XgX>XvX:XjX:XqX*X}.qXqXjXUXqX-X*XvXjX*X:X*X|.@XjXiXsX>X*X>XcXHX*XgX:XgXjXHXDXGX:XgXcXIXl.l.: > ; % @ $ $ @ 1 1 2 3 $ $ & < 6 % % O % , O O + . + P P -X6X6XvX*XxXHXLXcXjXkXzXzXvXzXxXHXzXcXcXkXjXcXvXjXcXAXcXAXcXxXPXHXxXjXPXcXxXMXxX:XjX*X:XKX}.*X*XjX*X:X:XcXcX>XvX:XxX:X*XZ.lXwX@XQ.P.:XVXlXkXlXMX4X4XOX=X3X7XQ.4X3X7X4X4X.X#X1X6XOXOXW. X!.I.$X#X.X#XeX4XK.#X.X$X#X.XQ.W.$XXXK.I.L.4XOX$X X$XU.M.K..XW.W.W.K.U.Q.p.t.b.n.m.kXrX6X4XcXVXwX:X*XPXjX9.    Z T cX}.*XE B 3.q.sXFXFXh.h./ +.5.5.5.4.4.5.6.5.5.t.b.=X6XlXcXcXPXKXcX;X[.>X:XvXLX|.*X:XPXHXl.0.Z.vXHX[.|.2.8.<.V.l.qXUXcX*X>XZ ) ) zXiXHXAX,.v B ].N.A.%XV.jX*X6X-Xm.M 0 v 0 v b v 8 0 - 0 x m V 8.cXcX:X>XjX*X[.,XqX-X:X@XA.Z.}.[.C.9.0.C.M.wXVXkX7X1XH.U.H.a.v.s.a.s.e.e.s.a.e.u.e.r.r.r.r.e.e.e.",
"2.vXxXvXjXPX,X*X[.[.HXjXA.V V E ) >Xx.Z.E V 9.*X>X:X:XHXPX}.x.V.W ) 8.|.}.].[.8.: v 9.x.Z.|.[.IXHX[.x.: W ( vX:XUXl.l.x.l.3.2.2.z.{.;X@X=X{.;X}.Z.6XzX-X6XzX}.W W l.V.:XA.E.( 8.|.E.jX|.@XHXjXxX( 4.B.N.Z.f.8.v Z W c.V.|.].N.f.: T E l.l.x.) 2.: v V c.x.9.l.V v Z 2.0.`.c.9.W Q W / 8.V.x.8.0.V %.0.|.|.Z.Z.0.` Q 2.3.D.x.V.8.3./ 9.l.A.[.Z.|.x.c.l.}.[.[.x.V.[.V.Z.|.S.%X,XZ.>X|.%X[.|.,X*XS.V.c.2.].].>XzXiXGXgXGXPXGXA.S.8.|.|.sX&X).) W   . C }.[.V.N.3.W E &.3.S.A.qXHXIXPXPXlXPXVXIXPXHXPXIXIXcXUXIXvXjXjXPXPXxXPXIXUXHXIXLXIXIXSXcXcXcXUXPXHXHXjXUX:X*XgX>XSXIX,X|.: = O o o @ $ a g F r 7 r r u p i M o O . + O + + , O 0.7.@X:X-XHXjXjX:XjXjX:XjXAXAXzXjX>XcX-XMXvXjXsXjXsXsXxXjXiXxX:X-XzX;X;X-XcX6XoXjXxXDXHXxX:XjXHXHXcXcXjXcXjX:XxXvX:X>XvX>XvX>XjX:XcXcX:X:X:X{.;X6XwXeX=X4X6XbXkX4X4X4X6X#XbX6XkX4XkX4XMXrXMXnXbXbXkXeXeXeX6X-XMX6X3XeXbXeXkXnXCXbXbXkXNXeXeX4XkX4XkX6XJXeXMXeXkXkXKXMXkXJXKXJX4X-X-XkXVXVXjXP.[.IX;XcXV.V.D.,.AX3.q.Q V f.f.xX:XDXxXPXMXLXxXlXFXMXMXMXPXLXMXJXxXkXjX=X6XPX*XxXB E A.PXPX}.;X3.{.[.cXDX;X;XcXLXxXB.x.2.l.x.xXvXHXcXIX*X*X= Z v zXSXcX>X).gXZ.2.q.f.[.).>XsX&XjXPX6XkXwX4XlX6X-X6X6X=X=X=XxXxXLXHXLXxXlXIXPXxXjXqXkXlXjXqXjXcXcXcX-X:XVX-XjXzXwXkXlX4XkXeX4XrX5X5X7X7X9XtXtX9XtX5X5XrXrX5XrXrXtX",
"2.:X>X>X>XLX[.|./ 3.xXjXcX:XxX[.V.|.( 2.= > 9.jX>X*X>XxXPXvX>XxXcXvX*XsX;X:XHX>X%X).cX*X*X}.}.HXcX9.8.. B B ,X:XA.V V v : W [.[.6X-X=X6XlXt.+.% % z.=X6XoXP.PXlXPX8.0.jXHXPX|.x.wX>XqXE V c.9.V.sXxXiXcXsXxXDXA.).;XIXiX%X>X;XvXN.iX>X[.%X;X%X*X9.q.}.%XA.vXjXN.).q.zXDXxX;XJX4.0.x.V.*XPXVX}.,X2.l.D.:X*X>XvX}.3.4.9.D.}.>X|.2.8.W l.l.A.A.l.x.V B Z l.V.|.9.8.: l ( N.x.].V.) : l ( 4.D.x.0.Z Z v l %XGXGXvXzX,XPXGX8.8.l.c.IXcXHXDXIXHX|.;X8.3.[.*XA.l.8.v 3.7.}.}.cXxXjXwX-X( 4.4.A.x.9.l.E ( 4.l.S.E.|.l.3.9.4.8.N.l.l.S.N.l.l.8.l.V.[.A.V.Z.S.V.A.Z.Z.V.c.V.S.,XgXIXPXQ : ; ; - @ @ F g f 7 1 g f s a y C ' v O O , O O v Z cXwXlXcX6XPXPXPX*X;XKXPXLXHXLXPXPXjXHXjXPXPXLXHXLXHXLXPXDXcXKXPXLXLXHXLXLXPXPXPXKXxXxXMXPXHXcXDXHXcXUXHXPXHXvXvXPXxXxXxXjXPXPXlX>XvXHXcXHXPXVXwXzXwXVXjXMXxXJXVXPXVXJXlX=XKXJXVX4X6X=XVXkXJXJXkX6XjXJXMX-XkXPXMXkXwXkXlXzXkXkX6XkXMXcXkX6XkXMXkXMXKXMXMXwXcXzXMX6XkXkX=XkXzX=XMXVXMXVXcXjXQ.W E %X*XPXcXIXHXPX;X: : B C 9.9.cXxXMXxXDX-XcX>XzXcXxX6XsXMXzX6XzXHXHXxXPXPXHX( ( 2.3.jXPXHX) ( . 3.3.vXcXvX;X8.) ( 9.9.9.xXzXMXHXHXjXPXPXPX9.}.*XPXvX%X*X[.IXHX*X%X3.).N.l.V.&XcX}.-XDXzXjXkX=X6XMXMXxX6X;XzXjX}.}.>XjXwXjX:X:XgXqXjXqX>X:XjXvXcXcXwXxXPXMXzXxXzXkXzXzXMXVXnXMXbXkXeXmXNXnXmXNXyXmXnXtXtXtXnXnXmX",
"4.;X%X>XjXPX[.A.2.%.vXvXlX|.*XZ.*X[.W ) = = l.jXjXxXHXjXcX*XvXvX-X6XsXjXcXHXHXcX&X}.cXjX;X>XoXzXcX9.8.  B B }.jX|.V E B v ( [.x.-X{.}.4XVX4.4.; 0 t.wX-X#XQ.VXCXkX0.p.oXlXVX{.Z.-X-XVXP P 6.0.-X;X;X;XDXDXsXxX).B.*XzX:X}.;X>XgX0.*XjX%XzXcX>X|.2.4.>XiX}.IXzXZ.0.2.AXLXsX6XLX4.2.t.c.P.cXcX>XjX( c.l.xXvXjXvX}.( 2.f.9.Z.}.*Xl.4.E l.x.|.}.Z.[.E V B l.V.}.9.0.: ' ) l.x.Z.V._ ' l 4.q.l.V.0.B : C B ;XAXjX;X:XDXPXPX8.0.|.8.DXHXPX:XsXjX[.*Xx.c.}.P.{.c.l.: 3.4.{.Q.6XkX6X-X;X&.4.3.C.C.t.p.C / &.z.V.|.,Xl.3.q.3.3.).f.B.f.f.0.l.q.c.V.[.x.x.V.0.A.Z.}.c.A.x.k.A.gX,XAXPX_ = = # - ; 4 { D D 5 6 D D a y ; i > ' . + O . + V Z lXwXwXVXVXPXKXPXwXjXPXPXLXcXcXPXKXMXPXHXPXPXIXHXPXPXPXPXPXLXPXPXPXPXPXPXPXHXPXPXPXLXMXcXHXLXcXHXcXcXxXHXHXHXxXjXPXxXHXHXxXPXPXHXqXjXHXHXPXPXPXcXMXvXKXMXJXzXcXcXPXMXPXKXcXLXMXLXcXcXjXMXjXcXvXjXjXcXPXHXvXxXIXxXHXPXcXjXjXjXjXvXMXMXcX6X6XjXxXMXKXHXMX:XzXjXzXDX6X6X6X6XlXDX;XjXcXDXvXxXVX`.V W %X*XPXPXPXHXHX;XZ B B v 9.f.xXMXzX6X;X}.jXzXPXAXDXvXsXxXjXsXMXsXcXjXPXPX}.q.3.) 4.*XHXLX3.3.  2.2.PXHXsXvX( 3.2.l.8.9.-XsXHXPXPXjXUXHXPXl.|.%XzXAX,XiX).HXHXcXiX) V.N.[.c.).}.iXjXxX:XjX6XoXjXzXxXxXsXsXMXcX%X:X:XxXHXvX>X:XvXcXHXcXgXjXjXjXxXcXjXcXHXIXcXDXcXLXUXxXjXvXcXlXlXMXbXMXnXeXtXnXtXnXlXeXkXnXnXkXwX",
"4.;X}.;XvXPXZ.V.Z v 9.V.*XcXLXwXxX*X2.3.: > x.*X|.jXcX[.[.3.[.V.jX;X`.( ) 3.3.P.-X*XA.M.4.C.C.zX6X[.xXV V.x.jX[.|.v v Q ) V.cX-XVXkXMX6Xp.% 8 # O = b.z.wXKX{.wX-XVX6Xb.z.t.4.z.VX@XQ.= # = 0 P.JXsX=XP.oXc.`.`.;XcX*X;X|.[.].x.}.iX*X;X>X%XN.V.;X;X*XsX;X|.%XZ.%X>X>X|.}.=XoXh.C.4XlXeXxXsX}.|.*XcX*XvXjX*X>X:X[.}.jXvXAXAXvX[.%X[.AXHXIXLXcXHX*X*X}.IXAXLXcXPXA.V.>XvXDXPXPX,Xx.c.:X*X,X*Xx.3.9.*X}.HXjXvXcXIXLX0.3.= > *X*XPXf.x.0.l.*X*XlX*X:XwXoX}.W 0.4.{.Z.wX=X6X6XkX6XlXQ.}.OXwXkXoX}.4.b.C.oX@X*X,X0./ E Z.N.>X>XpX) / C 8.x.>X|.c.B v / Q S.z.x.C P ' : 2.>X>XIXPXc.Z Z ; 8 G D p 6 7 p f F D D p y y : y > : > = % 3.7.HXjXwXjXwXp.3.0.b.M.x.V.x.f.9.l.z.A.[.P.V.N.9.9.A.[.{.{.P.M.V.c.x.l.V.B.x.l.A.0.l.}.|.[.x.Z.V.[.A.Z.V.Z.V.Z.Z.[.*XV.V.Z.|.Z.Z.Z.Z.Z.[.|.E.V.V.l.c.x.[.{.{.Z.P.V.[.x.V.).[.Z.V.A.[.*X>X*X*X%X}.*X:X*XZ.].>X>X].%X,X,X*XiXjXjX>XiXjX;XjXiXcXzXjX*X:X*XcXvXLX6X;XMXdXdX;X=Xl.8.E l.A.iXsXIXPX%X2.2.;XiX;XZ.Z.;XcXPX,.) W W D.0.cXHXKXKXPXPXHXcXxXcXLXHXcXcXzXzXHXLXPXLX*XcX9.iXcX*X*X:XPXPXV.A.: &XZ.PXzXV.Z.v W ) 4.9.vXzX>XHXxXcXjXHXPXHX].;X}.zXzXW T Z >XzXjXPX_ l > ).[.iXPXPXxXzXxXKXPX6XjXsXjXcXsXHXLXPXIXMX:XvXHXcXvXxXxXvXUXIXGXAXDXIXHXHXcXAXjXAXzXcXxXcXvXDXxXcXHXjX6X6XMXKXKXJXCXBXMXkXlXMXKXPXPXLXVX",
"( }.|.*X:XHXV.x.Z B 9.l.Z.UXcXvXcXjX8.2.> = x.>XjXPXPX[.[.V *X[.6XxX6X) / 6.+.lX=XkXb.Q.~ Z.b.MXcX*X:XE x.Z.*X[.[.` B ) ( V.>X>XMXeX6XlX0.v ; O = = b.p.6XMXQ.MXVXKX=Xz.+.5.t.t.PXlXb.= o ; b =XMXMX&X{.C.C.b.xX}.zXZ.6X}.A.[.x.).%XjXjX>X).V.A.;XzX;X;XiX).A.%X).gX%XsXoX=Xb.I.t.3XJX6X|.}.=X;XV.sXxXvXHX*X*XHX|.&XjXIXxXzXjX:X|.:XHXLXvXHXPXPX*XiXxXIXAXHXPXPXl.V.vXHXPXHXVX@X9.l.qXvX*X|.8.0.3.}.:XgXjXcXvXvXHXV.0.> = HXPX}.x.l.3.) }.jXlX-XjX-X=X@X+.&.0.P.{.4X4X=X#XbX6XMXC.{.kXkXMXoXC.4.t.M.=XwXcXwXt.W R Z.B.%XpX>XW T l 3.N.jX*Xx.v : E E b.z.p.~ P = v 4.*X>XIXGXZ.Z Z 0 b I G 5 a a g g a g g p y - 8 ; y i % % o 0.l.qX-XcXlXKX0.0.5.Q.[.B.).B.q.3.t.z.=XoX=Xb.x.3.3.Z.;X*XoXQ.z.0.t.[.Z.Z.B.A.l.x.x.t.*X[.}.l.[.A.x.x.[.|.}.x.V.[.Z.>X|.[.|.*Xx.V.Z.@X[.A.Q.A.x.[.l.l.).}.*XA.V.A.S.|.|.|.`.}.x.Z.c.*XsXcX}.;X[.].,X>X,X].).,X,X|.gX>X>XgXjX>X>XjX*XjXiXSXiXAXjXjX;X;XjXHXDXcX:X*XoX;XxX=XxXh.h.( l.x.zXxXPXPXV.l.l.;XjX*X[.Z.jX).PX9.8.E ( 8.2.jXcXJXzXHXPXDXPXPXzXIXIXIXPXHXxXMXjXPXPX|.|.l.cXvX}.>X[.PXPXZ.l.: [.[.cXHXZ.`.B ) 3.t.9.sX*X&XHXcXPXUXPX>X>XV.zX*XSXzXZ / T %X*XPXLX) > : [.}.iXcXDXzXHXDXKXPXMXkXjXcXAXsXLXjXcXPXcXjXxXHXvXxXHXxXAXAXPXIXvXGXPXPXcXDXHX;XDXDXPXPXGXGXPXDXcXPXxXcX4XLXLXJXJXbXkXKXVXHXHXHXVXHXLXPX",
"4.iX:XxXcXPX[.|.8.9.lXvXl.2.( Q.A.>XA.[./ C V.}.*XjXjX0.7.+ b.S.[.[.b.O . ; = {.KXKX+.+.  ~ +.wXcX[.*X3.%X}.Z.A.8.( 8.V.l.qXkXwXwX-XM.M.: ; : b v = ; y Z.oX=X.X#X.XCXMXM v C.m.6XPX{.Q H t.4.6XdXxX/ Q O +.W DXcX6XV v + O / 8.zX;XjX/ E l 8.l.zXiX).B v T B A.).;X).`.0 x C b.{.FXMXt.v v E W cXLX;X4.( Z Z 8.;XiX;X}.) Q ( N.A.:X*X[.( ) 4.q.}.*X>X%X|.A.V.V.gXqXcX}.|.x.Z.A.*X|.,X[.D.c.q.}.*XvXvX*XcXPXHXPXc./ 2.Z.A.}.V.}.> O .   &.Q.=X@XQ.7.H ^ 0.3.b.cXlXCXPXKXeXKXkXJXCXMXMXP.}..X-XwXVXlXlX-XcXPXcX*XiXjXsXLXIXIX*X%XxXPXjXHXzXcXN.Z.cX:XJXkXwXwX-X8.1.0.N.V.gXvXiX/ _ ^ ~ n 5 @ 5 * g F 7 a g g g & @ X ; y % y : -X@XlXlXVX{.@XC ^ p.}.[.P.;Xx.E E t.z.6X}.oX9.9.( ( V.;XoX{.M.4._ ) [.*X|.x.l.W B l.3.oX[.:X3.3.V V.V.>X*X[.( _ / / x.}.|.V.D.Z V 0.}.@XZ.V.2.B B l.l.Z.V.l.W E T E l.;X;XV.l._ 3.9.%X}.|.,.4.E E V.Z.%X|.k.W V E ].|.>X,X3.v V D.N.|.[.S._ T v v A.N.N.q.,.E ( 3.&X&X`.( 4.> v : Z.x.jXjXIXLXV.jX;XPXPX3.= + 2.8.;X*XiXE _ 0.8.vXcXVXQ.Z.x.2.q./ ) 3.8.0.f.8.2.( ,.x.9.8.4.*XPXPXHXxXt.cXDXjXKXoX;XMX-XzX3.8./ A.l.LX>XPXPXHXjX6XPX:X:X) 2.( cXcX>XAX> : = ,X|.cXLXx.0.h.0.3.Z.V.Z.).}.x.9.x.V.Z.`.[.).c.A.q.0.Z.V.V.[.V.8.l.V.l.N.D.c.f.( 2.f.0.V.Z.Z.3.0.7.f.9.[.S.N.1._ 3.q.x.V.[.c.<.+.) 2.V.A.S.l.3.) / 2.8.",
"c.[.[.*X}.PX>X*XZ.[.vXxX[.  . : v ;X{.`./ W z.[.@XVXKXQ.Q.W V.V.-X*XjX<.4.) <.A.}.&X;X*X/ b.h.AXSXgXSX,.T E ,.,.,.x.t.jX@XwXqXrX6.a.; s y N N % # b o # - 8 P.lXMXoXoXPX-X=X^ 6.4XcXoXkXjXHXxX&XiXxX: : = `.`.&X;XzXv V O = m.{.MXQ.@X= : . V.x.PXPX8..   = > }.|.SX4.8..   : zXsXHXLXV     W ) HX*X*X= :     3.PXPXS.A.    . Z.x.PX2.q.  . l > [.HXcXQ V . W ) HXcXV.> = . + 2.>X:X2.x.: v x.cXxXjX:XcXPXvX8.x.V.HXPXIXPX:XqX*X3.0.^ ) Q.oX-X4.4.v 6.3.{.*X-XMXkXkXoX) +.P =X}.JXMXP.y 0 4.z.zXzX&X7.9.Q ) |.zXxXDXjXc.f.N.%X[.xX>X%XN.0.).iX*XcXcX[.Z.}.}.;XA.A.1.q.8.zXvXIX7.6.H n 9 < f g f F g g f r r u i & 8 : : O ) / jX:XVX-XVXl.z.*X@XVXPXHXcXPXcX*XjX=X*XJXjXVXHXHX:X>XVXlXwXPXPX;X}.Q.HXHXLXHXjXvX*XA.|.HXPXVXLX:XV.UXxXPXHXIXvXxX9.l.vXPXHXjXHXA.x.*XcXHXxXvX*X|.A.:XjXxXPXPX*X*X}.|.*XDXiXPXIX].>X%XPXPXGXzX>X].[.gXDXHXPXAX>XiXS.vXIXAXIXvXV.V.>X*XzXIXzX>X>Xl.A.GX>XAXPXzXS.N.f.HXSXSX).|.,./ _ [.|.;XvXGXAXzXzXvXjXxXA.O O / _ IXS.A._ / 8.l.gXcXvXxXcX*Xl.9./ / A.xXvX*X}.W E E A.}.x.9.PX;X*X` _ > *X&XMX6XK.m.=X^ +.4.^ P.=XoXMXjX6X;X:XHXwXlXUXPX@X-XW >X}.;X>XA.).T PXHXiX;XHXHXHX9.l.V.*X;X[.|.2.E / A.B.vXqX}.8.2.E 3.A.*XjXx.[.B 8.9.}.;XjXjXf./ ( |.Z.zX|.iX8.l.( %X;XIXSX>X) T V.k.IXGXzX|.|.E ) *X>XgXvXgX8.1.q.|.|.",
"x.[.[.:X>XPX}.*X[.x.vXUX[.  . v : }.;X}.2.) 3.}.>XJXlX@XZ.( p.p.xX*X;X<.4.<.3.N.*X&X&X`.<.B.c.sXSXSXIX_ Z T 3.,.W b.M.wX-XlXrXrXr.6.y y N s p % - ; # % ; b p.MX4X=XOXMXMXkX3.) 6XjX}.vXjXvXgX;XjX>Xv l = l.A.;XjX:XV B O > b.@XJX|.Z.> = . x.[.PXPX3.    = > ).|.DXc.7.    Z DXAXDXsXZ   . E E zX*XiXl =     ,.PXPX].V.+ . + x.A.PX0.8..   : > [.vXvXC Q O 3.2.jXHX[.= = O . 3.|.jX9.8.: : A.cX*X*X*XPXHXvXV.8.Z.xXPXxXPXvXjX:XM.6.~ P W.}.6X&.^ b 9.0.}.;X*XcXkXoX=XW ^ 4.=X{.kXKX0.v v z.6.jXiXDX,.q.<./ %XzXzX>XzX0.B.c.iX[.zXZ.|.x.9.[.zX;XcXPXZ.Z.V.xX;X[.].q.q.9.iXvXDX3.+.y n a 5 g f f g g g g a r u u 9 ; = : , %./ jXwX:X:XlXZ.0.*X-XPXVXLXHXPXPX:X:X-X-XMXjXxX*XjX*X-XlXcXcXPXLX:X[.}.VXcXPXcXlX*X-X[.}.PXLXLX:XwXA.:XcXPXHXcX:X:Xx.V.jXPXPXjXjXx.A.[.PXPXcXcX*XV.x.:X>X>XxXPX:XjX}.|.zXIXzXGXvX|.>X:XPXIXAXiX>X].[.AXIXIXIXAX|.,X[.vXGXvXAXvXN.x.[.>XHXvXgX>X,XS.S.AXvXGXIXAXA.S.V.IXGXgX[.).,.) V N.|.AXIXGXAXgXvXDXPXHXx.O = W W PXV.V.( / 8.D.jXxXHXxXcX[.A.9.W E A.HXHX|.,X( W H P.Z.7.c.jXgXjX_ W = ;X`.MXlXI.K.b.+.+.5.&.C.=XkXMXHX@X@XQ.PXPXVXLXKX@XA.^ }.jXjX*XN.A.,.PXPXxXiX;XcXPX9.l.l.[.}.A.V.2.V W x.[.:XvX*X3.3.3.2.V.vXvXV.l.E D.V.*X&X:X*Xl.) ( Z.}.xXjX>X8.8.9.}.|.PXGX%X,.,.).k.pXzXSX|.%X_ ) S.>XgXgX>XS.g.g.A.].",
"l.|.[.:XvXPX[.}.x.x.PXvX|.V B V Z P.}.V._ / 2.cX}.vX*XPXLXqX}.[.Z.Z.DX>XxXxX>XZ.}.}.AXDX;XDXsXDXgXaX%X> = l 4.( V.MX6XwX-X.Xp.6.s s s 6 s # 8 y 8 - 0 ; # # b C.K.KXbX=X=X6XjXMXA.@X>XPXHXzXvXcX3.0.c.%X%XIXzXjX;X%X).-X>X=XwX@X:X|.-XQ.|.V.cX>X}.vX|.l.N.%XA.PXzX>XN.|.A.|.|.|.*XsXIXN.8.l.cXxXvX|.,X1.2.0.9.xXcX,XD.D.W 2.3.jX|.cXV.V.B B 8.9.vXHXjXv V = l.l.gXjX[.: v v = [.Z.V.W ) x.x.PX*XxXPXvXPX2.( 2.W cXxXxXx.V.[.[.qXwXwXlX@XVXV.C.Q +.&.}.[.vXxX;XHXJXb.b.O = 3.6XHX6XcXv   . 0.4.PX[.*X.   , = ).IXLXf.3.. v v ;XsXcX<.W +   <.cXLXx.A.> : : *X*X;X[.f.8.q.Z.[.cX[.#Xm 6 9 u D g g 7 d g g g a u 9 t 8 # O = }.|.UXjXPXPX}.8.3.lXHX@X( 2.2.8.-XjXcXQ.Z.Q A.V.PXxXjXjXl.P E A.@XHX*X|.( ( +.jXjXVX:XA.V.) Z.Z.LXLX6XA.V.2.8.Z.HXHX*X}.3.|.x.HX>XvXjX8.V.9.V.Z.HXIX>XZ.Z.V.|.jX>X:X|.,X[.l.D.,XAXHX%XA.N.f.).cXPXcXiXZ.N.c.|.DXvXAXzX|.A.x.).PXAXzX*XV.>X;XjXcXxXxXjX;X|.].*XPXjX].).k.A.].GXSX|.].1.%X%XgXzXAXSX].l.l.xXPXHXA.|.>X[.}.W / E V 8.l.HX*XcXHXPXPXHXxXA.[.vXHXHX>XPX*XV.Z.PXPX@XiXjXcXcXO = O *X}.PXMX4.- - 4.6.b.b.{.CX4XbXVXP ; ; A.S.VXwX*XPXPX*XZ.b.PXHXiXzX}.IXSXc.x.E }.[.*X[.IXPXPXDXPX:XvXjXPXcXcXPXHXx.Z.HX*XPXHXPXvXjX|.vXvXcXPXPXPX|.>X}.KXHXxXLXcXV.A.-XPXAXIXIXpX).%XIXvXIXIXSX%XzX>XpXSXPXIXGXvX%X%X,XGXPX",
"8.}.}.>XvXPXZ.[.A.8.HXHX*XW v V E V.[.[.) W 3.*X*X:X[.PXPXHX[.N.).V.zX;XzXHXxXZ.xX;XDXsXdXAXAXAXzX>X%Xv > O ) 3.{.MX=X#XnX-Xp.p.s 6 s y D - % & 8 - t 8 - = 0 0.t.KX-X@XwXkXMXjXZ.}.}.vXAXcXAXiX9.q.&X;XiXxXzXiXIX|.>X}.jXjX@XQ.VX@Xb.Q.Z.}.:X*XHXvX[.l.f.|.[.zXIXpX&X).c.N.iXzXjX%X%Xc.9.9.*XjX>X[.}.x.2.8.8.>XgX>X[.l.2.3.8.,XxXqXA.x.W B 2.2.cXxX*XV V ' l.V.xX:Xx.v v v v x.[.x.2.) A.[.xX*X>XPXxXPXW %.) W vX>XcXl.x.[.A.UXVXwXwX:XwXV.V.%.E 4.}.|.:XvX;XPXPXc.0.O O 7.jXPX-X*X:   . 9.9.PXA.Z..   , : &XPXcX3.( . Z Z ;XiXsX( _     q.LXIX|.[.> l v zX*X;XcX8./ / ].Z.cX*X{.- - 9 A D f f 7 r f g D p u 5 y i #   % >X*X[.[.PXPX*Xp.l.lXjXlXW 2.( 2.wXHXcXV.[.&.c.V.>XcXwX;Xt./ +.[.S.zXQ.@X/ / 8.wXHXlXvXx.Z.3.x.A.:XPXjX0.A.%.3.x.HXxX*X>X( V.[.cXvX:XHX8.V.x.V.x.jX|.cXV.Z.9.[.[.xXjX:X>XZ.c.x.jX*XIXS.;XS.V.[.cX*XgXcX}.V.A.xX}.,X:XjX).|.|.S.AX>X:XA.|.A.>X>XPXvXcXvX,X|.;XPXHXjX).*X%X%XV.LXgX].|.1.A.%XIXGXSXIX%X).A.PXPXcX*X*X}.[.>XW E W V 8.9.xXjXcXHXPXPXHXHX*X[.*XPXPXcXjXHX,X{.VXHX@X|.jXzXcX> > > V.Z.PXPX+.0 ; y.6.z.b.=XMXCXlXbXH = 8 Q.[.HXkX-XPXHX}.9.c.PXLX;X*XzXAXPXx.`.E Z.|.|.cXxXxXPXDXHXA.xXxXPXHXcXPXxX[.V.xXjXHXPXHX>X:X:XHXHXPXDXPXHXx.HX>XPXcXHXPXcX[.|.;XxXzXPXIX>X%X].zXPXAXzX>XSXiX,X%XzXSXPXIXGX[.>X>XGXIX",
"2.*X*X*X:XPX[.[.: E vX}.>XHXHXjX*X:X9.D.: v x.:XiX:X}.AXAX}.c.f.Z Z 8.N.Z.%X[.q.C E c.V.>X%X|.N.N.V Z v l.t.[.b.OXlXnXrXeXy.s y s D Y G & o X N 8 - o % 0 0 t N t Q.{.lX6X@XwXPXcX*X8.W / ( W > V T ].[.>X>X%Xf.3.,.;X,XjXjX,X>X8.c.l.UXjXHXxXcXV.V.[.:XiXPXAXjXiXk.).%XLXHXPX%X}.x.A.jXPXcXxXcXcXx.l.gXvXPXvXDX,XV.S.x.vXPXcXqXcX|.*X:XjX:XPXPXvX:X*X}.|.[.jXxXvXvX[.V.x.x.A.V.( 8.}.*XcXjX*XxXjXHXHXx.v v ) V.xXA.l.= . = : 8.x.@X@X=X8.) / 2.9.[.AXzXiXvX*XPXPXjXcX[.V.:XIXcX*X*Xx.l.9.vX>X>Xx.V.8.9.c.c.sX*XzXN.l.W 8.9.cXcX;X3.8.: : x.vXjXZ.l.: : v }.*XHXzX1.W W [.D.iXwXjX^ P @ X 5 D { f f a f A p 5 ; . X . o B wXxXUXHXLXcX( 2.7.PXPXQ.> > O = l.jXcXV.x.  v v jXwXlXHX/     W 8.HXjXwX= >   Z.V.PXcXc.l.  v : lXwXjX8.2.  . E HXcX}.:XO = . [.A.HXvXl.  . : : jXPXPXB V O / / :X*XjX*XZ   . l.S.PXl.3.+ . : ;X-XPXHXW .   2.8.LXPX>X: > O = [.PXHX0.3.= ) / cXjXvXxX_ O = x.A.LX[.V.  + > |.|.N.x.E ;X].>X;XGXIX9.T E V.}.cXcXHXxXHX[.E V E V 9.9.cXHXHX9.0.9.vXcX>XjX( W ) >X|.HXl.Z.^ ( / T gXAXHXq.4.B.KXJX6XkX~ 5.^ n.z..XeXKX.X#X) Q M ; % t t Q.kXlXVXjXwX@X:X9.x.8.9.cXxXzXQ V   x.8.HXHXcXl.l.V.V.[.jXvX*X*X( 2.l.vX>XPXPX}.9.3.x.9.xXvXjX9.0.x.c.V.HXjXvXxX) 2.) {.;XDX{.>XV B 0.HXAXHXPXq.9.C 9.0.vXLXSX) W W / Z.vXHX,X*X",
"8.*X*X*X*XPX|.|.W V x.Z.:X:X}.:XcXvX0.l.v v l.A.[.>XAXLXAX[.N.V.8.3.h.c.f.c.N.q.,.,.f.q.c.8.l.3.3.V E 8.}.Z.lXCXCXeX#Xy.*.s ; M ! Y & & X & # i y y X o - # - o o b y z.kXMX:X*XxXvXV.) / ) ( v W _ c.0.0.8.q.C V Z q.4.8.8.q.0.y C C p.D.c.8.8.: v Q c.N.|.A.8.f.l B V 0.3.3.V W > O V D.D.0.D.Z : v D.0.c.0.D.: v ( ( V.E.Z.V.9.W 9.V.}.*X}.|.3.) ) [.*XvX*X|.) W ( HXjXl.9./ jX*XxX:X*XjXjXPXHXx.V.4.HXHXxX*X:XZ.A.B v Z V A.[.l.v Z v 0.l.,X|.xXIXDX[.|.S.%X[.*XvXLXAXiX}.V.N.N.AXPXPXPXPXA.A.A.HXPXHXAXcX[.`.%X:XjXDXAXvX:X}.A.sXiX:XPXjXxX[.|.%X%X|.xX;X*X>X_ Z Z l.q.>XHXMXP.K.& @ f f 6 g g a a p u ; % % # . . 2.cXHX:X:XHXPXZ ( ( LX*XHX4.8.3.3.;XVXjX|.:X3.8.l.*XjXlX6Xx.) ) l.9.*X-XvX3.8.) c.l.HXPX}.*X_ ) / |.wXVXV.Z.C B 2.vXvXqXjXW v V V.|.vXHX>Xv v B E *X*XHXl.8.> 2.2.HX:XxXvX/ 0 : x.0.HXQ.*Xv : C ,XZ.VXLXl.: = 0.2.cXHX:XV Q Z v Q.HXVXl.x.O V Z lXMXlXxX_ + % l.9.HX-X;Xl : v Z.V.c.l._ N.A.LXPXPXPXA.l.l.[.V.[.Z.}.>XvXPXA.x.2.) 8.3.>X>X*X= > > HXPXPXHXV     Q _ HX:X*X> O O + ;XIXIX[.c.[.cX&X<.y.&.n.U.kXnXKXCX4X) 5.t 0 P C M y 8 N Z.-X-XjXPXPXjX|.V.E T |.IXIX7.f./ vXHXPXPX2.+ + : v cXPXPXW / . . B vXjXjXjXB   . 8.( PXcX}.. + # O [.PXPXl.V.+ : > vXjXLXE E O . _ cXcX:X;X> : O N.V.PXAXN.. + O # :XHXPX/ ) ",
"A.*X*XjX>XPX|.|.E W l.x.>XjX:XcXqXvXD.9.B V D.,X|.iXGXIXzX%Xc.N.2.4.h.).V.N.c.q./ ( 9.8.c.8.9._ ) E E 3.C.K.eXeX4X.X4Xy.6.N y p Y ! - %   & & b 6 t @ # % # ; ; - 0 B C.KXMXjX-X}.wX}.8.( E Q v Q ) 3.8.3.8.0.W ` B W 1.0.9.9.q.v V V 9.V.Z.l.9.: : R l.x.).N.q.,.> Z Z q.q.q.Q Z > > W c.x.8.8.V v v 3.D.Z.x.8.c c Q _ E.,XE.D.9._ b.Z.}.:X|.}.3./ ) Z.{.jX&X|./ V / cX:Xl.8.2.|.*XjXvX:X:XHXjXxXl.9.l.HXHXcX:X}.x.l.B Z B E x.A.x.B v C 0.8.}.:XcXcXIXA.A.f.N.[.:XiXLXLXAX[.).l.f.IXPXPXHXPXV.[.Z.HXHXcXcXxXZ.`.xX:XvXvXLXjXDXA.>X;X:XsXHX}.xXx.x.:X:X*XxXxX>X;Xq.Z B 8.c.*XjXHX{.U.@ @ D f r a a f p q 6 & % o o .   x.PXPXjXjXcXLXC &.4.jX*X:X9.0.0.0.|.jXjX|.@X4.x.c.:XQ.jXzXZ.4.) 9.c.}.HXlXl.c.2.x.p.KXHX*X|.W 4.&.@X|.cX[.V.E W 3.}.>XjX>X3.V B A.V.cXxX,Xv : E / *XPXcX9.3.v 8.8.jX:XcX:X2.B b p.p.zX@XQ.C y Q P.}.MXlXt.: ; +.0.lXzX6XE Q v C Z.cXzXC.b.: W E @XwXMXMX&.= - ) 0.lX=XoX> : B f.c.c.f._ ).A.HXHXLXLXN.l.l.Z.[.&Xx.[.jXjXzX[.[.) ) 7.3.zX:X>X: : : :X:XxXHXW   . W ) cX}.{.: = O O [.IXGXN.x.B.xX;X6.6.n.z.H.4XeXbXnX$X5.) P P C y M : - t Q.@XlXwXlXPXPXZ.B.E W [.DXxXB.l.2.xXjXPXHX2.+ . v : vXHXPXW /     W vXHXcXvXE   + 9.3.PX*X}.O + = = :XPXPXc.l.  : v jXxXLXW H . . ( HXPXjX*X: = + l.V.PXPX9.+ + - : -XMXVX) 2.",
":X>X,XcXqXPX|.}.V.V.jXjXA.V v 9.9.,XZ.Z.8.8.8.gXjXiX}.;X>XcX%X%XsX*X|.*X|.|.>X;X;X;XiX%XiX*XiXZ.A.*X}.-X@X#XnX2X2Xa.e.s D M ! ..6 u   o @ S N t i 6 o X # # - ; v o O B C.{.lXcXkXxXjX@XvXjXHX*X;XzX%X;X[.}.;XZ.|.[.Z.|.].Z.,X[.V.Q.S.Z.A.x.x.S.Z.N.c.|.A.|.[.N.V.q.].f.A.k.c.9.l.9.3.q.9.8.4.3.2.3.) q.( 3.8.%.Q E ( E 3.3.( W _ v 2.) / 2.W <.C v R ) W ) W E : v > v B 3.x.Z.cXcX*XvXPXxXPX2.3.8.8.PX>X:X*XvXHXxXPX>XvX>X}.HXZ.x.` C 8.}.Z.jXjXgX*X:X,./ v v v E W ( 2.2.> > v v l.x.V.3.8.: / 2.Z.[.}.V.8.V Z l.x.[.[.[.4.7.E *X}.}.|.;X2.2.Z.B.xXjX*XcX>Xl.N.;X).A.1.3.N.cXMX}.#Xb p n 4 A 6 u p a 5 - & & o # 0 v xX>XjXcXcXx.9.S.6X|.A.@XPXvX:X-X*X*X*X}.PXPXcXwX-XZ.S.cXwXHXLXvX>X[.P.LXLXLXcXPX|.Q.>X[.PXHXHXjXcX}.Q.wXPXPXvXHX:X|.}.xXxXPX>X>XjXZ.*X:XvX:X*X:X*X[.jXvXHXHX}.cX}.*X}.wXcXkXjX6XjXoXlXlXJX*X@X6X}.|.6XcXMX{.=X@XoX@X@XHX6XLX6X=X6X-XwXVXPXQ.wX}.6X=XwXwXlXP.=X{.[.wX6XHXAX;X%X`.N.V.x.,.N.V.PXHXjXzX).jXsXPXDXh.+ + C / :X>XjX( 2.8.0.KXPXPXl.x.l.}.,XxXcXZ./ 2.l.8.HXHXJXc.c.3.( ,XPXGX0.8.v Q _ +.+.z.BX1XeX4X#X4Xy.P ^ P P H H ~ b N # P y Z.wX6X-XwXPXLXx.l.}.HXDXLXPX:XPXHXxXPX3.v v x.x.cXxXcX8.l.W _ *XPXHXjX>X3.( ) *XjX:X|.}.W _ 7.9.6XcXsX{.|.8.[.[.jXHXxXB.b.3.3.|.IXHX*XjX0.9.9.PXwXcXVXl.3.4.M.C.=XwX=Xz.M.",
"jXjX:X*XjXHX[.}.Z.l.:XcXZ.: V 9.q.:X].V.8.q.8.cXzX*XiXsXjX*X*X|.jX*X}.&X;X*X*X*XiX;X&X*X;X*X%X[.|.Q.@X$X4XXXtX2X2Xe.e.D S p ^ &.8 6 X X @ S n i p 8 # # . X 9 9 ; - # t P.P.KXlXwXwXwXwXlXlXjX-X:X:X;X|.|.}.}.|.[.|.[.Z.Z.].|.|.A.Z.M.A.V.Z.l.V.A.].l.Z.).|.V.V.V.q.A.c.D.l.V.D.D.k.0.3.0.0.q.3.4.2.&.( 2.8.8.2.E / W / 3.4./ / W R _ ) +.2.) ( B v B ) ( +.Z W : v = Z Z 8.l.|.:XHXvX>XHXHXHX2.2.q.l.HX*X>X>X*X>XPXUXvX>X*XvX>XV.x.W v 8.V.:X*XqXcX}.}.2./ v ' v B Q 2.4._ v > v Z f.A.x.0.3.: ( 8.x.A.P.Z.8.B R 9.x.*XZ.|.8.3.E *X*X}.}.-X+.+.[.l.xXvXzX*X:XV.c.:X|.Z.2./ Z.vX-XwX=Xb S 9 A u 5 u p 5 - & % - # o 0 v >X>XxXPXcXS.9.x.-X*XZ.P.LXcXVXoX:X*X@X}.PXPXlXKX-Xl.Z.wX:XPXLXlX}.jXS.LXVXPXLXVXA.}.[.-XPXHXHXcXHXS.*X;XPXHXHXPXjXZ.[.cXlXPXjXvXZ.>X|.*XjX:X*X*X*X*X>XHXcXjX:X*XxXZ.[.xX;XJXVXJX}.wXoXKXkXwX*XlXC.-X6XlXwXoX{.6XkXoX@XLXMXwXlXwX-X=X=XMXMX{.-X-X-XoXMXwXwX-XoXP.}.{.cXVXvX;XzX9.A.V.l.2.N.Z.HXPXcXjX|.:X:XHXzXx..   Q / jX=X:X( 4.0.0.DXPXHXV.x.l.Z.*XvX:X[.( / x.l.*XHXHXM.9.4.8.*XPXPX2.S.: W / +.+.b.BXrX4X1X4X4X&.! ~ I P P P N P t = y b {.Q.6XVX-XKXJXB.x.|.LXDXPXLXxXDXPXcXxX3.v B x.x.HXxXcX8.x.E 2.*XvXPXcX|.l.) 8.*X|.xX|.Z.( W 8.0.6XcXjX}.|.0.Z.[.xXPX*XA.l.8.8.Q.HXVXvX>Xt.9.8.HXjXxXvXx.2.3.b.P.bXQ.@XM.b.",
"|.xXcXjXjXHX}.jXV.V.PXcXV.O O > Z ].|.[.8.2.2.|.*X{.>XsXcX6XxXjXcXwX6XwXjXwX6X:XcXjX6X:XwXjXwX6XkXwXrX4XyXyXuXuX-.D a 5 D U s & X @ @ & 8 S N S n t 8 8 # o % @ ; i ; - N M z.K.4X4X-X-X6X:X-X@X;X-X-X;X-X6X:X*X*X>X:X>X*X:XqX:XqXwX:X:X-XqX*X>X:XjX*XiX;XjX>XiXjX>XgX*XgX:X>X|.}.qXvXqXqX>XkXHXwXvXlXwXwXjXwX-XwXjX:X*X*X@X}.}.-X}.*X*X6XjX*X*X:X;XoX&X}.6XP.}.A.|.V.A.l.*XqXPXcX:XjXPXIXHXl.> : 8.x.:Xl.8.> = ( [.|.[.jX*X*Xx.&.3.3.9.jXcXHXwXjXHXVXPXlXUX=X-X}.[.`.|.}.[.Z.V.;XV.Z.V.l.x.|.V.3.3.9.9.t.l.8.W W 8.7.l.8.h.2.2.) 8.8.x.x.V.v : 2.2.MXxX[.H E E 2.vX*X[.8.3.x.>XxXHXMX&.&.5 A p 5 9 q 4 - ; - -   O 4.0.cXvXcXcXHXx.x.VXHX@X7.x.( }.;XjXjXb.B y 7.9.Q.jXlX3./ B Z 9.[.@X}.A.v ) / x.|.lXV.c.W V x.A.:XcXVX8.7./ [.[.}.*Xx.( ( 9.l.*X:XcXA.V.2.2.[.:XHXHX:Xl.( ) :X*XvX}.*XW W 2.7.Z.oXwXZ.Z.4.9.A.-X6X-X4.6.4.6.lXkXwXwX{.6.&.0.oX@XlXwXC.0.z.6XwX-XwX=Xz.p.M.x.-X6XwX6XcXz.6X*X:X:XzX0.l.9.0.3.[.[.xXcXcXAX}.&X6XPXMXP.: : E C jXoX=X) / l.l.:X}.xXPXPXHXA.V.A.*XPXjXxXPXcX*XVXVXVXVXVX;XAX;X;Xv v l 2.8.b.K.MX$XtXmXtXp.5.^ P ^ M 8 t ; : C H N y = b H Q.VXkXsXPXPXMX&XA.`.:X>XPXxX>X3.2.vXPXjXPXHXHX|.*X}.jXHXxXPXxXjX*X*XjXHXHXPXPXvX>X:XvXPXPXxXPX*X*XjX*XPXPXLXcXHXV.*XvXPXPXPXvX}.Z.V.-XHXHXPXVXV.Z.>XPXKXlXlXlXoXP.}.=X",
"V.vXqX*X:XPX|.[.9.9.cXvXcX8.3.) E >X>XA.Q Q 8.HXHXkXMX-X=Xz.z.p.P.P.Q.}.oXoXoX@XoXoX}.}.}.oX@X=X#X4XnXtXuX/.=.X.g < 1 D D ; . o o & y i n 6 6 i M t n b 6 & X .   - 8 6 # # P ^ W.W..X$X-X4X4X4X=X4X6XjXzXlXkX:XwXlXVXUXvXvXcXUXwXjXjXqXwX:XjXjX:X;X>X:X%X;X%XjXjXAX;X,XIXUXvXvXHXqX-X=XVXlXkX=X-XwXlXkX6X=X*X*XwXwXkXwX@X*XwXlXMX-X6X-XzXcX-X-XjXcXjX=X&XHXcXxXvXHX>XxXjXPXvX*XPXIXPXHX( 8.V.xXvX*XZ.*XE E   . W [.*X3.2.B B V 2.8.|.*XlX*X*XjXkXkXwX-X@X=X-XwXcXjX6X6X6X-X-X6XMXwXxXLXxXzXjX6XcXvXlXjXwXlXcXjXlXHXlX:X6XjXwXjXPXoX}.vX:XcX0.4.8.8.PXcXx.. . v > :XjX;X8.3.q.}.[.jXKXW..X9 i y i i 8 - - 8 ; = ; m 6X=XcXcXAX|.A.Q Q -XjXjXv = + l.t.*XjX[.W ) c.c.[.V.Z.) 3.&.3.7.x.A.2.0./ ) ) 8.3.7.E W B B 4.&.3.4.7.B V Z W / 4.8.) B B / E 8.l.V.( / Z Z E ) 2.3.( V B V V V 8.3.l.: v V V / ( 4.W / v C v ( 8.3.v Z v Z P ) 4.4./ v y C 2.4.c.9.H > : ( ) 3.8.2.: v v Z p.x.b.b.b.: / H V.V.l.v : : v C b.V.jXHXPXPXV.2._ zXLXKXP.*XzXjX`.B R / _ 4.8.LXxXcXPXvXA.Z B V B A.[.*XV.V.V ) 3.V.A.*X|.|._ _ l l f.Z.A.MXbXkXtX1Xp.y.G I O.y 6 % @ t o % ; 8 8 b M # X ^ Q.@XlXkXxXxXJXP.C.( ( 2.= : : : }.*XcX*X>X8.V E V.[.jXxXZ./ V 2.8.A.vXjXA.|.W 2.8.}.*X[.[.x.: v 8.0.[.A.P.E E v t.l.Z.Z.S.E V H C {.x.Q.2.0.> = W A.{.}.Q.H 0 b t.M.",
"8.jX:X>XjXPX}.[.x.9.qX[.vXl.9.( ,.>X%X|.) W 3.}.-X=XnX@X#Xp.a.p.m.C.Q.{..X.X$X-X.X@X#X#X$X@X-X4X4X4XtXrXuXuX=.;.g r r D F * . @ & ; n n n % ; n n 6 t 9 5 6 @ o X & & y % ; S G !.~.#XrXrX4X4X4XeXeXeXeXlXlXkXwXkXcXHXHXUXUXUXUXwXjXkXjXjX-XvX:X*X|.*X:X;X;XiXxXiXDX*X|.jXjXcXHXjX:XkXjXkXqXlXlXwXkXMXVXlXkXwXkX@X=XnXVX4X6XMXMXzX;X6X6XjXxX-X6X*X6XzX6X;XDXDXjX-X:X*XcXcXPX:X}.UXPXcXIXx.l.x.:XjXV.[.jX( ) +   ) Z.*X3.8.B : Z 8.8.;X=X;X=XkXPXVXeXwX.X-X#XeXlXkXkXkXlXlXwXeXkX=X6X=XMXkXMX4XkXMXjXcXcXjXjXMXHXcXcXcX*XzX6XwX:XPX*X:X-X}.vXc.V.S.l.HX-XS.    v Z :XiXgXq.q.q.).}.wXwXP..X; b S H S 8 ; ; 8 ; o ; : *XoX*XPXPXx.[.( / jX}.:Xv y   9.9.*X:XV./ / 8.l.|.Z.{.0.0.2.2.( c.Z.4.8./ E _ 2.4.8.) / B v W / 0.l.x.) E Z / / ) ( W C V / ) 8.8.9.) ( W ) ( 2.3.3.2.E Z Z ) W 8.3.3.Z B V V W / &.) ( B V V ) ( ) B P V V / 2.3.( E v x Z <.) 7.4.W Z Z / ( 3.3.&.Z Z B B x.V.V.x.l.v _ W V.V.9.B v : Z V |.[.jXzXPXPXV.) 3.PXHXLX}.-X;XjX*XB C _ Q c.b.HXHXxXvX:XV.E V V B V.[.[.l.x.B 2.+.b.x.[.}.).T W : l l.Z.V.JXMX=X$X<X5.y.^ ^ *.6 6 & o N X # & y b M N o % ^ @X4XkX7XkXxXMX`.`.W / / : > > = V.vX:X}.>X3.V E V.A.[.:Xx.W V 8.8.[.:XHX[.*XW D.l.*XA.Z.}.l.x Z 0.l.V.l.A.E E V x.9.Z.P.l.V Q ) W V.[.[.W 2.> > ) [.C.[.Q.C : B z.C.",
": [.>X:X*XcX[.*XV E }.}.HX}.jXjXcX;X/ W > v 0.-X-X#X5Xn.a.n i i 8 y y y 9 y t b b N S M M N M H M G I Y } =.< r 1 L { 1 5 & 5 4 p p S i i # ; n p - ; & 6 i & ; ; * @ a 6 5 ; * y a G U ^ ! ^ ....^ ! ! ! ~ ~ ^ ^ ^ / / / W W / 4.7.p.}.*X*XHXvXHXvXjXAXzX|.|.V.V.*XxXHX:X*X@X[.-X=X-X-XP.P.Q.P.@X@X#X#X=X=X#XOXoX.X6XkXOX.XoX{.4X=XxXxXxXxX;XjXcXxXDXMXsX;XsX*XjXxXvXcX>X:XvXPXPXxXW W V.|.cXcX>XHXPX:X}.vXx.V.*X:X>X) 2.Z V c.;XQ.kX-XnXnXwX#X4X=XnXwXCXrXVXeXnXeX7X6X6XeXbXKXbXKX6X=XOXbXkXCX6X-XjXcX6X-XjXlXwXwXkX@XcX-XwX-X}.jXHX-X:XHXZ.}.7.0.lXlXVX/ / x.8.vXcXgXZ Z ( ].N.jXMXwXnXm ; % I H 8 0 0 ; - . +./ PXPXcXPXIX/ ) : v HXPXPX2.x.W }.oX:X-XA.[.Z.:X*X|.[.*XzX:X}.*XHX-X|.jXlX[.LXHXVXwX6X*XlXcXHXVX6XjX*X6X-XwXlXxXvXjXjX:X:XjXcXjXxXvXcXjXvX*X}.*X*X*XjXHXxX*X*X|.}.*X>X:XvXxXvX}.}.|.}.%X:X|.>XvXjX*X:X*X>X*X:X}.>X:X*X;X:X:XvX}.|.>X*X>XjX:XgXxX>XjX:XzX:XcXUX*X*X>X,X|.}.}.*X|.;X&XA.P.x.c.9.}.{.jXjXLXPXc.W C P.C.xXKXPXLXLXMXQ H W Q x.x.jXzXvX>XvX[.V.l.8.3.A.Z.V.x.x.) x.9.{.|.V.Z.0.V ) Z.x.A.cX;XlX6XNXv.G.Y ! ..U n X X & ; *.6 ; X o - b M b b - H v  X4XMXJXxXMXPXP.A.3.l.8.V.x.l.x.[.}.|.8.2.2.l.l.[.Z.l.l.0.9.3.*XA.[.x.A.( 9.9.V.|.}.|.l.4.3.8.7.`.8.t.9.0.( 8.9.V.Z.9.) <.0.9.8.7.t.7.l.4.4.4.c.A.0.7.3.2.) 2.4.",
"O A.[.*X}.cX[.|.V V A.].:X>XjXHXGX>X( ( : 0 0.-X#X1XrXa.s.p u s 9 t i y y t b b b M G G S M S G G P ! ! } } r r 1 F } 1 1 $ p p G S n 9 9 - 6 b n 6 & # 5 i 6 5 < $ $ g p r $ @ p p G ! X...X.*.&...! ! ! ^ ^ +.^ ^ ^ ^ / / _ / &.4.7.wX>X*XvX>X:X;X*XPXPX>XiXl.x.}.LXxXQ.@X*XVX*X:X-XlXP.-X}.K.wX6X3X#X=X6X=X X3X=X4X6X3X4X6X3X=X=XlXxX6X6X*X6XMX6XlXMX6X*XLXHXjXvXjXjX>X:XxXPXxXHX) E |.[.PX:XIXqXUXcXcXxXZ.x.>X*XxX9.2.v v c.}.{.6X4XCXCXnXrXrXrXCXtXCXrXtXrXnXbXbXbXnXMXCXKX4XCXMXeX7XNXbXeXwX-XwXjX-X-XwXjXjXwXjX*XVXwXjXwX@XVXcX*XlXPX6XwXp.b.kX:X-X4.( c.Z.:XAXvXV Z / S.V.xXwX-X6X~ - & P H 0 v 0 % % . ( +.zXDXsXPXIX) W V H :XLXLX7.8.( x.*X;X-Xx.}.V.}.oX*X*X:XHXwX;X}.lX-X*XxXjX@XcXjXjX:XwXwXlXcXMXlX:XvX-X6XjXwXxX*X*X@X*X>XvXvXjX:X:X>XvXxXxX>X*XHXxX*X|.>X:X*X*XvXxX>X>X}.HXAX>XxX:X*X[.|.:X>XDXiX:X*XjXcXvXjXIX:XjX:X>XjXjX;X;X|.}.>X%X*XcXvXjXjX|.}.}.HXzXHXHX;X>XiX}.[.HX;X;XV.[.A.Z.}.Z.b.0.[.{.cXMXLXHXt.W E P.[.MXPXPXLXHXxXW E Q _ 0.9.MXxXHX>X>Xl.V.[.V.9.c.l.l.x.p.3.c.z.M.A.c.V.0._ ( V.).x.zXzXMXlXeXa.e.P Y ....6 o @ y 6 ! & & X o % y t S N # H Q OX#XMXMXxXJXMXB.[.3.l.( 8.x.2.V.x.[.x.8.9.9.9.l.A.x.l.l.l.l.8.Z.[.V.l.V.l.l.x.Z.x.A.A.8.c.h.4.3.x.3.3.l.t.l.2.2.0.l.8.4.<.9.B.7.8.7.8.<.<.3.4.x.l.7.2.9.3.3.+.( ",
": }.[.vXxXPX*X}.9.3.A.A.}.cXjXjX;XjXc.x.v 0 p.6X$X$X1X*.e.5 6 5 # % & & & ; ; ; & ; 5 8 6 6 5 5 y 6 6 * < 1 r g F r 2 r D 4 p u i b 6 ; 5 S H I D p # # 6 6 6 5 a 5 1 r g g u D 5 - & - & @ @ @ 6 & & & & & & - - % % % - = = = O = y =X>XcXPXPX}.*XV.zX>X_ / . + _ zXDXoX[.) 0.z.lXlX-X: : % % m C m 0 0 b 0 = - - = - 8 0 0 m m v C C B B v C H v B C C C l.l.jXxXjX:XcXPXPXxXE / v B A.Z.jX0.9.: v Z.>XvXjX*XjXx.x./ ( 3.2.:X6XMXCXeXeXn.m.W.K.K.W.Q.Q.K.!.XXK.K.W..XOX.X!.!.!..X#X XXX.X1XOXlXjXkXjX:XjXcXjXwXwX6X*XjX:X:XjXlXwX}.*XwXjXHXcX8.l.}.@X@X[.oXPXPXjX}.iX).).0.3.3.*X:XJXVX6.# # H H 8 m 0 o # o P.P.xXMX:XjXcX) <.;XoX}.-XHXVXLX-X*X-Xc.l.( 9.9.|.@XHX-X:XjXjXcXHX:XlXVX*X:XHX:XcXzXwXwXjXjXcXcXjXwXcXwX:XxX:XlXcXcXxXjXjXxXjX*X:X*X*X>X:XjXvXvXqXvXjXvXcXcXjXjXjX:X:X*X|.xXHX:X>XiXvXgXvXzX,XiXgXvXgXgXvXiX,XiX>XgXiXiXzXzXgXvXgXgXvX>X>XzXgXvXGXvXiX>XiX>X%X|.zXGXAX,X|.zX>X}.MXLX-X6XcX6X6XoXMXjXLXzXMXLX{.b.A.MXsXb.3.2.P.[.MX=XoXW ) A.C.6X:XcXPXPX:X:XHX*XvXcXvXHXHXxXvXcXcX@X@XjXxXPX;X%X).>X;XsX6XkX=X5.p D *.*.A i X @ o P Y *.N p @ X % & ; M Q 8 - # Q ^ &XoXkXMXPXLXHXvX:XjXHXPXjXHXxXHXxX:XcXcXcXHXjXxXIX>X>XxXxXxXHX:XjXvXjX:XvXjX;XjXKX6XPXHXjXcXjXcXxX>XsXPXvX>XHXIXLXxXsXzXjXsXjXDXLXDXLXDX;XxXvXcXcXxX*XxXMXzX",
"= }.[.vXjXPX*X:X( 2.A.V.Z.HXjXvXjXzXf.9.: v b.#X4X1X1X*.w.6 1 5 & ; 6 ; ; 6 ; & - ; 6 6 ; 6 5 u 5 6 5 & 1 < g g r r r F r 6 A A n S ; & - G G P Y D @ @ - & 6 6 < 5 r s F D 5 r u 6 & - & * % & 6 - - ; ; & % % % # o % ; - % % O = : lXwXHXLXLX[.*XV.IXzX_ (     ) cXvX*X|.E x.l.MXMXlX8 b % @ b H A 9 6 q 9 # ; 8 - & 9 0 0 b m v M m M C m C H Z B B B H C.B.vXPXHX*X>XPXPXvX) P B E l.|.vX0.3.P v Z.cXcX}.jX>XS.A.2.W 3.+.#X4XmXeXnXCXs.s.W.H.W.~.XX~.L.L.L..X!.!.~.XX+X+XXX1X~.1XXX1XY.<XXXnXkXeXwX4XkXlX-XwXkXwXwXkXwX-XkXKX@XQ.LXVX*XPXVXz.x.[.@X@X-X*XHXLXHX*X}.[.).8.0.0.*X*XHXzX0.O - H C : m 8 . O o [.Q.}.jXzXvXcX( ) kX-X{.cXlXVXjX}.|.*Xx.V.8.3.p.=XoXKX#XVXeXeXeXrX4XrXlX4X4XMXwX6X4X4X4XeXeXbXMXeXwXMX6X-XbXwXMX-XwX6X*X-XlXzX:X;X-X6X:X-X*X-XwX@XjXlXlXxXzXvXVXvX>XxX>X*X;XHXzXzXzXvX>XiXgX>XAXgXGXgX>XDXDXgX:X;XjXiXiXiX>X:XGXcX:XgX;X>X:X>XxX*XcXjX6XoX:XoX*XsXHXcX*X;X*XHX:XwXMX=XwXcX6X6X;XwX-XLXMXVXHX[.C.Z.kXzXc.4.4.*XV.sX:XsX/ 2.h.t.zXlXjXKXLXcXwXPXwX:XcX-XVXwXzXHXcXMXoX{.zX[.cX6XjX>XP.wX4X4X3X4Xy.I u e.*.5 i X @ @ ^ Y ! N n % o o % t b N t % - ^ H =X{.JXkXxXMXMXPXoXzXzX:XcXMXcXvXHXcXHXlXPXVXzX-XPXvXvX>X6XjX*XvXHXxXjXcXcX}.sXoXcX:XPXPXxXvXxXcXxX*XvXLX:XDXvX:XLXcXHXLX}.MXxXcX;XcXHXDX;XcXxX>XjXHXHXlXjXjX",
"= *XoX:X*XPX*X*XA.[.DX:X>Xv Z 4.2.zX[.|.,.E 8.sX6XbX5X5.*.5 A p a p n y i y y N t y 0 0 9 8 6 - * 5 6 7 1 a 7 r 7 r 7 r F 6 q 4 D u p u u D A u y u 5 5 5 5 5 < 6 a f 6 u < a u u y 6 6 5 i u 6 8 : : : : 8 8 8 y : : ; - % % % % y v wXMXwXPXPXl.M.A.qX}.2.( 3.q.%XgXIX9.0.1.x.S.wX4X6X0 9 X . $ p 4 & w < w * X @ $ * 4 5 4 # # - # # ; % X o X # o .   : *XoXsXvXcXcXPXwX|.p.9.b.c.@X@X|.Q.: >   O %.S.].0.D./ W V 9.4.4XnX.XmXuXyXuXs. .s.@.*.*.@.*.*.O.@.w.*.*.o.o.@.*.@.X.e.*.o.@.*.-.*.*.5.&.+.+.5.5.&.^ &.&.4.&.~ P ^ ) ~ +.^ Q.{.lXKXKXZ.*X: B S.cXVX-X*Xl.|.V.PXjX).9.0.x.V.cXVXQ.: % : : y - >     Z wX-XlXPXPX0.x.{.{.JXKX@XV.A.PX>XgX8.D.V v 8.|.Z.CXmXeXrX0XuXmX<X0XuX0X2XuXmXyX1X5XtXtXtXtXtX0X2XyXuXuXuXuX5XtXtXrXeXkXeXkXeXkXeXbXnXbXnXnXeXkXeXeXCX-XlXkX-XVX-XwXHXvXcXHXzXjXzXzXGXgXPXIXPXAXvXIXjXGXcXHXIXjXvXHXcX*XcXHX>XHXDXPXlXHXPXlXVXnXCXkXCXKXPXJXKXKXPXNXNXJXLXPXMXPXDXCXKXPXVXPXLXPXKXxXDXxX;XPXLXC.=X6XzXHXh.    E W HX&X&X,.q.0.3.vXwXeXeXeXeXrXrXrXrXwXwXeXkXkXkXwXeXkXMXKXnXwXrXtX4X~.mXXX7X*.O.G @.*.6 6 X @ @ n N I I H S M M N # . X # - n S b # - ! I #XnX3X6XfXBXBXBXdXdXkXMX4X6X6XkXzXlXlXlXlX6XwXzXMXjX6XjXsXxXzXzXHXAXcXAXHXxXzXcXvXxXvXqXvXIXjXcXHX>XcXHXMX:XjXjXzXdX7XJXNXbX7X7XkXbXlXkXwXkXlXkX6X4XkXMX",
"= *X}.sX>XHXoX*XP.Z.PXHX[.    : : %X%X}.,./ f.`.&XeXeXe.e.u D p p i 9 ; & % @ % X X X o o o @ * & a a f a g 7 7 7 r 7 7 g 4 p f D a D A a p r u u u s a p p u 5 6 r 6 & u 5 D D y i a n S n i ; % % % % % = = - - # o o o % ; - % b b wXlX-XKXKX0.4.V M.@XwXqXUX>XIXGXgXE ` ` x.N.:X;X4Xi i @ X X A K w < * < e 1 7 4 < 4 q q 6 5 & 5 4 & ; t b ;   . v B }.6X@XsX:XPXcXxX2.3.|.VXHXVXHXlXVXUXl.V.3.q.qXvX,X/ Q c 3.l.-XQ.rXeXtX<X0Xi.d.w.w.-. .X.X.X.@.@.X.X.*.*.@.o.o.@.=.o.X.o.*.o. .X.*.o.U O...! ! ! ! ! ! ! H G P H M b y : t y 6.p.kXnXlXcXPXB Z l.PXcX8.2.O B E UXcX*X8.9.l.8.:XxX*XV Q = > y % % . + 2.wXVXVXlXjX7.0.=XeXKXMX~ + O S.|.SX9.0.B v t.jXlXrXuXXX^.G.F.F.;.i.i.;.-.e.s.s.r.d.s.s.s.F.F.s.d.G.s.s.s.s.s.s.s.p.p.a.a.a.z.a.a.p.p.a.z.a.p.r.r.6.p.p.rXwX-XVXVX-XMXcX0.( ) 7.SXPXaXN.f.3.k.9.|.].>X,X[.l.k.E.>Xl.VXPXcXjXHXcX3.0.3.4.+...5.*...*.5.w.w.5.5.w.y.w.w.r.j.n.7.b.t.y.p.z.6.0.4.8.5.sXxXzX;XLXLXP.@X-XcXHX;X( ( c.8.iXA.A./ ,.f.f.LXlXtX$X.X.XW.W.Q.Q.Q.W.W..XoXoXoX X.XOX#XXXW.L.W.XX~.<Xw.*.Y X. .5 6 $ $ & 4 A U S 9 i G b M P H G 4 = . o & G I 5 - 5 6 O.XX1XmX7X7XfX7X8X8X7X7XNXbXkXMXJXCXeX=XJXMXMXeXlXMXjXzXLXcXiXsXHXIXAXxXxXMXLXHXjXcXHXIXgXjXvXHXDXjXvXjXxXMXDXkXkXMXMXbX7X4X8X7XbXnXkX6X4X6X6X6X4X6XkXnX",
"= }.|.vXsXHX}.*X[.V.LXcXV.+   = l >X;X}.( ) x.&XoX6XkXr.d.p D p p i 6 6 & % o @ X + + . . X o @ & f f f a f 7 7 7 r r r a < 5 p p 5 D D p r 5 u u 6 p p D F 5 5 5 6 & & a r D D 5 u p p n n i 8 - - - = % % - ; - # # % % ; 8 : % b M wXkX-XKXKX0.0.V Z.Z.wX:XjXUXGXgX,XB Z B S.V.6X-X6Xb i @ X * F F 3 * 3 3 f 7 7 6 < < 6 5 5 6 & i 9 6 9 & & ;     ; - -XwX-XcX*XIX*XPX8.( [.PXPXKXVXVXVXwXQ.V.7.2.|.gXgX,.E Z 9.9.Q.4XeX1XtXyX0XJ.T.@.*.e.@.*.@.@.*.*.@.*.w.*.@.X.X.@.@.o.X.o.@.@.X.X.@.o. .......I G G ! ..~ M N S S M b 8 8 8 8 &.3.JXMXlXVXMXQ _ l.LXcXp.8.  V Q IXHXjX3.3.x.9.:XjX:XE E > % y + O   . 3.UXVXlX:X=X3.( wXOXCXJX^ + + l.S.vX9.0.W E c.-X4X5XtXXX~.T.J.T.d.i.d.d.i.i.a.a.u.e.u.s.s.s.s.d.e.s.d.d.s.s.s.s.s.s.n.n.n.s.a.a.a.a.s.v.v.n.a.a.p.m.y.z.mXwXrXwXwXPXzXxX) 4.2.,.PXPXvXk.k.9.1.q.].].vX[.}.D.l.[.}.A.UXcXjX*XvXcX9.&.6.6.+.O.&.*.5.5.5.w.w.e.e.y.r.e.e.u.n.j.5.n.z.y.y.z.6.6.&.5.4.;X6XHXcXPXPX{.Z.Z.KXLX*X) ) f.A.IXA.N.4.( c.f.xXCXnXQ.Q.~.~.~.~.K.Q.!..X.X.XOX#X#XOXXX$X$X!.Q.J./.2X~.=. .U X.U u & $ X 5 u O.U ^ 6 - P 8 b G I b & - . @ X g D a y < 5 G ~.XXtX9XtX7X7X8X3X4X5X4X1X2X5XeXnXeXwX4XkXCXMXVXPXxXMXDXxXiXzXHXLXHXAXHXHXPXPXHXvXcX:XPXvXHXIXxXcXsX*XHXLXMXMXkXBX7X3X7X8X5XtXnXnXeX4XeXeX7XeXeXkXBXnX",
"= }.{.xXjXLX}.>X9.9.xXvX6Xx.x.q.Q `.c.c.Z v 7.sX-XkXeXr.e.u D A p n 4 u 5 6 & & O O % = - ; y u 6 f f 7 7 7 7 r 2 r f g a * $ * & * u p u a u p p & a a D U < & * < * 5 D g g a 4 5 u s a a i y o o o X .   . . o o % - - ; ; - % b M wXkX-XKXPX0.x.7.lXwXvXvXqX].].].|.W _ E Z.Z.zX6X6Xb i @ X q [ F $ $ 3 $ f 7 7 q q q q q q 5 6 & o n G % 8 X : 0 MX=X=X6XHXxXDXjXE W Z / cXVXqX9.3.p.M.@XwX-XVXHXUXA.k.W 1.8.qX-X=X-X$X1XZXu.F.U D F. .F *.@.X. . .U U  .X...U J U U U U I ..I J  ...U ! *.O.O.O.! P P ! +.I H S S b N P P N t 0 ^ W nXwXkXPXVX9.l.x.HXHXZ.|.= q.( cX:X[.Z v 3.2.V.[.PX9.8.    : + O % > |.VXwXHXLXZ.E C wXNXKXJX+.> > c.k.%X3.3.2.4.Z.4X4XNXmX~.G.d.-.=.{ o.-.;.-.*.*.=.X.X.*.*.*.*.=.o.X.@.X.X.*.*.*.*.*.O.O.+...^ ! ! I I I I I P P G G P % : 5.p.wXnXnXMXwXPX0.q.: : cXiXSXZ ` E c [.zX}.vX}.>Xl.k.( _ S.|.oXLXvX:X>Xl.% = # o # . X & @ @ @ @ * & - 4 $ $ # @ @ . # # ; ; 9 - - o # O B.P.DXDXDXMXz.&.4.-X:XHXcXHXiX;X).E Q / _ c.f.xX4X.X..! ! Y Y D P Y U ~ I P ~ ~ ^ ^ ! ! ! U Y D U } U D Y =.o.G p u D D  .D F @ 6 & 9 6.! P ; & S D U D D 1 g s L L g D p ;.=.=.*.*.*.@.O...+.O...O.O.^ P P P ~ ~ Q C y v ^ 4.|.DXLXLXPXSXzXiXsXxX0.2.W V.].HXUX8._ 3.x.V.HXPXPX4./ H ^ Q H n G G A n i i t 0 8 0 8 8 8 8 4 ; - ",
"> }.[.vXjXHX}.>Xx.c.MX-X*X[.l.R 2.).f.).W Z 3.*X6XkXrXy.e.u D A n n & u y 6 - ; o o # = - ; 6 6 r D A 6 1 7 r f 7 r f g a < X X @ $ r r r D D g D < r a Y U & $ @ * * p L F g u & 5 p g A a y 6 % % % o o X . . o @ ; 8 ; - ; ; % N C wXkX-XPXPXl.p.8.jXPXjXcXS.%X,X].A.T Q B Z.).lX6X7Xb i # @ a F F $ $ * $ g 2 7 f f f a q 7 q 6 # o n S # &   M - }.JX=X>X*X:XPXvXE v Q ) >XPXPX8.0.x.9.-XwXlXVXlX,Xx.c.( _ x.}.:X6XeX2XtX$Xs.s.X.Y r.U G *.*.@... .! !  .....! J J I U U !  .G G  . .J I O.! ^ ! ! I G P I I H H H b b P I C y 0 P M =XkXMXVXMXZ.b.p.PXPXA.x.> 8.2.xXHX>XV v 2.8.A.Z.HXx.9.. O v O   O = |.jXwXPXPX8.B P -XkXeXkX( : : D.l.:XD.3.3.6.Q.6X4XmXyXT.F.F.i.w.-.o.-.;.w.-.*.*.@.O.*.*.o.X.X.X.X.X.X...O.*.*.*.*.*.*.*.O.....^ ! ! ! ! ! U I P G S ; b 5.y.4XlX=XMXMXzX9.3.= Z jXzXIXE Z Z : |.*X}.|.>XjXV.Z.E W 0.Q.{.VXjXVXvXx.X = o % & X X * * * $ $ * & 4 4 < $ @ X X . # @ 6 ; 8 % = X .   z.C.DXJXMXcXl./ &.*X:XlXDXHXAXIXiXE E ,.( c.9.jX@X$X! U ! ! ! ! Y Y ~ ~ P P I Q ~ ! ! ! U U U U =.} L L } =.} D p a a f D U U 5 % i i  .I G & ; 6 g D F g r a r g g g g g =.=.=.*.@.X.X.X.X...! ..X...U H M G P M M C C B / +.zXjXDXLXPXsXxXSXAXcX3.8.) }.x.UXGXx.1.3.l.x.HXHXDX5.+.m ! I J G G G K i 9 4 4 9 9 9 9 8 8 8 6 - # ",
"= }.[.jX:XHX|.}.E H Z.&XjXHXPXcX*XiX<._ , > 0.xX*X6XrXr.r.u A A A A @ u i s y y b b v t t y y 5 7 D D 1 1 1 r f 7 7 7 f a 7 @ @ $ & a r r Y D p D 5 u u F Y & @ @ 1 1 g g g r r r p p u 5 5 5 6 i i t y 8 8 8 8 ; 8 s t ; & ; : = C C wXwX-XKXKXQ.x.x.qXPX8.8.> + ( ,XGXA.S.E Z.V.jX6X6Xi n - & f f f 1 7 7 3 e 7 7 7 7 7 6 4 4 4 & 4 9 % # % . : #XkXwXwXlXHXPX;X}.9.) 2.Z.x.}.( 2.  . , % V.wXqXE.[.D.q.q.l.x.-X}.6XeXKXnXmXp. .D  .*.D u.0X~.!.!.!.Y.Y.L.L.Y.I.m.n.M.H.m.m.H.a.n.m.n.n.v.a.y.r.y.y.r.r.y.e.6.5.O...+.^ ~ I H H v t H b C.MXJXJXMXcXcXV.lXcXlXjXx.cX*XvX:X|./ W _ %.V.A.xX*XjX= , +   O Q Q xXcXcXcXcXq.x.A.-X=XkXPX6X[.Z.gX:X].9.2.0.t.OXeX5XtXyXF.w.w.o.#.#.{ { { { {  . . .X.=.*.O.O.O.*.*.@.O.X.X... ...O. .^ ! ! I I Y P P I U ! U P S n &.~ P N b 5.4XlX{.jXjXzXPX}.V.c.).;XjXiXzXAXPXIXPX[.,XvXxXIX3.8.) b.0.Q.[.zXHXkXoXp.% @ - D Y a f p a a a f f f K q w 4 w & A p - - 6 - - o o o P.P.HXLXLXLXP.p.2.E.}.*XHXHXAX;XiXE E _ ( c.x.LX$X#XG M s y y y p N M M M N M M S S S n p g D F g g F U } } L F Y U F U D D 6 X @ U U X.X.U & & 6 D a L L h [ } } } =.L L L U L U U U U U U Y D n n N D D M p s y - O o   - v ;X:XiXiXIX|.sXzXcXvXC > : [.*XIXqX3.( %.x.b.MXcXkXm M o % % p p & w 4 < $ @ @ & 4 6 6 6 6 6 ; - & ",
"= oX|.jX:XLX{.[.2.) [.[.Z.A.`.:XiXAXc.f.Z Z 9.}.=XwXrXp.d.u A A A A X u a N N M ; ; - - - 6 u s 5 f g & < * r f r 7 1 r a g $ * & 6 g f a F D p p a r r g D 6 X @ f f g 7 7 7 5 L D r & * < 5 u i 8 ; ; ; 8 8 y i t i 6 # o % & - C C 6XwX4XKXJX[.Z.*XPXIXE E   O 0.gXgXN.S.V Z.x.6X4X4X0 n 6 q f 7 < d h d d 2 h f r 7 7 5 4 4 4 & ; 5   . P H #X6X=X-XjXPX-XHX8.f.|.PXPXPXcX;X*X:X) ) / W @XlX-Xv ' v 8.z.*X[.wXbXPX#X!.5.y.I X.*.D U u.mX9XtXmXNXZXZXNXNXNXNXKXBXBXJXJXCXBXNX7XNXKXNXCXKXNX3XBXtXtXtXnXmXyXtXKXtXeXnXrX4X!.m.H t 8 b 0 5.eX6XMX-XHXKX3.+.( [.[.jXPXPX*X}.>X*XxX9.2.3.3.A.jXPX2.W O O : x.8.cXPXPXA.[.x.PXPX:X=X=X-XjXvXjX|.].W / ) p.m.kXKXZXG.T.-.o.-.*.w.F.F.d.i.e.i.u.u.u.5.e.e.w.5.6.e.e.e.e.w.5.&.O.@.*.5.*.*.*.*.*.*.=.X.X.O.O...! U I G ..&.~ P b 5.&.wXMX6X6XcXzXlXA.V.V.AXjXgX;XA./ W . + W [.>X9.c.; ^ ~ M.Z.{.}.lXkXPX$XJ.i 4 q a f f a a q 7 q q f q 7 w w < D A @ @ ; & % . o # P.C.6XxXMXHX|.Q.|.UXHXl.W C V.%XPXV.V.2.2.c.x.xX!.#XS P G G G Y N M S H G H H H S A p i a g F F L L X.} } g r 1 D D 6 r p D D g g *.=.F A D u a p } L L { r L L g L L L =.L L } o.X.X.X.=.=.X.! ! U U Y Y S s ; y 8 : ; % b v }.HXHXAXIXc.V.V.Z.[.V.[.:XvX:XcXPX_ 3.2.Z.Z.zXxXkXM J @ & - J J < 4 7 q 7 4 4 9 A q q 9 9 9 9 9 t ",
"# *X&XzXjXPX|.Z.) ) |.|.[.[.Z.:XjXsX0.f.Z v 9.>XwXlXrXr.r.r g g A A X y y s s b t 8 ; % % & y g a D g * * * r f a 7 1 r a g $ & 1 1 g D D D g g r D a r a g r @ X g g g 1 1 7 r L D r 1 < 6 5 5 a 5 - & ; 8 u y b t y ; # # & - - C C -XwX6XKXVXQ.A.|.PXxXV E .   8.>X>X].%XT S.x.:X4X3X0 n 0 p w < 1 F f 1 f e h f r 7 7 6 < & @ u ; 6 X   S ~ =XwX6XVX*XPXHXHX9.0.*XPXHX:XPXgX*X[.( ( 2.3.@XwXUX: : Z z.0.}.Q.wXVXKXXX5Xr.r.! U ! I G !.5X8XZXNXZXNXmXmXNXCXJXNXbXbXJXKXCXbXkXbXkXnXKXPXPXJXCXnXtX7XeXtXmXmXmXnXrXeXnX4X$XW.U.Q v y m b +.bX6XkX6XKXLX8.3.+.Z.|.PXxXPX[.Z.[.vX>X3.8.9.9.|.HX:XW / O = = l.9.PXIXPXx.Z.V.PXHXjX6XwX@XlXUXUXA.].E %.2.z.b.4XNXNXF.T.-.#.@.#.-.F.G.s.r.r.u.u.e.5.w.y.y.e.6.6.6.6.r.y.e.5.&.O.&.5.5.*.*.*.*.=.X.O.O...! U U U I I ~ O.+.S P 8 0.6.eX-XwXVXlXHXMXP.[.A.iXzXvX>X|.W Q + O ( }.Z.9.x.= &.) M.C.P.Q.zXPXPXm.W.p 5 u A a a a q 7 7 7 7 f r q 7 7 < D D @ $ 5 - #   o # P.A.;XsXLXKXoX;XqXjXVX0.W C ).[.HXA.[.) ,.l.N.jX$X5XM Y Y Y D D G G G P P P G G D n i 5 s D F D L L { F L g g 7 f D 6 5 D D g s g  .*.U f g g 5 p U L f } 2 L L L } L } =.[ L } X.X.X.o.*.=.X.U U U ! I D b i i b b : % O C Z =X-XDXLXPXf.c.N.).V.Z.A.cX*XHX:XgXE 9.3.|.[.6XdXbXH H X & 4 F K < < 7 K A 7 4 w q q q 9 w 5 9 i n ",
"> xX|.xXjXLX|.P.[.Z.;XxX*Xv 0 C T ;X}.}.3.( 8.-X=XeXeXp.r.u g g U G . p 5 p y 6 t y - ; @ 5 s g D g f @ $ X 6 4 D < 6 7 f f 1 7 * * 7 7 f r a 7 6 a g f r 7 1 * 1 7 7 h r 7 < 7 F L * @ X f g g u p * & * i p 5 y 8 ; & o X - ; - C C @X-XjXKXKXl.l.Z.}.*Xf.c.A.c.gXGXcX,.,.` c.l.wX6X=XN t 4 4 < f f 7 7 7 7 2 r 7 * * < < < & - &   . ! ~ NXrXoXKXzXHXLX:Xv v 0.f.cXcXcXV.Z.}.cX:XHXcX:XHX:X8.0._ P b.wX$XnXVXCX4XrXy.e.I ..I S I v.!.NXNXCXW.~.u.a.u.5.5.O.+.+.z.y.z.y.P.{.C.oX6XK.p.z.OX{.I.3XeXtXtX$X1X5X+X$XK.Q.XXrXnX$XrX6.m M t v H I.K.kXkXMXlX-X= = }.|.:X9.3.> > 3.PXPXZ.x.2.q.V.vXHXZ.[.O v v |.>XHXcXHXc.x.[.HXxXl.M.: ' E.qX,Xk.8.> D.8.|.Q.ZX7XyX*.-.@.J { @.o.9XmX<XmXmXtX9XNX5X4XeXBXtXtXtX#X5XNXtX8XtX5X5XeX$X$XXX!.!.1X1X$X1X$X1XXXXXXXXX<XyXv.P H ^ ^ P 0 b 0.p.VX-X6X#X=XKXPXV.B Z 9.7.}.3.2.= + Q >X[.|.*X-X5.0.6.+.}.V.Z.MXeXeXZXs.& @ A a D r f f 7 r 7 e d d 7 7 f f r X @ p 5 6 X   # oX{.cXxXPXPX|.jX*XVXPX2.    3.) AXA.).4.4.c.l.xX!.XXU D ! N D D A & @ % X @ X @ @ @ X 6 * g L L } [ =.h L =.} f 7 1 r g g L L L L F L L a 5 a g F =. .F L 2 g r } } } } o.=.=.} { a & $ # * & & & @ X @ # - 8 ; b y ; % = Z H -XjXcXHXPXT 9.q.DXjXPXcXPX>XDXV.[.v 2.3.P.oXFX=X6Xx n $ K D g [ * * 1 F F K A q A q q q q i 6 ; 9 ",
": &X;XxXxXxX*XjX|.[.cXxXZ.= v E V |.}.|.3.3.9.[.@X6XrXr.r.r f f J G X a 6 a s y 6 8 ; 8 & u s s g g g $ $ X < & F 7 7 7 a f 6 5 $ * 1 < r 7 a r a r f a 5 1 * 1 1 7 7 g r r 1 2 L U < @ X f f s r p * & & p p 6 6 8 ; & o X - ; ; C C oX=XwXKXKXl.9.9.>X;X|.V.S.E.:XgX>X_ 1.W c.x.:X;X#Xm n & 4 < 7 7 g g < < 7 f q * @ < 4 4 & 5 # o X I ^ #XkX-XMXcXlXHX:XV l f.0.;X;XHXN.Z.cXjXcXcXUXLXPXQ.8.7.) _ M.rXrXnXmXnXrXZXa.6.! ....n G v.L.ZXZXKXI.L.y.6.6.y.e.+.5.4.p.z.z.6.C.K.{.oX=XK.m.y.oX=X{.BX8X7X1XXX4X1X$X$XXX.X4XnXnX2X#X5.b M b m G {. XCXbXMXzX=X= > {.|.jX0.9.> : l.HXPXA.V.2.3.[.cXcXZ.V.O B V *X>XjXcXHXl.l.}.HXPX9.&.C B E.IXqX8.q.> 3.7.OX#XKX5XyX-.-.@.J K #.@.yXtXtXBXtXmXtXyXtXeX4X3X4XNXKXeX#XtXBX7XbXmX3XOX5X1X1X+XXX~.$XXX1X5X~.+X!.1XrX~..Xv.^ ~ ~ +.P y : 0.y.4X6X-X-X=XwXlXA.B V 7.4.|.2.2.> O ` }.*X*X>XoXt.0.( ( A.A.|.|.kXKXmXv.& u a r f g g f 7 d 7 7 d d 7 7 e d 7 * * u 5 9 @ . # oXoXMXxXKXPX{.6XjXLXvX3.+   ,.8.IXA.A.q.) f.l.LX$XXXU D ! p A D p 6 & & o @ o # @ @ X & $ r L L L L } g L } } L 1 r D g f g F } L D F F f r r 7 J X.@.{ L 1 d f o.o.} } o.=.=.o. .f & $ & & & # ; - % % # # ; ; i 8 ; % = v C wX:XVXPXPXQ 0.9.DXHXPXPXPXHXvXV.S.Z ( 4.P.`.MX6XdX0 q & J F h h $ 3 2 F F f f q K K A q q i 9 6 ; ",
"8.*X:X;XvXjX[.[.A.x.HXHX*X: > O = l.vX;X) / 8.@X@X4XrXp.d.r f f J U X u 6 s u ; N M M S 5 u r r a f f * * @ 4 < g r 7 6 7 a r r * < 7 7 a a f f f 7 f g r 1 * a 7 d d d 2 r 7 r f f * $ X 7 7 7 f g 6 r u D A 6 6 6 ; & o X - ; ; C C oX*X6XKXPX9.3.W ).).jX>XiXxX>X,XZ.v Z B V.V.-X4X4XC H . . & f f f f q f 7 < < < * q 6 4 # X X P ^ #X4X4X-XkXwXPXVX>X9._ q.N.l.[.7.q..   : gX*XA.[.V.[.9.4.&.9.D..XnXtX1X1XrXe.e.P  .^ G ! !.H.tXtXCXm.u.^ ~ H 8 0 H M M ~ 4.4.y.6.) ) 0 0 : - = H M b.P.m.G H G H H H P ! O.p.p.n.K.!.CXCXU.G H b v 0 5.5.6X4XlX6XMX( +.@X}.HX2.)     9.vXPXV.x.E V x.>X>XHX;XB ) ( jXAXPX;X*XE / cXAXjXB E O   ) UXIXE.x./ x.b.rX7XmXs.J.@.-.#.F D e.u.NXtXKX5X1XBXtX8XnXNXCXCXeXbXeX6X#XbXeXbXeXkXeXbXbXrXmXnXZXtXnXtXmXmXrXmX1X4XtXeXmX1Xa.6.! ..I ~ ~ b H 5.$X-XVXVXlXkX-X2.&.2.3.cXwX-XA.[.oXHXLX;XjXHXHXvX|.Z.8.8.].-X=X#X4XKXa.e.X * * D r 7 7 f g e f d e 7 7 e 7 r 5 5 5 p % % # K.P.xX6XLXPXZ.[.Z.cXjX|.4._ f.c.SX2.,.2.( A.N.LX#X~.Y D ! y y s u p u 5 % - & - - 5 u Y L L } L g f [ g h L [ L * < $ $ < 2 r g g f h L g g L L J < * X @ < F } { L L [ [ [ F F { A q 5 5 4 # o X o # ; 9 N M M ; % ; ; ; t Z kXlXcXHXPX0.%X|.HXPXA.[.l.}.Z.>X:X/ 2.3.[.`.MXdXfXb p 5 J F F j 3 3 2 h h f f q A K K q 9 9 8 ; - ",
":XjXjX;XxXPX*X}.l.7.*X*XjX9.x.) W 9.A.c.V W c.wX-XrXeXs.s.u f f D J @ r 5 a u @ 8 8 0 9 6 y a a a f f < 4 & 7 4 r r r 4 1 r f f 7 r f f g F F g f 1 g g f r < f f h h 2 3 7 f h d 2 * r 7 a r g D F a g F Y D 6 4 6 ; & o o ; ; - B C oX*X6XKXPXx.V.x.PXzXzX*X).x.3.V.%XQ T T Z.V.*X-XkX) &.X X X p a & < 7 r < * * 5 & 6 X . . % ~ rX5XnX4X-XVXVXlXvX) 4.*XPXAX;X&XiX3.q., : 0.;X|.[.Z.> > W 2.D.@XwXnXZXyX~.~.J.U =.I U U I U.CXtXKXmXy.9 H H.m.n.m b M G '.=XC.5.7.y.z.{.6.6.+.Q v 7.5.oXP.#X! ! i 9 i i w.H.v.mXeX!.p.5.eXeXW.Q G v b 0 ~ ~ 4X6XMX=XKX[.b.b.A.PX9.Z.2.3.jXxXcXl.l.v : 3.Z.A.;XzXN.*X[.HXcXHXq.l.v Z %XjXcXjXjX/ 1.vXvX,Xq.3.3.V.Q.eXtXZXe.i.@.o.J J { !.+XBXmXBX XU.U.H.r.y.^ +.5.+./ ^ 0.0.t.5.y.2./ 5.6.H &.*.y.y.p.p.n.a.y.p.z.6.5.*.m.L.eX1X7Xv.z.Q P H H M b 5.6..XwXrX-XKXVXVXS.9.}.VXLXHXPX>XZ.x.E E 3.|.}.[.A.: v 3.x.A.=X{.CX1XKXr.e.r D r g g f < d f d e e d d 7 g f 5 5 p & 6 - I.oXFXxXPXIX8.( ) wXxXPXHXHXSXiX).v : W W A.l.jX$X~.Y G ! & & 6 u ! U U S G G G D D D D g a L L r 2 L L L f g F f r @ X 7 a g L } } } } g g [ } o.< < $ $ J o.o.{ { { } { F g g f D F J J J U U ! I G ~ ~ ~ 0 - X o ; ; : N N wXHXjXvXcX).LXDXcXxX> O O [.}.PXcX7.3.3.oX`.MXxXfXK A a A d h h h h h [ [ F F f K A A q 4 % - 0 y ",
">XzXcXvX>XPX[.[.8.0.vXoX>XV.V./ ) 8.V.V.V Z 7.@X4XrXtXs.s.u f a f D X 5 5 p a @ ; ; 8 6 6 y g a g f f 1 7 7 q 6 7 p a 7 7 r f f f f a r a D D f a 7 f r r a 7 f f h h 2 3 2 h L 7 2 1 7 7 f f g g g f f L D g & & 6 ; & o o ; ; = B H oX=X-XLXLXV.V.A.AXzX%X;XS.N.8.[.[.E W E V.).*X*X-X+.&.X X @ u 9 & < 4 w * * $ 5 4 &     ;   ..4XnXkX4XlXeXPXlXcX9.3.[.IXLXzXiXjXq.0.l v ( >X|.x.x.= > ) l.9.@X@X4XtXCX1XuXd. .*.U S U G v.ZXKXNXKXy.m t n.n.P.H G m m 6XU. X5.+.5.y.I.4.5.+.+.v 5.0.C.p.KXI ! % 6 G i v.m.a.ZXCXW.6...VXnX3X..! m M b H H oX{.6X=XJXoXP.0.9.PX|.[.8.2.[.HXHXV.x.Z : 2.Z.[.iXjX|.&X`.iXIXPX3.( Z T N.LXgX>X,X` 3.,X>XqXq.q.3.Z.$XeXyXmXe.-.-.o.F { ..5X7X7XJXW.OX3X{. Xn.+.t.6.4.^ ^ Q t.y.t.0.z.) +.^ Q E &.+.p.6.z.y.n.6.y.y.6.0.y.&.Q.n.ZX7X4Xn.n.I ^ +.i N b p.p.rXwXwXVXnXKXVXM.V.M.wXcXkXzX;X`.[.R Z ) iX;X,X[.v Z / ).x.}.*XVXKXrX*.d.5 5 6 r f f d f d 7 7 e d d 7 f f 5 5 u # ; - I.{.DXcXPXPX8./ ) qX>XlXzXcXcXSX).Z Z ) Q N.l.MX.X~.! U ! % * 6 & ! U U G I G n S Y Y L L p L L 1 1 L [ L r f L f f @ X < 2 f F | | | { h h [ { =.6 6 X X F o.=.[ [ } o.{ f r g g F F F F L {  .U I D I ! ..8 ; X o : % ; P V wXlXjXlXcXZ.cXAXgXjX= O > jX}.PXcX7.4.4.`.`.FXBX7XS A f f 7 j d [ [ h [ [ [ [ f A A q w 4 % - t y ",
";XzXxXMXjXPXx.9.8.8.|.Z.6XHXPX>XgX8.: l > v l.}.-XrXrXs.s.r a r D D @ 6 5 u u @ i 0 n i p a f 7 r r 7 7 r a f u q D A f r 7 f r f f 1 < < f f a f f r 1 < 1 r r d j h 2 2 2 g h 2 r 2 * * r r 1 r d r r f r 5 $ * ; & & X X - - - C H =X*X;XMXMXA.Z.*XIXAX8./     V HXPXl.x.2.S.N.}.-XVXQ.K.M p @ n n 5 5 p a * X X 4 6 #   X P O.4XeX4XOX4XPXPXwXB B A.zXAX%XgX%X%XAX>XIXiX>X;XvXjX3.2.E E 8.>XwXVXwXeX4XrXe.*. .Y U Y U !.W.mXmXnX6.r.0 H H K.C.6X6.u.5.+.=Xt.b.6.6.m.I.4XC.K.oX#X0.C.n.y.5.KX&.&.- i y.O.XXv.m.rX.X*.S b $X.XNX6.5.m N 0 0 ; K.z.4XkXMX{.oXz.3.A.9.x.xXPXHXvX,X[.*Xl.8.8.l.9.;X>XzXcXcXAXcX*X0.f.IXLXA.PXIX:XGXgXUXE.D.c.B _ D.-XwXyXtX2X*.#.o.#.F @.X.9XNXkX6X+.oX3X{.{.t.H M v v v C H `.oX6XxX{.E +.0 = 6.p.t.OXQ.P.0.5.C H b : : 0 % ^ P OX1X3X1XeX5.! H &.^ t M b 5.p.$X$XQ.wXKXlXlXt.) ( 4.3.B.7.4.+   O D.c.S.%Xk.k.3.8.q.Z.[.Z.nXnXKXuX*.F D r 7 7 7 f 7 2 2 e d d 7 r f f 5 q $ # # I.P.sXsXPXPXh.3.4.Z.A.:XAXzXAXzXiX) W ( ) Z.V.KX.X~. .! ! * @ & * U A N i 9 - o X 6 u U U a 7 r < * L L L d g L F g $ * f h } [ L h h h h [ [ h $.7 7 2 1 =.o.[ h h } | F 1 1 d F F F g f r < $ & u p G n S X o % % y O % P P eXVXlXjXcX[.cXcX:XvXV V E :X[.MXPX3.3.3.I.'.FX7X3Xb A f D d j e ] h e d j g f w w p w w x 8 - #   ",
":XvXxXMXPXjXl.8.3.3.Z.|.vXLXjX*X,Xl.: : = = l.*X-X4XrXv.G.s a s f A $ r u r u % 6 - t 9 A g D r 7 r r r a f f f q D f D a 7 f r f a * * * g f r f F 7 1 * * a r d r d 2 d r h f 7 d r < 1 r f 7 d d r 7 f 1 6 $ * 6 ; & X X ; - - B H oX*X;XMXDX%X`.|.sX;X3.2.+   W PXDX9.f.) N.V.*X*XwX{.a.H i @ i 9 & 6 a u * X @ & - X o o ^ ^ 2XnXKX#X#XJXPXoX( / *X*XPX|.*XiX%XSXzXiXzXjX&X%XxX9.2./ V 9.HXqXwXwXCX1X5Xe.e.L { U X.U s.U.nXnXPXM.y.- M H C.{.oX4.+.t.0.b.m.z.y.6.n.n.K.C.Q.{.#Xm.P.m.z.y.4X5...; ; y.r.1XL.W.2X!...b b $X$X7Xy.y.M M t 0 8 n.z.MXMXMX&X=X5.x.9.|.V.jXPXcX>X>X:X}.x.9.2.l.V.xXiXAX;XzXDXLX>Xh.q.iXAX[.cXIXvX>XPXvXA.0.k./ ` l.-X4XmXyXY.-.@.{ { F i.w.NXJX=XkXQ sX3XOX{.y.^ ~ v 0 v H H oX6X6XdXoXH H > = +.9.p.Q.{.t.6.&.C W = ; = : = C P .XBX4X4X7Xr.+.I ^ ^ H M S 5.5.4X4XlX-XwXwXlXC.C W 2.2.oXl.+.+   > k.c.A.].)._.1.3.9.V.|.[.-X-XnXyXs.u a r g 7 3 d e 7 d d d d e r r g 1 < @ o # 3XoXMXjXLXDX9.9.8.C.[.*X;X;XPXAXzX3.,.W ,.A.x.kX$X/.! Y U * * * & ! p n n i ; o & u 5 U U F 7 r * * g L L f g L L F * 1 f g } L [ L [ h j h h h ;.7 * 3 2 | [ [ h L | o.g * 3 f d h [ L g r 1 * $ r g Y D G . o & % y O % P C nXVXcX>XHXV.:XiX;X*X) E ) :XHXcXzX) 8.7.P.'.BX3X3Xi A w f g j d h h d j j g f w q q & w m w % # . ",
"vXAXHX:X*X( V W xXjXzX}.B.x.b.xXjX*XE C v > b.@X-X4XrXv.J.p f f < 7 $ g D r p ; S i n i D A D r r g g g a r 7 7 q A a f a 1 r r f f < 2 7 L F f r L r r 1 $ g g f 2 2 3 d d h g 2 < 1 r r 7 7 d g g g r g 7 r & * 6 6 & o o ; ; % m C oXoX;XHXPX[.[.%XAX;X0.f.> v / iX,Xl.l._ x.9.Z.A.oXwXeX-X4X8 6 & 6 i 6 5 u & & - - @ P ^ -XrXMX.XbXVXPXVXwX) Z B [.c.;XW T   , q.iX|.iXiX|.9.8.E 2.l.l.:XjXVXrXrXrX6.5.U *.U F D J.XXZX5XCXv.y.0 m ; Q Q n.z.z.+.+.=X X+.b.n.K.U.4X4X=XI.m.e.y.e.v.m.U.n.n.i i n M L.W.L.n.n..X4X&.t ; p.p.NXH.I.~ H N v t Q +.=X&XlXPXJX/ Q V HXjXxX:Xx.) 2.A.*XxXxX8.8.3.N.A.AXiXAXAXHX[.).[.cXcX;X( ) x.S.UXvXS.= , %.3.A.lXrXKXyXd.o.@.o.{ J J.G.KXnXn.z.= P.b.OX3XI.K.m.E v H 6.5.MX7X6.7.3X6.0.C.oXP.b.M.z.P.4.K.}.}.}.B &.&.M.S.0.4.G H..XeXnXW.n.e.H ~ ~ b b P b p.4.rXwXtXeXlXlX) W _ H 6XxXzX0.0.c.AXvXPXSXSXPXGXl.k.2.0.A.}.=X$X7XyXw.X.< < < 7 q d f f f d d d r 7 f $ @ X X -  X`.MXMXPXPXA.[.|.KXVX8.v l c.c.SXA.).4.4.N.c.MX4X1X! Y ! 1 * * @ D < u F G n 4 $ u 6  .U D @ @ @ @ g L L f f g { } r 7 * $ g h h L [ L j h o.;.2 $ $ F L | [ | L L | | r X $ d d [ o.L 2 < r g L L g D p G . o % o 8 % = C b nX-XVXzXHX3.l.V.}.|.>XvXcXPXHX[.P.v 2.3.C.`.MX=X7Xn f $ 1 r d d h h d j j d 7 6 a A & & - X o M / ",
"cXIXjXiXHXE T _ sXMX&XzX4.}.V.;X-XeXC C > > x.;X=X4XtXG.s.g r g 7 < 3 g g f 6 r n b i n D D p r r d g g f a q 7 D u f r g 2 r r r f < 1 r F r f r L r d < * g f g 7 < 1 r f f g 1 1 7 r r 6 7 a D F r r p 5 6 ; 4 ; ; & o o & ; - M b $X#X@XPXHXA.%X>XSX>X0.c.> > 8.}.oXB.9._ 9.l.P.A.*XwX-XkXwXt # ; i 8 9 6 9 - - - # o ~ ^ eXwX-XcXVXHXPXlXwXE W W x.Z.[./ E +   k.,X>XjX;X,X3.8.+.) t.z.wXeXrXVX2XtX5.*.^ *...D J J.XX9XyXmXu.p.b 0 6 G P U.n.n.~ +.OX#X5.M.n.H.U.XX8XXXH.!.6.r.5.s.H.~.v.r.t t b S  XW.I.p.n.OX=X^ 0 M j.y.BXI. XQ Q M b 0 ~ ) MX=XsXPXFX) / Z cXPX*XHXl.) ) |.*XPXjX8.l.( V.x.cXxXjXHXPXV.*Xx.cXHX;X) q.9.N.IXSXS., , ( 6.K.nXrXyXZXe.@.*.X. .J J.+XNXZXn.n.& n.m.1X.X.XU.P.m H M 5.6.JX6X6.5.=X5.y.I.{.n.n.z.Q.m.+.Z.M.=X{.C 3.) C.C.4.6.~ oX{.MXbX6Xy.y.~ H G G M b G y.y.rX4XeXrXeXnX) / C V xXxXjX8.8.A.gXGXGXGXIXIXPXf.0.8.3.|.|.{.-XeXmXw.@.& 4 * f 7 d 7 F g 7 h d f a u @ @ X @ #  XoXMXxXPXPXl.*X}.KXPXl.: l Z.f.IXA.).,.,.N.N.MX$X2XU F Y & & $ @ a 5 5 A G G & & & 1 { U f $ @ @ X a L L f L f } [ 7 7 * 3 f F [ F [ $.d d ;.=.7 $ $ [ F { } L F [ o.o.1 @ $ r r L o.{ 7 1 a L Y F U 5 D D . @ & @ 9 & % M C bXbX6XlXVX2.x.9.*X|.zXcXzXPXLX[.}.v 8.3.A.`.MXjX6Xn i $ 5 1 h 2 [ j h h f d q w q G # # 0 o . G ~ ",
"zXPXAXq.) _ f.0.sXsX9.4.# v B oXOXCX4.2.B 0 b.oXOX#X1XJ.J.g 2 d d 7 r F g r 7 f a i p i i s s r d d g g f r 7 7 a 7 r f g 5 1 1 g h r r r g d g g r r r < 1 g g f 7 1 r g g r r 1 1 5 r r r a D a g r 5 p p n 9 q 9 9 6 % % ; 6 & n M 4X4X@XPXHXl.q.V.SXAXzXiX%X&XjXxXcXcXcX[.h.7.3.3.*XjX>X*X*X4XS -   X o   # 9 % @ # &.CXtX4X6XjXPXHX:X>X2.x.V.*X*X>X>XV.V Z = = q.].Z.1.) B / ) z.M.-X$XrXrX4X4XrXy...*.*...U U.Y.yXNXmXtXe.A I 5.y.L.H.m.y.K.a.H.n.$X3Xn.3X$XmXtXW.v...n 9 G S 5 F F *.e.G.H.H.z.y.K.C.C.{.m.oXOXn.: - ~ ^ 7X3X8X....m M M b b K.U.dXLXLXA.A.W xXcX|.|.:   O x.Z.vXPXl.2.3.x.9.}.>X*X*X*X%.[.vXPXHXV     _ Z IXIXc.) ( 8.4.$XZXuX<X2X*.{  .J U #.<XyXCXyXJ G i K.p.Q.W.$X.XOXy.5.b ~ ~ {.=XJXeX7XNX3X7XOX7X7X=Xt.0.I.6Xm.b.P.0.b.t.oX{.K.H.- ~ m {.3X6X=X3Xy.p.^ S P P G N t s.wX$XVXeX-X4XVXt.7.}.>XvXPXPXvXzXzXN.c.c.x.vXcXjX) Z 8.`.x.zX XtX4XtXa.5.X . < F g 3 $ $ d F * * 5 @ & . X <.NXMXcXxXPXPXA.>X}.KXVX2.+   / ,.LX).).q.q.A.N.xX$X2XU F U * * $ $ p & & q A ..A g a r U L D 5 6 $ @ a F U F U r F F [ F 7 < F f F { $.$.g f =.=.L 2 r { L } F g F { { [ 1 < < d g F U L L L U {  .F D 4 p A . X # @ 9 - & H H nX.XlXPXPX) A.A.PXPXHXcX[.iX[.0.4.: 0.9.).Z.zXcXMX~ G @ * < { F 3 d d < 1 w w q $ $ o w X G ..kX8X",
"zX8.c.;XiX;X;XzXsX:Xh.h.C V B oXx.#X+./ v : c.oX#XrX$XT.^.d 1 r g f F F g 7 r D 5 q i y 6 1 r r g d f g g f r r 5 7 7 f f r < * f g f r < 2 r r f * < < * 2 r r a 1 1 a D f 7 1 1 7 r r r f g D r g 5 6 a A A q i u i u ; & 6 ; 9 D n $X.X}.PXPXc.l.v ;XHX%XIXxXcX*XV.V.[.*XcXA.|.) Z h.}.*X*XoXKX.X6Xm 8 o   o . ; 5.+.W.6XnXeXlXPX|.xX2.( jX>XUXPXPX:XcXxX*XjX[.).,XjXiX_ 1.B p.7.6XoX6X#XbXnXnXy.p.P ^ ! S n p.KXmXtX2Xe.s.5.L.L.!.!.y.!.4X!.!.+.H.H.BXKXI.n.H.$X.X! I M I P 4 n *.yX0XyX~.!.n.n.!.5XKXKX.X#X3X#XK.3XG H H M H.BXJXa.n.S b 0 0 - t.h.kX6XDXMXPX8.cXvXxXPXW V B vX>XjXPX2.v B 3.3.A.HXPXxXgX( jX[.jXHX[.Z : A.S.IXSXc.4.2.C.p.rXZXyXs.s.*.F U K #.J.CXmX+X<X4 - G 1XW.W.K.4XU.M.oX.X^ 4.~ 5.6.m.C.m.t.p.^ +.+.6.6.OXkX{.b..X+.7.P.b.b.{.P.oXP.m 8 - M ~ 3X6XMX.X3X5.+.&.S P N P M p.p..XrXwXeXoXPXKX0.c.9.l.9.|.0.3.+ + O = 9.[.|.2.) Z 2.q.V.P.7XNXmX1X9X! X.< L F 3 2 < d 7 f D u . @ H H 7X3XxXxXLXPXDXc.A.Q.HXPX@X9.,.c.q.,X2.4./ ,.A.).PX$X/.Y Y U * * * & D * $ $ % S q f a r f a f 7 7 < * a D L U U 7 D f o.{ d 7 o.h F o.$.F 7 7 [ | | h [ [ [ } d g } o.} [ d F F g d h g F o.o.{ { F 5 4 * A J @ & # @ t - - P H nXlXkX-X6X9.PXxXvX;X0.q.E V.[.AXHX/ 8.3.].}.jXjXJXm.u.i a < 5 F r r r X X X @ A X @ o X ~ XX7XoXbX",
"%Xf.f.iX;X;X*XzXzX&Xh.t.W ( / P.-X-X( W B v h.{.#XmX2XJ.J.r 2 d d g [ d d 7 d r * < 6 5 5 5 r r h d d g g f r f r u 6 f a f 1 * r r f f < < 7 r r * * 3 * 7 f 1 r < < a D f 7 1 1 7 r r r a f f 1 r < 6 a p p 5 5 5 a p 5 1 6 & 6 n S #X#X@XVXHXq.c._ %X>XiX[.AXsX>XV.[.:X[.KX>XA.R E 8.[.A.>X-XkX#X=X0 b # - # # o +.5.eXkX4XwX>XcX}.*X3.9.vX|.PX:XcXcXxXPXjX>XZ.|.,X>XjX( 3.Q 0.0.nX4XnXrXKXeXmX6.&.X.O.P n G !.yX1XtXZXy.6.r.n.m.I.8Xn.OXOXU.I.6.!.+X5XBX XH.J.5XnXO.+.m G p 6 i e.2X2X~.~.G.W.n.#X5XNXCXW. X X{.P.oX+.+.0 m m.KXbXy.n.M H m 0 - 4.3.kXoX6XJXHX9.xXjXHXcXV W E [.*XHXPXl.B : 9.D.V.HXPX:X*X) [.A.PXjXZ.v v N.%X%X>Xc.q./ Z.m.yXyXyXe.e.-.L { J K u.yXKX<X7X6 t ! W.2X.XW.rX6.b. XK.~ +.^ 5.0.y.y.n.y.I.^ +.+.4.t.kX=XkXn.m.6.+.{.z.b.C.m.K.C.M - m 0 M {.MXbX XOX6.^ O.b S G P y a.m.4XrX4XoX@XPXcXx.x.9.8.V.N.4.q.  O , = N.%XA.3.8.B 2.l.l.t.=XKXNX7X5XO.O.u F J 7 * 3 f K A D 4 @ X N H NXcXcXDXPXPXPXN.V.x.KXKX:X9.2.3.4.SX8.q.q.2.S.S.cX~.~.Y Y } * * & * F < < < % G f a f f f g g r 6 r 5 p f F { U r D f { F g g { g h o.$.F h F F F h [ [ L [ [ h L } } [ [ g } L d r F h F o.} F F L 5 < & A G @ % # # i - ; ! P lXlXkXkX-XV.PXHX:XHX,.2.E ].V.cXvX8.f.8.V.[.vXjXzX Xu.9 6 p p a * < r $ * @ @ n X . # # ..bX=X6XbX",
"W V.x.iXzXxX;X}.*X*XcXLX`.6X-X;X}.x.E / 8.9.-XJXOXCXyXG.d.d d d d g F 2 d d d 3 X X $ 4 r f g f f d r d f r r f u a 5 f r g 7 < r r g h r 7 f r f d 1 7 1 r L < 1 < 1 a g f 5 7 1 r a a a f r r g f 6 r u * $ @ & < 7 f r r r 7 5 p M .X.X=XMXxXPXIXV l l q.3.Z.V.4.+ . v v B.-XcX) _ E c.h.}.V.lXwXMXQ.4Xy -   P H lXMXKX6XQ.JXPXcXV : 8.l.*XvXZ.Z Z ( ) *XjX>XHXvX}.3.0.( 9.z.-X4XCX7XbX#X5X&.&.*.&.! I I v.H.mXCXmXH.H.6.p.1XtX1X8XW.7XOX8X X1X3X!. XI.!.!.XXW.XXXXG I 9 I I L.v.0X~.Y.e.u. .H M K.m.W.W.3XKXNX7X7XI.I. X0 0 +.BXbX XOXQ m 0 8 ; ^ ^ 6X3X4XMXPXx.[.Z.vXPXA.HXxXPXHXjX>Xl.W W 2.3.3.*XvXxXPX|.[.[.xXxXjXHX:X}.N.zXsX,.8.4.K.!.mX5XyXe.w.w.J U #.O.BXKXNXO.5.- ; p.OX.Xm.p.-X=X7XeXNXkX4X4XbXeXOX=Xy.N b ) H b ; : z.6.6X X{.K.b.3XC.P.C.K.t.b.y.+.Q ^ ~ M kX XeXMX.X..5.&.+.I P b M N n.v.oXlX-XwXMXVXE V V V ;X|.;XZ C B v x.%XxX;X:X,Xl.0.0.h.}.{.}.kXJXBXyXe.u & q q K f < 4 - . n Q dX XdXcXxXPXDX&X}.q.Z.C.UXqXUXjXPXxX;XT O : ( 4.A.Z.HX$X~.L Y ! $ * < & F 5 u u & D f f g L F F g a 6 g g g f f U L g q D F [ F g 1 d r L [ F o.=.F d 3 [ h [ | h [ [ o.} { | L | L d f L L [ =.} g D D 7 5 5 A A # & # # i & - ! Q kXkX6XJXwX|.jXHX:X*X: > : A.A.cXjX( c.V.x.x.jXAXjXLXKXn.; 4 a p D g f a 5 % & q $ = G b '.JX7XNX3X",
"C V.f.;XPXiX}.;XMX;XDXcXP.lXJX}.*Xc.) ) l.l.{.#XeXZXZXd.;.h d d d h j 2 2 d r $ X X @ & a g g d d d d f d r a f 5 r r f a f r 1 7 7 g g g r f r r F 1 r r r F < * 1 r f f a r 7 7 r a g f f r r r 5 & r r * $ < $ * 6 r 7 r d r 5 p S W..XwXMXjXHXPXE > l ) 8.c.V.3.    : v B.KXjX<./ v 8.l.:X}.[.cXDX6XoX; 0 . _ _ 6XjXMXKXsXKXcX}.: v A.3.*X:X[.: : ( / vXxX:XAXjX>X0.8.0.t.b.wXrX.X$XmXZXnX*.&.6.*.n U S ~.m.mX7XmXL.a.p.p.$X1X7XeXXXBXOXOX8X1XCXI.XX!.I.I. XW.XX.XI ..i G G L.H.0XT.!.e.e.J n H 2X$XXXK.7XeXNX3XkXC.3X=Xx 8 O.mX7XXXI.G b H 0 0 Q H {.MXdXMXzX[.l.V.vXvX[.*X,XPXPXxXHXA.W / 8.9.9.*X*XvXHX*X[.[.HXPXcX:XjXA.*X%X|./ ( 6.#X1XmX<X2Xe.-.@.K D O.! 3XBXKXO.^ v ; #X.Xn.Q.P.@XKXPX4XeXCX.X.XeXbXI. Xb.t 8 H I C v - K.z.OXI.OXK..X#XK.m.n.m.6.t.y.+.+.~ ~ b 6X3XbX6X5X6.5.^ Q G I S s P p.n.6XwXwXVX6X6XV ( W E }.%X|.T E T E l.xXIXHXiX,X8.l.3.3.A.|.*XwX6XBX7Xy.i i J q 7 w 4 4 9 # b ; oXFXFXLXHXPXPXxX>Xq.8.x.kXPXPXcXxXiXjX_ O > 2.3.A.Z.VX$X/.Y L U $ * 1 r F s a a 6 a a D F L g g a f r D F f f a F F J 6 g h [ F F 1 L F L F h $.=.F f * [ [ | =.d | L ;.=.| | L { [ [ h L h [ =.} L F g r a a A n - - $ @ y # & ^ ~ eXKX-X6X=X:XMXPX}.;X: O > x.).jX>X8.q.c.V.A.;XjXxXFXMXz.- 8 8 9 P D 5 p 9 & ; - ; o Q b NX6XJXJXJX",
"C %XcXIXjX3.: = / / V.*X{.oXQ.l.9.9.0.8.Z.|.wXeXnXL.^.} [ h d 2 j f e 7 2 d 7 1 * * * < r a r r r f g d r f g f 7 r f 7 r a f r * < r 7 g 7 7 r 7 d 1 7 g f 7 < * 7 g f r r r 7 r r r f g r r r { L s s 5 X X @ * < 7 r 2 2 d d * 5 n m.U.=X6X|.zXzXxXQ l C v *X|.c.: = > v 9.oX>X&XcXV.x.7.9.t.`.vXsXcXDX|.;X0.jX>XDX>X6XjXHX:X>Xl.|.x.Z.[.Z.:X9., O > : 9.x.V.) W W Q W 0.z.Q.rXbXeXmXtX1Xr.Y ..G J  .L.G.KXmXZXe.O.p.m.rXrX$Xn.m.6.O.O.e.5.6.y. X3X8XXX!.OX8X5XeXXXI ....v.L.<XJ.s.5.*.X.*.O.*.&.W.L.n.n.OXM.U.M.#X7X=XI.6.n.H !.XXCX8X5.0 b M M M v t.bX6XMXxX>X/ ) 8.9.jXvXPX>X|.V.[.*X[.|.) 2.3.V.Z.xXUXvXPXHX*X:XcX*XvXZ.).Z Q 3.0.p.tX1XyXY.T.w.-. .D D n.j.KXOX XM b 5.6.4Xz.m.4XkXoXQ.{.M.L.ZX$XK.r.6. Xn.#X4X4XH S t 0 b ~ M 7XoXU.oXU.I.M.n.t.m.C.K.m.y. Xt.p.6.y.y.4XOXnX4X X&.6.+.+.H P I b b m.4XwXwXQ.MXKX-X( / >XHXzX*XjX;XHXPXxX%X%XiXPXHXGX_ ,.q.%X}.oX&XNXJX3X5. .4 q $ $ & .   m {.=XLXdXdXAXPX`.0.x l N.PXLXA.V.D.xXjXPXPXA.l > 4.4.V.Z.VX1X2XU Y U * 5 p f g f g L Y J { U L { g F f L U g D r f a F F { 7 7 g h L { g [ { [ { h L [ g h d | [ | | d } L o.$.[ [ d L L L L h h h [ L L L { { U D n q 4 - & & i # & ^ ! eXnXkX6XwXA.jXIXvXvX9.9.V.cXHXzX;X*Xl.l.x.x.|.,X:X:XxXLXP.0.- # o # o 6 i 9 ; ; G +.8XLX=X4X=XPXJX",
"gXiX;XzXjX4.+   3.8.{.P.3.v 0 C V 8.}.|.jXwXeX=X$X!  .1 r d d d d e 2 d 2 7 2 g f q 7 7 2 2 2 2 2 f h d 7 f f a r a g 1 r r F D $ < 7 7 F 7 7 g d 7 1 7 { F < 7 1 f F r < 1 r r f r r f f r 7 r r a 5 5 5 < 7 a 7 7 f d 2 2 d f 5 5 # S S p.6XcX>X;XPX>X>X0.2.jXzXjX`.jX;XxXHX*XjX:XxX6XvXxXA.b.V.V.A.jXsXjXIXjXjXjXjXcXPX[.%X_ ) Z.HXxXPXPXxXHX*X9.[.A.[.xX[.Z.: B W M.P.6X4X6XnXyXtXXXr.w.I *...G ! G.7XmXmXyX&.P ^ U.p.W.!.&.H 8 0 4 u..X1X5.O.! e.y.!.7X7XI.L.eXeX5.y.e.m.v.5.e.s.5XyXmX0XmXZXyXCXZXL.W.#Xy.y.N m U.3X7X7X#Xn y.y.mXbXI.S M M b ; - +.3X6XMXjXHXW E / W cXvX*Xv : : Z [.PXcXl.9.3.9.9.:XxXHXjXPXv V / PXHXZ.`.: : +. X$XtXmX9XG.s.-.-.{ J U tXXXKXy.z.M H 3XOX=X4XCX0.3.Z..X.Xn.6..X.X.Xa.p.H &.+.W.5X3X.XI 0 v ~ +.NX X Xz.v. XU.U.K.OXPXNX6X XI.MXJX{.m.K.C.I.3XeXCXI.3X+.&.^ S P P b H p.b.-XPX=XwXkXMX*X9.}.}.PXLX`.Z.c.B W > > 9.A.)._ T c 8.8.x.[.oXoXNXNXJXI  .X X $ I P 6XeX6X;X;XPX`.|.C ) _ W [.`.}.: > + l.8.AXDX|.v = 3.7.Z.Z.lX1X2XU L } 6 g Y L g g g L Y p D F g F f F f { } a g 7 f a F D } 7 * g g } o.F < 1 2 F h d d 3 2 | | | h L k [ | $.$.[ [ d [ [ L [ L ] L j k L } { { { D A A A p 6 6 p % & ^ ^ rXeXCX*XwX9.vXHXxXAXHXPXPXHXLXAXPXxXvXjX3._ V.*X[.*X%XsXxXKXP.M.% # o % = # % ^ bXkX6X6X7XPXKXb.z.",
"gXiX;XAXzX2.  + 2.8.A.P.p.0 0 H B l.[.|.:X}.KX$X$XX.Y r 1 f d r d d 2 2 d 2 2 f f q 7 7 7 2 2 2 r f h d r r f f r a a r 7 r g L < $ 7 7 f 7 g r g 1 7 7 F L * 2 7 f g r 2 2 7 r d r d f d 7 2 7 f a r 5 4 4 6 7 r d r g 2 3 d r 1 ; & n b p.KXjX>XiXIXxX&X<.0.sXxX:X*X:XMX:XHX*XjXjXvXHX&XHXA.x.x.[.f.zXvXcX>XcXjXHXDX*XPX}.A.) W :XxXHXHXPXPXjX*XV.x.A.[.vXV.}.0 b ^ z.C.rXOXBXtXmX1XtX*.5.*.! U I I H.9XKXmXtX&...~ m.m.Q..X*.M 9 8 @ v.3X8X&.e.H e.&.tX1X3X XXX$X1Xr.5.r.a.J.e.*.s.XXyX0XyXuXZXmXKXtXXXL.1Xr.y.b S n.8X1XBXOXG 5.y.NXtXU.G M N M - 0 Q 4X6XlXxXPX/ V / W vXvXcX> v v > *XcXcX9.9.8.8.l.*X*XHXvX:XE Z ( PXHX[.Z.v x +.I.!.yXmXyXF.F.-.o.U J U 3X6XKXt.6.~ Q .X.XI.KXkX0.6.C.Q..Xp.y.4XL..Xn.y.^ ~ O.OX3XnX.XS t 8 &.+.4X3XXXu.y.L.U.m..X.XKXKXOXoX.XKXbXW.W.C.I.M.oXKXMX3XK.5.5.~ P H H N H p.b.MXkX=XJXwXzXoX0.P.oXPXvX|.B.V.T Z : > N.|.N._ E l g.0.).[.>X;XDXJXNX! J X X X H ) 6X-X6X;X&XPX|.h./ _ E <.N.|.[.y v   l.8.AXcX}.= : t.2.C.C.eXXX2XY U L r f L L F r D D F f F F f g F g h { L g r a g g f D { 7 7 r r } } L < $ F f h d d 1 2 | [ | j k [ | [ [ | [ h h h [ [ [ h ] [ j j L L { o.} F D p i p 5 ; 6 ; # ..&.eXlXnX=XMX3.vXHXxXDXIXPXPXHXPXcXAXvXHXvX2.) x.;X|.|.>XzXPXsX}.V.= % o % 0 # . 7.kXkXkX6XDXPXHXx.x.",
";XzX;XiXjXjXV.A.-X@XoXQ.0.b C 0.9.*XwXwXHXwXW.P Y ; 5 < 2 h d 1 7 r d d d 7 1 7 7 7 q 7 7 2 2 2 2 r r 2 2 r a f 7 r r 7 7 r a g 1 3 2 2 f r g r r 1 r d F F * 7 7 f g r 1 7 r d r r r r r 7 7 r < 1 1 7 r a g D g g d f 2 1 d r f 5 & % @ M C.Z.-X;X*XHXPX;XZ.h.l.*XHXsX*XsX6Xx.8.Z Z }.zX:Xh.B.Z V.l.).V.zXHX:XxX>XIXPX}.O , Q E vXHX:X( / x.[.IXHXHX:X>XxXx.7.^ ) z.#X X4X$XtXtX<Xe.u.U X.U D J u.H.NXKXmXa.a.; a.e..XrXy.+.b - ; G I 8Xa.U.OXU.G S 8 &...I.nXeX1XtXeXtX1Xr.6.~.2XyXXXJ.*.e.e.5.*.p.v.L.L.L.! ! i m +.L.n.OX#Xy...~ !.XXOX+.O.N S 0 8 C  X{.=X*XPX[.[.8.2.HX*X*X> = = O |.HXPX*X[.8.8.3.[.Z.xX|.[.O O : jX:XV.Z._ ) n.3X<XmXNX~.i.i.@.@. .*.e.KXBX.XH ~ y.p.kXNX6X+.~ M m .X7XOXp.r.nXCXKX3X.XU.U.y.~ H m.XXQ.y 8 5.+.mX3XOX X+X<XtX3XI.m.&.+.5.5.y.OXOX3X7X3XW..Xm. X{.7XKX{.Q.5.^ ! ^ I m P m b.Q.wXVXkXMXVXMXH v C Z x.}.[.l l , O 4.).>X].%XN.3._ c.f.c.A.sXFXLXP.P.~ ~ ..eXwXLXLXPXPXHXc.4.f.pXAXHXAXzX;X}.Z V Z ;XZ.xXxX;Xx : 8.0.#XoXNX2X0XU U } L U } { F 7 r 1 6 1 f f f g L L L F g g f f g g f g L F g 1 3 F L [ r 2 =.=.| d d r 1 | | [ r 2 [ | | L L [ [ [ | | [ | | | | h k g r 1 r a f D F F J Y D D 6 & ..^ =X4XkXKXJXW 2.8.|.,X;X;X).2.4.E ) *X;XDX].).B 0.f.A.A.|.SXjXAXHX9.x.= + . +./ =X-XkXMX6XJXz.c.C B ",
"cXAX;XiX[.*X&XV.kX-XoX{.7.C H t.C.@X}.@XwXKXK.P Y ; 1 1 r r 1 r 7 7 f d d d r 1 7 q a r r 7 e e 2 2 1 3 2 r r r r r r r r r r f 2 1 < * r d d 7 7 2 g g h d 3 7 r d d 7 7 r d d g d r 7 2 1 1 7 1 1 7 r a g g D g f r 7 r 7 2 r 7 4 - @ & b b.{.6XcXcXPXcX;XoX9.t.sXPXcXsXcX;X3.9.Z : [.HXjXx.h.B l.x.%X[.:XHX;XcXjXLXPXx.O = W W :XvXHX2.W x.V.PXvXHX:XqX|.l.t.W ^ n.3X{.8XtXtXtX<Xw.w.X. .J J J L.I.9XCXNXr.a.; n.n.OX7X5.5.M - ; b S BXH.H.OXtX..- 4 &.&.!.BX4X!.+XtXZX$X6.*.~.5X2Xs.v.e.e.r.r.w.r.v.L.~.~.O.! G n n H.n.<X8Xe.G ! 1X!.5X+.&.0 m t 8 m K.C.lX*XPX[.V.2.3.:XjX}.> . O > *XxXjX*X].1.3.2.|.Z.PX*XZ.+ O Z vXPX[.Z.( ^ y.OX8XyX9X/.u.i.X. .F e.e.tXKX3X..I m.m.OX X#XI ~ I b I.4X3XH.m.nXKXZX4X4XQ.K.6.H ! $XL.m.b 8 &.O.CXBX1X1XL.+X8XBXU.p.4.&.5.5.n.W.I.4X3X.XC. Xn.7X6X8XMX{.OX5.~ ~ ~ Q b v ^ M.M.wXkX4XbXPX{.H ^ v ; [.%XA.= = + , 4.).%X_.).].1.3.S.l.).A.jXLXxXsX}.~ H H lXVXjXHXxXLXPXA.,.q.pXzXLXPXzX%X-XW V V Z.|.iXjXZ.Z x 3.0. XI.5X2X2XU F U F L L L L r r < < < g 7 g h F [ L g r f d f g g f f F L F < 2 L L } 2 7 [ | [ r r d 2 | [ h 2 2 [ | } F h h h [ [ | | | | | | L h g 2 r f r 7 f D J U a g u % - ..X.eXrXlXVXPX) ( ( *X}.;X|.}.q.9.E W }.LXDX|.|.v l.c.A.V.,XIXzXAXzXV.9.= =   4.) *XcX:XjXHXPXc.x./ V ",
"4.V E |.Z.*XwX*X{.Z.0.6.^ 4.6.@XC.-XwXlXW.$X..i y & s s g g * 7 7 6 7 7 2 f g 7 7 q q r 7 7 e 2 e 2 2 2 r r r 7 r 7 7 7 r r d f d d 3 $ 2 g d 7 7 r h g r 2 3 r r d d r r d d d f r 7 2 2 2 2 7 f f r r r 7 7 7 7 7 7 1 d g 3 7 D D A 6 ; - t b P.V.:XjX6XDXPX-X[.l.E W V.A.Z.v = + . ( A.;X:X&XW W ) 9.B.[.%X:XiXxXxXjXx.x.x.9.l.A./ ) + + B v x.3.A.9.l.3.2.2.b.n.3XmX4XNXCXXXw.e. . .{ J X.F.Y.KXCX8Xn.6.6 # m L.XXU.n.b t 6 5.&.n.!. Xi N !.H.n.H S 4 ; O.3XNXmX1XXX X1X$XZXXX~.s.O.*. .U U G S G J S G ..i I S A 4 5.5.OX3X1XG m y.a.KXr.6.S H H b v 4.+.6XLXjXcXPX3.l.cX>XHXx.l.[.V.cXjXvX}.[.8.8.3.x.l.vX*XxX*X[.jX|.>X8.p.4.4.n.7XmXyX9XF.w.-.U U Y ~.L.CXKX6.~ ~ 8X8X5X4Xn.^ H b M e.$X$X.X!..X$XL.K..XrX.XrXKXQ.6.&..X~ +.4XW.!.L.Y.8X9XL.J G n t 0.6..Xr.5.; 8 &.#XKXnXeXC.M.n.K.3XbXnXm.6.&.P ~ P ~ 8 M P m.nX6X6X#XKX#XC.C W oX[.zXiX>Xc.c.iXIXPXSXSXGX%X%Xq.q.A.N.Z.sX%XPXPXsXcXDXlXjXlXPXPXN.c.T LXzXPXIXpXDXiXPXcXHXPXIXcXcXsXjX8._ ) C.K.3X4XCXXX~.X.U } U } L F f $ @ X @ * f 7 h h f F F g g f d f g g f f g o.} < 1 r d =.h L d d L f d [ [ | k d j h | L h L h h L L h [ | [ [ ] h [ [ f 3 X $ $ * 6 f F { U U p 6 y Y ! nXrX{.PX-XcX/ W > : q.l.c.: >   O ( zX}.*X[.9.c.2.A.c.V.|.|.SXAXAXPX0.( <.jXcXjXjXLXxXPXV.7.2.V.}.",
"Q     3.3.8.7.8.C Q ^ &.0.}.C..XrXtXW.m.P P ; y y D D X X D D p u 4 < * < f D 7 f u q 7 7 r 2 2 2 2 r d d r r 7 7 1 < < 1 r r f h h 1 $ 2 h j d d d h d 1 3 3 d r d d d d d r 7 1 1 1 2 7 r d r g f r 7 7 7 7 7 7 7 a 7 g D 1 r 6 u 5 9 6 8 # # C v {.*X;XsXJXJXPXZ.> : l.t.PX8.l.2.W P.*X|.sXcXHX}.|.2.3.Z.b.[.xXxXzXcXoXHXLXxXvXvXx.V.v v 3.2.>XV.V.> : W V.V.7X#XeXeX3XmXtXy.O.-. .F { J s.CX5XtX5Xe.t b i n ^ BX8X~ ! ; 8  XXX XH.y.O...O.5.y.7XK.!.I H 8 ! ^ XXeXeX1X8XW.L.O.*.O.U  .A Y *.d.s.G.H.*.*.w.! G S ! q S H XX8XXX! ! ..G eXL.1XI H M M 0 C C -X[.xXHXPXl.8.) [.V.Z.*XPXHX*Xx.l.}.*XZ.0.8.3.3.}.HXxXPXvXPX8.9.V P 3.M.#XZXyX2X0Xi.*.=.U U X.yXtXtXtX..r.y.tX1XOXOXO.6.6...+.I G ! ..^ P G S G P S P ^ p.m.mX4X^ m.p.#X7X XNXmXG.u.J $ 8 e.y.4Xm.n.n..XN b t H M oX#X XQ I t.b.#XbX3X3X X5.+.H m ^ b : H K.C.eX#XkXJXeX{.oXl.3.jXzXPXGXGXIX_.N.,.1._.IXGX3._ Z l l.%XN.jX:XjXAXxXVXqXxX[.[.v v Q ).Z.|.[.v B v l.A.,X:X|.x.Z.h.0.h.b.K.6X4XeXtXtX*.-.Y D L D L g g L h [ h f 3 < r h h r d g g F r r f g g f f g } } 7 d 2 2 | [ } f r F g f =.=.[ 2 2 [ | | d d h h [ | { h h L [ h k k h h 2 $ 3 d F L { L L L U Y r & ; ; y Q.KXPX-XkXKXjX%XR Q Z.*XLXA.|.8.3.).LX>XHXxXLXiXAX%X[.V.A.V.gXiXzXjXvXPXHXsX>X*XPXHXb.l.3.PXPXPXHX",
"B     &.q.Z.8.9.B C P P 5.=X@X4X1X1XU.W.X.Y y N s N D @ @ D p 6 u 5 < * * 7 r 1 A u 7 5 r r 2 2 3 1 2 d d r r r 7 7 1 1 2 r d f h h 2 3 2 h j d j d h d 3 3 2 d d d d d r r 2 2 1 2 7 r d d d 7 d r 2 2 7 r r r r p A a a s 6 7 r p 5 5 ; i % % v : {.DXxX6XlXPXPXZ.> = 8.8.KX3.t.+.+.Z.*X;XxXPXkXoX6X4.8.9.3.{.zXjXcXLXjXPXVXKXPXvXZ.x.B B 8.9.[.9.x.v v ) S.b.CXtXBXtXBXBX9Xe.X.X.U A #.{ F.yXKX#X7Xy.H n b ; @.<XtX..J m 9 v.7XU.n.n.O...&.y.6.$XOXI.I ..; O.! 4X4X$X XtXXX!.O.O.*. . .p D O.Y.T.H.H.O.O.@.G ..S ..S m S OX+X1XO...P I ZX$XL.~ ~ t C v t m =X-X>XHXPXx.A.W V.E.:X>XvXPX|.V.l.}.:X}.3.9.2.8.*XPXqXHXPXVX8./ ` C 8.b.$XmXyXY.~.u.*.@.U D *.yXtXZXtX~ m.r.L.+X7XXX5.5.e.! ! O.I G ! ! I P ! P N I S P m.H.$X4X5.m.U.OXeXL.9XmXe.r.q 8 % a.L.K.m.y.Q..Xy m 8 Q ^ 6XoXMX^ ^ +.4.BXbX7XoXU.+.6.~ ~ H v N P K.b.MX4X3XCXKXbX}.4.l.}.PXPXIXSXIXc.S._ _ _.IX%X9.4.> B c.,XZ.zX:XIXPXcXqXUXPXZ.V.v : _ >X>X}.>X: v : A.A.E.>X>X*X*Xc.8.4.z.b.=XeXZXKX1X .X.U Y } L { L L L g h g g 7 f d h g r d g h L r f g g g f f f F { g [ 2 < L L L h F g r d =.[ [ 2 2 | | | r d h F [ { [ F F [ [ h d d h h 2 3 < f L [ } } { } U L p p p 6 y n.rXKXJXcXPXcXzXQ W [.;XLXS.x.0.l.}.xXPXcXAXLXiXcXV.].k.A.).zXiXcX;XzXPXcXxX:XxXVXHX[.9.x.HXPXvXPX",
"vXl.9.:X[.:XW E C H 8.6.Q.eXoX4X1X!...! y 6 s D Y @ @ o @ 6 5 n u u < $ @ $ * 4 a u 7 5 r r r 2 2 3 1 2 7 7 r f a r r 7 7 r r f d j d d 2 d d d d d j j 2 3 d j g f d 7 2 2 2 7 d d d d d d 7 3 r 7 2 7 r f p a f D A u & * 6 < 5 5 5 * # 8 : 8 > O v P.=XlX6X=X}.PXjXP.3._ xXPXPXvXxXjX-X-X{.V.6X4XlXZ.Z.C B z.{.@X6X=X-XJX6XjXjX}.vXvX*X>XcX:X:X8.9./ ( l.*XcXNXtX9X9X1Xu.y.U  .{ { { G.F.0XZXtX5.6.H 6.p.m.n.y.U.L.O.~ u.G.+X~ 6.!.!.8X3X1Xm.m.O.a.n.OX7Xi ~ ! $X!.5X8XmX!.L...I U Y  .G F A <X~.J.L.w.a.H.e.5.n S S A J L.v.+Xe.r.H n L.1X7Xy.y.b M v ; 8 z.l.xXvXxXLXPX: l.9.PXcX8.3.: W ) HXPX*X3.3.3.2.[.jXjXPXHXV O = 2.&.b.z.!.ZXZXT.Y.-.{ { Y p s.ZXCX!.L.p ~.5XmX5Xv.s.5.O.O.J G @...O.&.5.n.&.5...! M M b b 6 ! 5.O.VX4Xn.H.<XY.L.w K 9 #.I XX#X6.p.P $X4X&.&.b ; % 5.+.bXm.C.; # 6.e..XbXJXOXXX..H +.~ H 0 H N n.n.kXnXlX4X6XoX&X( 0.q.g.k.%XE `     B [.].).|.) 3.1.9.f.].].vXgX>XUXvX}.8.V.,X,XiXiX>X9.f.+ O : x.x.E.}.( v v Q 7.`.lX6XbX8X4X8X*.F D D F { f g f f g d h F L g F h f d d r f F F d d g g g f d f } } F F $ * L =.} L [ h h h =.| h 2 2 | [ | d h h h h g h h [ [ [ h d d h h d h [ $.$.[ L F f f Y F D g s % % S m.#X=XHXV.PXPX;XZ.Z.S.LXPXPXHXHXHXHXIXl.x.*XcXvXHXGX9.l.9.c.V.iXAXcXLX:XcXjXcXc.3.E V %XcXLXl.N.",
"}.l.x.-X|.lXE / C C 0.0.{.#X.XnXrXXX! G 6 6 D Y Y @ @ % & s 6 6 u p < @ X X @ 5 7 5 5 r r r r r r 2 3 1 2 2 r f f f r r 7 2 r r d d j h 2 d d d e e d h e e h j h f 7 1 3 1 2 d d f f d d d 7 < 2 1 1 7 f f A f F U A u @ X 5 6 u 5 A @ @ - 8 8 % : - oXoXwXkX-X-XzX}.[.2.3.[.LXPX:XHXcXjX6X{.|.-XMX4XP.{.0 B z.[.@XzX-XlXJXwXPXPX*XvX|.*XjXHXcX}.3.8./ 2.Z.wX6XmXyXNXKXtX*.*.X.X.U J F F.F.yXmXNX6.6.N n.p.a.M.@.3XH.....H.a.n.*.5.H.m.KX+XXX XXXI v.r.bX$X6 &.^ ~.K.nXmXtXL.XX..I ! I ..U Y 9 <XXXL.~.e.r.s.5.6.G S G G I v.G.!.e.e.S G L.5XeXp.z.8 t t ; y 5.6.VXHXjXHXPX= 9.3.PXPX3.3.> W E HXPX|.2.2.9.2.A.>X>XPXHXP > = &.) V.M.$XZXyXs.T.-.U { U p L.ZXKXL.XXG !.~.1X5Xv.v.w.O. ...O.! ..+...5.L.O.O.^ O.S N b 8 y O...6.tXnXm.a.mXr.v.9 4 b I O.5X1Xy.y.G eX~.5.O.M ; : +.5.NXm.K.o # y.y.7XbXbXI.{.+...I ^ I N N H n.m.eXlXCX6XlX=XP.( 9.8.c.c.%XZ T   + v ].|.c.A.f.2.3.q.k.].].SXgXgXGXIX}.S.9.>XjX;X;XjXN.9.+ . 0 x.x.[.*XE B R 4.+.z.6XeXNX7X5XnX*.D p D F } f g f g F f F F [ F } { f r r 7 f L F f g g g f f r d U [ } } * * g o.=.F k j [ h =.| d e d | h | g h f g g g h [ [ h [ h d d h d d [ L | $.| } L g a g D L D g 6 % 6 m.z.PXKX*XPXAX*XiXV.0.HXPXIXDXLXPXAXcXZ.).*XzX>X>XgX4.N.c.k.S.jXsXjXsXjXLXPXLX4.8.B E AXjXcXl.V.",
"gXcXIXPXxXV.4.+.0.b.K.OX#X4XbX.X!.F p & u p U & & . X u D 5 u 5 a p p @ X & $ X @ X 1 7 1 2 7 d d 2 r r 3 * * < 7 7 7 7 r d d r 2 2 e 2 e j e 2 2 e k d 2 e j d d d d d d d d d r r 2 1 < 3 2 r g f a a D f u u u & X X @ & a n & 6 9 6 ; X - - ; 8 % 8 b m.p.PXPX-XKXKX{.oX3.b.l.V.A.Z.x.2.= O v :X*X>XoX) / C l.3.-XA.cXjX-XvX:XvX,XgXE.].S.A.W 8.&.t.b.MX6XnXmXZX<Xw.*.=.X.@.D D G.T.9XCX9Xe.e.i 8 ! H.H.O.&.6.u.n...H OXXX@.1X<XY.H.e.y.e. X!.4X6.+.m.M.-Xm.v.w.5.1XtXXXw.U.!.~.L.&.O.9 n q r.K.!.!.W.K.v.H.n.! ! A ! G !.L.5X*.*.y 8 y.4XnXW.m.H M n 5 y P ^ 4X$X-XVXVXx.l.M.KXKX/ / . Z v xXzXAX7.c.2./ 9.*XjXMXKX( v y x.p..XW.KX0X0Xe.u.*.F U  .I uXZXmX@. .J Y.!.~.5Xe.5.+...M ..I w.w.y.n.v.ZXn.y.I G G G 0 b 9 9 6 $XK.$X4XrXQ.b y H M 6.rX1Xv.H.....r.s.H.9X XeXP H y y {.}.W.- 4 - ; 5.3X X7X7XH.^ ..+.~ H S H G N {.kXeX4XlXKXPX&X= = A.V.vXl.k.) ,.).vXvXPXAXPXIX>Xq.,.c.c.S.gXAXjXjXUXcX:XcXHXPXjXHXPXPXP.}.P.PXPX[.oXC 4.t.m.L.1XeXtXtXmXI O.n *.U F f Y L L r r r r f g F F [ { F F L L D f r r r 7 F L g g a D g } } r 7 2 | [ [ h h [ | | | 2 ] ] ] | [ d d h L [ [ L h j d e h [ [ [ [ | | | [ L L F L [ L U Y F s D p y % b b }.}.HXxX:XHXHXPXHXA.A.x.Z.Z.%Xq.<..   : %X%XzXIX4./ / x.A.l.N.;XjXcXHX:XIX[.Z.}.V.).8.l.= l ",
",X*X,X>X:X[.c.t.}.oXoX$X7X7XK.S D 6 5 5 X.U 6 . @ X @ D J 6 6 & p g g * * g r 1 * $ 7 r 1 < < 2 2 3 2 r r r r r * $ $ * 3 2 r d 2 2 2 3 3 d k j j k j j j j j e d d d d r 2 3 3 3 3 < 1 7 d f g f g f a a 4 * < & $ . X * ; n G u i i 9 ; X % % % ; - 8 % i 8 p.z.MX}.kXlXMX{.; v 8.3.[.) 8.O , : oX`.[.*X*XjXA.l.3.l.l.*XvX*XUXvXvX>XgXk.8.: = _ b.z.lXeXkX4XtXyX0Xw.O.*.U F F G.a.yXyXmXmXu.n G 6 6 5 w.r.6.5.m.! ^ m.P.3XOX7XL.v.#.! A n 8 i m I nXCXy.p.KXm.K.H.r.H S a.J.U.L.m.!.+X XG I ! NXbXW.U.XX.Xn.p.K.&.O.G  .J ~.~.~.*.y.n 8 G .X4XeX#X^ ^ n 9 5 i 9 U.4XVXKXKXQ.x.b.VXPXM.|.%.}.-X&X|.AX`.A.: : x.}.|.lXHX}.l.9.}.z.-XXXZX~.^.@.w.X.D U 6.*.mX5X2XA K U 9XNXtX8X&.5.~ H P a.a.J.H.a.tXtX1XH G G ~ G ! ..~ &.5XW.W..X@XQ.Q.M.P P 5.6.rX^ 5.a.e.yX<X2X2XyX5X3XK.Q.wX_ P Q.#XrX..w.y.5.~ n.U.XX3XJX XXX~ ~ ..M t M 8 H C.=XMX6X}.-X-XoXZ.A.l.cXzXzXPXIXGXgX,X,X|.>X,XAXq.N._ ( ,XS.V.IXjXcXHXHXcX*X8.V.b.Z.oXkXMX6X*X*XE 3.4.C.W.4X!.tXmX5XI ..S ~ N A f  .Y F D U { U U L F g f f r g D L {  .{ U L F D 7 f g r f f F f L L 2 2 $ h [ | | [ | [ h j 3 ] | ] [ ] d h h g f d f F [ [ [ | | | [ ] h h h d j F L } =.=.} Y D r s s p y % % : > *XPXDXjXsXxXDXoXx x 7.3.iX[.A.E Q ,.IXzX%X%X*XcX*Xl.8.x.x.Z.iX}.vXjX;XPXIXPXPXPXjXiXE Q ",
">X:X*X*X}.Z.l.p.-XoX4X#X3XW.W...Y u 5 5 U U & X . $ * D Y < 6 & r r r * < g f 7 * * r f 2 1 1 r r 1 2 r d r 7 1 3 * $ $ 3 3 2 7 2 1 2 3 3 k j ] j d k j j k e 2 d d d d d 2 2 3 3 < 1 7 d g f f r r a f u * * 5 & & @ @ % & y a i 9 5 u 8 o @ @ y - & ; = ; y z.M.VX=X-XkXKX=X0 : / 8.}.3.1., = v *X-X>X[.*X;XA.8.c.l.x.|.}.*XPXGXvXgXqX3.3.O + Q C.z.nXnXnXmXmX0XmXe.X.X.D U  .G.G.yXZX5XyXe.G p G 9 n ..5.&.6.a.....U. XOX{.BXH.v.J J S S n b m M CXeXU.M.oXK.!.a.n.S i e.H.y.m.m. XXX!.! I H 7XnXXXK.OX.Xm.U.p.&.&.G ! G J.Y.2X*.*.N b b 4X4X4X$XO.*.b p i y 9 a.rXrXwXVX#Xm.l.KXPXE.V.7.oXcXsX;XLX&X}.: = 3.|.[.KXjXjXl.t.l.M.eX7XmXJ.G.@.-.*.D S r.e.ZX<X0Xa f K <XtX8XXX&.+.~ H Q r.r.r.K.H.ZXmXXXH ~ H I ..I &.! ! !.$Xm. X$XK.W.b.) ^ p.5.$X*.O.e.*.~.yXmX2X8X5XnXm.W..XQ P b.#XeXy.w.5.m.^ y.I.tXXX7XU. XH ..O.I i 0 8 ^ P.C.MXkX=XjXPX{.&Xb.V.*XLX>XPXPXIXvXSX].A.%X>XAXV.).T ` k.V.S.;X>XcXHXHX:XHXl.c.l.{.|.KXPXJX=X;X( +.t.m.m.1X1XXXXXuXI ^ P N S D u { U  .U Y D D F F D g g f 7 a D L L L L U U g f 7 f D a g a g r L L g F * h h | | | | [ j d 2 ] | ] ] h d h h f d d g L [ [ | | [ [ ] h h h h h L [ [ } } } D D F s s y n N # % % = |.HXPXxXjXxXxXMXx v ) Q %XA.c.B R 2.iXAXzX*XLXjX;XV.x.9.x.N.jX;XxXxXjXIXLXPXIXvX;X*X( ) ",
"Z.;XjXcX:X>XoX6XwX@XCXCXK.G D 6 5 5 X. .& & X @ X u 6 g p @ * @ a a r 1 5 D D g r r L F 7 < * 1 1 * * 7 r d f r 7 1 3 * 3 3 2 2 2 3 1 3 e h j j ] ] ] ] ] j j h d d 2 2 3 3 3 3 2 7 r d g f r r 6 5 r f a & & a A A 5 5 6 & u u i ; ; u y % o o @ X % : 8 % o b y M.PXJX6XwXlXA.A.2.3.*XPXPX[.[.-XHX*XjXjXPXMXzX-X[.W V x.}.>X:X:XvXvXUX9.b.V / z.CXeXtX4XyXeX1X*.a. .U { F  .s.ZXyXmXtXu.a.n 6 - G G a.5X5X$X4Xr..X XU.m.=XoXOX5.r.G ~ G A S 0 t 4 Q Q 3X#XU.nX7XI ~ - ; &.8XmXe.a.L. X Xy.y.O.3XOXn.p.4XkXW.C.Q.n.U.r.v.s.tXtXtX^ U i i b C.m.eXwXe.p.9 y 9 - ; 5.mXVXnXZX@X6.3.@XV.9.b.jXPXHXsXsXiX).*XV Z ( x.x.VXwXVXS.V.Z.C.nXtXyXF.F.@.o.{ D G $X~.KXd.d.A A J T.~.L.H.&.5.&.~ ..r.e.5.+X!.1XXX4Xy.e.H H 5...XX5XXX$XtXtX{..Xp.y.+.^ &.W..Xm.!.v.yXCXu.v.I S S r.n.z.) P lXW.z.y.y.a.I.1X Xy.~ b y.u.8XNXNXm.u.G ^ ~ b H 8 H M {.oXkX4X=XLXLX:XjXZ.xX*X).).).) / .   c Z >X%XS.c c _ %X].}.[.qXHXPX}.A.O v Z b.x.C.z.^ W W 3.4.P.eX7X1XrXuX5.*.u Y I N 9 4 6 X.U D r 5 p f D F F { } { g f D D f a D F L { { L { { D a 6 r r { L } o.3 h h [ [ [ [ [ h j ] ] ] ] [ ] j d F F L [ { $.$.[ | ] j j j j h [ L L | $.[ F h g 1 6 g s s % - 8 t 8 ; = C x.*X*XjXLXxXPX[.|.3.7.LXAXPXsXIXPXiX>X;XvXPXiX;XzXiX) Q D.V.A.cXxXDX;XAXHXLXcXPXPXxXcX",
").jXvXAX*X*XQ.oX-X.XrXyXH.G G p 5 u U U * * X $ $ p 6 5 5 $ & * 5 r r r r g L L r r L F r < 3 2 2 * * 1 7 r f g 2 1 1 < 3 3 2 2 2 3 2 2 d h j k j ] ] ] ] j k k d d 2 3 3 3 2 2 2 7 d d d d r r 7 5 7 r u & & a A D u u 6 ; u u a ; & y y ; o X o # 8 y y % % ; 0 Z.PXKXlX@XPXP.A.4.3.jXPXPX|.|.HXvX:XHXHXHX*XcXvXjXV V 4.*X*X}.,XIXqXUXD.8.P P z.eXKXmXrXCX1XtXe.*. .X.X. .D s.KXKXyXmXs.u.A 9 6 J ! w.1X~.4X1Xy.1X=XOX{.OX X#X&.e.H ! ~ G G i b b I ^ OX.X.X#X3X! ^ & - ..3XeXn.r.H.#XXX6.&.I =X#Xm.M.-XwX.XQ.K.b.Q.p.K.U.1XXX~.S I M i P y.b.rXkXn.K.i i i 6 ; U 4XrXVXKXwX6.3.[.[.|.z.;XMXKXsXIXDX&XA.v B 2.Z.x.wXjXcXA.S.Q.|.nXtX9Xu.i.@.#.U F p ~.~.ZXs.T.a A J J.L.v.a.5.&.^ P ^ r.r.&.W.OX.X.X8XH.p.H H &.5.3X#X8X3X1XOX#XoXt.4.+.6.6..X!.p.v.!.tXmXY.r.G G  .n.6.Q.I N #X$XM.y.6.H.I. X Xm...n 6.e.OXNX7XI.n.G ~ ^ b b m M H Q.b.JXKXMXJXzX6XcX}.oX;X*XZ.jX/ /     C v vX}.V.= > _ A.[.V.S.*XHXPX}.A.O v 0 b.Z.B.`.R 7._ c.4.K.3XnXtXtX5X=.! p p D ! ; ; - Y D D u 5 r r g g g L } U f g D g r r g F F U { L { { F g r r f { L } o.1 h h ] h j ] [ ] ] | ] j ] [ h d j h L [ [ { | $.| ] ] j j j j h [ | $.o.| L h h g r 6 a p s @ % 8 8 ; ; % = Z.[.vXsXHXcX;X6X*XE <.LXIXAX;XHXLXzXiXzXHXiXPXcXjX;XQ W x.S.x.HXcXcXLX>XjXHXzXIXLXHXHX",
"0.Z.A.,X}.cX-X-XrXrXW.s.U 6 6 6 A U 6 & & & @ 5 & 5 5 6 6 < 6 < 5 u 5 r r r g g 1 1 g g r 7 7 f d 1 < < * * < < 7 7 7 7 7 7 2 2 3 3 d e 2 d d ] ] | [ | ;.:.] e e 7 7 7 r d d d d d d r 7 1 1 1 r 7 5 r a 6 6 p r p 5 6 & & 5 6 5 & % ; ; 8 @ @ X X o o % : y y - b {.{.jX=XkXlXLX|.[.l.Z.}.AXPX*X[.A./ B B W *XZ.xXQ ( Z V.b.>X|.vX>XHX-XwX.XC.ZXeXmX5XtXuXe.d.F U X.F F J.J.KX9X9Xe.@.5 q J e.5.7X1XXXO.*...O.&.m.b..XOX XC.U. XU.~ I I ~ ! ~ ! n. X!.XXI.1XL. X6.u.G i i 5.5.a.a.K.4X4XXXOXz.b.Q.=X-X-X-X@X@X{.m.Q.r.m.K.L.K.ZX*...b 0 H P ^ #X6XU.W.H p A p p S W.Q.tXCXJXC.x.V v A.{.KX6X{.IXAXc.Z.jXsXoX( 8.0.}.wXjX[.}.VXwXCXmX5Xi.i.-.#.U *.=.yXyXtX .U f f p *.5.w.n.C.K.b.m.M..XU.y..X!..X$X$XL.U.I H W.m. Xy.a.m.K.OXI H b M 5.K.m.!..X4X5X1X..D J S U q q 8 b Q.$XeXQ..XM.p.p. XXX3X3Xe.n 9 9 i n.3X8XXXbXU...^ ! ^ b ; > ~ M C.}.4X*XzXHXcX*XZ l ) 4.jX8.0.> = 3.) %XiXIXPXAX9.9.3.Z.Z.*X:XvXjXPX|.{.x.LXMXl.x.> ( +.z.m.JX3X7XrX1XX.5 A ..P ; u   Y p A g U D r @ @ * < 7 f L L L L L D g a r 7 1 r f g U } { { F g L L L L } j | [ [ ] h ] [ ] ] ] ] ] ] ] j h [ [ | $.| [ F g d e k h ] [ [ [ | [ [ L r * $ * * s r g D A % @ % 6 b v t = V : *XlXkXMX4XLXPX&XsX0.jX;XPXHX|.zX>X( ,.v ).).;XiX,.) v l.N.c.A.[.vXIXHXHXxXvXiXjXjX",
"8.).V.,X}.VX=X@X.XrXH.a.Y u & s & Y 6 & * X $ u p r a 5 & 6 < < a A u g g r f f a r F F r 7 7 d r 3 * < < < < < 7 7 d d f d 7 2 3 3 d e 2 2 e j e ] ] [ >.>.] 2 2 2 2 7 r d d d f f d 7 2 1 < < r r 5 r a 5 5 u u p u u 6 6 y 5 ; & & & % 5 & ; o o o % ; y 8 % ; - wX=XMXoX|.PXHXZ.*X9.*X:XPXjXxX[.[.E E V V [.:X*XE W v 9.9.[.*X:XwX:X*X-XQ.m.KX7X5X5XZXyXu.r.D }  .J A Y.<XyX5XZXa.r.A - G *.e.<X9X5X! @.H G y.W.m.OXOX=XI.p.#XU.+.^ Q ! I ....!.1XXXU.H.!.XX!.M.y.Q M 8 +.y.n.m.I.XXL.I. X6.b.b.|.qXwXkX-XZ.{.E.Q.t.m.W.K.L.!.O.^ 8 b H ^ ~ 6XeXW..X! t q 5 u 8 K.W.CXnXlXQ.{.0 ; }.{.kX=XoXAXPXA.[.V.:XvX2.9.c.jXwXjX|.*XMXnXCXnX<Xw.-.-.@.A *.*.2XyX5X*.*.D A u X.O.5.u.I.I.z.{.m..XH.a.W.!.OX7XXX!. X..~ U.a.W.n.a.K.L.W.+.~ H b 6.Q.K.W.!.5XXX.X!  .J I n 4 i i P U.4XoXC.Q.M.m.K.L.H.XX3Xy.m H b b y.1X3XBXBX XG H ~ O.t ; t P Q {.b.MXoXwXLXcX-Xv v 4.) *Xc.3.: > ) ( *XjX}.PXDX1.3.3.[.V.[.*XjXcXHX[.b.P.LXPXh.t.v 4.3.z.C.rXW.1XtXZX=.u 5 Y  .i 6   D Y D g D r s X . @ & 7 r f L } U L L F g r 1 * f g g L } { { F L } L { F [ L [ h ] j j ] ] ] ] ] ] ] ] ] h [ | | | } { L h d 2 2 j ] [ | | | | | | L r $ $ * < r r p r s - @   & ; 0 B > = : LX;XVXMXMXVXMX6X&XV.iX;XPXzX%X;X>X/ ) Z |.|.jX*X4.0.: 0.x.l.).*XPXHXzX;XxXiX:X:X:X",
"v 1.8.Z.A.jX=XwX=X$X^ X.s 6 * Y Y D @ * < & D 5 r * r < & p p D 5 u 6 p D u D f r 7 F F f f f h f 2 2 r r 7 7 1 * < 2 7 7 7 2 2 3 3 e e e e 3 2 e | | | >.>.| j j j j d d d d d 2 2 1 2 7 r r r 7 r 7 5 u 6 & 4 & 5 6 5 6 ; 5 ; u y 5 ; @ 8 - y # % # % X o % - - o y m {.-XPXoXlXjXxX}.( _ W ) [.7.0.O O   . 9.;XoX}.P.b.9.9.x.x.A.PXlXlXKX4XrX1XCXKXmXuXJ.-.*.e.X. .~.~.yX5X9XH.v.6 A G I ~.tX9XO.e.A r.a.KXmXI.4X{.4XoXoX{.n.y.z.K.4X3X3XW.7X3X8XBXBX5.....5.y.3X1XI.I.5.5.~ u.e.U.KX7XK.U.z.@X}.wX-XV.Z.=X@X@X.X#Xm.@XrX2X4X!.!.+X&.+.; C t OX=XK..X5.M A p a ; s.a.rX$XlXeXjXB V kXP.zXJXLXB.q.> 8.9.;XHXl.) ) S.V.VXVXLXcXkXeX4XL.o.#.@.@. .J.J.mXmXW.S q K G  .H.J.n.6.y.t.Q 5.5.#X7X#X4X4XbXCX#XU.H.+.y.I.m.#Xm.n.bXOX5.# % t t y.W.W.+X~.CX&.e.D J I G S n 0 b t r.lXnX=X.XQ.$X4XI.m.1XI.I.n m b 4 b 5.5.BX8X8XH.m.~ H H N N : 8 +.C 4XCX-XMXHXHXl.b.3.8.gXHXPXjXxXHXHXHXxXHX*XvXPXV.l.V ) V.*X*XjXjXvXPXPXzX*X4.0.3.P.C.MX4X5XtXXX..U D o.=.5 * @ # @ D D 6 p X.} o.* $ 1 r r * $ < f g g F { } L F L 7 7 * < 7 a L L { } F { f f f 2 e d e e d j ] ] ] ] ] ] ] | | [ h f 2 3 1 d h h ] [ [ [ [ [ h d 2 7 r 3 @ @ * < } U L 6 u p a @ @ @ % ; = = - ; : P.P.cXHX-XzXMX}.) W ) f.DXZ.[.: > > x.x.A.}.;X*X}.3.W |.A.x.PXHXjX;XLXvX*XV.l.",
"0.9.1.q.l.V.@X4X.XtXW./.Y s p 6 p u u < u & 5 u p 6 u & * p f p q 5 6 A u f a 7 r a F g a r 7 r r * 7 g r 7 7 < 7 7 d f f d 2 3 3 3 2 e e k j j ] ] | | R.R.;.k d j j d d d d d 7 2 2 7 7 1 1 r f a 5 1 u F Y g f u p A S n 9 9 i ; & Y G p ; i y N i % - % : ; - - ; % Z.z.kX6X-XvX*XHXx.[.: l }.cXxX7.l.V.x.oXDXcXPXcXcXsXxXt.8.Z.[.}.=XlXbX1XZXrX5XG.Y.s.e.-.*.U !.uX2XZXyX~.J J O.*.yX9X8X5.O.....L.NXKXy.y.N b t I H 5.+.U.$XQ.U.Q.rX X4X3X3XH.....K G 4 S b m.z.3X=X6XOX=X{.oX7X+.6.5.6.I.4X:X-X}.jXUX@X@X|.lXlXC.z.p.K.v.5Xy.y.v.M.z.0 M 5.5.=XnXv.M n A n 6 n n rXnXlXKXPX9.0.Z.P.MXMX=XT C . _ / PXPX9.E B c.9.KX*X@XkXkXeX2Xu.e.e.J J { 0X$XmXZX5.p i @. .T.H.s.5.5.7XoXK.I.C.K.U.W.M.p.K.OX4X=X=Xy.6.C.n.OX=X{.5.^ v ^ I m.I. XXXXX7X1Xs.+X2XG.s.w.*.~ ! Q ..+..Xp.y.m..X#Xy.u.5.e.m.n.XXOX8X~ ..b 0 t 6.5.8XtXbXn.u.S I N y M - o +.OXkX-XlX*XMXPXA.[.x.cXvXcXHXxX:XZ.: v W E PXZ.[.B v W V.x.Z.}.xXxXMX6X;Xx.b.A.4XkXPXkXtX..O.a A { 5 5 * X   o U G D * * F g r U L L =.o.* $ L F F * < f g L } { { U D 7 * $ $ $ a r d g r 2 3 $ * [ | ] ] ] :.] ] ] k | | ] 3 3 $ < f g | [ [ [ | [ d d d d d 3 * r f } f g 1 r o.Y } 6 @ P P # o @ o o = v 0 # = y : P.lXVX-XHXPXZ.|./ ` PXzXiX>X|.*XLXHXPXHXPXIXHXjXHX) / l.x.c.cXzX;XPXPX%X}.",
"N.3.0.8.9.b.@X-XeXtXQ.W.Y u p r 5 < u p 6 4 6 r p 5 5 * $ 5 p A u p 5 f r D g 7 r r g f a f 7 r d * 1 f 7 7 7 1 7 7 f f f 7 2 2 3 3 2 e e e k k ] ] | | R.R.;.e d d j d d d d d d 7 7 r 7 < 3 < g a 5 6 u D D a p u u p n p 9 5 i 6 y a p 8 8 y b M 8 & % - ; : y O % o z.V.6X6XjXlXvXjXx.l.l v Z.cXPXl.9.Z.x.}.cXHXHXvXcXcXsX0.c.9.*X}.6X=XeXeXnX7XtXJ.T.s.e.-.U { T.ZXyXZXmX~.J G  .X.BX5X9XO.*.U I !.KXKX5.6.t i b I M +.^ b.#XoXQ.K.4X$XeXXX3XOX..~ n 9 J G H z.r.kXOXkX3X X#X7X=X+.5.t.6.K.oX*XwXwXcXVX-X*XwX@X-XC.b.n..X!.7Xr.5.r.M.K.v 8 +.5.7XbXU.G S i p 5 M S rXrXnXKXVXp.c.S.b.PXdXlXV B + _ ( cXHX9.W V p.8.lX-X-XVXkX4X4Xa.w.-.J J o.0XmXZXKX! n i X.w.u.J.n.6.z.K.=Xb.P.P.m.m..Xp.K.K.I.OXoX Xy.y.K.M.7X6X X4...M ^ ~ m.v.OX X8X~.XXL.L.v.s.v.y.y...~ M ^ 6.m.z.6.I.m. XM.v.y.y.y.n.8X3X XO.^ 0 b i e.6.8X3X7Xn.z.P S S m t - # H =XP.=X6XJXPXVXV.A.[.jXxXPXHXjX*X[.: v / W HX|.[.l Z W [.V.[.Z.sXcXDXjX;Xb.b.P.6XOXKXKX4X&.X.D u X.5 6 $ X X @ A g g < & F L p D F L } L * < [ F F < 1 F D g L U o.} g 7 * $ @ X 7 r g g 7 2 3 3 3 ] [ | ] ] :.| ] ] ] | | j 3 3 * 3 f g [ [ | [ [ [ j d e e j 2 < r r L f g 7 r U U U s 5 A u 9 % @ X o % ; ; - = y C P.PXlXjXzXHX[.A.) ) >XIXGX*X}.*XiXjXAXPXPXPXHXzXPX) 2.0.x.l.cXzXxXPXIX*X[.",
"PX%X:X8.2.p.Z.p..X$X4XZXQ.^ Y 5 u p A p @ $ X 5 4 u q 5 4 & & * 6 5 5 6 < g a < r 7 g f f f r f f * < r 7 1 7 7 7 f g g f 7 2 3 2 2 2 2 e k k k e [ ;.:.>.>.;.] d h h j d 7 7 7 3 3 3 2 7 7 r g f a 7 5 a A f 5 u 5 5 u p a i u i 9 y & ; & t t & 8 % % o y : b ; 0 z.z.PXjXwXjXlX*XjX:XPXPX|.Z.b.}.*X:XvXHXcXHX;X&X8.8.[.PXDXA.c.C A.l.[.C.lXKXeX5X7XJ.J.d.-.w.o.*.e.0X~.yXyX~.! X.X.F a.w.5Xv.H...I G.KXmXe.5.0 i t S v Q ~ n.#X4X4XOX4X4XeXm.a.~ q H b 9 I @ 8 G Q I.b.6X7XOX6X=X6.; - m 8 E b.S.*X:X-XwX@X[.Q./ _ t = % ; 8 !.$X4XW.M.bX{.lXC.y.OX XL.&.&.S i 6 6 6 m.m.eXVXKXQ.oXp.0.JXP.oX&X%Xh.iX[.iXDX9.v v 4.3.wXlXwXlXwX$X1Xa.@.#.J J d.0XmX^.1XS *.e.i.G.*.H.L. X.XC.z.6.=XwXK.K.NX#X=XoXoXbXMXkXC.I.5.5..X4X3Xm.Q.K. X XCX3XBXv.G.I ! r.~.XXZXZXXXXXW.#X3XbX4Xn.!..XNXOX7XOXXX3X8X XH.5.O.5.I.I.y.m 0 8 = y.7XKX+XXXy.! ^ Q n b v 0 M E kX=XwX4X@XKXcX;X/ v / ( A.*X3..   > : [.}.@X}.,X9.V.8.A.V.>XMXcX6XsX*X6XjXHXCXCXrX^ i p Y A & X @ @ & r 5 G & 1 * * s L L g F L L g r h } F F 1 7 L g 7 a F F F F L L L g r 7 r g f 2 3 2 2 2 j j | | ] :.>.] ] ] | | ] 2 d | | =.| | | $.j j j d e 3 2 h L F L g { F L r r a A 5 & & # @ D ; # o # % # % = y # o v Z.P.HXMXxXPXPX*X[.S.:X:XPXPXPXcXvX9.9.V Q |.).*Xq.4.v 0.l.Z.x.;XjXiXcXPX",
"zX*X*X8.9.0.Z.V.wX-XrX4XQ.=.! u 5 p i & * $ . 5 6 A 4 & & @ * & 5 5 u 5 5 A p 6 r 7 g f a f 7 f r * * 7 7 7 7 7 f g D g f 7 2 3 2 3 3 3 2 d j k k [ :.:.>.R.| e j h h j r 2 d d r 2 2 2 2 2 7 f f r 5 5 a p u 6 6 5 6 5 y 5 p p y 6 ; @ & ; y i - 6 % % % N : : : b y.0.-X6XMXjXHX-X>X}.HXHX|.A.9.xXzXPXMXjXLXjXP.}.<.7.[.PXvXV.Z.Z 0.9.|.{.KXKX3X1X1XJ.G.s.e.e.X.o.w.0X0XCXyX~.....G U u.r.<XG.u.&.G G.1XNXa.e.t b 0 b 0 H ~ y.$XrXnXnXeX7X4Xn.!.G q n b A m i - H ~  X{.MX7X3XPXeX6.- = ; 8 ~ b.b.-XjX-XwXqX>X@XQ _ 0 % - 0 b H.$X$Xm.n.KXOXoXz.6.=X=XXX&.O.i G p 5 5 v.m.CXKXwX@X-X5.t.kX&X=XxX%Xh.&X:X:XcX0.v B / &.|.cXwXkXkXW.$Xa.#.#.{ { J.yXZX~.~.S w.*.G.a.O.v.L.K.K.z.c.z.4X-XC.b.eXeXOX X X6X6X7XK. Xz.z.{.kXOXI.Q.Q.P..X7X8X8Xy.v.J J e.L.L.5X1X1X4XXXOXOX7X4Xm.W..XOX3XBX$X1XtX1X XOX5.y.u.OXm.n.; n @ # 6.JX7X X8Xn.! Q M m N b % m H =XP.JX6XoXJXMXjX_ E ( ) [.[.) +   > : x.}.:X[.>Xx.9.D.[.V.V.MXHXDXDXxXxXxXlXnX5XtX..i 5 D U & @ @ @ & p D U @ $ & 1 r F L f g L F F h F { F L r a F f 7 r f L L { { { L f 7 f f d 7 3 3 d j j ] j | | | >.>.] ] ] ] ] h d j | { =.| [ | o.h e d h d 2 2 h [ L h r F f F r 7 p D 5 & & # & G & # o o o # - y ; # = B {.{.PXxX*XPXPX:X*XV.:XAXPXHXAX;XxX3.l.E V iX;X[.9.8.v x.l.A.A.AXcXiXcXjX",
"S.zXiX).[.` ( 9.b.m.$X$X2Xv.p.I G 9 S G U A # . . & 4 n G 6 - & 5 < a u u f a a 6 6 a r 7 7 1 r 7 < < r f r r f r 7 1 1 7 7 7 2 1 3 3 3 2 d k k e :.R.>.:.| ] j d j h d 2 2 7 d g d r r 2 < < 1 r 7 5 r a u 5 5 5 p 5 u 6 ; p n 9 & @ ; ; 8 ; ; # X o % 8 y - b y p.MXkXlX@XlX}.Z.|.*X:XvXcXjXHXP.( E V.[.x.9.&XC E   . : V.[.&X[.) ,.f.N.B.{.t.CXZXmX2X~.J.*.o.r.*.X.*.*.0X<XCXH.L.@.O.q 9 @.Y.7XL.~.I v.5.3X!.M.K.m. X.XoX X3XU.W.!.5XeXtXCXmXtX8Xn.6.G S i e.n.#XI.6X6X7X{.3X7XOX X6.z.5.y.P.{.P.6XjX*XwXkXlXlX9.b.^ N H H G tXXXU.z.n.I.+.~ 4.7.kX6Xp.i n n i 6 6 y v.n.eX-XkXKXMX/ <.^ U.C.sXzXjXLXPXsXxX[.8.9.+.( l.jXjXVXVX@X1Xv.@.@.#.#.~.ZXmX^.~.s.KXZXG.T.v.ZXNX^ W : 0 : v m ) 5.K.#XCXJXlX=XC.b.) ) # - M K.K.MXMXJXbXmXXXOXy.J ..S I J ! I &.&.a.v.eX.X.X#X4XeX.X$Xy.u...9 i S ~ L.OXI.6.+.~ +.L.3X X^ H - 5.5.#XnX Xr.5.H P H S 8 ; % H H eXMXJXkXkXkX0.t.&.&.wX6X6XC.b.@X{.JXMXHXHXIXcX[.}.V.V.`.P.*XcXMXzX-X6XkXeX+.P S ..X.r * * 1 g L U U p r F F } o.{ L { L F { L L f 7 h [ [ L g h g f f f 2 r r r g L { { g d r 1 $ 3 2 e k ] ] ] ] ] :.:.R.:.:.| [ | [ | | | $.{ f F h 2 d h | [ h d f f f d r f g D a s r A p 5 6 6 6 & I G t % X X o # : ; = # y b A.*X-XLXcXxXcXvXx.q.f.l.|.%X%Xv l   + W |.%XV.].0.8.3.f.c.).;XAXPXjX",
"> ;XjX).[.V E Q 6.t.m.n.2XtXZX5XmXG 9 5 5 n I X X o @ & 9 9 q p 6 * a 5 5 u 5 a & * 7 7 < < 3 7 r r r f g g f f < * $ $ 3 2 d d 2 2 3 3 2 d d e 2 j ] | [ ] d 3 d j j 2 3 * 3 3 7 2 r f d 7 7 r * * < 7 a u a f p Y p p 5 6 D D 5 & @ p y 8 o o o . : G b ; y M.C.kX@X.XMXVXkXp.c.Z.Z.*X*XjX,X:XcX*X|.: O 8.3.*Xl.l.: v 2.jX:X;XiXiX%X%Xc.f.b.z.W.#XtXmXyXyXJ.G.X. .O.{ U d.e.0XKXCXG.~...! n I i a.v.+XO.r.6.w.6.v.C.#X3XK.n.y.4X1Xa.a.y.6.y.U.H.tXOX8X! O.!.XXI.MX6XP.C.4.M H 2.6.=X3XJXK.K.z.&X[.;X*XoX*X=XwXHX#XKX4X.X3X7X3X8XU.I.C.n.C = - C.B.kX3X5.8 b G A u S G !.W.CXrX4XPXPX6.h.M FXPXIXLXzXA.V.9.V.vX}.}.3.3.0.:X:XVXVX4X5Xa.@.-.#.#.~.KXyX2X1XJ.yX2Xu.G. .<XNX^ z.H C E _ / z.z.P.6X{.7XMXMXOX{.2.^ : 0 E OX XbX=X=X4X7XI.OX*.K I G S q n G 6.e.W.m.rX@XrXrX4XeXz.a.b H 9 4 9 % # y.y.KXH.H.H S M OX+X!.XX= t n H.n.1XW.m.P H t t t y : t 0 P.=XJX-X-XJXJXPXZ.p.oXQ.kXMXHXPXlXMXC.A.3.3.>XjXvXW E ( A.A.|.*XHXDXxX@XP.G M P U U r F F L U L L U } } *.} } { g d F } o.{ g h F h [ | [ L F g g g g f g g g f f f g D f 7 7 1 $ $ 3 3 3 k j ] k k | :.(.:.:.j j [ [ [ d g h L h | $.[ h h | [ h h g g h g g L L U L L L U U U G  .O.n 9 M H M b t t 0 = y 0 - O o C H VXHX-X[.}.PX}.|.l V x.xXIX9.V.N.l.}.HXcXAXPXPXcXAXN.c.9.[.Z.;XiX",
"v zXvXV.V.) P 0 &.0.m.K.4XeX4XXXXX! 6 n i i G . @ X @ - 9 9 6 6 a 6 F 6 4 5 6 7 $ $ < 6 6 4 < r r g f a f f q q * $ $ * < 7 d f d d 2 3 2 d d e 2 j ] | j h j ] j h j 2 3 * * * 2 2 r d d 7 7 r * * 6 r u 6 5 p p F 5 5 6 6 G S y 6 6 a y % X o # % y M % ; y m.C.6XOX}.cXJX=XP.x.V.l.[.vXHXjX>XHX[.A.= = 2.<.jXb.9.v Z 2.*X;X&XpXIXSX%XN.h.3.c.OXeXNXZXtXrXs.s.*.*.X.F Y *.u.yX5X9XY.~...@.p J U v.s.9Xe.r.&.&.5.m.I.#XOXM.n.p.#X1X6.6.y.y.y. X7XtXOX$X^ 5.1Xa.C.=XMXP.C.) C t +.4.{.4X4X{.{.2.oXoX=X*X6X6X*XwXVXkXJXeX4XXX3XOX1XU.3XU.K.b # O oX{.6X7X5.H m 9 i 6 I I W..XnX4X6XPXKXb.C.0 6X6XsXzX;Xl.}.[.9.jX;X:X4.8.3.*X}.kXeXeXtXu.@.@.{ { 2XKXyX1X1Xv.tXtXu.v.5.+X7Xy.5.x Z H 4.8.z.0.C.OX=XkXMXMX=XC./ ~ : 8 ~ Q.OX=X=X6XOX3XOX<Xy.! J q q S G S y.6.U.m.4XW.{..XnX4XK.y.G H 9 8 8 6 8 a.y.NXn.n.H b Q <XXX!.8Xb 9 b n.XX7XL.J.I G b M b : - 0 m Q.4XKX=XkXVXKXKXoX{.b.C.JXPXPXJXKXKXp.x.8.3.>XHXxX/ / 4.*XZ.A.Z.MXDXjXP.K.P I D Y U 5 s F L } } U L Y D =.} { [ F g [ =.o.F 7 f h [ | [ L F g f g f f g f g F g g f f f r 7 d 7 3 * 3 3 $ e e ] ] j | :.(.:.:.j j | | | g h g F f L F L [ h [ h h h h [ L g D F L L F D F F A F F J  .S p S ! ! P b : ; = : y ; = # H v lXHXHX-X*X:X|.[.B W V.PXAXA.f.9.x.jX*X:XHXHXjXLXPXf.V.0.:XA.%XcX",
"D.,X%XiXPXjX[.{.z.t.t.p.P.oX#XkXBX8XJ G S q n i i X $ # & 9 9 i a 5 J * @ * $ $ * $ < 7 7 r 7 f r D g 7 7 7 1 < < < 7 d d f d d 2 2 2 3 3 e e 2 e e 3 e 2 e 2 e r d f d 2 2 2 2 3 * 3 1 2 2 r g r r a f 6 $ $ & 4 u $ & & & S a p 5 i 6 ; o @ # y i ; t b Q.M.4X=XwX4X-XPXPXb.c.l.b.x.[.jXjXiX*XcXxXHX[.x.E W >XjXLX*X:X6XHXHXHXiXiXpX%XHXzX/ / z.Q.$X5X1XyXXX5Xr.G.w.X.*. . .*.9XyXyXNX~.1XI p n 5 6 O.a.m.3X7Xy. X.XOX Xn. X3Xy.n.H S I H 8 S 0 ^ &.&. X$XH.5XOXn.j.0 0 t 5.6.{.C.Q.}.C.4XMXx.C.P.{.oXjXwX{.-X}.Q.Q.P. Xm.XXOX!.L.I.M H ; W +.@XoX{.K.H M m b i 9 6.6.nXnXVXwXkXMXJX6XFX<.FXsXcXHX`.= O O = *XxXxX+.4./ [.[.lXwXCXNXr.o.@.J  .d.0XuX2X2XY U Y L.v.H.5.+.XXP.kX=XZ.*X@X{.Z.4X4X6XOXP. XI.{.n.{.b.t. XeX6XK. X{.7X7XBX8XL.r.e.J A v.Y.a.mX~.1XrXwXwXeXW.W.5.$X7X1X1XH.y.5.m.U.BXNXy.S I e.u.7XH.L.; % 0 n.U.XX3Xv.! ..0 i 9 M ; Q ^ K.Z.kX-XjXkXcXwX:X:XHXPX}.6X0.C.b.2.9.0.= >   O 2.*XvXx.0.+.0.0.x.x.oX-XHXMXKXp.a.P G U g F 1 r a L U Y D s 1 7 a D F d 7 d f g f d 2 2 g d g g f g F f f L r f f f g L { } f f f r 3 3 2 e d k e ] | | :.| (.:.;.j j [ | [ j F g F g F h [ [ h | $.[ [ h h L g g F U U U U D D p U I q 9 9 I D n n 6 # # ; t b M - : v Z.P.jXjXjX*XcXcXPXPX%XV.A.zXzXPXHXPXIXPX%XjXx.l.].cXHXx.).v 0.l.).A.",
"9.*X%XHXzXjX[.[.l.c.4.0.}.*X;XsXMXI.~ ~ 9 N 6 a u X @ * X f q 4 7 7 U * * @ $ $ $ $ < 7 r r r r f f f r 1 < < 1 < 1 2 r d d d r r 2 2 3 e 2 j 3 2 j 3 2 e 3 d d j d d r 2 2 2 1 1 3 3 1 1 2 r g r a g f 1 $ $ & q 4 & * & 6 u a q p A & 5 X # X S t = C v m.P.6X-XwX6XjXKXPXt.b.x.B.A.V.vXzXjX;XxXLXzX{.b.C +.;XlXlXwX6XzXKXKXvXzX>XhXiXiXjX/ ( l.-XoX6X=XkX=X=Xa.v.5.*.@.{ { @.0X/.ZXyXL.1X..9 b 6 0 ~ m.U.3X.Xy.OX=X X{.C.C.kXa.r.G I S 9 ! 6 i ! 5.e.!.W.1X+XXXv.r.i b 0 5.5.K..Xz.{.|.@XVXp.[.[.[.oXwXlX-XQ.{.{.P.b.{.W..XXXXXs.H.! H - ^ ^ =X=XQ.Q.~ v M 0 8 6 y.6.VXwXjXlXHXHXxXzXAX7.iXdXAXjX`.= = = = *XxXxX2.2.3.Z.A.cXwXVXrXs.X.@.F { i.yX2X2XXXU G ! L.v.G.w.5.m.3X3X6X6.bXoX}.Q.}.6X3XOXK.K.{.{.z.P.y.t.=X6XMXC.oXI.#X1XmX4X+Xa.e.G U w.J.Y.XX5XtX5X=XkXbXP. X6.#X6XeX3Xn.5.y.m..XtXmXr.H G 5.r.9Xv.L.; - i H.v.7X1XH.! ! m m 0 v - / P P.Q.lX:X:XjXvXUX:XvXPXHXxX>Xt.x.Z.8.3.l.= # . + ,.xXcXx.9.) 9.l.l.l.>X%XxXVXlXm.n.I n Y p D 5 5 u Y U I G 6 & & D A D a g f g g f r r r r r p g a L L r g L a r r L f U { U g f f r < 3 2 j d d d ] | | :.| (.>.| ] ] ] [ | h h f L f h g L h | | $.{ F L F F F D D U U Y F A A D D U u $ S D ! p n 9 & @ 5 ; C N ; b t Q.V.wXlXvXxXjXcXPXHX*X|.x.HXcXAXPXAXPXHX[.>Xl.V.|.vXvXA.[.Z 0.f.[.A.",
"HXcX*XiXvX;XzXLXV.)._ _ ) c.V.*XoXbX4X.X^ P y D Y 6 1 * X a f f { D 7 @ X $ < 7 2 7 r f f a r r 7 1 1 1 1 2 2 2 d d r r r r r r d d 2 2 2 2 d 3 2 d r r d r 2 d r r r r r d f g 7 2 2 7 2 1 1 7 6 6 r f 7 1 < 6 & $ X X @ & 4 4 u 5 4 X # @ 5 i - - H t.C.MX=X-X-XjXPXDXl.8.v [.}.[.>Xl.3.4.{.|.MX6X=XzXPX}.c.+.Q.P.jX6XzXl.0.v c Z k.c.%X[./ W C l.Z.[.P.6XkXeX3X3Xv.w.e.-.@.#.-.-.0X0XyXCX!.&.! H b i y.6.5.6.=Xt.4.y.C.C.{.6X5.r.G ! I i i 6 6 i K.J.H.XXv.+XXX! J 8 - ..BXMXb.b.p.4X-X3.8.P wX;X}.[.[.oX=X=X4X#XoXz.U.U.4XeXXX@. .; y y z.z.VX}.4.4.C M H 8 8 P #X$XlXqXE.:X}.jXAXIXPXB.`.).PXPXN.l = v Z *XjX>X2.( ( l.x.kX-XVXyXL.w.w.{  .*.uXyXmXtX6.D n m G 5.v.m.I.m.z.z.) p.p.K.[.@X}.OX7X7X7X3X#Xr.z.M.C.OXI. Xn.y.Q ~ ! y.v.4X1XmX1XL.7X5X7X<XL.v.u.y.&.+.p.W.b.6.Q I..X3X4X#XM.5.5.&.5.1XNX9X5X! - # - 9 v.5X7XH.J. .# 9 H S i M ~ {.{.kX-XPXqXHX|.V.GXGXgXgXjXIXPX9.v v |.xXsX9.8.W _ V.jXcX:XPXPX|.}.B.c.V.x.sXHXPXVXeXp.Y ! D Y @ @ * * * 5 n S y % & & p D D 5 & r f f r f g D g s p g a r r g d d h L U U { F g g f 7 3 $ 3 7 2 d j [ | | ;.>.>.| ] | | ] ] [ | } } } L g r 1 r h h h g g [ L D L F U U P a u D D a $ $ & & A 5 5 X . @ & 4 y b : ; H z.Z.PXPXlXlXcXvX*XjXcX}.cXLX;Xl.V.[.%XZ.V.;Xq.W     : N.S.N.[.( ,.1.q.S.",
"|.sX}.B : B |.*X}.}.C V C x.c.Z.M.OX#XnX$XW.! ; ; & 5 < * g f f f r $ 1 * r r d d r r 7 7 1 1 1 1 < < 7 r f f r r r r 2 1 2 r d h L d d 2 2 d 2 r 3 h j d h d h h g f d 2 1 2 2 h g g g f r 7 7 * * 1 f g g f D F a < & & < < & u 5 q & & & - ; t S I..X=X{.{.LXzXPX9.x.4.7.V.jX-XV.A.Z   . 3.9.:XwXcXcXcXxXPX*X: = E &.6X7.9.O O > k.k.SXSX>X>X).h.8.l.M.*X4XkX7XNXXXs.i.-.-.@.{ F w.-.~.1XCX!.!.0 m ..I.U.P.I.6.6.z.y.0.Q.{.4. X!.I G M S G &...mXJ.XXr.*.KX5.e.r.H.&.O.L.XXI..XQ.m.#X@XM C C @X@X;XoXZ.K.Q.{.I.b.K.&.e.5.I.L.1X..U ; y P @X{.-X|.4.( M m C 0 : 4.JXKX:XwX9.|.|.AXAXAXLX|.7.7.).*XN.A.[.HX*XcXvXvXA.V.9.8.2.A.{.nXnX1Xa.d.X.X.F F.T.yXtX~...! 9 0 m y.u.m.n.{.W.P.{.{.oX}.@XoX{.7X7X=XU.K.&.+.#XOXI.y.b.3X3Xp.; & b P v.v.~.~.1X5Xe.5...I J ! ; M t ; ; W.nX7X#XoX X.XW.n.r.H.H.1Xa.5.6 n 9 n i L.r.tXJ.v.G ..q J G 9 9 Q ~ 3X7XlX-X@XIXl.D.O , S.DXcXAXvXjX>XPX3.3.A.Z.PXjXxXIXDXLXzXHX:X;X}.PXHXc.l.2.4.A.A.C.wXKXeXp.a.U U D u 6 X X & & 9 ; - 9 9 D J J 5 6 { X.{ r a r s r @ * & s L r g o.} } f F 7 6 < A F L F f 1 < 3 $ j h | | | R.(.[ j j ] ] j e e k h [ } =.X.} F g g d d 2 7 F f r a u Y A G p D Y Y p @ & F S 5 X @ @ @ i I I b y y H {.PXkXwX@XPX*X|.V.x.*XDXjXHX;XcX[.}.v : 8.8.*X|.>XZ Z f.*XgXiXzXGXzXAX9.q.",
";X}.|.Z Z v |.}.sX&XV V v 8.f.P.{.4X=X@X.X.X&.8 N y s 1 1 f 7 f f f $ r 1 r r r g f r 7 7 7 7 7 7 7 7 r g g d r 1 2 2 2 1 2 r d L [ r d 2 d d d d 3 h h 2 d r g d d d r 2 1 1 1 d f f f d r r r < < < 7 f f g D r 5 < & & & & & 5 & 4 * $ ; ; 8 n m m.K.-XoX{.DXxXKX*XA.4.8.V.6X:Xx.l.>   O 9.l.:XVXMXwX-X:XlX|.> v Q / jX3.7.+ + l S.V.AXvX>X%X).0.x.x.x.Z.;XMX4XnX8XL.s.w.e.@.F J i.s.yX<XZXK.1X6 i ^ L.W.U.m.y.y.y.6.t.Q.C.+.L.L.*.O.S ..I &.O.4Xs.a.r.e.ZXy.y.v.a.O.O.I.M.I.m..XOX$X4XP M b M.P.4X4XP.C.K.U..Xp.m...&.+.W.L.!. ...9 ; P {.K.C.Q.3.&.M v m v ; 5.kXVXwXLXl.[.V.cXjXiXAXSX<.7.|.V.x.Z.E.PXHXUX>X,X[.A.8.%.3.[.V.eXnXtXs.d.X.o.#.d.F.0X5X1XY I m m b n.n.n.z.XXI.P.P.P.}.}.P.=X6XbX7X6XC.C.+.^ 4X6XoXp.p.3X#Xn.; & y n n.L.XX$X~.eXw.w.! ! J I 0 b b b 8  XbXCX#X.XW.P.K.z.p.U.L.tXu.a.J n ; n i L.a.+XH.v.! S 8 G S n H ..G MX6XwX@X*XVX0.9.> = x.iX>XzXvXgX*XLX9.V.Z.|.HXsX;XPXPXPX;XLX>X%X:XHXDXx.`.4.q.A.V.Q.UXKXCXv.v.U U u < 4 . @ - & b % 8 G G J S K & & J { { 5 5 5 f g & & 1 g L f f L } [ g F 7 < < q g F g f 7 3 $ * h h o.| [ R.R.| ] j [ [ j 2 2 j g L g } } X.L h d r d 2 r L r g g g X.D F p F X.U u X @ U U 6 X . % # i D G i 8 C H {.VXkXkX*XPX|.[.[.A.>XcXvX}.%XcX[.|.Z v 4.4.jX>X*Xl v x.;XcXIXIXIX%X%X4.8.",
"xX*X|.: = O 9.9.N.}.`.}.h.2.,.7.4.C.-X=XkXeXK.O.U 6 r r f f 1 7 2 7 < g f 7 r 7 r 7 2 1 1 7 r r 7 7 r f f r 2 < 2 r f f r 2 2 r h h * 3 1 d d d d d h f 3 $ 3 r r r d r r 7 2 7 7 r r r r f f f r 7 7 1 < < 1 6 a a p r 5 6 6 5 u 5 5 6 & 9 b b U.z.6X=X6XzXsXPXPXx.8.x.cXDXPXHXcXDXHXx.l.8.x.3.l.>X*X:XHXUXxXUXl.l.v : :XHXPXV.S.).AXiXiXIXAXIXvXiXvXh.8.c.oXZ.MXeX4XXX<Xu.i.#.-.@.{ U *.e.yXmXtXtX1Xw.K.I.5.t.^ OX=X6.4.y.b. Xn.m.!.3Xa.7X1XXXtX5.I G +X$Xy.5.m.! 5.3XOXtX.XW.7XtXW.5.6.8 y t M.C.#X#XC.U..XW.L.^ ..5 i i a.r.1X5.5.n y &.eX6XP.C.E H M v v v P C.VXjXcXVXl.8.9.DXSXcXAXLX) ) W E jXcX;X>X*X}.l.x.xXHX[.3.) 0.p.wXrXmXs.u.X.o.U o.e.mXmXZX! ..S K S U.v.z.u.L.Q.5.0.t..X-Xp.oX.X X XkXC.n.M t U.K.Q.y.5.Q..X XN N G G p.!.L.W.XXBXa.e.I ! G G n q b b b  X7X3XQ.OX#X#X4XOXP.U.L.! 6 ; q G q u.e.tX1Xv.G G G n H 4 9 ! ! XX XeX6XkXPXIX}.` ` B Z k.A.Z.;XvXHXLX*XPXxXZ.Z.8.PXDX;X*X).B v   + Q *X;X7.3.: Z 9.|.M.{..XnX2X2Xe.e.U Y X.4 & o . ; n n n A I G J * @ 4 q f & & 4 f a D g L F f L L g F 7 1 < 7 7 D { } { F g h f e 2 ] h | | ] | | | ] ] [ ] j 2 2 2 2 r 7 L L X.{ } L h h d f g * $ * 1 Y 5 5 * & p D Y p 6 p u X # @ n i n 9 9 t P @XQ.CX6XoXPXPX*X0.9.Z.[.%XzXHXAXPXPXHXIX[.).) W IXgXcXPXPXAXIXzX%X%X>XAXPX*X}.",
"`.;X*X: O O 7.4.[.[.|.[.c./ 2.7.8.b.-X-XKXlXK.^ ^ & r g L g < 3 $ < r g L 7 r 2 7 1 1 1 1 7 7 7 7 r f f r 7 1 < 2 r g g d r 2 2 h j $ $ 2 d d d d d g d 3 $ 3 d d d r r r 7 2 1 r r 7 7 r f f f g f r 7 < < < 1 r a f s 5 & & < 6 4 6 6 & & S b m.m.oX*X[.xXLXPXDXV.x.A.HX>XPX:XcXPX:X9.9.8.0.9.l.jX:XvXjX,X,XPXx.Z.' v |.PXjXl.l.).zXPXvXPXcXcXHXzX*X3.9.0.6X}.6X#XeXtXtXG.G.-.i.e.#.X.@.w.<XZX5X3XL.y.m.1X5...~ MX=X^ 6.m.y.y.n.v.XX7Xa.1XtXOX~.5.S I 4X~.y.r.y.5.5.XXOX.XK.W.4X5X!.n.n.M 0 0 p.p.!.XXm.H..XL.L.G I q 9 u u.e.+XO.O.t t 6.4X.XM.z.b m C v v M b C.wX-XPXLXZ.q.4.cXcXcXxXPX<.4.Q B PXcXxX:XcX[.x.9.HXcX[.2.2.8.8.4X4XCXH.s.@.*.=.*.w.yXyXuX! ..I G G H.n.n.U.m.L...6.6.Q.OXt.$XOX.XOXKXK.M.H N  XI.3Xb.6.n.K.$Xb H ~ ~ &.!.L.XX+X Xa.6.G ! S H q S H q m U.NXNX.X#XW.C.Q.oXOX$XW.*.9 i S 6 i e.r.1XZX+Xi n A n n b b Q ^ bXNX=XwXqXPXHXb.V v C E q.l.A.|.%XcXPX[.PXPXN.Z.9.HXPX;X%X|.C v   + ) ;X*X8.2.: C 2.V.Q.}.Q.VXKXnXp.y.I n U 5 5 X X % G G n S ! G J * $ * 4 4 4 & 6 A u L F } L f L L g g < < $ 7 f [ L L F h g g f d j h h [ [ ] [ ] ] ] ] ] ] j d r 3 1 7 r g L } } | } L [ F g f $ * * 1 g & 6 6 5 U F A p 5 5 u @ @ @ S S i ; - H t @X-XJX-X*XPXLXA.9.8.|.;X[.jXLXHXjX;XPXLX}.[.W ( cXPXcXPXLXcXAXAX|.iX>XPXIX%X|.",
"jXiXsX%XcX|.zXjXAXvXxXDXHX|.`.h.7.9.P.b.*X}.eX$X$XU G a r r r r g r f 2 7 1 1 7 r 7 7 r r f d r r r r r r r 7 7 7 r d d r r r r h f $ $ d f f d d r h f r 2 3 g r 2 2 2 r r r r 2 1 1 & < 7 7 7 f f f r r 7 7 7 * 1 r r r r p g p p 5 6 5 t K.U.#X{.=XMXDXPXDX<.9.H PX|.;XHXx.l.l.;XvXvXjX-X[.|.) 9.p.>XlXvX-XjXcXPXx.l.D.:XjXPXLXIXzXiX8.q._ W }.xXcXA.h.: 7.x.C.Q.NXnXBXL.<Xs.@.@.X. . .U r.XXtX9XCXCXm 6 4 ; +.3X X6.&.M H {.$X#XmXNXn.6.5.! ! v.CXXXy.&.- ! P .X.X$XrX$X#X5XO.O.G M G i i S &.5.L.$Xv.H.!.s.H.n F G a p e.e.1Xy.y.H P m.=X{.6.t.M H H 0 0 ^ +.JXlX:XHX-X8.: B [.%X;XsXPX`.&X8.( HX>X>XA.A.: B B :XxX*X8.2.&.3.@X.XKXW.L.w.*.U U { ~.2XuXa.G.A S ! Y.L.I.OX5.+.t P P p.p.a..XI. X X8X5.5.S H ..O.$XW.OX$XXX$Xm.m.U.m.+.m.p.OX1XH.8XBX!.H.*.O...J G G.L.v.y.y. XW.b.y.y.0.0.p.n.v.4 b m ; m.BX5Xv.r.! 6 G G S n ~ +.OXbX6XoXMXPXlX[.}.V.>X:XvX,X].S.S.l.x.;XvXPX).;XHXPXx.= > x.x.%X( 3.: : 3.|.%X*XxX;X;Xc.b.x.V.p.Q.CXCX5XnXy.G Y D U ; & # i n p A F w q X $ @ & & a u Y U } U F L F f r 1 3 1 f [ [ { { [ J J [ } } [ F h h j h [ | | ] ] ] [ | [ [ [ [ [ } [ L h r r 7 r d h h [ } { { f g 7 1 * . X & < u u q D D q ; . n i S b t S P W.#XJXkXwXPXPXjX{.W 8.9.*X*X2.( _ cXcXzXzXiXHXPX}.A.9.%X}.;XzXvXc.V.: , l %XiX).N.",
"&XHXxX[.%X|.:XiXxXcXcXHXcX*X[.8.9.7.V.b.xX;XlX@X$X! U a 7 7 d r r 2 d 2 r f 1 7 1 1 1 7 r d r r r 7 7 7 7 r r r f f d r r r r d g f * $ f d d r r 1 L d g g $ d f r 2 2 r r s r 5 5 1 < 1 7 r 7 r f g f d r 7 1 1 7 r r r r p g 5 u 5 9 i 6 I.b.{.{.4XjXjXDXPX<.7.V cXHXvX>Xt.c.x.*X:XcX*X>X|.}.7.9.p.>X@XjXxXwXPXUXc.S.3.*XvXPXIXAXSXzXh.q.) ) [.HX:Xf.f.l c.B.C.P.kX7XJX8XtXu.5.*.*.U U J e.0X2XtX5XNXM n 8 # Q  X.X6.+.M H M.#X4X7XnXI.O.O.O.O.y.tXNX6.y.% I ~ U..XeX.XQ.ZX$X^ &.! S G G G S &.*.L.XXs.v.~.J.J.p n F 5 u e.d.#Xz.t.M S b.OX#X6.0.t N H 8 0 &.+.KX{.@XHXcXl.: v Z.*XjXsXPX&X;X( 3.cX:X:X[.}., V B :X:X}.9.8.3.2.|.P.KXXXXXe.*.{ X. .T.~.0Xv.v.G S  .H.L.+XtX+.&.N M S n.z.K.n.H.1X8XeX+.5.I ! O.+.1XL.3X#X XL.K.K.W..X~ a.r.nXeXy.3XBXXXH.O.O.! #.G H.H.v.w.r.!.U.p.y.0.3.9.K.K.v.n 9 8 G a. X7Xa.H.P b n M ! m ~ <.6X6X=XlX4XKXPXS.V.0.jXvX}.vX).D.k.0.x.:X*XPX;X*XPXLXc.: : h.B.jX<.2.> : 3.}.%X:X;X;X;X9.b.9.A.C.{.KXCXrXeXe.H I I ! # & @ D D r A D < 7 X @ @ 1 $ p a U Y U D L g g g 1 2 1 3 g g L F o.{ F g h L [ L [ [ [ j [ ] [ | j h ] | [ h h [ | | [ [ g h 2 7 7 g f { [ [ } { L f f 1 < @ . X 5 5 5 A p F A & & @ i i b t t ~ P Q..X-XKXjXKXPX{.jXZ l.l.;X;X2.,.E HXvXIX:XHXPXPX|.%X8.%X).zX;X|.x.l.= , B *X|.V.[.",
"A.:XzXPXAXzXHX*XZ.Z.2.4.l.HXHXA.[.: B.9.c.x.-XMX2XtX~.X.} 2 r d h h 2 r 7 7 * 7 s r r 7 < L r 1 7 r g 7 f 7 g g 7 f g 1 7 7 [ L 3 $ 1 1 r d h r r 7 7 7 d d 1 2 2 d r 2 f r < < r r r s r 7 7 r 1 2 r r d d f f g 7 7 7 * < 7 6 5 6 & G G v.!..XI.=XJX:XxX%X).7.h.B.jX6XA.[.O O O l.9.:XZ.Z.3.2.Q 2.2.A.|.cXcXqXjXPXIXHXx.Q ) l.l.[.}.|.: : .   f.,X;XA.A.2./ ( 6.4.oXkXbX3X7X1Xu.r.*.*.*.*.J e.e.mX+XNX~.v.i 9 n L.K.OX.XN H 0 Q ^ a.6.3XI m n.y..X~ I b 0 i m.Q.$X!.#X.XtX!.s.! ! ..@.O. .! ..a.r.!.!.r.d.r.G U u A F a A J.s.$X+.+.+.^ =Xz.{.^ ) N ~ M 0 0 b.C.zX}.wXlXKXv + O 8.x.HXMX;XPXPX9.x.}.jXHXV.V.= : v >XHX*XB E ) / Z.x.=X4X4X*.w.*.F F e.e.mX5X5XJ G *.!.<X3X7XO.! ^ n H &.5.p. X!.7X1X3X&...G ..~ G H H H H.a.XXK.m..X4X$X~ P m.K.K.5.&.W.XXtX3XXX<X9Xu.H.<.<XtXH H b.=X.Xp.b.C.U.6.i - !.m.1Xm.n.D n G i t n b 5. X X7XeXlX6XJXP.*XW ) PXzXzXiXgXIXvX,Xc.x.l.l.HXzXjXcXjXLX3.7.V.9.HXDXxXcXxXDXcXPXPXHXLXcXHXt.c.p.z.b.*X=XMX4XCX+.a.G I I ! @ r r L U L * * 1 7 g { F } L } U g f r 7 2 r f g [ L L [ [ h h F F h g F F L 7 L h $.[ h | [ [ [ [ ] [ [ [ j [ h | } =.o.[ [ { g f f 7 7 g g L =.{ } L D & & @ @ a a p u u X & 9 t S 0 6 H Z.#XKXlX=X6XPXMX6X8.9.V.;X*X%X[.,.+ O 8.3.jXzXHXiX>XPXLX|.v v ( ) *XZ.A.= = B [.|.;X*X",
"HX9.0.9.c.V.[.vX4.) .   : ).).W _   : Z z.V.Z.P.@XnXuXG.F.h f r 2 2 < 7 a F F L 1 * < * < h g f r a a 7 7 r g f r r f 1 7 r h F 3 3 r 7 d r d 7 r r r r g d 2 1 1 r r 2 r r 1 6 5 5 r r r 7 r a r r d d r 2 1 7 a 7 r r 6 5 g p p p p *.5.!.4XrXCXJXcXP.A.[.xXAXxXMXxXxX}.}./ 3./ jXoX;XW R : Z 0.[.[.cXxXIXHX>XjX*X,XwXPX2.) : : %XzXcX9.f.E E N.cXLXPXPXAX%X}.8.4.0.P.3XbXBX1X8XXXu.d.*.*.X. .A w.5.NX1XtXJ.!.i m.H.3XtXn.t.t 8 - G I  X~ ~ XXOXy.; # i S a.KXnXQ.Q.2XrXm.m.$X<XJ.e.O...O.O...G P ! ! I I U U  .U X.U D D ~.~..XQ W 4.6.eXy.y.b S b H ; b ~ KXMXJXPXPXZ.c.: 3.1.l.9.;X:X:XLXPX[.x.Z.HXPXV.|.9.cX*XHXvXvXW B _ V 8.7.@XKXKXJ.G.*.Y F *.*.uXyXtXO.O.O.I.!.1XeX*.u.+.n S I H O.K.!.XXL.7XI.L.&...H n J 0 ; b m H..X$X4X4Xm.8 8 +...I.#X!.I.m.y.a.w.K J Y.v.7X! H 9 0 OXC.Q.0 m b b G y.a.!.n.W.I ..n D n 9 n O.6. XbX7X4X4XVXzXb.: : V.[.Z.l.l.= , E S.[.>X>X|.].8.%XsXcXxXDXxXLXx.x.;XjXxXcXcX:X*X`.W T 3.x.LX[.A.0 : c.b.b.}.4XMXNXKXp.r.S D U a L L g d h L F h [ [ L g r 1 1 g F L L L L L [ [ h f d d d g h g F { [ d d 3 [ [ $.[ h | [ d d d h [ [ [ j h d d 7 r g L } o.U o.} F r f r r g g L L U L F p r & < p F U u p n ; 8 H ~ oXPXVX6XJXPXPX4X) x.jXsXLXLXzXIXIXiXx.A.3.2.|.:XzXHXAXxXvXPXx.l./ V cX;XzX|.iX,XAXAXPXLX",
"zXf.3.0.V.B.xX:X3.3.+   = x.c.) ) > > : 0.9.b.@XoXeXuXJ.J.g r r r r r r s g D r * @ & * 7 f g a a f 7 r r g f r f 7 f < 7 f f f 3 1 d d h 2 7 r r r r r g f 2 3 * r r 2 7 7 5 5 q q r r r 7 r r d r d f 7 * * 1 7 7 s s 5 5 a p 5 i n p.p.!.4X6XkXHX}.|.A.}.iXsXjXLX>XxXjX[.3.( 3.oX*X;XV V : : 0.|.|.xXxX6XcX}.}.wXwX>XLX( 3.: v *X;X*Xh.8._ W &XHXGXHXzXSX|.[.2.0.+.oX6XbX6X7X1X1Xu.G. .o.*.D  .O.*.KX9XyXL.v.i y.n.4X#XW.m.0 ; ; G S U...5.XX1X~ i % H m L.BXeX$X$X4XrX!.H.H.~.L.e. .! O.@...I ! G D ^ I n G A U  .A U U ~.5X@XQ E 5.5. X6.y.Q I H H - ! ~ eXMX&XJXcXl.l.v l.c.2.3.*XsXHXJXLXA.V.Z.cXxXV.A.V.jXjXHXjX|./ V E ( 8.2.Q.CXKX!.Y.w. .U { U /.mXmXr.r...+X~.5XtXe.5.G S I I ! 5.!.v.L.L.7XL.H.O.! n n S 9 ; n n W.U.oX#X@Xz.y t H Q W.KX4XI.I.&.n.@.H J H.H.8X! ..t 0  XC.K.m 0 m ; I K.L.m.Q.Q.I N M G 8 8 i &.y.4XkXkX6X6XJXPXb.> : A.[.Z.f.c.= = W A.c.].[.A.).0.zX*XjXLX:XLX;XN.&X|.iXAXPXPXvXN.A.Z Q c.h.HXV.V.0 x 0.x.V.[.P.oXKXnXn.H.D S U r L L L f | h d h [ h L f g r g f D L L L F h h L h d r d g F h F h { L r r 3 [ $.[ [ F o.| r r 3 L [ h [ j h f d d r f { } } o.{ { F f g g f f f g L L U F f 6 7 4 p A D u 9 6 b ; ^ Q @XMXlX6X-XcXPX6X9.+.xXLXPXcX;XPXIXiXA.l.2.9.}.vX}.AXLXjXAXHX;X|.V V jXPXHX:X*X*XDXPXcXcX",
"LXc.;X: : V.|.sXZ.[.W _ ) V.B.[.{.z.E v Z v 8.6XwXVXtXW.^.g a g 2 1 g r p p g * X X 6 6 r 7 r 2 r f r F g F r 7 g < r < 7 g 2 r 3 1 r r F 2 1 d d d 1 2 g d 2 * * 2 d r 1 5 q u a r q r r 7 7 r r 7 r r < @ @ * * < 5 r 5 6 5 u 6 i S L.U..X6XkXPXPXc.}.).zXzX&X}.:X}.[.>X6XcXzXHXjX6XV.V ( 0.h.P.wX-XHXxXz.x.+.kXHXcXcXkXJXPXl.8.l.*XHXPXPXPXPXjXiX>X).).iXSXAX[.Q.V l.t.b.C.MXkXCX1XtXw.u.i.=.*.U A s.8XCXKXNXa.r.5.L.n.L.OXe.m 0 i 4 XX XI.e.n.0 H ~  XU.NXK.XXL.m.ZXrX!.5.e.G.+X1X!.H.G.v.r.w.e.5.r.!.L.5.! I ..I p *.*.!.L.b.P ^ C.b.{.O.O.t 0 t n 8 z.p.KXJXsXPXcX3.9.l.PXPX8.9.Z.x.sXMXKXxXjXV.A.x.S.A.:XHX>X*X|.V.:XxX8.1.4.4.V.wXeX1XtXe.@. .Y F J.ZXZXv.v.I 8X1XtX5Xv.H.w.u.w.! I G S G ..O.5.I I S J G I i ! S a.O.e.#X4X4XwX#X5.&.H M M ^ +.3XJX&.....3X8XU.'.! 4 9 ..Q 3Xa.5.4 # 9 m v.$XW.!.L.P ; n H S b &.e..X4X6XkXJXVXkXA.P.6.*X*X|.Z.*XV T   + Q Z.c.0.2.v l : x.V.jXcX&XPXPXLXLXh.E V 7.c.|.l.l.    > > |.Z.`.c.B.3.[.V.Z.V.MXzX6X4X1Xa.s.D [ L h L h L h [ L h d f f g f L L [ L F g g g k h h f d h [ [ h F g [ L 7 r 3 { | f h g | | 2 2 3 | | h h j h F h F h g g r r L F { { U U U D a g f g f L L L F g u D A p i 9 8 S H }.C.MXxXHXPXPXjX{.V ;X{.PX:XZ.<._ |.[.zXPXPXLXiX3.2.4.iXHXxXHX|.PXLXx.N.x.vX>XHXLXPX6X{./ / ",
"PX|.}.= : A.cXxXZ.A.W 2.3.l.h.|.oXZ.W V > : l.jX-XnXnX~.~.F r f r 7 D p f a a $ . . 5 5 r 1 2 7 r f f J g F 7 7 g < 7 1 7 F < 1 < 1 r r F 7 7 f f f < 1 d r r * * 1 d 7 6 7 a a q q q r r r 7 r f 7 7 7 * X X @ @ * 4 5 r u u p 6 i M !.W..XkXMXKXHX<.%X|.DXzX[.%XV.vX*XxXjXHXHXPX*XjX9.Q E 0.0.{.=X6XLXJX0.3.H kXoXKXJX{.PXMX0.z.5.zXHXPXcXPXPXAX>XAXN.S.[.SXiX).Z.B 0.c.[.A.=X6XBX7X8Xd.d.} o.O.U U w.yXyXCXtXa.O.! L.I.$X.X6.0 0 0 8 U.OXOXe.O.0 ~ +.U.'.JX Xv.~.1XNX5X~.e.O.a.!.5X5X~.G.r.e.5.&.y.a.v.H.5.t n !  .U e.*.~.XXZ./ P z.b.I.O.O.S M n t - a.a.nXlXxXxXDX8._ [.IXIX3.x.[.V.PXJXlXcX>Xx.V.V.[.V.jX>XxXjX*XV.vXxX1.q.) 4.A.lXeXeXmXe.*.X.F G a.KXKX~.L.U 1X<XtX<XL.G.5.e.e... . .S  ...U U G I J U J G &  .G r.r....X}.oX#XOXt.5.0 M b 5.6.NX4X5.5...bX7XL.n...8 8 H I KX6.6.# - b t K..X.X.Xm.b S t H N M &.&.K.rX-X-XjXzXPXoXB.l.|.).[.*X&XB E + + W l.N.,.2.v v T V.B.LXDXjXxXLXcXcXA.W T 9.0.;X4.3.    : : [.`.|.c.h.( ).Z.B.N.:X-X6XCXXXJ.~.D L g h L [ j h [ [ g f f L F L L } } L g f h h k h h j f h [ F g h F { [ 3 < 7 o.| g L h L [ 2 d 3 | [ F F h h L g L h g g 7 2 g F U } X.} } U g D f g r F g { { f f J D u 9 - 5 S ^ =X=XzXvXvXPXPX;X=XB [.Z.PXPX`.,.,.iX}.DXLXHXAXcX3.4.8.;X,XjXHXzXPXLXV.V.0.cXHXPXHXMXoXjX2.E ",
"A.PXcXjX).,.HXHXDXLX*XiXvXxXjXcXwXnXZ.A.Z v 7.Z.}.4X4XH.J.f r r g a f p u 4 4 & @ $ u u 5 7 r f f f f g f f 7 r f < 1 7 r g < < r r f r g 7 r r r g < < r r d 1 3 3 2 r 7 7 a a 7 w w r f d d r f r 7 7 1 * * & & 4 4 5 p a 5 5 - i b Q.L.W.bXMXA.{.Q :X;XcX>Xc.l.O B V l.Z.{.V.[.l.l.) 7.0.;X&XJX6X4Xz.t.0 ; o E m 6X4X=XMXLXMXlXx.8.( {.|.[.A.%X,._   + ` gXLXV.A.V V E 8.x.oX6X3XeX5X2X0Xe.-.*.@...G u.u.8XyXNX+Xv.m.m.OX7X1Xy.r.e.+...S ~ Q +.y.7XbX3X'.I.L.4XZXmXI U &.<XJ.e.e.u.v.L.~.XXXX1XXXZXmXW.1X5X5.*.J i O.!.~.2Xn.W ( 2.oXoXU.H M i i 0 9 I 4X$XCXMXPX`.*XV.9.PXl.x.= > v Z @XMXlXPXHXx.Q _ }.*XPX9.2.O O 9.PXPXA.A._ _ 9.6X3XtXtXG.e.-.U U *.uXyXtX1XO.v.v.5X+X<X8Xe.! O.U I w.w.*.&...U G I I I ..*.a.mXtXG.L.5.b.z.wXeX4X=XOX6.+.8 0 m .XI.I.H.<Xr.r.G 4 S q b 3X+XOXS i n #.v.L.4Xv.r.~ P t S M b - &.rXmXtX#X4XPXPXP.9.8.9.jXPXDXPXcXPXxXzX).c.vXAXIXq.2.v : ,.l.q.;XjXcX&XsXPXLXjX8.<.h.8.sXjXiX3.q.).Z.PXxXxXDXPXPXc.l.q.h.V.-X=XCXtX2XuXs.g h } [ } h h d h g F g o.L L L f g g d r g j d h h h f g h g g [ [ h F 3 1 h { o.L } L L [ h [ 3 j d [ [ F j h h h g h L L F F f g L U L U } { L D D f f 7 r f g g D u & 6 - P W.P.-XwXxXHXAXvX-X4.t.l.|.|.Z.Z.B + + / / Z.V.[._ q.W W Q l.V.LXcXHX|.jXPXPX].Q W 2.7.}.t.3.> : ",
"HX;X;XxXIX`.4.4.V.}.&X}.}.B.B.0.4.$XQ.-X/ ) x.zX-XbX7Xv.s.D f g r 7 6 p u 6 4 A 9 9 n p 5 g g F F f f r f 7 a f f 7 < f f f < < r r L g f 2 r 1 2 g < 1 2 1 f 7 2 * 3 d r 7 a q w w w r f f d r f r 7 r f f u a 5 u 6 6 p u & & 6 n N !.W.$XKXKXC.{.C ;XiXAXAX[.|.O Q ) :XvXZ.> O : B 4.;X:XxX&X=XC.C.0 : o # . = . <.+.7X X=XxXVXJXb.) = = ( l.zX9.8., , _ %X>X:XvX}.V.h.2.4.x.oX XeXtXyXmX/.e.-.*.w.*...I w.e.7XmXtXL.m.n.n.!.BXfX XOX X X3X#XOXOXU.z.I. Xm.3X+XL.2XI ..u w.e.mX2Xv.*.O.*.*.^ r.r. X Xr.U.1Xa.a.e.r.1Xv.5.L..Xv 9.9.{.C.7.m H i b 4 9 r.KXnXwX=XLX7./ / 2.PX2.2.+ O : v {.6X=XDXPXvX/ ) cXHXvX/ ) . . 9.vXcXZ.).Z Z ) oX$XKXZX~.s.r.X. .U ~.XXmXZXw.O.&.8X+X1X8Xu.A J I ! Y.XXXX5X9X8X1X1XtXmXtX8X5XH.H.*.a.!.^ ^ =X=XoXMXKX=X7Xy.M ; H N C.I.8X~ 5.i 0 G u.r.L.XX@.G S OXY.OXOXn.G P 8 i M t t &.6.tXrXXXXX4XHXZ.9.v V |.Z.sX).Z.) T Z.cXzXzXiXcXA.A.T _ 0.9.x.AXjXPXcX*X6XLX&X:XLXxXcX*X[.vXPXHXcXDXPXLXDXB.|.N.).DX>XLXq.Q 0.V.p.$XtXyXyXuX;.;.o.L F F [ F D L L D D p 5 6 r g h f d g h h h h h h j d d f $.$.2 f 1 7 | h F h L h d h [ | 1 2 2 { $.L d d g d d g L } [ g D g L L f a g g D F D L F g g g f f u 4 6 S S L.CXnXwXVXLXcXiXl.Z.jXJXPX:XPXxX;XN.,.3.>X%XSX,./ : v ( c.N.HXjXjX;XPXcXjXgX>XPXl.l.v : oXPXPXZ.}.",
";X:XcXjXxX}.,.3.|.`.}.}.;XB.V.8.6.wXC.@X) 2.8.;X-XMXeXH.v.D a a r 7 < D p 4 & G q 9 i p 5 L D L L f f 7 A 7 f f r 7 < g f f 1 < r r L g r < 7 < * f 1 1 < * d r d $ 3 d f 7 a q w w 7 f f f r 7 f r 5 7 f A f u a a 4 4 p a & & - b b Q.Q.OXKXLXP.[.Z ;XAXIXHXA.Z.> ) W Z.;X}.  . C Z 0.oX&X4XlXOXK. X- = # # X o = ~ H JX;X6XJXLXHX8.A.O O 0.2.cX9.q.= O ,.,X>XDX[.|.[.[.( ( b.@X#XCXmX5X2XyXo.w.X.O.e.G ! u.r.5XtXtXH.~.a.r.XXBXJXXX3XU.OX8X XOX3XH.z.3XXXt.7X7X1XXXJ U G e.5.7X1Xv.&...5.5...n.n.W..XM.K. Xn.H.O.O.4Xa.e.!.!.y c.p.Q.P.0.0 v i S 0 ; r.tXnXnXMXcX( ) 3.4.HX) 1.+ O : v b.6XzXHXHXvX( ) :XxXHX) E .   2.cXPXS.S.c Z ( }.W.mXtX<Xu.e.o.X.F ^.~.mXKXa.G I 5X<X1XXXL.G G G ! XX!.1X5XtX8X5X5XtX7XtXNX7Xw.a.v.5.1X+.^ 6X#XQ.MXJX6X3Xb.v 0 b b oXW.I.5.~ b b H n.r.3X7X@.9 n +X3X X$Xm.M H i b H b N 5.&.rX3X7X7X4XKXc.c.V v [.Z.zXA.}.E ,.%XjXIX>XjXjXZ.[./ E l.3.l.DXsXDXDX}.xX6XsXjXcXHXPX[.|.;XPXAXPXHXLXPXjXB.).N.).SXPXiXW 2.x.p.0.4X#XrXtXmX-.-.} o.F [ F F g } U L a p 5 r r h L f r d h h h h h F g 7 7 d [ o.2 d 3 1 =.F h [ L h d g | | d 3 3 $.$.[ d r g r f h F | } F g f L { g r f g g F g U D F a f a f u 6 9 S i K.nXlX6XzXcX>XAXB.l.JXjXPXPXcX%XzXN.( 2.).%XPX( 2.: : 8.B.0.cXDX>XsXvXLXcX;X;XPXN.l.: : {.LXPXZ.Z.",
"xX[.}.xXjXHX0.l.2.2.*X*X>X  + O + @X|.S.9.9.q.[.[.cXnXv.s.D D g a r X D A 5 9 9 n n n p u ! D s r p D D 5 7 f g 7 r r F g 6 6 1 f g F { r f g f D g r g * < f r d 3 * 7 g f 7 7 7 < q g q 1 7 7 r u 5 5 u a u 5 q 5 6 5 6 & # o - b M Q.Q.@XJXMX[.[.+ V.l.AXjXiX%XiX;X>X>XSX,.E C c.c.oXoX.XNXmX X; 4 . @ X o @ 8 b - . <.PXsX*X&XsXPXKX3.8.,.0.IX:X>XgX%XgXvXpXiXgXvXzXAX%X%X( x.A.V.Z.eX=XMX.X4X*.a.6.5.@.! J e.2X9XyXZX<XY.L.v.n. X Xm.OXOX X{.m. XoX XoXP.{.3XW.$X&...! 9 b &.a.ZXH.$X+...y.e.e.dXBXm.U. XI. X1X5X5.7X$XA S M {.{.C.m.~ 0 b t 8 b M .XbXCXeXcX*X/ V 3.9.HX*X:X3.8.3.E x.-XvX>XHXPXA.[.x.l.HXV.A.8.8.[.cXcXx.N.c Z ) l.z.KXeXmXs.s.U O.U e.u.KXCXXXS G r.v.5X3XXXH.v.*.*.yXr.s.v.!.1X!.m.n.a.&.O...r.&.CXCX..y ; Q.{.MX.X.XnXnX.X.X{.4.6.N P P &.6.5.y.n.rX1XU.n.H 1X!.3X1Xm.a.I M M 8 N 0 4.4.kXCXeXMX#XPXVXA.4.4.f.l.A.].[.> =     ) ].N.Z.B.,./ ) q.7.B.l.cXMXzXb.P.> ~ E cXPX6XMXcXHXDX}.c.V.[.|.V.A.9.: > O + f.9.l.O > = V.c.z.b.OX.XCX0X~.U L L F F L { d 7 1 @ @ 1 r r h F f d h [ L f h h h h d d L [ [ 3 3 F [ [ L g F d d d d { $.{ 3 < [ [ { f r F F L L f r g D g f o.} f a 1 * $ * @ 5 D g D A A G 4 - 4 ! ^ 6XeX6XMXKX`.9.4.LXPXJXDXZ.*X%XAXAXIXzXIXGXHX:XB ) 4.h.3.-XkXkXMXNXMX6.lXJXsX-XPXcXHXV.A.3.xXzXPXIX",
"*X*X}.>X:XPXx.l.3./ |.jXsX    + + Z.@X,X9.8.f.%X}.MXbXm.s.S p g f a X p u u i 0 i 9 n p u D p s p f D A r r g g r r 7 f g 5 5 7 g g F L r f g D g F f g * * r f d 1 3 2 f f 7 7 7 < 7 g q 7 7 7 a a 5 5 5 u u 5 6 4 9 u ; & # X - b B Q.[.*XLXHXV.A.l l.f.zX;X*XcX;X).%X>XzX_ Z T N.B.oXOX<X7XbXJ.6 & X @ . X # 9 4 - - ^ KXDXjX6X*XHXPX3.8.8.2.PXgXiX,X>XSXaXSXGXIX,XzX>X|.>X/ N.c.`.A.cXxXzXoX.Xn.r.P O.*.I ! w.tX2XyXyX<X0XY.!.L.XXL.I.XX XI. XK.=XoXoXoXC.3X XOX4X! ^ I H M y.5.3X7XU.5.5.6.5.y.7X7Xm.U.XX7XXX7XtXr.U.~.Y P M P.{.K.C./ y t b 0 H H L.4XnXMXMX*XV ) 9.2.HXxXvX9.0.) ( 9.jX:XvXxXxX[.[.l.V.PX[.x.3.3.}.:XxXx.|.: = / V.l.nXCX5Xs.J.U =.U -.e.ZXZX1XM ! e.v.XX7X5XH.s.5.*.<Xr.a.L.L.3Xa.H.a.n.&.&.&.5.n.KXKXI 0 8 Q.{.nX.X.XkXbXOX$X.X5.5.H P ^ &.) z.6..X!.5Xm.v...W.+XtX5Xu.p.S b H N v t 5.6.kXJX@X=XkXHXPX}.l.<.0.c.V.%X).> >   + 1.).[.8.c.( ( ) 8.3.b.l.xXMXPXP.z.= G ~ MX6XVXjXlXzXzX*XP.V.A.Z.B.B.l.> l . . 7.V.x.= = v l.c.b.b.6X=XCX$X/.X.U U g g L [ r 7 1 X @ 7 r g h h f g L { [ h h g f d 7 r L | { 1 3 F [ [ L h F d f f f L F { < 3 F h [ g f h g L F f f g g F F } { a 7 < @ $ < * 5 D g F F S G 8 - ; ^ +.4X4X6XDXPXx.9.3.HXjXzXLX`.>X}.IXSXAXIXGXHXcX}.&.V 8.3.z.kXOXKXNXeXMX4.bX6XJXcX;XxX:XA.&Xl.HX:XPXvX",
"2.6X-X*X&XPX}.}./ 2.cX>XZ.: v / ) }.Q.Z._ / k.*X%XlXkXU.v.N a g L D X 5 6 n n - 8 6 S n p s s s 5 7 r 7 6 r f r r r r f g 5 r 7 g g f g 7 r a f r g 7 r < < 1 r d r 2 2 7 d f r q 7 7 q 7 a f 7 f p a q 5 5 6 - - & u i % @ & @ - v b {.{.*XLXHXA.l.V q.9.[.;XjX>X:X*X>X[.,Xq.N.7.}.oXdXbXBXL.J.4 @ @ < q 7 a D G p & # o E +.;XxXcXjXKX*X*XV.2.x.vXIX*X>XvX].A.B ) _ SXzXiX>XQ v B x.9.A.Z.*XVXeX4X3X5.&.5.O.O.G G.G.CXNX9X9Xs.I &.U.n.M.u.t.M.b.z.{.{.4XoX6.C.Q.4X4X^ &.M I H H N 5.W.m.rXeXOXoXoXbXkX7X6X=X=X=XI.K.U.r.m.i & 5.oXP.t.6.G t b 0 8 5.5.OXbXnXKXHXA.[.>X>X>XA.vXcXjX>X3.9.E *X:XxXjXxXxX:X9.D.x.Z.Z.:XjXPX}.>X|.V.%X*X8.( 6.eX.XtX!.XX=.*.U X.X.5X5XZX5.O.6 I 1X!.mX~.XX!.T.2X~.!.4XXXXX5.e.5.5.&.O. XmX5X..! m t 0 m.m.#XU.U..X.XK.OXeX{.OX4X4X4XW.Q.$X4XW.6.5...5.n.XX Xv.e.I ~ N M b t 8 5.kX=XbXlX6X6XPXA.oXx.*XcXPXPXgXIXvXZ.A.1.1.A.%XAX8.W C 2.3.P.Z.zXjX4XoX{.b : . -   +.W -XeXJXkXMXcX+.+.Q 2.;X:X>X) W B R c.).[.l.Z.V Z C ( 4.oX}.bX.X~.X. .} g a h F 7 7 < X $ f f g g g g F [ { { f f d r d r f [ g h 7 d } } F d h L F F g d h h { 7 2 g d [ F F f g F F g L { L L F L L g r r * @ & $ * & & 6 5 n H 0 - - ^ +.3XkXMXcXMX2.A.V.LXPX;X|.Z l : q.q.gX].|.Z.9.%.7.6.b.c.HXPXJX=XOX~ Q % ~ ^ 6XMXDXJXPXHXzXl.3.( S.V.",
": >X-X*X*XHX:XjX= > 4.2.V.|.*X*X-XwXA.S.v v 9.}.}.6XwXK.K.D a g U U @ & & A n # - & S A N 6 r s p a f a 7 f g f 1 r r g f 5 7 7 { U L F f a f g g F 1 r f g 7 f r d r 2 2 r g f 7 f 7 < < D D 6 u i p a u 5 - # & % y 9 X X - - - v b Q.{.*XLXHX`.A.Z.PXPX8._ v C l.:XiXf.9./ A.%XcX6X6XXXL.q & X K A A f J D 1 X * & 5 0 X   &./ 6X=X=XPXLXzXHX3._ Z D.A.A.S.A.> ,   k.f.|.;XZ.( ) l.8.Z.Z.oX-XnXOXCX#X&.&.e.5.! ! n w.u.0XCXKX!.u.G 9 b ! +.n.W.t.2.+.K.{.5.C.p.#XnX#X5XO.~ P N N t I ~ y.6.r.n.z.t.t.oXoX'.{.6Xb.z.Q.t b ; M K.oXC.+.~ b t N 0 0 K.K.bXCX7X6X>X9.PXHX}.cXZ 2.2.:XHXV.x.= ) ) jX:XxXPXPXl.8.B >X*XHXcXZ.W 2.V.[.cXxX0./ ^ m.b.CXeXtXe.e. .U F J.v.mX~.5Xi 4 ~ +.XXL.!.~.<X<X0X5XeXnXL.n.m.8X7XKXnX1Xy.&.b G S b b C.K.4X.X#X6X#XK.Q. Xz.p.Q.m.b.m.Q.t.z.M +.&.L.H.5XL.a.S A n 0 t S M 5.y.3XeXkX6XkXKXV.C.v V cXDXjXZ.).Z.|.>XIXIXIXAXAX*X>X_ 3.4.[.Z.xX=XlXeX=XP H b H # X X . X 0.-XkX=XMXLXoXJXx.7.jX*XMXHXIXAXAXPXPXPXPXxXzXE B ( 4.{.P.nX$XW.U }  .D r f 7 7 L { r f L a g g h F L L L F 7 r r r f f g [ 2 r r h } [ d 1 3 d h h 7 < 7 d { g d 7 r L { [ g g g g g L } L L F g F f f F 5 a Y F p p p D D 6 i 8 % % +.+.#XkXPXMXjXW iX:XPXHX;XiXQ C T %X%X].: c : Z 3.M.P.HXMX6XbX3XQ &.    X - - ^ / kXjX6XzXxXLX9.8.> , ",
": ;X}.*XvXPX*X|.= O ) 2.[.xX:X*X-X}.x.V.: v 0.|.|.:XwXW.W.D s p L { X & & A A @ ; - G D n & 6 s A D D r < 7 f f 1 r r f r 6 f g U L L D g r r f g F 7 r D F 1 r r f f 7 1 r f f r f < * * f f u 5 u i i i i 6 & - % t 8 X . - - = 0 v Q.{.*XHXHX[.A.S.HXPX,.q.v : l.cXvXk.c.4.[.A.-X6X6XL.J.9 4 X { K r 7 } } f * * @ @ t .   Q H lXMXoXJXMXcXHX9.l : c.D.,XN.A.O + , c.k.iX%X[.8.3.2.3.c.c.oX@X4XOXNX4Xy.y.n.r... ...e.r.yX9XZXa.e.S G t ..~ b.K.n.+.+. X X5.y.n.1X.X4XXX&.G M I S b ~ ^ &.y.U.C.P.z.6.oXP.`.&X&Xt.y.#XN M t t K.U.b.^ ~ m b b 8 8 I. XMXPXCX6X*XV.cXPX}.>XZ / ( HXjXA.V.l 2.8.vXjXjXPXHXZ.V.v ,X}.:XHXl.E / *X:XcX>Xl.3.+.b.Q.mXtXrXr.d.@.U D d.J.KXJ.!.n H I J XX1X~.~.5X2XyXCXmXmXH.n.n.3X3X7XCXL.+.....! 0 b M m.P.#XP.P.Q.#XU.m.U.z.z.{.Q.5.Q.m.n.y.M 5.^ .XU.4Xn.a.H i 0 S b b 0 5.z.kX#X6X6X6XKX3.3.Q V :X;XIXx.).}.S.iXcX>XHXcXiX}.`.7.3.7.oX`.bX6X6X6XOXM H H H #   #   o ~ CXCXlXVX6XcXwX8.3.*X>XHXxXSXAXzXLXvXPXKXDXsXV V _ ) {.oXKX!.J.Y ! U r 1 f r r U } D F U g F F L F F F F F d d r r g g g L 7 7 d h L L f r 1 d F h r 1 2 d { L F 7 7 L { { g g g f f L U g L F f D g f { a a Y U p u u u i & ; 8 & # O.+..X-XJXDXDXV |.|.HXPXjXsX/ C T |.|.>Xc v l C 8.A.z.kXPXOXeX7X~ H   % o @ - ^ / NXMXFX7XjXMX8.9.O = ",
": *X*XsXzXHX}.|.: B [.Z.*XxXMXwX-XV.) 2.> Z l.}.}.wXwXQ.W.D u s F L X & & S S # b t I Y p 1 6 p a f a < @ $ < < r f a a r 7 F { a r r r f 7 5 r r g a r r r @ 1 7 f f 7 1 r f f g r $ < * 5 4 A p p i u i i 9 ; - - t 0 o X # # - 0 v {.}.*XHXHX[.*XZ.cXzXE _   . %.,X*X8.l.2.Z.A.kXkXOX! D X @ @ [ g 7 1 g g 7 * * f u 5 . X . . ) 4X=X6X6XLX:XPX/ / V l IX,XpXl.l.N.,X|.PXcXiXiXcX`.|.h.3.M.}.{.PXCX4X1XOXe.O.O.O.5.G n s.a.9XZXKXU.H.8 G I 8X3X#X+.Q y.z.z.I.n..XU.#X#X4X4X$Xm.n.W.#X.X7XeX5.# 8 0 m C.b.A.`.[.{.{.b.o % ^ &.{.b.n.~ Q b b 0 &.^ 4X.X4XCXbXb.A.2.vXHX[.Z.. : = *X:X>X}.B W W vXjXjXDXcX>X*XB :XvXHXPXQ .   ) 3.cXPXl.H W p.p.rXrX5Xs.v.*.Y F @.*.mX5XmXO.J - 6 a.tX1X~.2X!.XXI.!. X!.H.I.!.L.a.u.~ ! H 0 6 H H ^ {.6XnX.X.X#XeX Xm.m.p.z.r.p.z.z.&.b H b 4X.X1X.Xm.M n b G Q m M 6.t.4XOXkXwX6XKXMX-XH ( x.9.*XV.A.O + , O 3.A.V.[.V.3.2.4.z.t.n.4XoXkXkX X Xm 4 m 8 9 9 - % % # . 4.6.=XCXVXzXjXHXxX9.8.*XzXHXAXiXjXx.N.*XvXjXl.V.3.+.Q.}.rXm.U.!  .D * * g g f F L f D L L h F L F g F { o.g g r 7 f h F { < 1 g L [ [ h F L F [ L L F d d F [ { 1 7 F { { g f g f g L } L L D g F D L X.Y D U U f u u & & & - 9 - % +.+.{.MXMXvXcXv ,.8.HXAXHXPX;X%X).gX,Xk.Z Z 9.f.8.lXPXCXMX4XH ... $ 4 & $ I n - o +.NXbX3XLXKXHXPX8.l.",
"> |.:X:X*XcX}.>X0 Z A.A.jXHXKX|.A.C.%.2.l C f.,X*XkXwXU.K.D a s F L X & & n A - S m G D 6 1 6 g f K f < X @ < < a g r r r a L { 5 7 5 1 g 7 7 f f D D g r r $ 6 1 r f r 1 r r r g a @ * $ 5 < D n b 9 9 t i 9 ; ; ; 0 : # o # O > y v {.oX=XHXHXZ.|.[.AXiX,./     / @XcXS.x.( x.Z.lXnX#Xp 5 @ * $ d d d d g g 7 $ * D g - X @   X H CXJXlXoXJXMXPXQ Q B _ vX%X,Xk.N.A.%XzXHXIXHXxXxX`.*Xt.c.t.Q.C.KXeX4XMX7Xy.5.*.&.5.J J r.a.CXZXtXv.K.i I I W.U.4X4.+.t.y.C.m.U.H.K.3X$X$XOXU.H.W. X4X4XZXeX5.: v : v C.B.Z.B.A.}.}.6.= : 6.+.#Xy.y.S M t b 0 ) ^ =X#XkXPXPXM.l.) PXPX|.}.  > v vXjX|.Z.B ) 3.qXjXxXxXxXxXjX/ >XjXPXvXB   . 8.8.jXHXA.W W t.p.4XeXnXW.^.*.Y U U X.yXZXtXU ..S 8 &.NXmXrX5X~.1X7XXXW.I.U.L.H.n.6.e.G H H H m m ~ ^ U.#X#XK..XrX3XW.b.C.C. X6.r.y.&.p.N N m OX$X.X4Xa.G i t i b M b 6.t.=X6X6XkXoXKXLXZ.E V t.A.jXB.8.  + = = 8.V.*Xx.l.3.4.+.h.y.C.7XkXNXKXL.L.4 i S S S i & # # % o &.5.rX=XeXLXkXxXjX9.c.A.zXjXzXzX|.c.x.cXsX}.A.P.3.4.Q.@XCXv.U.O.X.p @ $ g f g F { } Y D L F [ { F g L } } h h r r g F F L < 1 L [ L F g L [ g F F L [ r 1 g [ } 7 r D [ { F f g F F L U L g a F L D U U Y U Y U p p p * % & % 9 - # +.+.oXKXMX:XsXv _ ( jXDXHXHXiX>X%X>X,X0.Q Z l.V.b.wXMXPXCXtXn S . . * 4 & A i 9 8 I bXMXJX6X=XPXHXl.2.",
"v [.*X|.|.PX&X}.0.2.xXMX:X) W B V Z.,X:X/ V q.,X*XkX4Xv.H.G g p L L X & & i n - m t t u @ & & p A K f & X $ 1 2 r a 7 r r r f f < & < * a 6 5 f D f f a r a $ & < r p r 1 7 r r r F * @ X r 5 a 5 6 ; 8 b M b 6 ; ; ; - # O # = ; y v }.oX;XHXHXA.c.A.LXIX).A.,.) b.,X,XD.l.%.Q.P.wX4X.X6 & X X * d h d d ] F f d r 7 r r * * & & # Q +.rXkX6X=XlXHXcX9.3.c.IXIXIXIXiXAXPXN.N.c.;XHXHXHX( ( V b.Z.OX{.kXeXkX5XNX6.....O.*.I G a.CXCXCXKXO...~ U.U.7X..^ 6.6..XC.U.+.5.p.M.m.4XnXOX#Xr.Q.L.y.a.CXQ Q v - ) ) x.P.B.|.}.4.> > C.I.W.&.5.m m t m 0 y.t.KXbXkXbX6XH E 2.xXxX*XHX8.9.2.PX:XV.*X( l.9.:X*XjX*X:XxXHXl.A.Z.HXDX8.: v V.V.PXPX9.= : 2.3.@XkXCX4X1Xe. .*.U U ~.yXZXJ.v.9 i P XX+XK.v.U.XXI.O.~ i ..O.L.I.L. Xu.5.6.r.a.y.#XQ.4X=XU.5.y.K.I.m.t.n.m..X~ &.S # 6 M G .X$XW.m.a.S b m S n M m &.JXkXkXbXwXJXKXoXV.C.PXPXDXAX:XjXxXW ) C V |.*X*X: : H 6.t.n.H.#XBX7X!.H.9 - - ! A X . 6 A A G i # - o 5.y.eXoXMXjXLXHXcX,.A.V.zXcXC   . 9.h.KXoXM.4.0.C.{.KXU.K...X.A @ @ f g a < & 5 u f  .} =.=.[ h h g r L L g f h h g f g f [ F r 7 r F F g L F L L 7 1 g [ o.7 f F { { U F F L g p s 7 f r L F a D p a p 5 u 6 u i @ @ & @ 8 - # +.+.=XlXcXjXjXW 9.2.V.A.%XiXGXGXgX).N.Q 0.N.l.h.JXJXnXXX1Xi p 5  .D F f { 4 $ - & - ! ~ CXMXJXlXwXzXPX",
"O ;X*X>X*XPX*X|.8.h.xXPX}.= = + O z.[.E.4.1.3.}.}.jXkXQ.K.S s g F D @ p u n n 9 9 5 ; & & & 6 r q 6 4 < X @ r r D a r r 1 { 6 7 5 < f f 5 f A u a p a u p A 5 * $ 5 6 p 1 1 1 1 g f 1 $ * 5 f g u 8 - % % & - ; 8 ; 8 - o o # = = 0 0 }.@X*XPXPXx.l.v %XiXzXzXPXPX@X=XqXv V Q V.V.nXnX$X% 4 @ X 7 2 e j d j h 7 j d 2 7 6 * & * ; % @ X +.&.4X6XlXHXLX:XjX9.) E N.).,Xl.k.: :   9.9.[.|.V.c.V ) _ x.p.@XwXMXrX4X4X6.e.5. .5.O.S v.L.tXmXZXs.a.! ! G 0 0 ; 8 ^ +.&.y.y.K.W.v.+.6.Q H M H.m.U.U.4XE P 0 C v v 9.h.0.sX;X7.Q H P.P.M.I I t 9 i m N .XOXbXKXVX{.oX8.9.>X*X*XHXHXcX[.V.HX*X) ( ) [.V.>X>XxX*X*XxXcX}.V.x.|.jXV.:XjXjXkX=X=X9.( 3.3.W c.VXnXCXtXr.e.*.F D e.uXtX9X9XS S M 4XtX!.H.tXW. XS n b 1Xm.!.W.OXI.U.H.L. X Xm.W..Xt.z..Xm.z.K.m.5..X.X#XP.4.&.# b n tXNX$Xm.p.n S 0 S N t S y.y.6X6X4X-XbXLXt.t.+.( jXjXjX&X*XiXPXcXzXcX;X>XcX9.0.) ) y.K.oXkXBX9XY.+X$ & X X 4 D f 5 $ $ a A & - 9 o @ % # 6.6XkX;X*XPXPX7.|.|.;XjXC Z : Z.|.PX0.3.4.7.Q.@XCXW.K...U F X X r f f @ $ D F D X.U L f L L F r g r f r } L L F r g { F L D r g f r L L F f r g g g F F F F g L L L F f f g 5 6 F D X.A D D p F u 6 $ # u 9 6 X @ & & 6 % % ) +.lXKXLX:XxX8.IXPX0.9.l v 8.GXAXaX]./ l.9.*X*XlXMX7XI G i U U D L D F $ $ X F n 4 .   ^ P CXnXVXHX:X",
"O *X}.>X*XLX&X}.9.l.xXxXV.= > % O p.}.*Xq.4.8.|.|.6XeXK.K.D p g f g @ p q n p 9 6 ; & & - ; 1 1 5 4 6 6 @ $ r 7 F r r f r } 4 5 5 4 D D 5 p p 5 5 r u u A D u * @ 4 6 p 1 1 1 2 g r 2 & < 5 r p i 9 - & & - - % ; ; : - o o o O = y y oX*X*XPXLXA.V.B *X%XiXjXIXHX@X*X@Xv v C V.V.lXeX1X& 6 * $ d 2 e j j d j d j f 2 7 6 * & * & ; o % &.&.bX6X-XlXKXzX;Xx.T / N.f.pXN.f.> = . 9.8.[.[.V.x.Q W &.p.M.@XMX#X4XrX#Xr.r.O.! *.O.A H.L.mX7XKXv.v.I ..S ; ; ; t ^ 5.+.n.a.U.K.m.&.&.~ S M p.p.$X4X X~ W b b 0 0 2.h.h.;X&X0.) W C.m.L.I G i 9 0 H H {.#XkXwXMX{.oXl.9.vX*X>XcXxXHX|.[.*X>X0.2.) V.V.*X*XjX*X*X>XjX>X0.x.,X*XV.vXjXVXVX=XoXM.) / / 1.l.vXkXCXmXa.5.*.g F *.ZXmXyX7XS S S XX8X.XW.mX!.L.H S t !.4XL.m.OX XL.I.L.I.L. XM.{.b.n..XQ.m.z.n.+.6X3X4X.X+.&.# b H 4XtXOX6.n.m t b n S H M 4.0.=XMXwX6X6XMXb.9./ W vXvXAX[.iXiXHX>XHX:X*XjXIXx.9.P C m.oXK.nXtXJXU.L.5 % . . * D f < $ < g a 4 - 6 X X # # y.kXMX-X}.LXPX0.%X[.HXjXB B V V.x.MX9.0.3.4.{.oXlXW.K...! G X X r 4 g @ @ U U n  .} L f F D D r g r f r { L L g 1 { L f L F g L < 7 D F g r 7 g F r F F L L f L U L L r r r r r D F X.p f D a D 5 i & $ 5 9 5 o o & - 6 % % ) +.lXlXcX*XjXl.HXPXD.9.= : 3.IXSX,X|.1.f.9.:XsXMX3XOXG n a U U f F F J @ $ $ D D $ X . H ~ CXCXMX=XwX",
"# }.[.>X*XHX|.}._ ) &X:X`.<.2.7.4.*X}.V.C E f.jX*XzXeXU.H.D s s s a $ p u n i 9 8 6 ; 6 y u r 1 7 q a f 6 1 g f f 1 < f a F * * X @ u p 5 p D D D A p u p p & X X & < p 7 1 1 1 f r r r r 5 r u u 5 6 5 u p i y b b N b ; - - = = v v =X;X*XLXHXh.x.W zXiX;X;X>X@X@X:XjX%.) Q Q.C.wXrX4X; 5 & & f 2 7 h h d d d h F d r a r s & & a @ @ X   ..5.lXeX6XjXcXcX/ 2.v c gX,XiXT T E V.x.-X6XjXLX6X}.x.8.&.z.wX-XlXCXnX.XW.&.*.5.5.G i D s.G.KX1XBXa.y...! ! ~ G S H H 6.6.5.5.5.~ H M b m 5.&.!..X+.N H H C M v M Q Q t.b.x.z.z.OXI.y.i i i i 0 5.4.eX6XkXkXKXc.V.*X>XPXl.3.8.9.HXxXjX) E v V 3.*X*XHXcXcXlXcX:XvXHX) ) / ) [.PXHX@X-XM.b.lXvXjX8.( 9.*X*XVXCXm.5.*.U } { 0X<XyXyX*.5.O.3X#XK.m.Q.5.5.; i H 3XnXa.L.6.y.O.e.5.y.y.XXm.U.y.y..XCXnXb.n.S r.5.p.z.t t +. XXX8XOXW.n M N i H y N 5.p.CXlX=X@X@XKXKXZ.b E 9.V.IXl.9.+ . Z N.N.iX[.*X[.q.W &.V.z.K.7XeXtX5XY.- 4 9 p a q 6 a f g d 7 f g f a p # o .   ~ CXwX[.|.PXPXQ V V N.).V.:XzXPXPXzXE B 2.5.{.Q.KXW.K...! G X X 5 5 { & * X. .n U f g g o.o.{ 7 6 * < 1 L { } L f U F f a $ * { F g { { U F F o.o.< F a F L r f g F L 5 5 & s 5 a p F 5 a F F U F A & # 6 6 5 X X - - 8 % % +.+.lXHXHXvXcXZ.HXHXN.V.O = _ PXIX].).,.2.q.*X;XMXz.a.X X < { { f F [ o.* 2 w J { $ * # @ X &.rXPX-XeX",
"= |.[.:X*XcX[.}./ / |.|.B.9.3.9.9.[.|.*X_ Q q.[.>XcXwXm.v.A r r r r * u 9 i 9 6 4 ; - ; 6 6 6 1 4 5 r f r 7 g f f < 1 D F F $ $ X @ a p q p A D D f u 5 u a 4 @ X & & a r r 2 1 r r r g a 5 5 u u 9 5 9 i n p i 6 8 b i ; % % # = v b =X-X*XLXMXx.x.2.;XiX[.jX*X}.qX-XQ.( %.E A.A.-X4X4X5 5 & 4 g 7 7 f f 7 7 g f h r 7 a g g - 6 u @ & o @ ^ +.#XMX-XjXKXLX2.W = : zXgXzXC E C V.V.-X6X;XjXjXP.Z.8.2.C.MXVX6X@XeX#X.X&.6.+.O.I D U d.G.NXNXmXa.e.I ~ ~ G G M G Q 5.6.&.&.&.~ H t b m O.&.K.Q.5.S M H v m m 0 H ~ 5.t.C.`.P.{.m.a.n n n i - y.6.NXeX=X;XLX9.0.6XvXPX8.9.9.2.cXqXvXV W V B 8.*X:XcXxX*XjXcX*X>XHXB / E V :XUXPX*XW.n.z.VX*X>Xq.q.8.|.|.MXCX!.w.*.U X.L 0X<XmXtXe.6.5. X XQ.W.Q.5.5.8 ; S 8XnXn.a.e.n.O.e.5.u.e.XXK.U.p.p.W.CXnXy.p.P y.y.m.p.b - ..1XBXI.XXn.n i b N M b b 6.p.$X=X@XwXJXLXMXl.V v c.[.cX3.x.+ + x A.V.|.%X:X*X9.4.W z.0.y.1XNX1XmXG.w 4 K f q q r 7 7 g f 7 r f a A n # @ X   H kXkX=X*XPXHX/ ) _ [.Z.*XAXHX:XPXjXC 0 4.6.}.Z.KXQ.U.^ ! G X X u q U 5 & U U A A F D r L L F 7 r $ * r { { L F f L L a r < < L g f U L L L L } } * D 7 { { a f f F L r s $ 1 & a p D u 5 p p F F Y u ; 5 6 6 X X - - 8 % % +.&.MXMXVXqXjX].vXjX].].O O Z SXIX).S.,.3.9.*X6XJX5.5.X X 4 { { f h [ { 7 e f g J * & % @ # ! tXeX4X4X",
"O [.P.:X>XDX|.*Xv : t.x.P.>X>XcXHX*X9.8.> : 3.:X*XjX4Xv.m.D p p r r & 5 4 - & # @ @ @ @ o @ @ * & 5 7 f f r F g f 1 1 F L g $ @ X @ 9 q 6 5 u A D A u q i i - X @ # @ u r r r 2 2 1 r f r 1 < 5 q 5 4 & * @ @ @ & - t y - # % % % y v =X-X*XLXMXx.V.Z.HXHX2.( = = 8.-XqXZ.Z.2.A.C.=X#X4X6 5 & & D u 7 r 7 < 1 g r g 7 7 f F Y 5 u 5 4 6 @ @ @ X &.4X4X-XcXHXHXHXf.2.9.%XPXAXPXcXzXzXDXxX{.oXHXlXcXx.7.Q 8.p.oX#XCXCXnXm.U.&.5.&. .U D U e.tXKXtXZXXXeXtX7XeX1XtX$X7XtX4X4X$XOX.X4XeXW.OX.XL.U.W..X!.XXK. XOXn.oXB.B.z.C.K.P.I.H.O.5 i n i b .X#X3XKXPXzX;X3.8.PXHX|.= O O = *XHXPX/ 3.) E x.jX*XqX*X9.*X:XjX>XHXV.S.E V PXZ.}.v b & - {.vXcX( ( q.].[.MXJX#Xe.*.=.=.f s.d.NXCX5X7XOXBXOXU.p.+.b 9 I ..i &.e.1XtXn.u.b - # m m &.5.y.b.b.5.+.) 0 y - : 8 b N ^ +.OXBX1Xy.n.b 0 S H H 8 +.6.nXlXlX-XVXPXKXV.Q.P.jXiXHX:XPXc.V., > _ Z.c.7.9.v v B t.6.C.U.nXmX<X!.s.q 4 w K A w w f F g 3 < h [ g g Y p X X X o G 4XwXzXjXPXAX( 3.3.LXSXiX;XHX:X6X4.Z V 4.+.@X{.kXP.U.^ ! G X X u 5 A a p J U I u r r a { U f @ X @ * D { L D D D L } 7 < 1 * 7 7 r D D D f f g r $ 5 & U { g a a U U p D @ $ * g D U D p u 5 S U I D p p 5 6 o o - - 8 % % &.&.MXkXlX>XgXZ.GXGXGXIX9.c.q.>X>XS.%X_ 8.c.&XoXKX+.O.$ @ w F F g F $.[ { h F d f 6 & 9 4 @ o 5.&.nXCX",
"O [.P.:X>XHXoX>X: > 8.h.[.>XvXcXKX-X9.3.> > ,.%X*XxXwXm.v.D p p r r 5 5 - & # @ o @ @ X X X @ * 4 q q f f f F F r 1 1 D F r * * @ # 6 6 4 6 5 A F S n p p u & X $ # @ 5 r f r r 2 2 2 a r 7 1 5 5 5 6 & * @ $ * # & 6 6 % # & - % y v =X-X=XKXHXZ.).}.AXIX4.4.= + 8.vXqXZ.V.2.E.A.-X=X4X6 6 @ $ p p u 4 < * < r r g r f F U U a 6 & 5 6 & & o o ! 6XbXMXjX6XPXPX1.N.q.vX>XGXxXHX}.zXzXPX{.Z.wXHXUXx.C.P l.0.6X}.kXnXbXW.K.&.&..... .! *.e.mXtX5XtX1XmXCXmX7X#XOX4X#X4X#X3X.X1X4XW.4X X1X4Xv.a..XU.U..X!.OXOXn.B.U.m.z.C.m.K.b.n.&.A n u ; H !.4XPXkX6XLX}.2.) cXPX|.O O + O }.HXPX2.) E E [.HXvXjX*X) [.[.PXcXIX9.l.E ) PXV.*X0 m # = {.xXgX,.k./ V.[.lXMXeXr.e.L } L s.s.KXtX5X8XOX3XW.m.p.+.H H ~ I b &.5.3X Xa.e.b - % m m ~ 5.y.z.b.&.P I b v t 8 t b 8 ~ ~ OX1X8Xn.L.m b 9 H P b y.y.4X4X#X=XVXJXPXP.P.`.;XvXcX;XHXV.N.v l Q N.[.9.l.: : E 8.t.K.n.OX5XtXs.J.q q q A J q 7 d f j 2 7 h h g g U A $ $ @ X N 4X=X6XxXPXcX/ ,.3.AXPXLX:XjXjX>X3.v V ( +.oXoXMXP.C.^ ! H X X u u p D U D G P & 6 7 r L F r @ X @ * L L F f F { F } < $ 1 < 7 f f L F F f r f 5 < < * L F D r 5 } U D D o X $ g p Y F p 5 5 p I G D S N 6 6 X o - - ; % % &.&.cXcXUX>XgXD.vXvXPXGXA.c.q.,XgXk.k.T 0.c.oX{.JX.. .$ $ 7 F [ [ ] [ ] o.[ { d f f 4 & 6 4 # ^ ~ bXeX",
"O |.[.-X*XHX}.oX/ W *X*XxX}.}.Z.7.V.c.c.B T 9.:X*XcXkXv.a.p r r r r u 5 4 4 - - - - - & & * & & & 5 6 7 a r f f f 7 r F L a 7 5 A A D p i u 6 p i u q u p n u 4 & & $ 7 7 r r r 2 2 r f f a 7 7 X X X X X X @ @ @ X @ # @ @ # # - v b =X-X;XPXLXV.Z.).HXzX3./ . O %.*X>X].A.4.A.P.wX6X4X4 6 @ X - n u & * * < 7 6 7 1 7 f A D 5 g 5 * * i u ; # X H 2.#X=XDXxX}.PXAX0.c.).iX}.zX}.|.W Q + O ) -X:X9.p.C ( 4.Z.M.=XMXnXbX5XI.K.e.*...J K S s.!.7XtX9X1X5X1X8XCXNXnX4XbX4XtX4XmXnX4XNXnXZXmXXX.XXXZXyXmX7X1XeXbXBX3X8X3X7X X.Xn.n.S q i 9 9 e.5XCX X-XPXPX( v R PXHXxX( ) E E jX*X>Xl.x.D.3.[.xXcXx.l.> 8.( xXjX:XHX>X2.9.xXxX:X: 8 % ; P.PXIX( Q ` l.V.}.=XnXH.J.o.o.U {  .5X<XNX3XXX#X.X.XQ.p.n.U.a.n.G.m.e.U.U.u.n.n.U.U.H.y.6.n.p.y.p.y.5.y.5.t.&.) ) 6.y.OXOXtXv.y.A m i H M 0 M y.4X#X4XwXVXJX=Xl.0.0.c.vXcXzXiXiXSXiXcXiX>XiXzXAXc.8.W / 7.S.m.4XeXmX!.L.5 q 4 J f w 7 7 f e < d d d d 3 d 7 f u 6 5 # o n eX6XcXjXjX;Xk.zXiXHXHXc.V v 3.8.KX2.) 3.8.{.{.MXC.m.! P D X @ p p D D D p 9 9 $ $ 1 r } } D * $ a r } F g r f F g g $ 1 U U D 7 r F F D a r D D D * * L g } a r D D D D & $ < s p D D p 5 & & 6 i n S S 6 5 o o % % ; % = &.&.lXlXcX}.,XQ ].].gXvXPXIXgX].c./ 3.T l.c.jX6XKX+.O.a f [ F F $.F d j [ h h r d f w 6 i n & X o ~ 4.",
"= *X}.-X&XcX[.`.+.2.jX}.[.Q Z O : 9.[.,X) ( 0.].Q.wXwXa.p.s 5 r 1 4 u 6 6 6 6 8 8 8 9 y u u 6 6 4 u 5 u f r f f r 7 r g D 7 r a p p p a p p 5 A S p 9 5 9 i u 9 6 5 * 5 1 1 7 r 2 2 r f g g r 5 7 5 5 5 5 5 5 6 5 - 4 6 6 5 y 8 ; b b =X-X;XPXPXx.V.f.HXHXjXAXl.D.E.,XZ.x.c.2.Z.[.cXkX6X4 6 @ . @ i i * $ < 6 7 6 7 4 7 f p f 6 < u 4 4 p & 9 ; X o o ~ / 6XcXPXiXiXSX2.) = > ( [.}.Q ( O + V }.*X,XqX*X8.D.4.0.t.}.#XbXNXKXCXI.O.O.e.*. .*.O.&.@.5.O.*.&.O.e...5.O.5...&.O.w.&.&.&.O.+.+.5.a.5.5.*.y.e.&.&.5.4.5.6.5.6.+.5.! ..n p S A M L.4XkX6XVXcXzX<.[.V.|.{.KX>XxX}.Z.IXA.].0.9.x.A.vXHXvXW E   V v ;X;X;XjXcX|.|.x.UXLXp.z..X#XlX*X>Xq.8.B 9.9.S.K.CX.X5X=.o.X.A D ~.v.5XmXtXnXMXCXCXeXKXKXtXCXKX7XCXZXBXKXmXmXCXmXtXmXKXNXKXNXKXNX6XnXnXCXeXKXnXbX#X4X7Xr.9 A n 9 G M G r.5.kXVXnX-X4XPXKXz.P W }.}.:X2.4.v Z 9.[.A.%X>XjXq.8.3.) 3.8.Z.MXCXeXtX X# # & < q f 7 7 f F f F h F d e d e j J K u 9 q X   t PXkXsXxXHXcXf.*X;XiX;XZ   = V.x.zX3.0.4.4.Q.=XMXb.z.P G D o # D J X.U F D p i u f a 6 s r a r F L a U f g g L { < 1 $ * < 1 f r 5 F L F f f } =.r . X r 5 } p a r p U U f r g u p D F D Y D p n u p S D i i % # % % ; % - &.&.lXHXLX*X>XB Z.S.>X%X,XA.gXPXPXc.q.C 0.0.kX7XNX..O.D g F 7 7 [ [ ] h d d d h F f g D q n p # - o   ",
"> |.,X*X>XcXZ.[.3.3.*X|.*XV Z : , V.&X`.2.) 0.{.Q.eX#Xm.a.; y u 6 5 5 6 6 8 8 6 ; 6 t i y i u ; - 6 9 p g g f r 2 r r g f r u u A s p p i a n p n P 6 ; y y i y 4 6 < 6 & < p r r r r p p s r 6 6 5 u 5 6 6 5 5 5 6 6 6 6 5 5 8 ; Z C @XwX@XHXHXx.V.l.HXPX;XzXk.l.].|.}.c.x.( `.[.kXFX=X0 0 X X o u a * $ 4 7 5 u 6 4 w a a u q 6 q 9 5 9 6 6 9 @ X o Q H 6XCXJX:XiXcX3.) = = 3.}.A.( E . O B [.@X>X:X|.3.x.&.p.x.@XZ.MXbXlXKXW.O.&...6.! *.5.O.O.*.*.O.O.@.*.@.&.&.&.O.+.&.5.5.*.&.O...*.e.e.*.5.e.r.e.5.&.&.*.5.*.*.5.5.&.....S i G i S $X4XeX6XHXjXxX0.A.Z.|.{.HXxXiX;X%X,X>X%Xk.q.l.A.jXvXcXE E . l v *X*XiXzXjX,XZ.[.cXVXx.p.-X}.jX>X}.3.9._ 4.8.Z.C.MX=X4X@.o.=.D D G.G.yX9XNXmXCXZXtXZXNXNXJXKXKXCXNXNXCXKXCXNXNXNXNXCXKXJXJXNXNXNXNXBXBXNXNXNXNXBXbX7X5Xu.u a a n i P S y.6.bXkXwX-X-XPXPXl.E E *X;X>X2.2.v Z 9.Z.|.;X}.iXl.+.) 4.4.6.{.eXtXnXmXXX& X 4 w w q f q 7 f h F F g 2 d d 2 g J f q 5 5 X . m KXJXoXkXMXcXl.*X;X>X%Xv O O x.Z.iX2.7.3.4.@X|.MXp.m.S ! n # X F Y Y F D A p a a g y s r s & s D g g F F g g L [ < $ < * 7 1 f r 7 F F D r L } =.< X @ 5 < X.D a f g L L D s u g g g F D D g p p u n n I b y % % # & 8 - % 5.6.lXVXlX:X*XV c.*X].>XZ.%XiXPXHXc.9.Q 8.t.kXtXnX.. .f g F d d [ ] h j h e d F F g F D p p 5 & $ . X ",
"V :XjXcXjXcXZ.A.l.l.:X*X*X/ V v v B.`.`.b.b.C.}..XeX4XW.W.S D M t t i t t i i i n b i t i i i b S n i i u s r s s L L g g p i i 5 g 5 & o a n i 6 a & % % # & ; 6 5 5 p 5 y r 5 r r 5 r u u r 5 u i i y q 9 9 5 5 6 4 ; 4 ; 4 ; % v v -XqXwXPXPX8.8.V jX&XzXHXzXAXzXiX).B B V A.`.MXJX.X- - . . X 4 q & & 4 - $ @ X X $ & & 4 6 9 i 9 6 9 6 ; 8 - o   # O +.{.=XkX6XxXvXcXW C 2.>X:X*XjXV.V.`.LX:X}.-XlXqXUX9.8.W t.z.wX@X6XVXkX$X!.5.*.*.5.&.....@.*.*.*.*.@.X. ...O.....O.O.O.*.&.O.O.O.O...! O...! ..O.O. .I ! G S S S S n n S i n G ! 1X6XeXPXLX[.&X|.LXHX[.P.|.6XvXPXcXA.4.q.1.q.[.*XHX}.}.: : . O , l.N.|.AXAXjXqXq.0.x.*X:XIXjXjX|.*X}.xXc.3.<.x.B.LXcXkXs.d.o.U Y *.*.e.5.5.O.O.&.&.w.5.O.&.5.5.5.5.5.5.e.6.w.e.y.y.r.a.r.y.r.r.r.r.y.y.r.r.r.u.r.e.5.&.D 5 D A A n r.e.nX4XCXVXMXPXHX[.Z.A.:X*X*X}.jXE R     ) A.V.8.3.: V ) 3.p.{.{.OXKXCXv.s.X - n  .J K g f 2 < 7 r f g h d g g 3 < $ * 6 q q @ . b 7XbXkXJXMXkX3.[.|.|.%X( 2.3.cX;XHX2.) ( ) [.[.KXr.v.P I p @ & ..U p 6 4 & & & 6 5 5 r r a g F F { L F F g F { L * @ X X < 1 r 7 r L { L 7 r r f < X X @ X D L { f g L L F f f F F g s 7 1 < < 4 4 - 4 n S n ; # & & 8 & % 5.5.4XKXlX&X:Xx.LXGX9.0.: : ( zXHX[.|.4.t.6..X$XeX*.*.r d h 7 7 2 3 2 d j 2 2 f f h F D q 5 6 a u & & ",
") }.}.jX>XvX}.|.V.V.}.|.A.) ` B V x.`.[.x.l.M.@X-XkX-XQ.Q.P G b t y 9 y y y t i 8 t 0 y n t 0 n y t i p A g g g r L F s p A 9 6 D D & * o S a 6 n n & o # % ; y u 6 5 n 5 p 5 s u y y 5 5 5 5 5 i y 9 9 9 9 6 6 9 5 6 ; ; ; ; ; % v Z wX:XjXcXPXx.9.V cX&XiXAXIXAXiXjX[.v v E &XA.xXMX{.0 0 # # X & 6 - 4 4 # X X X @ $ % & 4 9 i b 0 6 0 0 4 8 - o .   o C 4XMX;XvX:XPXHXE W W jX;X}.|.`.[.}.jXPX-XwXlXcXwXz.p.^ 3.t.=XQ.eXkXKX!.!.O.^ *.5.O.O...O.O.............O.O.O.O.O.O.O.....O.@.O. .! ! ..! U  .O.O. .Y ! D n n A A n p A p q O.*.4XeXwXcXLX}.[.;XDXPXZ.Q.z.MX>XvXgXA.8.8.8.q.].|.HX[.@XO O O + O q.c.cXzXHXvXqX_ 8.8.qX*XjXPXvX[.[.jXjXP.3.4.B.c.xXDXNXp.s.U X.@.X.*.X.r.w.X.O.*.5.r.e.*.*.w.w.e.e.e.e.w.*.w.e.u.r.r.u.r.u.u.d.u.r.u.u.r.r.u.u.u.e.5.*.q A U p 6 9 5.O.nXrX6XVXzXVXPX*XZ.[.>X*X;XjXMXQ / .   W A.}.8.l.v W ) 8.0.P.oX6XNXKXv.J.. D A f J g f 7 < < 7 r f f h g F F < 3 . $ 5 q 9 @ X b bXeXbXlX6X-X( Z.|.|.).<.8.f.:X}.HX) ) 3.3.|.E.VXy.n.I D M & - G U i & & & * & 5 5 s r 5 r L F f U L F g F } } F X @ $ $ 7 1 7 r 7 L { [ r r r f $ X * * * f L L f D L L F f f g L g r < * * & & 4 & & 5 S A i 6 % % 6 & & 6.6.wXJXKX[.[.N.IXIX9.k.= > ( AXiXZ.>X4.z.0.#X4XnX&.O.7 r F F g < $ d e h d d g g F F f 5 4 4 a A 4 4 ",
"[.jX}.:X}.>X*X*X*X}.*X:X*X|.[.*X|.:X*X;X6X-X;X6X{.@X#X#XMX.X4X4X#X.X{.oX.X.X.X$XQ.oXQ..X7X.XK.4X=X#X$X.XJ.d.*.=.; Y } A 9 ; & 9 4 p A D & @ & Y P y @ o % ; ; & 6 * * 5 & 5 & 6 D X.d.~.XX~.H.s.v.n.a.z.a.p.a.a.r.y.e.6.e.e.e.6.4.p.9.UXqXvXHXHXl.9.q.HXIXZ.*XA.S.%XAXjX( / Q A.}.kXdX&X~ Q x 0 H ! I I ! I G G i i i n n n S S i t ; ; 0 0 ; ; ; - = # = > p.t.KXHX}.vXPXoX:X0.[.P.|.[.;X*X*X|.A.P B / [.-XQ.C.b 0 v 2.3.=XoXbXnXCXXXU.a.5.&.*.&.*.*.@.O.O.@.&.O.O.........O.O.O.O.*.5.5.&.O.&.U ^ .... .! U I I G S D G G S A i p i a.n.rXVXlXPXHXl.0.zXxX:X0 v ; *X*XgX:Xl.3.1.f.f.vXvXLX8.0.O + : + + Z E %XiXjXvXjX3.x.0.vXHX|.*XW V E jXcXoX( ( l.7.&XDXNXXX2X5.5.e.*.e...U I A D U U  .U U U U { { { { { J J U { { U L L J U U J D D D D D A p p A p a u A p 9 u i a.mXCXnXeXMXKXKXM.8.p.A.MXzXcXHX>XxX}.[.l.V.;XjXjX( ( B 4.8.{.{.kXMX7Xm.y.# & 4 I i f g f f f r f D g 7 7 7 1 7 f 1 < $ 4 5 & % X X m 6X=XMXJXLXDXV +.,.[.jXAXcXHXPXHX8.> v / 4.@X|.HXy.y.H S ! b 9 6 - @ @ @ @ X X @ X @ X @ $ F L L L L F h F } [ r * 7 7 7 F g a g f F D g 1 7 7 r g r 7 @ $ 7 } } F F F L L F g g r 1 * $ $ $ * $ $ @ $ @ & # ; 6 6 ; 8 & - y.0.wXkXPX:XjX}.IXIXV.9.O + Q LXPX|.[.( t.y.6XnXZXO.! X $ < g f $ X f e g f e r r f 7 7 7 q 5 q u 4 u ",
":X:X[.*X|.*X:XqX:X*X|.}.|.*X>XxXvX:X*X}.*X*XoX;X6XjX4X*X6X{.=X#XkX-X=X=X=X=X=X6XbXlXoX.X4X.XQ.kX6X4X4X4X4X4X2X2XX.p 6 6 D n X . @ @ & 5 N & & p i ; & ; t t % X .   o y y G N M .X$X$X!.K.K. X#X4X4X4X4X#X$X#X7XnXeXrXeXeXnXnXnXVXLXwX:X*X>XPXHX[.[.%XHXcXQ Q O = 8.>XgXA.V.4.*X[.;X6XPXbXNX7XbX7XtX7X3X4X3X3XeX3X$X.X.XXXOX.XW..X.XP.P.oXOX{.{.oX=XoX*X[.x.jX}.*XcXHXvXsX>XHX[.}.*XcXsXHXjXjX}.>XS.Z.Z.wX@X:XcXZ.3.4.z.b.MX;XbXeXnXZXmXW.p.H.a.y.u.v.J.H.v.a.r.v.v.v.a.a.n.v.a.a.r.r.a.a.y.w.e.*.e.r.e.e.5.5.6.*.&.&.*.*.&.*.*.5.w.5.eX4XlXJXMXl.c.) / vXcXDXH Q - }.[.iXcXc.3.8.[.[.PXHX-Xy ; o   0 + + O = B.cX;XPXPXE.9.3.PXPXA.[.O > = >X:XDX_ B ) ) {.DXbXtXtXH.O.O.*.*.U X.X.U  .o.X.@.#.#.#.#.#.o.o.#.} #.X.o.*.*.o.o.X.X.o.o.X.{ U U U U Y D A A D D F n p n e.e.CX#X4X7XeXkX0.3.y B HX*XxX8.4./ Q Z.PXvXjXxX|.x.V.( 3.4.=X;XlXdXKXJX6.. - o $ J 6 6 U 5 7 r r 7 7 a 7 7 4 6 & < 7 q a - 6 - o X . X S PXkXeX4X6XcXQ 8.8.AXAXHXx.N.9.l.[.E W / / |.[.cX0.6.S H &.~ S 6 9 b S A n p i u u a 5 r r L L U U U { F h L g 1 { F 1 1 U X.D D f g r r 6 f a a F D D < 5 7 L D F D F L { } } [ F D g g D D D g D g S 6 u 6 S P n t t % % 6.7.=XPXLXx.x.9.gXIXcXPX].V.c.&X[.9.l.) t.y.=X7XmX&...@ $ 7 { L * * F F g 7 < < 6 f 5 6 q n u p A i G ",
"|.}.E.*X*X*XjXvXcXxXjX:X*X*X*X>XjX:XDX>X*X}.-XHXsXjXxXsXsX6XsX6XzXwX-X=X=X6XjX6XjXkX-X-XkX;XoXjXjX6X-X#X#X4X4X4X*.p s b b ; X o   X & % s @ ; p y ; y i y 8 % X @ @ @ & ; ; M N U.!.-X6X4X=X=X4X6X6XwXeX6X=X6XMXwXwX6X6XwXeXkXkXjXlXlX@X*X*XPXcXx.Z.[.cXiX/ W O + l.vX>Xx.l.W [.&X6X=XKXMXbX3X3X4XkXkX6X6X3X4XkX#X.XW.W.oX=X.XP.P.P.C.C.{.}.P.P.Q.}.[.*X}.`.>X[.PXxXvXjXMXPXxX|.zXvXcX*X>X&X:X*X*XV.V.A.jX:X6X*Xb.8.t.M.C.kX=XkXCXtXCXmX Xa.m.6.r.a.n.H.H.n.n.n.u.a.a.p.p.p.y.6.M.p.r.p.a.a.y.e.5.*.*.5.6.6.5.*.&.O.O.&.O.O.*.5.O.&.6.OX#XeXPXPXV.p.W E cXIXDXW C = |.*XcXLXl.q.2.A.V.vXHX@Xv y o   v = = O O c.xXiXPXDX,Xk.c.IXHXV.V.  > = *X*XjXW C _ W B.xXkX#X$XL.! ..e.w.*...X.U { X. .@.o.#.} } #.o.o.#.{ } } o.o.o.o.#.#.X.X.X. .{ U U U U Y D f p A D Y p n i s.r.CX$XCX#XKXPX3.+.b v >XPXsX) 2.V ) }.}.vX6XHX*Xb.8./ / h.*X}.kXMXlXNX+.- # o $ A q i 6 a r p a 5 u f p q 4 6 * $ 6 u A 4 6 - @ @ X X N 7XkXMXJXMXcX/ 9.c.LXPXAX9.l.l.9.V.V P E W }.@XKX6.y.H G ! P H i ; i S p i i u 5 r u r g g L Y } { { { F g F F r { L 7 r F { g a a f r g a D p a { F f < r 7 L L L L F L L [ [ L L L F F F D D D F D D u p p S n b y 8 # # 6.0.6XKXPX|.*Xl.cXzXAXvX|.A.c.[.iXx.9.W t.t.4X6XnX&...X X < U J < 1 f g 7 < 1 6 7 f 5 9 9 q 9 n A 9 i ",
"vXHXvXcXHX>X>X>X|.*X:X>XjX:XvXjXjX|.:X*XxXDXzX;X:X;XsX;X;XdXdX;XxXcXjX;X6XMXHXzX;X:XzXVXJXVXcXxXjXsX:X-X-X-X=X$XW.P H G H H 8 8 % @ X . a i 9 6 t ; t 8 % # o o o ; ; ; M P =X4XbXkXwX6X6XsXsXsXzX6X6XwXwX6XwXMXMXlXzXkXkXzXkXjX[.@XwXlXlXlXPXHX|.}.|.HXzX2.) O . q.;X;XD.f.( *XP.jX;XzX4X6X6X4XOXeXkX4X4X=X=X=X4X3X=X4XkXMXbX-X6XwX-X6XcXcXjXjXxXzXxXxXSXzXcXzX;X>X6X6X>X:XzXLX*X>XvXjXDXcXMXvX>XcXHXvX:X:XHXPXcXjXHXxXxXzXcXjX6XwXbXCXKX4XnX4XbXeXeXeXeXeXbXCXNXCXCXCXNXnXeX#XnXnXeXrXkXnXbX4XtXrX4XrXtXnXrX4XeXrX5XrXrXrXrXtXtX8X7X7X4X6XPXVX4.8.8.2.jXsXLX}.jXz.PXxX|.}.3.9.l.gXjXPXKXb.X . - = m = # .   / ;XzXDX*X>X].|.qXcXcXPX( [.x.HX:X{.W Q ) ^ h.;XzXnXeX#X6.r.v.a.u.e.e.=.-.w.w.i.e.w.-.-.e.i.i.w.-.o.o.*.-.-.-.-.-.X.X.X. . .U U U Y Y F D A A D J N &.&.ZXeXnXnXMXPXKXb.&.c.;XA.VX:XA.= >   O 8.A.V.7.8.W W Q 8.0.oXdX6XPXJXt.y.# X . # # # # 4 X @ @ * * @ $ & & - @ $ X . # 4 9 8 8 ; # # X X M MXKXkXjX=X6X8.{.).iX%XW = : 9.l.vX( ( 2.4.@X|.VXt.p.M H b M M M G I ! ! I I I Y ! U ! U U D G F L L L L L U } L a D A Y A D 5 5 u D D D 5 4 $ @ 5 A D U X.D g r L U L h g g g g F D F D D A f p p A p p i n a y 8 ; ; o # 9.l.MXPXPX}.V.B [.[.IXcXPXPXjXB.N.E E C 9.b.lXkXnX+.^ X X & U J u f 7 < @ X & - & 5 & 6 6 5 - 8 9 & % ",
"*XcXjXxXHX:XqXvX*X:XxX:XvX>X:X*X*X|.PXlXcXcXxXjXsX;X;X;X*XAXAXsXzXcXvX*X:XHXLXxXjXjXxXxXxXDXIXAXcXvX>X*X*X-X-X-XwX~ P M t M t 8 o o   . 6 y 5 n b ; b y % # X X o y y ; M N wXwXkX6X-XjXDXLXDXzXHXjX6XvXxXjXxXHXHXHXcXlXvXjXjX:X@X}.@XcX>X:XcXPX[.A.[.xXLX4.( O , ,.*XgX9.9.) V.A.HXzX6XoX=XbXwXoXjXjX-X6X-X*XoX*X=X=X;XjXMXzX-X;X:X>X:XxXvX:X:XcX:XDXjXIXzXzXzX:XcX:XjXvXjXxXsXxXsX>X-XjXvXjX:X:XPXPXvX:XxXHXjXzXjXLXsXxXsXHX4X#XkXlXkXPX4X6XkXkXeXkXMXMXlXlXMXCXMXbXkXeXeX6X#XMXMXbXeX7XlXkX-XeXrXrXrX4X4X4X4X5X4XrXnXCXtX4X1XnX=XkX.X=XwXPXPX8.3.3.4.DXIXLX*XoXl.PXHX*X,X1.0.q.>XvXMXKXp.o o = ; b % # +   Q ;XjXiXvXvXA.E.vXvXIX:X) A.[.cXzX;X_ C H W x.6XkXkX4XoXr.M.a.v.r.e.e.*.w.i.i.u.w.e.e.w.e.i.r.w.*.*.*.*.*.*.*.*.*.*.O....... .U I G I I G S A S G y 5.&.KXKXoXPXlXPXPXp.b.8.}.Q.-XjX&XO = + + W }.`.9.9.E E V l.3.}.DXFXJXcX6.z.+ X X # # - # -   X @ & & @ & ; - - o @ .   # 8 9 0 6 - # # X o ~ kXJX-XlXlXzXt.[.[.sXHXE = = c.x.HX/ W ( &.|.[.KXp.t.v H b P P I P H G ! ! I P I ! U  .D U G ! Y D D L } } } } U D D A Y p A 5 4 4 A Y Y 5 & * & a D f U { f g g F { } F d d f g g D Y Y Y D D n u D n S u n i b ; ; ; o # t.z.MXPXPX*XA.v ;X[.HXAXHXcXcX).Z.T E V h.B.lX6XkX+.+.X . & I F f D * < X X % & & 9 ; - 4 0 - ; ; # # ",
"2.3.3./ / 2.8.8.D.x.8.l.W 2.( 9.l.x.V.l.( ) 8.V.B.|.).).A.c.h.f.[.|.).c.B.4.f.9.|.;X%X%XV.A.x.N.f.9.0.l.Z.x.*X-XkX-XwXV H v H b t 5 o o . t y p N y ; - .   - 8 y t y N #X@X-X*X>X|.jXcXHXZ.V.c.%X,X[.}.].x.V.V.V.x.[.[.N.V.Z.A.7.3.&.@XvX,XPXPXx.l.8.PXHX|.%X&X|.).[.>X/ ) E A.Z.zXcXkXlXVXPXPXPXvXHXPXvXPXDXHXcXcXcXHX;XMXDXHXPXvXcXjXHXHXPXxXAXcXAXzXxXAXLXHXjXvXHXcXPXzXxXcXvXjXDXjXDX:XxXxXAXjX;XcX;XxXHXPXxX6XzXcXDXJXMXJXcXJX-X6XjXJXkXVXbXwXkX6XPXMXlX6X6XlXCXMXlXLXPXVXMX=XPX@X=XJXkXkX4XnXrX@XKXnXVXCXVX-XnX4XnX4XVXeX3XkXkXMXwXPXZ.,XA.}.HXvX}.:X}.PXPXVX|.[.2.W 3.V.V.cXcXkXVXS # # b y M - - = % = iX*X[.:XPX*X[.S.c.:X*X:XHXPXcXHX}.oX;X8.8.7.A.P.VXKXbXnXVXnXnXnXtXyX5XyX2XyX2X2X5X#X5X#XeXNX$X3X4X4X#X4X7X4X$X1X3X4XOX8XOX7X1X8XOX3XOX7XXXOXL.H.4XnXMXVXwXCXMXKX0.0.A.PXPXHXPXPXDX-Xx.x.2.2.zX;X>XZ v v 0.l.[.6XxXxXDXkXdX=X`.=X=X3X=X7XI.I. XXX1XU.W.U.L.!.m.L.K.U.I.I.K.I.{.P.OXW.{.I.n.P.b.}.MXJX;XcX6X-X*X>X*X;XcX[.A.V.*X;XxXQ.:XS.A.}.@XlX=XOXZ.z.p.t.y.p.y.5.y.e.e.&.6.6.6.5.5.5.e.a.s.G.*.i.*.} Y o.} & D n p i p u S @ # G D Y 4 @ 6 6 D 6 D 4 < 7 g r f f r g g ;.-.=.=.U F Y U X.U O...! I Y G G P ~ Q C W B H 8.M.wXKXVXA.[.x.V.*Xx.A.[.%XHXPXHXN.q._ c.9.xXHXkX{.oXy.6.y.v.G.a.u.s.e.w.5.O.e.5.y.n.n.n.t.6.6.6.5.O.",
">X:X}.W V V l.V.|.:XA.V.V W ( [.}.=X|.Z.E W q.}.|.sXpX`.B.v _ <.V.N.A.l.8.l B q.;X[.%X>Xf.> O l v l : v ( 2.Q.Z.kX[.MX@X@XQ 0 b N G n y o % % 8 y 8 o o o o y : % b C Q.wX-X{.*XVXPXPX_ W x Q l.A.N.x.Z.8.v V 8.3.x.Z.V._ T v v %.&.3.-XcX>XPXHX( / B ;XzXzXAXHXIXjX%X).v v B }.{.vXjX:X@XA.&.( ) 2.2.0.3.l.9.3.9.9.V.[.A.A.A.l.9.l.A.V.[.E.N.l.f.V.V.A.Z.).B.Z.c.h.P.Z.oXb.A.V.|.Z.}.|.>X;X}.[.).}.|.vX*X>X[.|.*X=X*X;X;X=X&X[.jXjX&XoXoX&XoX;XzXkX6X@XxXcXcXcXzXMXMX6X-X:X6X-X6X}.HX;X6XMXMXcXwXkX6X@XVXeX#XwXeX-XwXwXlXlXKXJXVXkX=X-XjXPXl.l.gX}.jXcXq.Z : Z.}.@X3.( : l 0.>X}.PXJXQ.U.% @ 6 S i N ; 8 - = # 9.x.zXgX,XUXcXB V c.Z.jXjX*X) ) }.cXMX{.oXt.A.z.lXlX6XwXeXeXbXnXtXtX5X9X5XyX0X7XkXwXVXkXkXkXoX6XMXMXkXMXzXcXkXkXJXKXJXNXdXbXkXMXNXMXdXkX6XdXkXNXVXkX=XkXzXlX3.4.C _ jXxX>X4.3.l.{.jXcXLXxX}.zXl.x.V W 8.sX:X>X-X6XxXDXMXFXJXMXMXsXdXMXJXkXMXMXbXkX4XrXtXnXKXbXKXMXNXMXMXlXlXMXMXbX6XkXkXwXMXkXPX4X6X*XzX-XzXcXLXLX;X%X%XiXvXcXjXvX}.vX>XUXlXwXcX@X6XwXkXVXlX6X4XbXeXnXnXnXtXmXmXmXZXZXZXmXtX5X1XKXmXv.X. .F Y D X o % ; i i G ; ; p 5 n 9 y S A 4 @ * @ @ 5 p f < * f U J.yXuX2X5X1XyXmXKXKXyXrXrXtXZXmXCXnXnXrX6XwXKXHXMXMX:XjXKXPX}.}.jXPXcX/ W O + 3.HXHX).`./ h.0.cXKXLXlXHXJXCXbXeXtXtXtXtXNXZXKXKXPXMXkXlXbXdXkXMXJXJXJXJX",
":X:X>XW W W x.l.,X>XA.V.E ) 2.[.|.qX*X*XC V ( [.%XzX>XA.A.: / ) [.N.V.9.8.: : 2.>X`.>X}.f.= O v l v Z v ) 3.|.[.wX-XwX@X}.) : b b n i y % o % y 6 6 X o - = b : ' C N @X}.-X-X*XPXPXxXW <.C l 8.Z.).A.V.8.B ` 2.8.A.A.N./ ( l v 2.&.0.*X:XqXPXPX3.2.T vXSXAXAXAXzXzXiX}.v v Z |.A.*X*X>XwX*X( 3.W l.2.3.3.l.V.9.9.q.|.*X*XV.A.3.9.x.E.S.A.|.l.V.9.[.x.N.N.A.f.).l.8.[.[.}.l.V.l.V.B.{.}.&XsXP.[.|.jX|.;X|.:X`.*X|.jX;X:X6X&X;XA.:X;XjXzXsX}.*X*X&XvXvXjXjXcXgX:XsXxX6X*XsXsXzXLX;X}.xXxXDX:XxXjX-X-X6XwXVXPX=XHXMXlX=X-X@XlXHXPXkX=X;X-XIXIXV.S.,X[.>XDX2.: : *X}.cX3.2.: v l.*X>XHXPXM.m.; & 6 S n i 9 b - - + 0.x.AX;X,XjX}.v E x.E.PXjXcXQ ) z.PXLX*X*X3.[.V.zX-XwX6XwXwXkX6XkXeX7X4X7X7X7X7XlXiXcXcXAXAXjXDXHXDXvXHX:XAXvXsXcXDXDXdXdXxXFXDXPXFXFXcXcXsXdXxXMXjX;XVXPXLX( 3.W W PX*XHX2.2.V.9.jXPXcXjX6XjXx.9.( W 9.*X>XsXjXMXPXMXsXzXDXHX6XcXkXxXkXMXDXFXMXJXJXMXMX4XJXkXVX-XlXMXJXLXMXjXzX6X=XkXkXMXHXMXKXkX6XjXzX@X:X:XxXHXiX;XAX:X*X*X:XDXjXjXjXHXwX-XwXjXxXlXlXVXMX6X6XkXnXkXeXnXCXnXCXtXtXtXtXrXeXrX5XyXKX$X..X.Y Y p @ @ # & 6 ; n y 8 i y b 9 i n D y * X . X < 5 A 5 * Y D ^.2X2X0XtXeXmXeXeXZXnXmXmXnXVX=XeXeXCXVXVXlXxXvXjXvXjXcXcXPX:X}.:XPXIX/ W O = 3.AXzXZ.%X,.9.0.HXHXHXMXHXPXPXCXeXkXCXCXBXCXCXCXKXJXVXHXKXJXcXcXLXPXHXcXMX",
":XvXvXl.A.|.HXxXHXPX>XjXZ.>X>XPXUX*XQ.qXA.*XjXHX>XLXHX}.dX).HXzXHXIXIX&XsX[.).AXDXHXPXSX|./ ,.Z.Z.:XjXZ.l.8.p.8.c.wXwX:XwX}.&.^ M p y t ; X % 8 : - O O y ; ; y v x.|.kX-X@XLXlX*XxXE O : sX&XLX;XxXvXgXjXA.[.*X*XHXcXcX[.>X2.4.V.D.p.|.[.:XIXPX9.l.8.AX;Xc.f.3.8.[.iXzX2.2.W [.*XcXlX>XqX-XQ &.: V.A.jXjX}.V./ 3.2.;XiXzXx.l.V C 9.,X:X:X*X) ) C V.A.:X&XB.v v 2.) P.[.P.+.( Z 3.9.`.[.9.8.Z B : ( ( 0.2.( : : C 0.0.h.9.+.) 0 ) / h.x.h./ / E V 0.x.A.D.9./ E E 3.9.c.c./ : > 4.2.7.l.9.E W B l.9.x.c.8.9.C ) <.l.c.Z.8.8.E V V.V.[.x.S.1.Z Z gXvXUXGXE + + x.c.HXl.l.Z V V.*XVXVXMX~ ..& u a A n 9 t m = - + E E }.:XHXPXPXE.8.Z.x.:X9.l.  + V PXKX&X[.<.MXzXcX:XLXHXHXVXVXkXMXlXMXMXJXCXJXMXPXzXzXGXIXAXgXiXcXvXgXIXgXPXIXAXHXDXDXsXzXsXsX&X`.A.`.|.xXdXHXHX*XHXPXcXvXx.E 2.[.l.cX8.l.+   O O t.:X;Xc.9.<./ ( 9.2.{.xXjX6X>XcXHXxXAXDXLXPXcXLXLXDXcXLXDXxXsX*XzXzXHX:XVXjXcXcXHXxXjXcXxXxXPXjXwXMXcXVXlXkXjXkX6XVXMX:XvXvXDXHXiX;XPXPXLXjX>XvXHXlXcXPXVXVXLXjXcXjX6XlXMXMXJXwXVXkXrXeXnX6XrXCXCXCXCXnXnXeXnXKXnXtX4XrX&.^ ^ N y ; % o o ; N i N M S y t - 6   X @ 6 y p & 6 P P ~.J.ZX5XXX7XrXrXCXnXkXlX4XwXlXnXKX4XUXwXVXwXxXvXvXxXcXxXxXxXcXHX>X|.|.cXHXl.x.: = ( PXPXZ.x.) 8.0.IXcXxXjX:XxXMXcXzXlXCXNXeX=X7XMXPXMXcXcXcXDXAXDXHXIXAXcXcX",
"jXHX*X|.V.>XvXHXPXPXvX*X,XjXvXvXPX>XvX,XZ.V.vXxXAXLXIX|.Z.*XsXsXLXPXLX*X[.[.A.*X*XjXxXPX&X4./ Z.%XxXjX[.8.9.0.l.C.cX-XMXwXQ.^ ^ ; y b S 8 . # ; ; o = O : - - Q B Q.}.P.wX:XPXVXjXHXv 0 = oX;X:XcXxXjXxXPXV.A.*X*XcXPXPX>X*X) 1.[.c.p.@X[.:XcXPX8.9.A.HXHX8.0._ 4.%XzX>X/ 2.W A.|.HXIX>XjXvX&.3.Z Z.[.:X>X|.A.2.4.3.>XjXvXS.9.V Q l.Q.@X}.|.( ( Q V.A.;X[.l.0 : ) ( [.}.[.2._ > ) 9.`.}.l.7.v : C 8.3.9.,./ : : Z f.x.Z.c.<./ = ( ( c.B.h._ Q Z B 0.V.].k.8.E B W q.9.f.l.) v Z / ( 3.N.N._ / C 3.3.x.S.9.D.E ,.( S.x.A.3.0.W ) 8.c.}.S.S./ B ` pXgXvXIXW   . 9.l.LXx.l.C V A.cX*XzXPX~ I ; i 6 p p 9 9 i # - O E Z cXHX:XIXPXD.c.A.x.HXV.V.    v HXKXcXsX2.cXHXcXjXPXxXcXvXvXxXjXxXDXLXLXHXDXHXAXgXzXIXAXvXGXAXgXjXgXGXvXIXIXIXAXSXzXzXxXzX;X|.&X).[.[.zXzXIXHX*XIXPXIXPXA.2.E }.|.vXx.8.+ . O O 3.b.:Xl.x._ ) V 9.8.;XjX*X*X&XHXxXAXPXLXIXIXsXHXPXIXHXPXLXzXiX%XSXIXPXIXHXjXiXAXcXcXHXHXxX:XgXvXcXcXcXxXjX:X-XxXzXVXcXlXlXkXjXcXzXsXPXxXcX>X*X:XHXUXHXVXcXlXwX:XcXxXvXVXVXlXkXlXVXlXkXlXlXeXeX4XwXlXKXKXMXeX6XKX$XlXlX#X4.5.H N t ; # . . % b N M N M b N = o   @ @ & & 6 6 y n U W.!.7X3XXXeXbX6XkXkXwX6X=XlXlXVXKXwXkXwXVXlXvXjXjX:XgXcXAXIXPXxX[.*X|.PXHX[.V.= O ) IXPX).%XW q.9.IXcXcXcXvXIXIXIXLXPXHXlXkXMXbXKXPXcXcXHXSXIXPXPXIXHXHXHXAX",
": B v x.x.cXZ.[.Z v V W [.cXUXA.k.c V ` |.*XxX2.( v Z <.2.>X*XxX3.8.E h.x.sXsXcX`.V.Q R 4.[.&XPX*X:XcXPXvX>Xt.4.3.{.M.=X-XkXOX4XP Y t N y % ; ; 8 % y = t y Q M.Z.vXV.|.HXPXwXjXW W > 8.7.}.lXlXP.Z.l.9.xX*X|.x.[.8.V.Z.vXxXx.S.) / ) =X*XvXcXHX[.A.|.;XzXQ T O   2.iXLXc.N.( Z.x.:XUX}.VXPXvXVXl.:XvXUXxXPXcX:X:X:XjX:XxXHXHX:X|.kXkXHXPXHX>X*XV.;XjXPXPXPX`.C.{.}.DXHXHXHXHX}.>XjXjXHXHXPXxX*X[.SXIXPXPXAX`.).`.HXDXAXzXdXzX).:X:XAXDXAX;X,X).A.gXGXGXzXpX].).Z.iXHXIXAX[.0.q.>X>XiXvXjXc.f./ *X*XSXzX%X].q.4.q.*X;XiXN.f.C Z ).>XcX,X,X9.1./ [.,X>XjXE.9.9.*XoXcX8.3.2.3.}.xXKX=X#X- - 6 D A u p p 9 9 - ; = # = [.].qXGXUX,XjX|.V.PX|.}.B Z A.KXMX-X`.0 _ ( }.[.>X9.9.2.3.x.N.).).[.0.q.3.l.f.x.Z.A.q.2.V.A.}.}.|.).Z.D.D.Z.}.|.A.[.c.f.3.q.W ,.l.V.>XzXAXzXGXDXAXZ.D.x.cXPX;XvXvX>XZ./ / ) 2.xXoX[.: = v x.b.-X[.cXjXjXPXPXDXZ.V.x.l.V.A.A.|.,Xc.k.x.|.).%X,X%X).).).V.].).>X).[.*X*X*X>X,X*X:X[.*X}.:X:X*X6XjX}.[.wX*X-X}.,X&X;XiX|.}.:XHXjX*X@X>X|.jXvXjX:XjX>X*XwXlX6X>XlXoX=X#XkXwXCXkXlX6X-XjXcXlXzXjXQ.}.KXwX@X-XUX&.P P M b ; - o 8 8 H C b - ; % o @ ; r s y s N N !..XtXnXnXPXPXNXJXxXDXcXcXHXVXPXHXHXUXUXvXUXIXPXPXvX;Xl.0.].|.vXPXHXA.Z.9.PXHX>XLX|.|.*X|.Z.E ) Q f.k.AXzXHXHXIXAXzXzXAXHXcXzXlXHX-XcX:XiXiXPXvXzXzXgXgXzXzXzXgX",
"O = = }.*XHX2.W O + v v >XHX:XE _ O v B :X:XjXv V     2.8.cXxXzXZ v   4.8.xXzXoX% >     <.KXHX}.sXl.l.t.*X>X;X;XM t.t.Z.K.6X6X$X$XQ.P G y y y - : : b : N N C.-X}.cXwXPX6X*X) 3.MXMXb.z.z.kXPX@X> : O + S.HXlX8.7.+ : v |.:X@X@X: v Z -X:XwXHXHXV.S.[.vXPX0.q.v x l.>X;X4.3.W [.,XvXUXE.jXkXHXHX}.9.2.E E Z.|.HXQ.A./ W ( @X*XqXwXE.) / 7.p.kXVXP.9.4.5.0.oXMXMXl.x.l.9.c.jXHXxX:X*Xx.l.A.[.cX-XiX}.).A.%X>XAXIX;XsX}.A.`.zXLXzX>X;X[.[.>XSXjXiX>X>X>X%XgXgX>X>X>XgXzXiXiXvXIXPX|.%XiXzXLXGXIX,X>XpXSXAXIXSX>XV.A.GXSXGXSXPX>X>X[.AXIXSXIXvXpX,XgXUXgX,XUXPXlXQ.[.x.E W x.V.:XDXvX6.6.# & i 9 & 5 u S 6 9 0 : =   . 4.2.UXvX|.PXvXx.9.vX*XxX:X6XsXzXxX-XxXz.oX6XVXHXPXl.c.4.3.|.>XAXiXiX1.,.1.).|.:X:XA.E B 3.q.A.].A.3.2.l v 2.[.[.l.k.v > O c ` l.gXHXvXAXjX>XPX4.,.q.9.PXgX[.;X}.>XzXjXxXvXcX6XjX2.3.Q / c.*X|.:X>XHXvX:XHXDX}._ E l v q.k.S.l.k.Z Z Z 9.8.).S.,.Z v ,.,.A.).l.` v v v ) V.Z.q.q.Z ) / l.l.9.E ) : y 4.&.p.8.3.B v W l.Z.,X*X9.B B ) &.[.@X-X2.( E E 3.V.Z.Z.V.W +.&.z.z.=XC.V.8./ E E E Q W p.9.[.HXIXlXKX@X+.&.) ~ H N O % % ~ P b .   O o y s y & ; G v.m.rXrXnXMXkXlX=X_ _ 3.A.[.*X*Xl.( / 2.8.|.Z.V.3.4.` T q.E / [.}.HXHXPXV.x.V *X-XcXjXHXPXIX|.iXE C T N.N.vXzXcXvXcXq.q.q.8.l.B.x.0.3./ l.l.}.A.].4.,.W _ g.S.S.S.).",
"+ + O }.*XvX2.2.  . B : >XxXcX) W + l v >XvXvXv v     8.8.,XcX>Xx B   9.4.MXDX[.= = . . 8.kXMXjXjX8.x.p.HX;X-X*XV 0.9.P.Z.=XMXnX!.$X^ P ; y t ; % t y y C b -X{.-X}.6XLXoX=X4.7.lXzXZ.z.M.MXkX=X: : + + A.cXcXx.l.  0 v *X}.-X>X> v v -X-X*XHXPXl.S.).HXIX9.3.Z v 0.[.sXl.l./ |.}.>XvX[.UX*XVXjX:X%.%.V E |.Z.VXZ.[.P E ( cX-XjX-Xb.P Q 0.p.PXKX[.4.3.8.0.oXLX6Xt.A.9.8.l.vXzX:X}.;Xb.l.P.V.KXjX;XB.V.V.;XiXIXcXsX;X}.B.|.DXAX:X:XjXA.A.%XLXcXcXvX>X|.].vXgXgX>X>XgXcXiX>XzXIXIX>X,XiX%XzXAXHX|.iXiXvXzXPXGXvXN.V.SXzXSXIXPX*X[.%XPXPXGXGXvXgX>X:X:XqX*XPXjXjX}.|.x.) W x.f.,XPXLX6.5.& % 5 6 5 6 5 S 4 9 b : = +   3.4.gXvX,XHXHXx.x.cX>X*XvX*XcXcXPX{.oXZ.}.[.:XcXPX9.x.3.q.iX%XIXzXgX_ _ 4.iX*XvX:XS.V B 8.8.[.}.|.2.3.= v 8.).}.l.c.= O + T v S.HXPX:XxXvXAXPXQ ,.f.) PX>XjX[.V.xXcX:XPXvXcXvXvX0.2.W V Z.>X>X*X:XDXjXjXKXHX%XW E > l f.f.f.k.k.c Z Z k.q.S.)._ l > ,.,.A.N.l.C v C B 2.].A.f.8.: W W V.x.l./ 2.= = 4.( x.0.0.Z v / x.V.}.>XV.' v 2.8.-X}.@Xq.( V V 8.[.[.A.Z.B W _ x.c.zXZ.N.3.W E W W W / x.A.[.UXVXkXkX-X+.+.~ P H P # O O ~ H t X . % o y y u - ; G Q.m.nXnXlXlXkXcXMXE T q.|.}.iXcXx.Q / 1.4.,X].].4.1.T ` l.W / }.Z.xXPXIXx.A.B [.Z.jXMXcXHXPX|.%XZ T C A.).AXAXDXgXjX3.q.q.q.c.[.V.3.7.E 8.8.%X).%X,.1.B B g.].S.c.A.",
"9.x.x.:X>XxX8.2.2.3.[.[.xX:X>X8.8.9.N.Z.cXHX:X3.3.8.4.*X=XwXV.}.8.8.R &XoXMXKXl.2.3.3.+.4XkXwXp.8.O + : oXxX:X;XW C B l.8.x.cXMXeXVX$XoXC % i b C O W E wX}.=X6XsXLXxXjXE _ xX6XcXjXA.+.W wXlXwXB Z t ; &.cXVXQ.|.v v y Q.Q.*X-X2.E / qX-X*XPXPXl.l._ cXIX;XiX;X;XzX9.l.B B E E.[.jX:X=X}.}.HXHXkXV V   . ( ( PX|.}., O + [.Z.cXLX8.+   : : jXlX:XV C X   z.LXHX{.A.: . % Z.A.cXz.h.    C H 6XMXcX_ E   4.7.PXLXzX> x O + [.%XzXV.x.> O v vXHXHXzXD.+ O l.S.:X;X*Xv > Z Q iXAXIXV.l.l E ( ;XjXPX4.4.> l c.V.jX>X,XE v B xXzXcXcX9.W B ( +.>XvXvX[.x.v V p.KXPXP.|.= 2.2.[.[.vXzXcXv m o X & r r a p u u u ; 8 8 X O - 0 *XcXHXAXHXZ.x.W *X:XcXxXqX,X*XV.|.*XHXHX|.jXjXV.V.HXjXPXAX%XPXPXx.Z.LXxXcXHXPX*XZ.|.IXHXxXjXPXZ.:X|.|.IXAXiXiXjX|.V T x.N.jXHX;XHXHXPXHXl.> v *X`.PX/ _ + . ) [.&X-XZ.A.b.( E / 9.3.cX>XxXPXHXzXzXzXPXDXPXl.V.jX;XPXHXLXHXcXA.Z.iXPXAXPXPXzXA.|.PXPXHXHXAXV.V.[.[.PXHXPX[.:X2.PXPXDXHXHXB.A.x.2.LXVXvXvXcXl.f.*XHXDXPXPX:X3.9.6XxXMXHXHX).A.V.`.>XAXHXAXHX2.Z.Z.cXHX&XPXPXV C E E 0.2.+.&.3.V.{.x.wXVXJX.XQ.&.&.~ ^ P X X i p 6 X X 9 p y 8 9 S 8 $XnXCX6X-XPXHXzXv Z / / vX>XzXSXAX>X8.8.A.|.>XgX*XA.V.,.q.].k.2.).).PXGXIXc.S.).gXvX4.9.4.3.6X-XjXb.c.Q b.t.HXcXxXKXPXZ.c.f.iXjXsX*XjXxX( V.b.cXPXzXZ.S.) 1.gXzX>XIXvX",
"9.x.x.:X:X*Xl.l.8.2.x.x.jX*X*Xl.c.c.V.Z.iXvX[.9.q.q.3.,XqXqXQ.>X8.8.) |.}.-XcXP.4.+.^ 4.OXlXCX3.7.+ O v *X*X*XDXV V / 8.3.Z.xXlXlXlX@X.X~ - t 8 0 % W ^ oX@X=X}.*XLXLX:XW / jX>XjXcXb.4.W kXwXlXv : : y 3.lXlX|.A.B y Z Q.}.:X-X4.E W -X-X-XPXHX9.9.) HXxXcX*XiXsXsX9.D.v v Q |.[.vXkXqX@X}.vXkXjXV P     _ _ PX*X,X, O . V.E.PXHX8.+ . > : :XHXwXP C     2.cXHX|.`.: . . x.C.PXh.x.. + H M 6XjXsX_ ,.+ 0.3.PXDXAX: v O + Z.A.HXl.c.= = : cXvXvXcXx.= = l.9.vXjX:X> v E T jXAXcXV.A.: E _ AXgXcX3.3.> : S.D.PX|.*XV V B cX;XMX-Xc.B W 4._ jXkXwXb.Z.C C z.JXMXQ.|.> 2.) A.).LXSXiX0 t % # 6 r r g D u u u ; 6 - o O 0 : }.;XAXHXjXZ.V.E [.*XUXcXvXZ.[.|.[.:XvXcXvX:X}.[.V.xXsXxXDX*XxXHXA.Z.jXcXcXHXPXsX}.).zXIXjXHXHX[.*X|.}.IX;XAXsX;XN.Q E N.c.cXzXsXHXsXLXPX2.B H A.}.JXW W . . R ;X}.oX;Xb.b.2.W V 8.8.>XLXxX:XxXHXPXHXcXcXPXV.Z.}.).HXHXPXHXzXV.Z.*XLXHXLXHX*X[.|.PXPXcXDXPXx.t.Z.V.PXPXPXsXZ.h.PXxXjXxXPXA.x.8.h.jXHXHXcXjXx.9.[.cXPXPXHX*X9.0.;X6XxXHXPX[.Z.B.c.%XAXLXzXDX<.Z.[.iXxXIXLXLXB : E W 3.( 3.8.4.b.Q.E.VXwXKXQ.5X..+...~ n @ # 5 i @ @ @ i n n 6 - P M {.lXKX-X@XPXPX;XB > ( 1.,XzXzXGXgX%Xf.8.).A.GX%XzXN.S.9.q.A.9.9.|.).vXIXIXN.x.).>XSXq.8.W +.jXHXjXt.9.P x.l.HXcXzXJXKXb.V.9.cX:XDXcX*X>X2.x.x.PXPXcXx.).( 2.[.IXAXgXiX",
":XjX*XHXxXV.x.A.vXjXHXjXjXl.V.[.Z.;XIXzX}.[.V.jXxXHXcX:X-X*XV.D.*XxXsXxXiX;X>XQ.cXJXKXPX-X}.kX0.l.> v ( PXcX[.[.|.|.*X9.2.t.V.x.oX$XlXCXK.C b % = ^ -X=X[.P.lXPXPXiX*XZ Q T PXcX-X}.y O   S.Q.VXZ.}.xX*XV.S.[.UXPXjX|.Z.|.V.|.}.b.3.2.wXjXvXPXPX8.2.` *X[.zX*XAXiXHXxXxXW Z V A.Z.jXjXqX>X=XqXwXcX8.A./ W D.%.gX:XcX2.9.%.}.x.:XHX|./ 4.4.) [.[.UX0.x.V V c.UXvX*X:XW H Z |.A.cXA.[., % B Z jXLXDX4.4.+ 7.<.DXxXzXx V = = c.9.IX).[.: : = >X*XPXHX8.    ) 2.xX*X:X. = = O [.HXIXl.x.+ > : jX;XvXE V     ( Q PX|.|.: >   9.l.PXPXb.. # - - wXKXPX4.6.o . 2.cXcXQ.[.v 8.8.iX,XIXf.A.= # o @ 6 r g F L g g p 6 6 %     X + V.iXAXiXPXxXjX) [.[.xXvXx.: > ) 3.cX>X*Xv 0 B Z.Z.MXcX*X[.E ) Q :XZ.vXA.x./ ` 3.iXcXzXvX8.) 4.[.Z.cXHXV.v T v R 0.[.[.AXPXLX:X;XHXcXB.B.{.MXxXjXkXxX+.8.% > / PX=Xt.6.= > C 9.x.cX:X*XvXPX}.|.cXcX:X0.9.( b.x.PXHXoX*X( ) 4.sX*XPXV.[.l.l.Z.xXjXcX>XZ.*X9.x.P.PXPXoXB.Z.3.9.zXHX}.KXjXx.x.A.*XMXHXcX:XP.[.V.[.HXjX|.b.A.V.jXxXPXcX|.|.|.A.%XDXiXxX;XsX&X&X>XPXLXLX&X|.&X}.Z.|.HXMXPXLXHX@X|.Q.Q.C.|.Q.eXnXKXK..X! I +.b 8 6 p # u 6 i u 5 t M K.n.=X4XwXJXlXvX}.B > l PXAXHXIXiXSXvXIXGXSX,X%XGXIXIXGXIX[.N.c.,.q.,X>XPXGXIXZ.].>XAXzX( W . . 4.MXKX{.}.E x.c.HXcXcXKXPXMXHXx.6X|.HXPX-XHX[.V.9.&X*XMXcXPX].%X).vXgXiXPX",
":XcX:XxXvXl.}.:XPXjX>X*XjXl.9.[.iXsXcXsX%X%X9.vXjXHXHX>XwX@X@X[.&XiXLXcXAX|.`.&XMX6XcXPXlX6XoXp.9.: v E jXHX*X[.`.*X&X9.8.3.V.Z.-XoXwX-XK.M b - # 2.:X=XC.P.HXHXPX%XjXZ ) Z xXHXjX*X= % O |.Z.qXZ.Z.:XwX[.x.A.IXHXVX|.*X}.|.}.Z.E.p.7.qX:X:XPXPX8.2.T |.%X;X;X*X;XvXHX*XB B E V.V.:X>X:XqXvX>X*XPXA.D.W V ( 3.,XjX*X0.8.q.x.Z.IXjX*X2.4.) 3.|.*XPXV.9.B v 3.*XzXLX:XW v v l.A.cX`.).v x V E |.xXcX9.7.: 8.8.>X>XiXE T > : 1.3.vX[.l.O : v *X|.xXHXl.+ + W 3.vX*X;X= = = = V.HXLXx.x.= > : |.*XcXW E +   V V HX,X|.v : . ) 3.PXPXA.O o O = oXHXPX0.4.X   ) wXVXV.V.` f.9.jX>XPX8.2.= o # @ 5 r g F L D D g u 9 - o       q.AXGXgX;XjX:X) Z.Z.cXxXx.> > 3.) jX[.>XZ 0 v }.`.zXHXV.A.E H ) *X:XjXx.V.) V 9.cXgX[.*X2.8.) A.S.:XjXZ.Z E Z Z 8.P.[.DXxX*XPXDX:XHX9.x.z.zXKXsXxX=X3.7.O > W jXxXt.8.> = W x.x.;X6XcXcXcXA.b.LXvXPX4.7.4.A.[.jXjX*XP.) 0.( x.*X-XA.V.9.x.[.-X&X*XKXZ.|.V.Z.V.cXDX{.|.A.l.8.PXvX:X*X}.x.l.A.HXvXjXcXoX}.|.|.V.PX}.;Xl.x.Z.LXvX:XPX&X*Xx.;X).>X>XPX;XzXzXiX;XIXPXsXDX>X`.[.A.h.cXPXjXlXKXwXVXA.V.Q.C.@XwXKXnXrXeXH G I 8 n ; 9 # A A 5 - 8 b i m.$XCXlXoX=XMX;XjXv Z v PXLXHXgXSXiX,XIXIXPX%X].IXGXPXHXIX].|.c.2.1.gX,XAXIXAXA.[.vXPXzX/ E   . ( LXPXZ.V.W x.c.DXcXDXLXPX:XHX[.|.;XHXxXMX>X&X3.l.}.>XvXPXcX].,XS.zXvXvX,X",
"x.[.x.3.2.v ) ) A.[.}.A.3.: v 3.( 8.V.9.W V v x.x.l.c.8.8.P E ) |.B.[.Z.Z.W B 2.Z.B.[.V.9.0.l.cXHXV.V.[.HXcXV.b.b.cX:X-X;X( 7.8.M.M.eXlXKXb.z.4.3.Q.MX-XlXzXLXoXA.c.0.f.x.|.:XqXvXgXy : : |.E.qX9.9.].[.q.V W A.x.jX*X*X2.Q / 2.9.8.7.qX:X:XPXPX9.9.4.HXPXV.).T / l.HXHXl.x.3.x.}.DXcXHXLXLX).V.iXDXgXIXGX,X>X].IXAXIXgXHXV.V.).}.PXHXPX;X*XA.0.xXxXvXHXiXxX*X}.HXIXAXzXLXSXzXjXDXcX;X%X>XiX>XAXjXiXzX|.xXvXiXjXIX;X}.}.,X].[.vXUXPXjX:XV.x.x.HXvXHXx.A.x.x.>XcXjXV.N.A.A.}.xXjXjXzXl.l.l.|.}.jX}.}.V.9.c.x.:X:XcXx.V.l.].[.:X:X*Xc.p.x.l.@X:XjXwX-Xl.p.[.cXHX0.8.( ).A.vX>XGX/ / P P P D Y F g f F g g f u i ; = ; = + v >XpXzXvXHXHXx.*X*XPXPX9.O O 3.l.PXV.l.  + : *X;XDXDX8.8.O v v cXsXPXW B O . ) DXPX,X,XO   O V.V.HXHXE + . O > P.lXvXzXcXjXKXcXt.V.V.x.PXLXHX*X6XLXzX}.jX6X6XoX&X( ( E V x.*X:XjXjXxX3.( 8.c.PXV.P.O + O V.b.PXHX2.2.  B R PXPXjX= > + + l.PXPXl.0.+ . = cXHXvXcXH   + 8.3.DX}.&X: = # B.[.PXcXV.l., v B ;XxXPXW ) O . _ *XPX;X&X> > > }.|.PXLXB.+ . : v sXLXsXc.3.. W V jXPXLXcX}.cX:XlXVX[.7.l.M.M.Q.eX6XnXCX!.#XO.~ P i i 6 i S 9 p P W.#XCX$X4XCXPXPXlXh.b.9.9.8.%XiXgX/ 2.c v ).IXPXN.).> ,.T AXjXcXzXE O + Z.].vXPXDXc.N.].PXPXA.A._ W 7.*X:Xb.|.W l.c.cXcXcX:X:XPXPX}.v C Z Z [.}.PXl.0.> = V HXcXHXcX/ = , 9.9.",
"x.|.Z.l.l.8.A.V.A.V.A.A.V.q.3.l.N.c.N.l.l.f.2.x.l.Z.|.9.p.0.z.l.V.Z.).9.c.3.<.q.h.l.`.A.Z.9.2.b.B.3.8.:XxX|.V V : B.V.vXxXV v : 6.&.9.0.@XoXCXJXlXkXjX=XPXJX}.9.c.;XiXIXA.Z.*XvX[.jX8.D.8.jX*X*X8.) 4.3.) B v E _ 3.) 2.B C v : E ) 4.-XjX:XIXPXV.A.l.LXPX<.3.    B :XxXl.x.4.A.x.*X%X;X&X|.Q B E l.9.%X,X9.0.v ( ( A.l.*X( ( W B l.[.*X[.[.q.Q ) c.c.gX|.l.B : 8.c.%X[.*X2.3.,.[.Z.zXiX*X>X3.9.8.|.:X>XZ.V.,.q.N.*X>XIXIXc.D.1.}.[.}.>XvXl.8.x.l.HXxXPXV.x.9.*X*XLXLXIXxXc.V.A.HXHXcXzXcXx.x.[.DXLXPXDX}.*XV.:XxXjXvXDX,X}.x.x.wXPXjXLXHX@X*X*XLXVXcXLXHX:X*XW ( 3.[.}.PXIX|.: v V P N a 5 r 1 r g f f g a a ; % : O O , |.].vXcXcXcX|.A.A.xXjXHXV.[.PXvXPXZ.|.|.|.[.LXvXsXxXl.Z.l.*XjXjXvXvX0.c.4.3.:XPXcXZ.Q.4.9.8.>X-X|.Z.( y B A.V.PXwXzXKXcXlX0.0.B E VX-X*XQ Q v B b.zX;X;X6X6Xc.x._ ( x.l.*X*X:X6XxXxXE ( A.[.HX3.B.B W 2.vXPXvX*X9.8.) V.x.jXLXl.B B Q V }.xX-X<.8.> > 3.xXxXxXjXE > = x.P.PX|.*X= : V MXcXHXPX) <.. l.8.HXjXxX) 3.= O oXxXPX>XjX: 0 W cX*XLXIXA.> l 3.<.jXIXzXq.f.l f.).HXvX:X-XQ ) ) PXcXVXQ B ( Q C.b.z.lXPXKXKXz.^ ~ S G G 9 5 9 n m.CXeXeXeXCX6X=Xt.Z.MXxXPX9.`.jXsXPX/ ) . . 9.IXcXzXzX= c B iX;XPXPXE , , :X>XGXHXIXx.N.0.HXPXPXPXxXxX>X*XV.: > E 9.c.DXcXxX`.V.6XcXHXv v + + V.b.PXc.x.> = : :XjXPXHX1.O O q.( ",
"x.[.Z.l.l.l.x.l.V.[.}.[.l.9.9.l.f.c.A.c.9.8.9.c.8.Z.Q.8.0.x.b.0.V.&X`.7.7.8.8./ 8.x.A.l.l.2.V.V.V.0.8.HXjX-XB B O V.`.xXcX<.v : 8.3.t.0.-XwXMXwXHX6X[.=XPXPXc.9.8.,XAXDX|.V.GX:X>XgXx.D.D.}.qX}.Q ) f.8.Q v v _ W ,.1.,.Z C l Z P ( 4.@X-X*XcXHXV.V.l.AXcX2.q.O   B HXPX[.V._ V.Z.zXiXsX;X%XR V W c.l.Z.].c.D.B 1.2.A.l.[.,./ B W c.}.|.].A.( Q ) V.x.iX;X0.B v h.N.&X*X;X2.3.,.`.Z.cXzX%X>X2.8.h.*XjX:XQ.V.) 3.V.>X,X*X>XD.x.1.|.|.vX:XxX8.3.9.9.jXcXHX}.}.8.|.;XPXPXAXzXl.D.N.zXcXIXLXPX9.l.`.MXDXPXLX6XvXl.vXgXUXcXDX|.,XD.x.xXPXxXPXPX}.>X*XHXcXxXPXPX[.Q.2._ 8.V.).GXPX[.` B _ ~ p n & r r g h f f g p a & % % , = = A.S.IXcXjXvXcXx.V.cXHXcX}.*X:XHXvXA.[.P.}.*XxXMX&X>X[.[.V.:X*XMX*X6XV.A.8.3.@XVXPX*XZ.0.2.l.:XkX|.@X2.B v b.C.VXlXjXjXJXJX0.4.E Z >XzXzX_ 2.C v b.jX;XzXxX}.b.0.( ) t.x.}.}.;XvXDX-X3.( [.jXxX9.8.H V ( jXjX6XwX8.7./ A.|.PXzXp.Z B C W *XKXMXt.) = = 2.:XHXHXcXE = v {.[.zX;X|.: = V MXMXLXPX) W : c.l.xXxXjX3.W : v [.xXKX*X[.v : ( ;XjXPXDXf.: : _ ,.DXcX>X8.( : h.0.xXPXvXvXH ( W xXlXHX&.E _ ) Z.K.C.lXKXlXlX$X^ ^ b n M 8 - P P 4XKXkX6XkXlXQ.-XM.c.jXxXPXc.c.&XjXPX/ V + + q.AXzXjXzX= B Z >X*XLXPXW O = [.>XLXDXPXl.V.) jXcXPXLXcXvX*X}.|.v v Q 9.x.HXcXcX[.[.xXvXxXB Z = = 9.l.KX[.c.: > v >X>XIXHX3.= O W ) ",
"}.*X>X}.>XvX>X:X|.|.}.}.}.xXcX[.>X;X;X|.>X*XzX[.;X}.{.-XkX=XoXzX;X&X|.sXxX&X:XsX:X>X}.jXPX}.[., = B ) vX[.:XB B O `.}.*XxX[.4.8.3.&.4.&.{.wXwXoX{.cXHXKXoXV.C N.c.PXzXA.> > 4.4.cXjX[.S.E.[.[.4.8.9.].,X:XzXiXxX:X%X|.}.[.gXA.A.9.M.x.lXxXvXPXPXc.l.x.IXDXA.).Q / ) [.V.9.l._ }.).xXiXiX&X;X) <.) 9.0.3.8.x.x.2.9.0.l.8.x.0.f.q.2.D.A.x.V.x.2.q.( x.8.V.[.4.) 2.2.2.9.Z.%X2.,.E q.0.[.}.N.N.W / W 7.8.0.l.l.` V Q 8.x.l.S.%.( v ) 2.l.l.A.) E W E 9.V.x.x.x.B 2.4.8.V.c.V.( B v ,.2.9.x.V.v v T 9.t.z.c.9.3.v ( ( D.k.x.q.1.: : 3.x.V.Z.9.B B Z q.l.l.l.9.v B V T Z.HXAXvXvXq.C C ^ ~ b D o & < g h r r p a y @ # % ' l , ) 1.vXIXjX:XPX3.3.|.*X*XHXPXvXHXV.8.l.HXHXDX:XjXx.Z.}.;XcXjXcX:X*XoXVXlXjXjXHX|.@X@X@XPXVXVX}.|.) 4.&.}.C.KXkXlXVXlXVXwXA.0.l.HXvXjXjX-Xv v     8.}.oX9.<.x Q R 9.A.*X*XHXPXDXPXPXvXMXcXPXHX&X`.{.cXHXPXPXvXx.*X}.}.jXPXLX;X>XZ.cXMXVXcXcX[.V.|.;XHXPXcXPXPX`.Z.oXKX;X6XLXcXc.x.zXxXzXKX-XjX;Xb.C.;X-X:XPXHX[.}.>XjXcXjXPXxX[.:XxX*XHXxXzXsXsX;X;XiXAXiXIX;XzX*X%XjXPXKXcXcXA.[.O v C zXPX-X}.*X9.x.3.b.|.z.z.VXMXKXm.m.H y 8 N H W.U.lXlXlXJXKXK.v B zX-XKXHXh.V v *X}.IXZ.).N.f.|.AXzXHXcXN.[.Z.>XjXxXPXA.W 2.[.*XcXPXPX3.9.B }.[.*X*XvXIXPXxXHX/ ( / f.V.AXcXHX;XjX;X:XHXV.Z.x.0.Z.c.DXjXcX*X*Xc.*X>XzXPX:X}.}.l.l.",
"*X*X*XjX*XxX:X*X|.*X[.|.:XxXvX>X>X%XgX|.;X*X:X;X*XoXoX6X4X4X=XdX;X=X=X6XsXsX;X;XjX&X*X;XPX[.}.= + E W cX|.*XZ B + |.Z.vXzX`.c.2.4.3.4.&.Z.:XlX@X|.xXHXHX[.}.v S.V.GXGX[.= : 4.4.vXIX].A.E.V.Z.8.2.9.;X>XxX;XjXjX;X;X}.|.%X|.Z.A.9.M.l.lXjX:XPXPXl.A.8.IXzXN.)._ / 2.A.A.c.l.) |.|.xXjXzX&X|.8.( ( 0.9.3.3.l.l.3.9.0.9.p.l.9.8.8.q.9.N.V.x.f.8.3.4.l.h.V.c.2.3.<.<.4.l.[.Z.8.) _ q.9.[.[.Z.l.) W ) 2.0.z.l.3.W C ( 4.x.b.S.%.Q Z ) 3.l.A.x.( E W W 2.E.l.x.l.E ) q.0.x.A.l.( B v ( ( x.x.V.B v B 0.t.b.z.h.4.V W ( 8.l.D.3._ Z > 8.l.V.V.9.E v v 0.8.l.x.2.Z v E T V.HXzXcXIX2.C W C ^ n a $ 6 1 g h f 1 r g y @ o - : v > E ) PXcXvX:XcX2.x.V.*X:XcXHXHXvXx.x.9.xXPXzX6XvXx.9.vXjXjX*XHXjX*X{.VXHX:XlXPXA.[.-X@XKXVXKXQ.@X4.) 0.}.Q.kXlXKXwXwXVXHXp.x.8.jXjX:XjX&XV v   + ) [.*X0.2.v W V 9.l.6X:XPXcXPXPXxXPXzXHXPXKX|.`.[.cXLXPXcXcXA.V.-X@X:XPXPX-X-XE.LXVXUXDXcXA.`.Z.A.LXPXzXHXPX[.b.jX:X-XzXLX*XB.x.lXDXxXMXPXoX}.`.B.4XsXxXHXPXA.}.|.xXHXPX>XLX;X`.cXcXcXjXHX;X|.sXsX*XzXvXcXiXjX|.*X:XPXHXjXLXV.x.> Z B vXxXvX;X|.c.x.7.P.{.0.z.zXVXkX{.M.C M # P H Q.Q.MXwXLXVXPXl.B v jX:XPXPXl.B v |.;XIX[.x.c.l.*XjXxXcXHX[.[.A.>XzXPXvX|.) ) Z.>XcXPXcX9.8.V V.|.*X>XiXzXIXAX;X3./ Q A.V.AXzXzXiXjXjX&X:X;XV.V.V.9.l.sXcXHX|.:XV.[.|.xXHXcX}.|.x.8.",
"jX:X:X>X*X}.*X}.vXvX>X*X:X:X*X}.%X%XiXiXxXzXjX;X-X-X=X4X7X6X6XkX6X6X6X=X&X=X;X4XlXDX&X[.xXPXPXA.|.Q V {.PXPX9.A.8.jXjX|.;X9.[.jX&.4.Z.Z.kXVXjXjXjXcX>X&Xx.c./ A.).vX>Xq.    C ` >X:X[./ / E E Q [.[.*X{.;X&X;X*X*X-X;X-XxXzXjXcX>X:X[.lXwX-XPXPXx.3.v %XHXAXxXzXcX].].x.V V B A.[.zXxXzX6XxX=X=X*X:XwX-X=X6X6X=X=X*X=X-X-X=X-X6X;X6XjXjX:X*X*X;XjXzXcXjXsXxXjX6XHXzXjXjXjX-X;XwXLXvXjX*X*XjXjXHXkXwX-X-X-X-X*X@X-X@X-X}.-X,XqX:XqX*X[.Z.|.>X:X>X}.>X}.E.Z.*X[.>X}.,X|.[.Z.[.].[.).Z.}.Z.}.x.).}.A.Z.[.`.[.A.x.A.V.[.,X[.Z.A.S.l.x.V.A.A.A.V.x.Z.Z.A.[.[.x.3.2.9.9.,XHXPX>X:XV : > X % S Y a 5 r a f f a s a u 8 P P v : , : l |.>XwX:XPXV.l.B : 9.x.x.8.) v E E [.|.9._ E Z V 9.9.Z.A.h.V v E c.x.x.V.x.C C / &.b.C.c.W B v W |.@XVXwX@XlXVXlX0.4.|.HXHXPXHXcXjXHX;X>XP.V.MXHX:XV E E x.c.*X}.vXxXsXh.3.2.2.[.}.A.x.l.E ( ( V.A.S.2.( V ) V.C.|.p.p.^ / / Z.|.@X:Xx.E 2.V.{.:XP.:X8.2.E ) ;XHXxXjX=X0.9.0.xXsXxXP.C.+.7.`.&XMXsX;Xl.9.4.*XvXzX;X>X4.4.3.V.HXxX:X[.Z.8.8.}.vX;X:XiXA.h.B.>XcXHXHXxX:X*XzXjXc.[.|.HXLX*XiXjXHXsX`.( 9.S.S.}.Z.zXMXJXz.z.&.Q.K.KXJXHX-XHX*X[./ W 8.LXwXjX*XB . . 9.9.LXZ.|.PXPX|.A.x.cXHXHXPXLX|.Z.[.[.*Xx.l.*X|.*XIXUXx.V.[.HXxX3.3.Q / &XSXHX).%X/ x.l.HXLXLXzXAXV.V.6XPXHXKXPX:X}.V.DXPXDXPX*X`.[.}.*XHXVXHX>X*X",
"|.}.:X*XvX*XvXcX:X>X:X:X:X*X*X*XiXiX}.%X[.}.*X6X-X6X=X`.{.C.m.m.U. X=X#XOX=X3X&XdXlXsXJXcX}.}.PXPX7.l.) {.oXV.Z.{.DXPX8.3.: C V |.V.lX@X:XvX:XPXPX}.f.N.*X;X>X).).IXLX%XT ` x.c.xX*X}.y v Q &.[.jX=X-X-XJXMXDXkXzXMXcXkXzXjX6XlXVXUXwXlXjX:XPXPX2.q.C V.A.[.).cXHX|.>XjX) / E {.[.zXlXkX4XMXCXPXbXkXkXbXkX4X4XkX6X4X4X4X-X-XeXbXMXMXMXzXjX6XxXlXxX4XxX}.=XKXxXkXzX6X=X=X4XkXcXMXjX-XxXwXzXMX6X6XkX6X=X=X-XwX6X-XlXjXkX-XwXqXkXjX-XvXHXHXxXcXcX>X*XUX:XHXjXvXjX:X>XiX;XIXAXPXcXHXgXxXcX;X;XjXxXjXzXxXjXjX:X:XcXjX>XvXvX:X*X>XgXgX:XvX:X;X:XiX;XiXjXgXvXcXxX:X;X;XjXzXSXvXf.q.: = - % o 6 6 U Y D r r g F p y s D y : o + . O O x.V.jXjXPXHXHX|.*X[.].A.x.V.l.[.|.x.B.t.8.t.l.8.8.3.c.l.t.9.x.9.8.0.l.x.l.( 2.3.3.&.4.W / ) x.x.kXVXlXwXKXVXW / P W MX*XV.) Q 0.9.;X*X*XPXxX}.9.9.) ( l.jX:XHXcXHXMXMX[.B.0.2.l.l.[.l.9.V 3.2.Z.V.Z.8.4.Q Q 3.8.V.z.p.W Q P 9.l.x.3.( Z B E _ l.x.8.C ) ( _ c.[.Z.A.t.C +./ C.b.`.4.4.C Q 3.t.P.P.`.<.W V 9.t.x.Z.8.Z B R / t.b.|.2./ Z R l.&X}.|.|.( V R l.c.l.3.7.2.( DXjX{.`.Z.PXPX3.( / >XxXPX( W E B &.2.*XMXPX=X-X@XJXkXCX4XPX}.,XV.[.*XvX:X*X:XPXPXx.) W jX*XPXx.8.) 2.B = O 4.<.8.3.0.v C v v / Q W }.|.LXPXPX0.8.*XPXPX) 2.+ . x.PXPXN.l.,.x.k.IXLXiXl.8.v B 2.x.B.V.x.3.7.: 8.8.l.B.8.E P C V 0.x.S.9.l.",
"l.*XjX>XjXjX>X:X}.}.HXcXjX[.[.|.|.zX>XHX[.[.Z.oX-XxXMXP. Xn.m.H.H. X<XOX#X7X7X=X6X6XLX6XHXLXzXPXPX9.B.3.-X-XV.8.|.zXxX2.) > / E Z.b.-X@XjXVXHXLXPXA.).A.;X%XcXZ.V.AXzXV.` E x.S.>X}.[.v B ) ) Z.kX6XoX#X6X3XbXkX7XkX7X6XeX7X6XlXkXlXUXVXcXwXPXHX9.9.E V.V.Z.|.%X,X>XvXjX/ ( P Q.P.kXnXkX$X5X4XnXmXeXrXtXeX4X4XrX3X1X#X#X.X.X#XrXeXeX6X7XkXkXeX6X6X3XeXOX=XMX6X4XoX=X4X6XlXVXbX6XeX6XbXlXlXMX4X4X4X4X6XwXwXwX6X-X@X*X-X-XwXwXkXwX:XvXPXPXjX*X:X:XxXxXjXcXjXjXcXjXzX:X*XIXcXcX;XHX;XzXcXjX>XzXiX|.cXHXvXcX:X:XHX*XjXxXcXjX>X>XgXgX>XvXgX*XiXzXgX;X;XjXzXcXcXxXgX;X|.%XIXIXl.1.' = O ; % ; # F F g a s g D D s p Y 6 ; o O % O O 0.7.HXxX>XvXjX}.xX|.E.V.V.E.Z.[.Z.V.x.l.h.x.A.x.3.t.x.9.8.l.V.x.t.8.c.c.9.8.9.8.4.3.7./ / W S.V.:X@X@XlXVXcXW / V Q jX}.iX/ / 8.3.%XcXvXxXHX}.9.3./ W l.*X*XvXPXPXLXcXZ.l.3.2.x.A.c.0.9._ 3.4.l.0.c.7.7.&.) &.+.0.7.6.) ) ^ 0.7.7.0.3.W W W / 9.x.x./ / W W 9.`.oXt.8.) 7.+.t.9.B.+.5.+.+.4.3.B.[.P.2.W E 9.l.l.x.8.V V W 2.l.b.[.) ( / ) l.Z.Z.Z.V.<.Q _ 8.3.8.8.l.2.9.cX:X}.[.`.cXPX2.4._ AXiXHX) W P V 2.4.[.PXHXkXkXMXCXlXwX-XUX[.A.A.S.DXHX:XcXxXPXHX8.+./ [.|.*XB.x.3.<.V = O / ) h.2.3.0 v v C / Q E -X|.LXlXHXc.l.*XPXPX2./ + = N.LXIX[.|./ N.c.LXPXvXV.9.T E 2.9.l.V.x.8.9.C 9.8.0.t.t.) ( / _ p.c.x.9.c.",
"E *X>X>X*XHX|.[./ ) }.*X|.V.V.Z.).>XN.V.W / 9.;X*XsX6X+.^ = # # - - % o # - 8 ; - = t.4.oX6XzX=X:XHXPXx.Z : B / oX*XoX3.3.+ 7.8.HXUXjXjXHXcXHXV.x.) *X*XSX>XN._ Q }.jXxXV.V.}.|.{.[.t.) 4.[.Q.kX=XkX=X=XM.4.+.+.+.+.) ^ +.+...+.4.p.V.-X-X*XPXPX9.3.8.PXPX2.) = = D.zXcXx.A.W Z.C.rXeXeX#XrX1X5X1X1X$X.XXX1X$X.X$X$X1X1XXX.XXX1X3X=XOX3X7XkX7X3X=XkX7XMXbX=XeX7XMXCXbXwXeXCXMXrXnXeXNXnXbXCXbXKXCXCXCXnXeXeXnXKXKXKXVXwX-XkXVXKXcXjX>X:XvXHXHXxXHX>XvX:XcXHXHXzXzXxXjXHXvXcXjXzXiX:XjXjX>XcXHXxXvXcXjXcXjXjXPX>XqXvXcXxXjXjXjXjXzXIXAX>XgXGXGXGXGXIXIXGXAXAXzX>XIXLXGXiXV B > - % % % ; & y Y X.D p s p D G G M & % o o #     P E xXvX*XxXcX>X:XvXcXHXcX:X;X*X>XDXcXHXMX;X*XjXjXxXcXvX;X:X-X-XjXjXIXHX>X;XjXAXPX}.*X:X>XjXPXcXcXlXKXPXwXc.l.Z.sX:XiXc.f.  + = = [.A.x.2.9.E ) 3.x.x.*XHXjX-XvX*X>XcXHXPXHXjXjX-XcXLXKXHXcXcXHXcXVX-X-XwXVXVXwXwX@XwXwXlXwXcXwX:XwX:X*X:XvX6X:XoX{.;XjX:X6X:X&X-X;X6X6X6X=X=X6X6XdXMX=X=X6X6XxXxXjX*X6X*XcXvXoX}.zX;X-X*X*XjXjXxX;XsX:X;X-X6X:X:X:X*X}.:X}.oX;XHXxXc.x.Z B 4.xXPXIXcX= O O |.%XxXl.c._ _ 3.3.( @XjXlXwXlXwXMXLXPXV.1.( vX>XHXc.9.l.V.DXPX;XcXjXPXPX*X2.) oX}.}.jXzX*XZ.*X{.-XoX{.P.Z.z./ P =X}.kXPXPXM.z.b.KXKX:XIXN.c.V.,X).c.c.W S.N.SXGXPXSXcX*X}.}.*X*X:X:X&X}.*X*X}.oX*X:X[.oX@XoXjX-X:XoX=X",
": }.*X>X*XPX|.[.E W *X*X*XV.V.V.Z.iXA.[._ E 3.}.=XxXMX4.<.# # % # $ $ @ $ - - - 9 # 5.6.kXeX4XoX*XPXxXV.v V B R [.>X*X/ (   9.8.vXcX-XjXHXcXPXc.A./ *X|.DXPXf.Q W *X&XsXx.A.|.;X}.[.2.4.4.P.P.}.=XnX1X3Xa.......O.+.^ ^ ..^ ~ I ) l.l.VXqX@XIXHXV.l.c.PXAX( 8.O + f.jX;XV.[./ P.U.5XrXrXXX2X~.<X~.<XXX!.~.2X1XL.+X~.<X1X<X+XXX1X1XOXXXXX3X7X7X7XXX7X3XmXeX XtXtXNXnXeX4X4XeXnXrX4X4XZXmXnXnX7XtXNXCXCXnXeXeXbXCXeXVXVXVXeXnXwX-X6XxXjX>XxXcXjXjXjX*XxXxXHXHX:XjX:XHXIX;X:XHXIXjXAX:XxXvX:XiXcX>XvXcXvXcXvXcXPXUXcXUXMXcXcXMXcXcXjXIXHXzXvXvXzXgXGXIXIXAXzXAXGXGX,XHX>XzXZ Q > = ; % & @ % 6 Y Y Y D s u D ! U M # % o # % X o b Z vXxXvX:XlXjXvXvXvXcXcXvXHXjXxX-X:XHXPXHXjXvXxXvX:X;X>XPXHXxXzXvXAXDXiXHXIXPXPXgX}.*XZ.>XAXHXcX*XkXkXPXl.x.h.LXLX&XA.h.. + , > Z.V.*X8.9.V ) ( 9.l.|.vXjX:XzX6XjXxXHXHXHXDXHXHXjXHXHXPXvXcXxXVXkXwXwXkXlXwX-X-X-XwXlXcXwX:X@X@X@X:XxXcXjX;X*X*X&XPXLX:X:XoX[.:XsX6XdX&X6X=X6X&XMXMXdX6XdX6X&X&X;XcXPXxXjX;X[.|.;XcXHXjX*X*X*X*XzXvX6X;X*X;X;X*X*X:X;XvX[.}.|.jX:X|.jX: B <.LXHXzXiX: = = %XiXSX9.l.W ( 8.l.( *XoXvXjXMXzXVXMXPXl.4.W vXGXPXD.l.Z.V.LXxX-XsXzXMXLXx.4.2.*X[.*X-X-XV.[.jX;XoX}.V.=XoXz._ Q }.=XlXJXLXz.C.z.PXkXcX;X[.).k.|.%XV.N.W ).A.zXiXGXAXAXcXzX:X*X*X*X}.|.[.DX[.oX>X:X;X|.oX6X6XwX}.-X@X=X",
"Z jXvX*X-XPXA.Z.O = l.V.}.*X:X*X%X,Xq.4.v l 3.*X;XsXlX+.4.X . X X @ $ & 4 - & # o   X . Q kX7XkXjXsX;XPX&Xx.: v t.*XZ.3.9.8.KXHX*XqXUXIXvX[.[.) / / gXjXzX;X: . O h.x.sXl.c.3.0.4.3.8.[.P.6X-X=XbX1X..H $   X @ X X X X o o X X   v y @X*X*XPXPXV.x.9.jXjXc.q.  + _ |.,XZ.Z.^ C.U.rXrXrX~.~.J.J.e.u.d.e.w.e.e.*.@.O.&.*.*.*.@.@.&.&.5.&.*.5.6.y.5.e.e.y.e.6.y.y.w.e.e.y.y.y.y.e.a.y.a.6.6.e.5.e.5.6.e.y.e.6.6.6.&.y.n.$X4XKXnXwXHXPXPXxX[.2.2.>X*XPX*X}.3.3.x.HXcXzX;X9.l.x.*X*XiX%XHXzXzX*X}.q.9.9.D.9.D.D.0.c.x.x.c.x.b.b.x.c.V.].[.[.%X,X[.[.].|.%X|.|.|.%X,X>X>Xl.D.l Z : = % ; y & & 6 5 @ % # o X @ - - # % % # @ o . X o O l.Z.PXjXcXxXcXHXxXvXvXvXPX:X:XPXcXjXvXxXxXjXjXLXHXcX*XjX>XcXKXHXcXDXzXLXcXzX;X;XiXPXIXcX;XiXvXVX-Xx.x.}.HXPXcXzXAXAXiX8.8.h.N.iX}.|.: > ) Z.9.:XjXvXHXvXvXjXlXxXjXjX:X-X6X6XjX-XjXjXjX:XjX6XjX-XwXlXcXkXwXlXVX-X:XwXlXlXkXlXcXcXjXjXsXzXMXxXjXvXvX*X*XDXLXcXxXMXxXkXxXMXMXMXkX&XdXMXMXMXMXxXLXMXvXjX>XHXPXcXxXjXjX*X>XLXPXLX:XVXxXlXjXjXcXMXzX:XjXlXcXxXMXVXHXLXLXlX/ 2.) cXAXDXLX9.3.,.SXIXiXc.[.:XiXx.0.3.*X:XHXMXLXLXMXoX}.l 3.c.IXcX].= O : v *XcXLX[.Z.M.t.&.b.A.{.*XLXcXKXcXMXJXzXkXHXKX-XzX-XoX{.wXjX-XPXPX&.4.^ =X-XcXiXPXIXpX).k.Z Z E A.A.GXSXIXSXIXiXzXjXsXxXcXcXDX:XLX6XzXDXHXjXjXjXMXlXVXwXcXkXcX",
"v *X>X[.wXHX|.*X( ) jX*XxXxXjX[.Z.V._ / Z v f.:XsXdXMX6.n.- - - & < 4 w w & & & o 4 o # . M M 4X=XjXKX6XMXPXl.l.E 9.2.*X|.LX}.*XHXvXPXLX*X[.:X*XvX).|.[.sXPX/ B v }.).zX3.( : 0 3.2.P.4XoX=X6X7XS n X % @ X & & 6 9 5 ; - # X o   Z : lXwX*XPXxX3.9.c.PXLX;X|.x.k.l.|.A.3.&.Q Z.m.rXyXuX~.^.s.F.*.e.e.w.*.=.@.@.@.X.X.@.@.X. . .! O.*.@... .O.*.O.O.5...O.e.O...&.&.*.&.&.....O...! O.O.O.O.I I ! I P P I ^ ^ ^ G P H +.y.4XnXnXlXVXHXPXA.O . 9.8.PXx.l..   Z *X;XZ.).8.9.E ( 4.|.Z.AXjXHX>X}.) + + = , = = . > + + o # - - = # > = O + O O , = : l v v l > = = = O = ; C N ~ N D s p a 5 6 7 a 6 6 6 ; ; 6 6 y 6 8 6 6 ; & ; # % E B x.0.x.l.9.l.x.V.A.c.[.x.Z.c.V.C.M.C.A.V.A.A.A.Z.x.}.Z.V.9.x.c.`.V.V.l.`.}.PXiXiX>XiXIXLXPX/ Q &.^ KX`.;XB R B.pXzXAXSXIXSXIX( 3.2.3.l.E.@XwXcXjXMXwXkX4XbXcXkXlXzXlXMXkXkXMXlXMXjXVXzXMXwXbXnXrXeXnXlXlX4XVXlXlXlXMXkXlXlX6XkXHXMXcXMXcXMXHXMXJXPXxX6XDXMXMXFXMXPXMXMXkXLXkXMXFXMXFXDXdXxXzXcXLXcXjXjX*XcXHXPXPXMXcXjXvXjXMXMXLXHXkXzXcXjXcXcXHXjXHXlXcX:X;XMXcXPXPX3.V.x.PXPX%X%X%XPXjX7.3.) l.x.8.x.*XPXHXHX6X-XzX-XA.x.,XiX%XDXPX].> v E B cXDXsX_ R V V t.}.[.>XHXMXLXMXKXzXMXHXKXzXMXKXPXJXKXJXwXMXkXMXPX&.3.+.C.}.A.A.vX|.SXGXPX1.,.) A.N.AXSXGXSXLXMXKXJXcXMXMXcXVXLXMXKXJXMXVXzXPXJXVXkXKXVXLXcXVX",
"b oX@X@X@XVX}.}./ 2.:X:XHX>X:X}.A.V.) ) T B 0.gX;XlX=Xu.e.9 & $ * < 7 7 4 & & < $ # o o # t G =X=XPXkX-XPXMXb.9.Q 3.8.`.[.PX*X>XcXHXHXPX|.*X`.jXsX[.A.[.DXHX2.V C `.Z.zX4.2.: : 8.+.C.lX=X=X6X3XS m % X & @ @ q 7 6 6 6 & # @ X o : v :X:X*XHXxX0.x.&.PXLXoX=Xl.x.N.V.b.2.4.V Z.C.lXrXtXT./.F.F.-.;.e.-.*.=.*.o.@.@.o.X.o. .U ! ..X.@.@. . .@.@.@.*.*.@.*.*.*.X.*.=.=.=.O.O.O.O.X.X.X.X.O.X. .U ^ P P U U ^ ..^ ^ N P &.5.PXwXVXJX;XPXKXV.. = 8.9.PX9.x.  . Z *X>X|.V.l.0.E 2.( |.%XjXcXAX>X*X/ + O = = , = + = % o   @ - - % % = = # o . O = - ; : b B ; > ; % % o - & D D g g g r r f f 7 7 f 5 4 < < 4 5 6 6 6 r 6 ; 8 ; % # % Z Q 8.l.c.q.9.8.Z.l.|.Z.S.A.A.z.b.C.b.z.C.P.b.m.Q.C.b.[.|.V.l.c.V.l.Z.A.c.[.|.HXLXiX;XiXHXPXzXW Q +.4.cXZ.6XZ C c.xXHX;XIXzXxXzX3.3.2.( z.Q.W.lXtXZX1XtX5XyX9XbXBXBXbX7X7XbXBXbXbXBXBXBXBXBXbXtXyXyXtXyXBXtXtXeXtXbXbXkXkXbXbXBXBXnXBXBXMXMXNXNXNXNXMXMXMXMXbXBXLXNXFXMXFX6XLXcXxXFXLXFXxXDXxXxXzXHXHX*XqXcXjXPXUXPXHXcXcXcXcXMXJXdXJXNXMX6X7XMX6XMXjXzXjXHXjX;XMXMXDXLXc.).N.PXPX|.&X;XLX6X4.8.2.9.l.l.3.xXHXPXcXLX>XvX>XV.V.:X,X*XUXPXZ.v v B Q sXLXcXR Q C B f.|.%XiX:XvXPXHXPXJXwXPXMXMXVXPXVXPXHXcXjXcXcXPXIX+.2.( M.}.V.|.,X%XPXSXSXg.,./ _.N.GXGXDXUXVXCXKXCXnXbXmXCXMXCXCXCXCXVXVXVXCXCXbXCXKXbXkXMXMX",
"m #X#X#X-XVX|.|.A.l.cXjXc.= = B _ [.Z.Z.) T 3.,X}.kX4Xa.a.K f f 7 7 e e 7 < w 7 w 5 4 % # o X m v Q.=X4X4XeX=X=Xc.oX}.cXHXcXxXvXPXzX9.l.l.>X*X-X*Xx.V.x.jXjXV.N.f.iX;X%XZ ) 3.<.C.I.7X3XOX8X X~ X # & w A 7 < d 7 7 7 7 4 - - % % t b *X*X*XPXLX8.2.: }.}.{.6XkXvX,X;X&XR H C M.C.kXrXuXT.Y.i.i.;.;.i.s.s.r.d.r.@.*.@.@.w.*.*.e.w.w.e.e.*.*.r.u.e.e.*.*.*.w.e.e.w.w.w.*.*.*.*.*.*.=.=.=.*.=.X.U U P Y U Y ! &.5.*.H G ~ b 4.4.kX4XkXPXkXKXb.0.C W KX*XvX/ <.x.>X>XDXPXDXvXHX9.8.3.2.*XzXxX[.jXzXB B + , ' y b = - S I p & & 5 u ; ; - # o % ; y 0 y M N = # # o @ @ y u F g g h L h h L L F F J K D D D D D D D D D p s N n t t y v : : = = O = O v > B Z l l v = = - - - 8 8 - = = % % = = O O = O O = + : f.c.HXIXzXsXDXAXzXc.7.7.C.`.PXh.h..   x N.h.`.).A.N.q.) 3.l.0.@XJXKXrX4X<Xs.s.i.u.e.w.e.y.r.r.y.r.u.e.y.r.r.u.u.r.r.r.i.i.i.u.r.r.r.r.u.a.u.u.r.u.u.u.u.u.u.u.a.z.z.y.y.y.6.5.5.3.4.5.5.+.^ ~ +.+.U.xXdXxXxXsXsX;XDXLXcXvX,X*X:XPXPX[.l.x.[.}.vXzXLXz.u./ ^ ~ ^ ..&.+.) ^ Q _ &.P.HXJXDX;XPXPXiXx.N.) 4.l.DXMXwX@Xv   . 3.9.:XsXPXsX;XxXcX-X9.c.HXPXqXx.l.>XPXPXV.[.*X|.cX;XV.V <.l.).`.LXIXAXAXAX{.Q.Q.P.Z..XP.C.b.Q.A.Q.[.Z.;XiXzXPXIX8.x.-XKXlX&.) > > S.GXIXS._._ _.S.GXGXcXqX6XK.!.~.L.L.W.W.K.U.U.K.K.K.K.P.P.Q.K.W.!.L.K.W.W.",
"m #X#X=X-XVX|.[.x.9.xXjXl.O , H B *X}.[._ _ q.*X`.6X4Xe.r.A K F d 7 e d 7 < < 4 6 6 9 & ; # # 0 m .X.XCX#X4X4X-Xc.oX{.jXHX&XPXLXHXPXx.x.x.*X;X*XcX0.x.8.cX*X[.x.[.%X&X[._ V 4.9.m. X4XOX8X$X XS @ - 9 q f f 7 e 7 7 7 7 < & - - - b b }.}.*XPXPXD.q.v [.[.-X6XKXcXjX|.`.B Z B [.C.kXrXrXJ.T.;.;.-.;.;.J.G.e.5.5.*.*.@.@.*.*.*.*.5.5.e.e.*.5.e.r.r.r.e.*.*.w.e.r.e.e.e.5.*.*.=.X.*.*.*.*.*.*.X. .^ I U I D P O.6.&.N N P P 5.5.bXbX#XCXCXJX5.3.H B jXHX6X3.2.V.[.*XHXPXDXHXLXq.3.N.( |.iXAX*X;XAXE /   O : > W : 8 M G u & 5 u & ; ; - # # & 0 t 0 8 M m - o # o X o p N D F L U L L F L { U J J G G S S D D A N D G N p M M b M t y : : o O O O O : > V C : : : # # % ; ; 8 8 ; ; % = ; % O O = O O > + = = x.Z.iXPXPX:XAXHXjX8.7.7.Z.|.xX3.3.+ + v B.h.&X`.9.0.E <.7.C.p.$XZXmXmXyX2Xs.s.F.F.e.-.w.w.e.e.w.w.w.e.e.i.i.u.u.u.i.i.i.i.i.u.u.u.u.a.a.a.a.u.u.u.u.a.a.a.a.n.n.n.z.z.t.y.y.6.5.4.<.<.5.4.4.+.+./ P.dXdXcXLXzXDX`.PXLXMXjX[.:XqXHXIX>Xl.8.[.[.cXjXKXt.y.~ ^ ! ^ ..O...^ M B W 4.b.PXJXJXdXLXPXLXc.B.,.( 3.PXMXoX-X> +   l.3.:XHXHXHXLXPXPXA.9.c.PXPXPXl.D.>X:XcXZ.[.|.>XcXcXZ.<.) h.c.A.PXIXsXvX-XZ.[.Q.P..X{.{.C.m.Q.P.V.Z.x.xXjXcXcXHXq.q.qXVXVXQ W = : c.SXpX_.aXW S.S.IXHXlX}.W.W.~.~.!.Y.L.J.v.K.K.K.I.Q.W.W.!.!.L.~.+X!.L.~.~.",
"M oXOX#X-XUX|.[.Z.V.PXcXl.O + v Z *X[.).W / 0.gX:XKXnX5.@.< w < $ $ $ 2 q q 7 q q 6 6 # ; # # = o H C 4X6X6X6XkXoXlX;X:XcX-XPXPXV.x.> : 8.sXDX}.A.= : : jX:X*X8.) Z.N./ 8.h.C.z.6X6XeX7XOXS i . A A q q < 7 e 7 e 7 7 4 $ @ $ @ % v v @X*X*XIXHX8.9.W A.P.}.m.t.f.zX|.;XB.h.T [.A.lXeXrXG.G.-.-.o.-.i.uXyX2X5XtXyXyX0X2X5X1X~.$X1X1X5X7X<XXX1X1X<X1X1X<X+X~.~.~.W.!.!.~.XX1X1X5X!.!.W.W.W.L.H.v.v.s.s.d.5.*.p.v.+.O.5.P b N b 6.MX6X6XkXKXMXPXA.V.}.cXcXPXPXPXHXAX%X).V.*X*XLXPXV E 9.[.[.;XiXHX|.vXB V O   b M N p S D u 5 u a u y 5 ; 6 9 n S - - N m ; o % # % - G D s p D L L g g D G F S S H S S S S S N N s p N N H M b M b b b M = ; - % X = = B B > : : o o # ; ; : 8 8 : % - ; % O % O = + .   }.V.AX>XcX}.zXPXLXl.l.}.:X;XHXLXPX`.&X<.) c.sX;XB.f.= = 4.b.t.#XW.nXZXuX$X~.G.-.w.s.d.-.-.-.-.-.-.@.o.o.#.#.o.o.o.o.o.o.o.o.o.o.@.@.@.@.@.@.@.@.O.+.O.O.@.&.&.5.5.5.&.&.+.+.^ ~ Q H H C m m 0 0 - = > 0.FXFXLXLX}.`.Z B.c.Z.[.}.HXIXvXvX1.E B 9.9.jX;XJXQ H # # o X X X X ; # #     # 6.6.6XMX4XMXLXiXiXf.2.v |.}.{.6XC E B xX;XLXvX*XDXcXV.[.: {.*XjXLX3.> Z V.V.cXjXxX*X;XV.V.3.9.9.xXsXLXLXxX;XP.0 o O # @ & o # X o   X o : v |.&XcXPXPX9.3.jXlXPX%.2.= > 8.IXIX_.c._ N.V.HXVXeXU.v.5.5.5.*.O. .! ! ! ! ! ^ ..^ ...... ...O. .U  . .",
"M .X{.oX*XcX[.|.[.x.PXDXh.. + V V *X}.;X/ _ 3.qX:XLXnX&.@.& q q $ $ $ 1 q q q u $ & 4 & 0 - - # # v m 6XPX6X-X6X=XjX>X*X-XDXcXDX`.b.: v l.cXHXP.*X# = = :XsX6X2.3.Z.x._ 8.7.Z.@XkXbXeX4X!.9 4 @ A p q f < f g e d 7 7 < $ X @ X % t b *X*X%XHXzX9.9.2.l.{.Q.#Xz.k.GXiX|.c.x.Q Z.A.lXkXrXG.G.-.@.o.i.s.mXyX$X1X1X2X0X<X<X5X1X.X#X$X1X7XtX1X$X1XXXXXOX1X1X1XXX+X X!.W.W.W.!..XXX$X.X~.~.~.~.!.W.L.U.v.H.G.r.e.r.r.+.&.5.S S P P 6.kXJXbXkXkXPXPXt.x.0.xXvXPXPXcXPXIXl.V.}.;X;XPXIXW 2.( A.Z.cXcXjXjX:XB E X # - H S y u A g r 1 5 5 u q 5 q p n n & & n i ; X # X # ; S S N Y D Y Y D A S S S S M M M M M M M M M N M C P P M b H H M N s # % % @ X - - b M - 8 0 # @ - 6 ; ; 8 8 8 - ; ; - : ; O O O   + Z.x.vXLX*X}.HXPXHX8.2.[.xXcXcXjXjXV.Z.3.8.[.;XcXc.f.= > +.p.6.#X=XnXrXrX/.~.F.-.-.F.i.@.-.-.-.*.o.o.} { o.o.o.o.o.o.o.@.@.@.@.@.@.@.@.@.@.@.@.@.O.O.O.O.O.&.&.&.&.&.O.+.^ ^ ~ Q H H M M b m 0 0 0 ; : n.kXMXLXPX&XoXB |.{.*X[.}.vXIXjXcXW Q ` 9.3.:XoXMXM m $ % @ @ X X X * X o     # 5.6.JXMXkX&X;XAXIX8.9.Z |.oXoXb.B V W oXjXHXMXxXPXPXZ.V.: *X-XvXcX9.> : x.x.vX*X;XoX;XZ.[.t.Z.9.&XoXJX7XMXW.L.6 # X & & - @ # o @   X . - ; }.&XcXHXHX3.7.VXUXUX&.%.+ , 8.PXPX_.A._ x.V.MXnXtXv.s.r.e.w.*.*.X. .O.......O.O.O.+...@.X.@.@. . .#.X.",
"m {.Q.oX=XcX[.|.%.( |.|.`.4.h.[.V.>Xc.N.V V q.:X|.jXeXO.@.& f f e 7 2 < 4 w w 4 n A q ; ; % #     o O ) 4X=XMXkX-XjXcXcXMXPX;X;X4.V.l.V.}.:XxX-XA.> V C &X*X*X) / > = ) {.P..X{.4XeXp.N i @ # . p a 7 f < g j d d 7 7 w & * & % = t v }.&X,XIXDX9.9.V.UXPX0.^     ` >XSXA.%Xq.N.V.vXvXeXv.G.@.@.F w.e.mXnXtXmXtXtXyX9X9XBXrXrXtXbXBXCXCXBXbXmXtXJXNXNXKXKXKXCXCXKXKXCXCXZXNXNXNXnXnXnXnXmXnXnXnXmXrXtXmXtXtXmXtXK.5.+.H ^ H N N 6.y.#XKXbX4XlXKXPXb.l.3.V.[.[.A.[.> : : > Z.}.*X3.4.v q.c.>X>X}.vXPXgX:XB m o G D P A g U U g s 6 7 7 5 5 u u u & % n n i # & o X 6 M G Y ..D D M N b b m M Z Z x x x x x t v b b b b t y 8 y M N D D n & - % % # 9 y i n - t i - - 6 8 ; ; 6 ; 8 ; : : 8 v : O   O > V.VXPXHX-XPXPX-X/ W x.}.cXzXcX,X|.AXHXPXHXcXsX;X[.8.2.W / z.$XXXZXZXyX~.2Xd.d.*.o.o.u.i.w.-.-.-.-.-.*.o.o.} } } } } } #.#.#.#. . . . . . ...#.#.#. . . ...........^ ^ ^ ^ ~ ~ Q P H H M M v H b m m 8 - t.JXFXFXFX`.P.B |.6XcXcXHXHXqXZ.l.v B V 9.8.xXjXPX^ G X X X & f {  .A < & $ @ X X X +.+.PXMXPXDXAXLXLX4.3.+.x.z.P.xXLXPXMXcXLXjX*XV.V.x.h.V.V.PXPX/ . + 9.A.LX}.|.B H _ 4.7.&X{.JXMXbXm.n.- - X . @ f A a q 5 & & X X o = ; {.}.cXPXPX3.8.}.UXHXqXHX[.>X>X|.S.E W / c.V.bXtXtXs.s.*.o.o.*.@. . .O.....X.O.O.......X. .#.o. .{ #. .",
"m {.{.=X:XUXQ.[.E W x.c.*X6XcX=XHX*X2./ : v 9.>XjXVXnX&.O.X $ $ 2 7 2 * < q f q 5 5 @ @ # ; 8 o o .   # Q.=XJXwX-X6XxXcXxXx.8.3.:XcXMXxX>X}.*X;XDX3.[.V.>X&Xx.x : &.x.:X-XkXMXbX4X4X^   . # & $ D K q f $ 7 2 d d e 7 7 4 w w 4 - y 0 [.}.*XPXPXV.c.x.VXKXb.m.= O T IXSXN.A.2.l.S.vXkXeXv.G.*.@.J s.e.tX4X3XOXn.5.5.O.O.O.+.^ &...^ ..^ Q I ~ I ..^ ~ ^ +.^ ^ ~ ^ +.5.6.r.z.n.z.M.M.M.m.m.C.U.U.W.H.H.L.W.$X7X7X4XM.I.r.y.H P ~ b b p.z.eXkXMXCXPX-X2.W Z C [.sXjXV B > = Z.Z.A.jXiXA.x.3.q.f.).IXiX;XcX-XlXt % o G U s r r r g f f f f f f f p & * S D G ; 9 & & P P P I ^ ; ; ; y t v v v v Z v v v l x 0 v b 8 8 ; % % # = t p U Y G 6 - o X 6 G G n n & A S n i p i y p s ; ; 6 : : y : = % v 0.x.VX[.-XUXKXqX-X0.Q Q S.M.jXv Z O O ( Z.}.;X:Xc.3./ W W V.C..XZXZXuXuX~.w.i.*.=. .o.o.G.T.Y././.Y.T.T.T.T.T.T.T.T.T.J.J.J.J.J.H.G.G.G.G.H.H.U.L.L.L.H.H.H.U.U.J.H.m.m.m.M.m.z.z.p.t.t.0.0.6.5.4.M 0 0 8 0 C.MXMXFXLX;XjXh.PXPX*XP.2.8.8.}.,X3.%.( x.l.:X;XCX! ..G { U F g f F d F D 5 4 q % X - X y.4.sX:XHXzXAX}.4.+.b.b.jX:XjXDXjXKXPX}.l.V.HXPXPXZ.x.PXMXjX2.( cXxXAX4.+.W / b.A.{.NXlXJXNXn.9 n 4 A U f 7 o.o.f U J q 6 8 - : 0 v oXoXHXPXHX/ V W [.-XPXPXIXPXgXS.].Q T ) l.C.eXtXyXd.d.w.-.i.F.F.e.-.e.w.w.w.e.w.w.5.5.*.@.-.-.@.o.*.*.",
"m {.{.-XwXUXE.E.C B l.Z.xX>XjXjX;X[.q.2.: l 9.*X*XjXbX*.*.X $ $ < 7 7 * < r f 7 p i o # # 8 : . X   o o =X#XLXMX-XjXcXPXPX3.l.f.>X*XcXxX*X[.*XxXcX8.A.V.}.jXA.: v l.7.Z.wXJX@XnXeX.XI X X @ X & f F q f $ 3 3 d d e 7 7 w w w 4 # : ; Q.|.*XPXPXl.V.l.HXVX|.Q.+ , T IX%X).)._ A.x.gXjXwXv.G.*.@.D d.e.rX4XnX4Xy.r.6.@...O...) &.5.+.+.^ H H Q I +.^ ^ +.&.+.~ H ) +.6.t.n.b.z.p.b.n.b.m.m.C.K.K.I.v.n.n.H.XXtXmXnXn.m.5.6.P ~ N 8 ; b.0.PXMXMXJXVXzXW 7.V : }.lX%X/ T : B 8.|.Z.zX;X;X8.3.8.l.).xXsXLXsX4X6Xb @ # Y G r D g 2 f f f f r a f f a < * F G I 6 9 & % G S N P ^ - ; - : v v v Z Z Z v v l l : : y v ; ; = % % O = b s U P A 6 - @ @ 5 U Y u u * A A n i y y y N p - ; 6 : 8 y = # - : c.Z.@XlXwXlXcXjXwX7.E E E.Z.HXZ B   . 1.,X|.,X*X9.) ) / W [.b.1XCXCX/.uX2Xe.e.=.*.} o.o.F.T.<X<X~.Y.T.T.Y.Y.Y.T.J.J.J.J.J.J.J.H.H.m.v.m.m.H.H.U.U.U.U.U.H.U.U.K.K.H.m.v.v.v.M.b.z.z.p.t.t.0.0.+.5.M 0 v 0 0 n.MXMXMXDX=X;Xz.PXPX[.|./ 9.1.>X}.k.%./ x.x.-X*XKX@.*.J U F F F F [ 7 F f 6 u F @ # o # +.5.LXDXDXAX;XDX/ / b.A.MXcX*XLXjXPXHX`.x.c.HXPX;X[.[.HXPX}.8.q.LXAXzX+.0.H E Z.C.{.bXMXbXmXL.6 6 U D F r d ;.} < F F 7 5 9 - 8 8 v {.{.MXPXPXW V P wX|.PXPXvXIXGXA.A.B T ( l.C.eXuXuXi.i.*.*.i.J.G.e.*.*.w.w.e.e.e.e.w.5.w.*.-.w.*.o.*.*.",
"b {.Q..X@XcX|.@X3.0.*XjX*X[.&X8.0.x.A.x._ E 2.*X*X6XrX&.*.@ < < 7 d 7 < < 7 5 < 5 6 # % X % 8 = = # 0 b.MXMX{.=XJXPXcX4.9.. *X>XPXHX[.Z.Z 3.9.>X>XA.Z.|.x.[.W 9.9.Z.|.wX-X6X6XwX4XrX.Xn p % # A 6 f X X 3 h j 2 7 d 2 w & & @ $ X - ; *X}.}.cXAX8.9.V :X-XwX6XjXGX%X%X%X,.4._ c.x.gXkXlXm.G.@.@.J e.w.ZXCXrXkX..<.5.y.5.~ H M b 0 H = - 0 0 ^ 6.0.Q v 0 0 ; +.2.6.z.I.=XOXoX`.b.5.y.) +.v M 8 - 0 I ~ O.b 9 K.n.CX1XnXp.U.+.&.^ P N ; 8 C.#X6XlXcXkXPXPX/ / -XPXIX>XiXHX;XHXLXHXAXIXjXjXiX3.3.c.[.`.dXsX6X=XbX; & s @ D g 1 r L g 7 7 F r g r g 5 5 D u D D J 6 6 G I ! N M t i N b v v v Z Z v v v v v 0 0 0 t b M N b t ; = = @ p y D A F * < D Y X.u D 5 D D i P 9 y y P D % @ y - 6 # % # M.b.wXKXVXcXVXVXLXD.9.|.lXHXkXVX*XW E l > A.vXcX_ / , E ^ c.l.wX{.mXyXZX~./.-.-.-.F { X.s.s.yX2XKXCXJXBXKXbX7XNXJXCXNXJXKXBXbXNXCXnXZXKXKXKXnXeXCXCXCXbXKXKXnXCXCXZXZXZXZXZXZXZXZXbXCXrXrX4X6X4X3X X.XG b 0 8 8 C.MXJXlXMXsX;X*XMXDX) _ . E E PXPX,XC V D.9.HXMXKX@.@.D f f 2 3 e e h [ [ h D < w i X - . X 7.cXjX:XHXsX`.[.zXMXzXPXvXPXPX9.9.B PXPXcXcX( Z C jX*XAXxX%XiXxXx.<.4.x.t.=X&X4XPXJXC.H.. U U o.} d ;.o.j d $.f F < $ & - # y ; P.P.MXPXPX/ 8.E.Q.=X0.8.x.f.cXHXLXf.c.Q C.C.tXmX0Xe.;.} { i.9XyXyXmXyXyXmXmXZXmXmXCXmXmXyXmXZXmXZXmXuX",
"m  X{.OX-XVX@X@X2.9.jXIXjXZ.Z.7.3.Z.Z.c.W / 3.,X}.wXkX*.5.$ 4 7 < 7 7 1 6 7 7 4 - ; - % # - - = : : = C.6XlX{.oXKXMXPX4.8.O &X}.LXPXZ.[.0 9.9.jX>X&XA.[.l.8.( l.c.A.Z.-X=XkX6X4X$X2X.XI S - 6 p 6 < X @ 3 e e d e d < < < w # % o ; ; *X}.*XGXGX8.9.V wX;XwXeXjX>X].%X>Xq.4.E N.S.vXvXeXv.s.o.#.U e.w.ZXZX4X4X~ 5.@.w.@.~ H M b b 8 = # M v 5.^ b.H M - % 8 +.+.y.6.K.I.8XI. XU.4.+.+.2.0 m ; 0 # ....H b m u.n.nX4X#Xz.U.+.5.^ H H ; 8 t.CXwXwX-XPXlXVX0./ @XPXPXvX*XjXcXHXzXPXAXzXHXcXcX8.l.l.&X).sXsXjX=X.X- 8 & s s ; s Y g 7 r f g r F F D f f D A p a p 5 5 D Y U p n y i i t v v Z Z Z Z v v v v 0 8 0 y t b M b y ; = % % p r D D F * < F L L 7 f r g D D P 9 p i N n 6 y # - ; X # - t.b.cXjX@XPXPXUXPXc.8.@XwXcXcXVX:X) _ > > 9.DXvX_ Q > W / l.z.-X.XmXyXmX~.^.*.;.e. .F U i.u.<X9XKXKXPXNXBXNXbXMXJXJXNXNXbXkXNXJXMXJXCXVXlXeXlXVXCXCXKXnXCXCXVXKXZXZXZXCXCXZXmXnXnXeXnXbXnXkXwXeX3XI. XG b t 0 0 C.kXJXMXJXsX6X`.HXKX) )   ) C IXHXA.E Q l.l.vXzXCX@.@.A q 7 3 2 d e j [ [ f F 7 A i & $ o # G NXPXDXxX;X`.|.jXwXzXDXxXPXPXc.h.E xXHXcXPX<.Z v sXjXxXiXiX>X>XA.0.+.8.0.&X4XMXbXCXI.v.$ U D { ;.h $.:.] h | f d * * & ; % i 8 {.K.4XPXPX( ( A.@XwX2.V.l.9.GXPXHXf.c.W C.C.tXmX0Xe.;.o.#.i.0XyXyXmXyXZXmXyXyX9XyXZXmXZXmXmXZXyXmXZXyX",
"M oX{.@X-XHX}.|.x.S.vXvXl.> O = > x.>X;X) ( 4.>X*XkXkX&.*.$ a K * < 7 7 7 7 w 4 % & 9 ; - % o y 0 P..XkX.X6XPXKXHXt.4.( 0.x.;XZ.LXLX3.7.  ) <.*XvXV.v v B B 0.Z.}.>X:XVX6XjX}.}.KXOX2X1XL.P G n 4 6 f f g f e e e e * < 4 q & % X 8 0 *X|.>XLXLX0.8.v V.b.}.bXVXGXgX>XA._ _ Z V.S.vXkXeXv.s.o.#.{ e.e.mXnXOX.XH n.u.9X7X7XW..XQ.P.5.~ M G ~ oXP.K.+.+.+.+.oX7X6X6X=X3XOX8XOX#XoX=X=X X Xm.t.M Q +. XI.j.M m M H K.CXeXrX#Xp.n.^ M ^ N M P K.b.lXMXlXVX-X-XlXx.V.V.zXjXzXiX}._ W B T [.gXcX3.2.v c.B.|.).DXDXJX4X!.& ; & D Y s 6 r g g F D L F D D F D F 6 6 5 p p Y U U 5 6 & ; ; 8 i b N M N N N M N n p i p n i s H P y : > % % s r F D F & < 7 a f r g h g f S n - 5 4 - - - 6 & ; - 8 0 z.MX:XHX:XVXHX*X) V *X|.PXjX:X:X>XIXzXGXpX>XcXgX*X) ) W S.M.6X#XnXrXtX/.~.d.i.{ } } } #.G.ZXKXNXNXI.`.z.;XoX|.`.`.P.`.`.P.`.|.}.`.P.oX{.oX*X}.-X4XQ.Q.@X{.{.$X#X4XI.XXXXXXXXXX1X1X4X$X!.W.L.M.p.W.K.U.I.H m b v 0 C.6XMXMXKX6XkXz.PXjX0.3.E V.V.PXPXD.1.( A.x.>X6XMX*.@.f 7 7 3 3 e j ] ] h j F 7 f q 9 & o X # ) ) xXiXPXLXPXHX-XzXPXPXb.l.Z : 9.PXMXsX;Xv + + V.}.PXB.h.W R <.h.9.sXJXPX6XMXK.p.- 4 X J J [ o.j :.| ] j h d 7 * < $ & @ 9 9 7X4XMXcXPX3.7.jXHXjXW v + = l.SXIX).|._ Z.C.kXBX8Xe.e.o.#.i.9XyXyXmX<X9X<X5XyXyXtX5X<X2X$X4X1X$X$XrX4X",
"M OX.X@X-XVX[.E.x.l.vXIXx.= O W ) *X}.}.) 2.4.|.*XlXbXO.@.$ q g < < 7 7 7 7 6 & % @ % # # 8 v 4X=X=X.XoXPXMXJX#X8.c.V.PX-X:X[.zXsXHXV.|.Z `.V.xXjXh.: v 2.2.|.>X*XjXjXcX`.[.z.C.Q.{.7XtXBX5X1XS # * w $ * d h f 7 7 3 < 4 q & # X y y @X[.:XPXPX9.N.9.PXMXS.6.Z ` f.iXzX).A.E V.V.lXlXeXH.G.*.@.{ i.e.NXtXW.L.b J J <X+XL.5.y.a.M.OXkXKX=X{.7X6Xn.t.y.6X XNXt.5.O.6.Q Q M 5.6.n.kXbX6.5.oXOX6.C.n.I.OXNXH H 8 ; ; b.m.rX4X4XCXp.~ +.~ ^ ; N b {.M.kXkXPXVXlXjX2.) Q B V.].[.l B + O 3.}.>XV.[.2.E ,.B.A.[.A.oXkXnXm.!.s s y @ ; p a 7 F F a 7 7 D F f D * 7 7 D D U L F & * $ & & 6 s p n n M S D D D D g g A D p p I ^ b y ' % % 6 6 D D D 1 1 $ 7 7 f g F d f G b ; 5 6 - & - @ 6 X - K.b.JX*XVXUXjXUXE E E &.cX:X:XQ V ` B Z.gX>XvX>X,X/ 9.3.7.z.6X#XMXrX5X4X~.i.-.o.=.{ { L J.T.yXNX9XY. XM H 0 0.<.: v x : : = > R 7.7.<.+.t.3.0.9.3.0.4.m N C b b +.y.n.O.! U I J J G A i b 6 0 0 b C K.I.U.L.H b b v 0 C.MXNXFXFX`.P.V oX-X-X;XPXPXPXjXqXV Q E c.x.:XzXJXH G w q h j j ] ] ] j h j F 1 w w 5 i X . o o   B.N.xXjXsXjXlXPXV.c.l.b.6XvX}.*XvXHXPX9.3.( zXiXsXV _ T E f.:XxXkX6XMXJX3X% ; @ # @ J o.[ ] 3 | o.[ ] d h F d D u u & 6 4 8X4XbXPXKX) &.jXHXUXD.A.V V ).IXIXN.l._ ).A.bXmX4Xe.w.U { i.yXmXyXyXs.u.@...U J U U ! I P ~ P S N P P ",
"b oX.XOX=XVX[.E.A.x.vXvXx.: = Q V ).|.gX) W 3.vX}.lXCX5.*.$ w 7 1 2 7 7 7 4 < & & & @ X . C v #X4XK.#X=XPXNXwXVX3.{.x.>XPX*X|.*XjXjXA.V.E Z.`.:X:X8.B v 3.8.}.xXcXcXzXDX`.oX9.b.P.{.3X1XXX5X7XH # & w < w K f 3 2 e 1 7 6 5 # # o v v @X[.>XPXIXl.l.l.jXHXx.C.H V c.cX>Xx.A.R V.V.lXkXtXJ.J.-.@.{ i.e.mXtX!.I.n  .J 8X<XU.5.e.p.n.#X#X#XOXW.OXbX6.n.y.4XbX.Xy.u.+.5.H ~ S O.5.I.bXNXj.y.U.I.n.z.I.U.OXdX~ ~ v 0 N n.n.KXnXmXnX6.^ P P ^ H M M m.K.KX@XwXVXcXVXE ) Z v [.c.%Xv : + O ,.}.[.).V.4.4.W c.`.A.[.cXHXkXQ.z.% ; s y 8 6 p p D D 6 5 5 D L f d $ f f F g L g f * * * 1 < 5 s s a p D g h h g g f f g g f p U ^ N t ' = % & & p D F r r * r 2 d 7 g 7 r A i 0 ; 4 ; & # ; ; % % C.m.MX&X|.:XPXxXQ V / W HXIX*Xv C V : }.GXiXiXzXiX,.3.+.) p.#X@XeXnXbXZX~.d.e.*.X.{ #.{ G.Y.CXyXBXI.{.v v C 8.<.: C O 0 > > : R t.z.7.<.z.7.7.6.6.t.6.M M m 8 6 O.u.v.!  .U I I U J A i 9 6 9 & 8 9 W..XK.L.H b b v 0 C.bXMXJXCXP.P.C *X{.oX*XxXPXPXDXIXC _ Q l.B.sXxXFXm A 4 7 [ ] ] ] j ] ] ] j g 3 < w q i @ X .     A.Z.LXxXxXxXLXLXZ.x.8.0.PXcXPX*X*XDXLXt.t.9.cXxXLXW _ T C 9.6XdXPXMXMXKX3Xo - % $ 4 f [ h ] e | | | | j j F h F a a # & - 3X=XkXVXJX( 2.jXHXvXc.x.W ,.).iXHXA.N._ ).Z.MXNX4Xw.5.U U e.mXZX9X9Xw.r.O.@...! ..! ! ! P I N N b ^ ^ ",
"v oXOX@X-XLX@X|.B B 9.l.V.[.;XcXHXcXf.D.Z Z 1.}.*XcXnXO.*.* f g w < 1 7 7 < < 4 X % o o 8 Q.p.wX4X.X=XeX6XbX^ C B HXjXHXDX3.V Z -XvXHXHX[.>X[.A.Z.3.3.3.|.*X}.;X*X}.|.jXB.B.v : 6.4.m.eX7X4XmXXXG b X @ $ < 7 7 1 f q r 6 4 # % % b y @X[.*XHXDXx.c.A.vXHX7.&..   E >X;X).}.W V.A.lXrXrXG.G.@.o.J i.e.ZXmXXX+XG K n Y.<Xs.&.....! +.5.O.OX!.OX3Xu.U.M.n.W.S S ~ 0 0 b m S # X 0 5.r.'.#Xn.n.L.6.6.y.n.4.5.5.6.y.Q N 8 6.z.5XCXrX5.&.^ ^ ~ b t C Z Q.LX*XlXVXHXHX*XE B [.V.PX|.*Xf.9.|.HXjXLXLXPX|.A.,.,.Z.[.`.jXHXUXKXm.; . . . # ! ! p u & u u D L r 7 $ g g g L L f r * * * 2 1 r f r r f g g h j k k d d d f f f G Y b y ' = & * & a D D g g @ 7 r g f g 2 6 4 - 8 # % % # o o # I.OXlX6XcXPXPXPXHX9.[.%XHX*X;XcX[.O , = , *XgX>XW _ V ) 3.t.b.=XKXKXnXtXW.L.*.X.*.o.{ o.F.J.mX9XNXI.I.^ / > : j.'.oX X X> ~ ~ B.`.b.B.U.B.C.dX.X.XOX#X8X Xy.I ~ ! ..!.<X+X.. .J p q q n S G ! O.*.S G i !.I.L.L.S 0 v v 0 K.7X7XJXJX*X;X2.JXPXPXHXjXA.V.x.x.( %./ l.x.jX6XMXH S < < d d e e e ] [ ] d 7 $ < $ w 4 q 9 @ ~ ^ [.[.DXAXPXHXcXx.R E KX>XPXHX3.x.V.LXPX|.A.V.xXHXB./ 7.f.9.zXPXsX6XbXbXbXMX4...X @ U -.{ $ $ $ ] ] | | ] 2 d 7 7 & & X & ; 4X3XeXKXPXP v 9.vXPXlXHX6XxXsX)._.T E _ ).).DXJX6X6.5.!  .w.mXNXtXyX@.@.*.H.v.e.6.! I H i N 6 N G p.m.",
"b #X#X=X-XHX@X,XP C l.9.x.:XxX;XzX;Xl.l.v c D.gX*XcXkX..@.& A F w < < 7 w & * & % % X   b Q.Z.oXOX{.OXPXMX=XQ ^ C zX:XHXjX( T V >X:XMXMX`.&X[.{.x.8.0.8.[.jXjXDXsX;XiXLX).B.: = +.y.{.OXOXnXbX<XH J . $ @ < < < 7 f r 7 & - % ; % t : @X}.*XHXHXx.x.V.cXlX9.&.    B %XsXA.`.E A.Z.lXrXrXs.F.o.o.[ i.e.ZXyXXXXXG K K <X2Xe.&.^ +...~ O...U.L.8X8Xy.y.H.m.L.~ I H 0 0 A q S o o w y.6.3XOXn.G.r.r.r.j.t.+.4.<.y.y.~ 8 M y.m.CXrXrX+.5.I I P M P N C C.-XjXPX-XlX-XcXv v x.*XHXZ.*X9.l.*XHXLXIXiXLXA.>X( / [.Z.A.cXqXKXPXp.  O + o o ^ ~ 6 - # p a F F r r 3 g h h [ F r 7 $ * * 2 7 f j d d h h j j j k k k j j d d f D D N v ' ; 6 % * s g g g g @ 1 r f f f 2 1 % # 9 # % # # # o - I.#XoXkXcXFXPXzX*X8.}.Z.iXiXHXSX`.=   + : [.gXHXQ E v <.( t.p.W.nXKXeXtXI.Y.w.*.w.X.D o.F.G.yXyXCXH.I.) B x : n.OXOX8X'.4 H ~ n.'.U.U.H.m.+X8X3XOX#XOXOXU.j.A G ..@.<X~.Y.#. .U A 7 w q A J S @.w.n J q XXXXL.L.S t v b t U.bXeXKXCXoX{.3.kXcXHXPXqXA.V.A.k.2.W W 8.9.xXsXLXb n * * e d j j j ] ] h d d * < < q 4 9 - . Q ~ xX-XjXcXPXHXPXh.V / *XDXPXPX9.P.c.PXPX*XA.|.MXPXc.7.<.h.7.;XFXkXsX6XbXKX4X+.~ o X J @.F $ X 2 [ ] [ | | e j 7 7 < < X - 6 #X X=XlXLXC B 8.jXjXcXMXHXLXAX[.}.T E _ ).).AXHX6X0.5. . .w.NXNX9XtX! O.5.+XH.5.5.~ ~ P i m - m H u.m.",
"m 3X4X=X*XVX@X}.V V }.:X:XcXxX*X*Xx._ W = > D.[.}.zXnX&.*.$ < * w < < w 6 * $ % & % t b C.kX6X-X=XPXCX.X0.3./ Q Z.-XDX&X;XO +   Z.[.*X*X3.2.Q Q W 9.[.oX*X*X:XcXAXxXxXLXV.`.Q <.2.) 6.z.K.=XW.7XOXNXm n & f A q 7 f 7 4 * & & 9 # : ; @X*X:XPXPXx.x.9.HXcX:X-XW E 4.jXsXh.h.B P.C.lXrX5XF.F.o.o.{ i.i.mXyX~.!.S n K <X<X@.e.v.rXBX3X7XI.@.O.5.6.tXy.w.r.5.XXXX<XY.<Xu.! ! @.y.I.G S r.y.8XNX@.H.n.6.5.OX6.n.{.I.7Xy.0...H K.K.4XCXCXt.6.) P ~ b N 0 -X-X=XcX:XPXMX;XLXq.3.>XLXLXLXcXHX*XiX).x.>XPXAXV.0.C V E.|.|.*XwXHXV.M.O = - ^ H 8 n 5 !  .J D r f 1 f F L F g 1 1 $ * 3 7 r g h f j h h j j j k k k d d d j g f g C N y y y % % r p s g g 1 r 1 * 1 7 7 5 @ o 0 # # o o - ; K.kX6X&X4XLXjXiX3.8.jXIXAXHXIXAXiXLX|.%X;X}.jX|.|.v Z _ c.C.lXkXBXnXtXH.L.r.u.X. . . . .J.mXmXNXmXY.0 M v v ~ ^ n.+XU.y.n.5.n.n.u.e.I.JXfXU.L.6.6.5.y.v.I.<XmXU.H.G.w.J.v.J.@.@.e.G.L.J.L.~.1X!.ZX9X! ..9 Y.Y.K.K.S t b b t K.eX4XKXJX6X4XP.PXPXA.[.> E V GXvX].3.8.x.p.cX;XJXM G 5 w f d j j ] j e d g L 7 4 4 4 q 4 q !  X4XlXjXcXLXPXx.l.= 9.l.HXPXA.Z.O V Q -XzXjXV.l.) W q.0.8.sX;XLXPXPXDXMXbXkXMXJXKX5.5. .q f f j | [ [ j j [ 2 h 7 7 < & X 4 0 7X6XMXPXPXZ E q.}.].cXlXcXsXxX%XiXZ Z _ ).Z.cXDX6Xy.6.U  .w.CXCX9X5XG n 5.NXJXtXJX3X3X9XL.H.@.5.@.G.H.",
"b {..X-X6XVX@X-X9.0.gXIX>X2.3.( ( Z.S.|./ W / -X*XwXeX&.&.X q 5 * 6 * 4 4 & 9 @ N 8 {.|.:X*X*XPXcX-X-XW [.Z.HXPX`.;X*XPXDX,.W _ }.Z.HX:X2.= v 8.9.[.-XvXjXwXcXA.V.}.}.cXl.0.vXxXsXvX4.9.c.V.b.4X#XbXOXOX! X X G n 4 u * & & & - o ; = @X*X:XPXPX7.3.v -X:X-X*X-XgX>Xc.x.E _ B M.V.lXeXrXG.G.@.@.{ d.i.yXyX1X1XU 6 q G.Y.u.s.r.mXNXr.y.r.8XL.U.n.7XU.L.BXmXU.w.e.n.n.H.3XOXH.L.L.L.L.0 x 3X Xm.n.b.P.K.{.+.^ 6.y.n.y.5.m.K.Q I {.bXbXoXI.6.) +.Q ^ - V b *X}.lXxXjXPXPX|.&X( A.8.A.c.[.B v . + 8.:X*XA.A.x : V x.N.}.;XIXjXHX9.8.O W ^ C H ! n A A S @ @ A g A D I i & & & & & p f f g h h h h h j j k k k d d d g a g s D M P y y = % ; D s s g r 7 < F p U q n - = = # ; O = K.W.bXMXMXPXPXjXx v l.N.PX).[./ / c.x.>XzXiXiX;X>X3.3.2.) l.6X3XBXBXBX+XJ.r.u.#.{ @.J J Y.+XmXZXtXa.H.I H.e.K.K.u.n...r.e.5.5.XXw.r.mXmXe.I G I i G 8 9 - 9 @ # ..tXW.M.U.^ I.n.$X5XJ.s.W.*.*.H I D !.XXP I M Q..XK.K.M 9 t b v I.kXkXPXKX-XOXZ.LXPX2._ O / _ HXAX).3.,.x.p.6XkXCXS F a 7 f f j [ ] h e d 7 * 6 a 5 & & ~ H KXNXMXMXKXHXl.0.3.l.}.[.`.:XHX*X|.: E E *X*XMXB V V E c.;XsXPXLXzX|.}.[.*XA.}.;XxXxXLXPX..9 q K F j [ [ [ j [ j f 7 r 4 4 @ n b 4XeXcXKXHX3.1.>XgXUXW / / _ *XcXiXl.f.W Z.Z.MXMX4Xe.6... .e.NXNX7X8XH H ! 8X$Xp.z.O.6.w.v.v.BX5XtXv.H.",
"M .X{.=X6XVX|.@X7.9.vXcX*X( 2.( W }.A.A.E E ) @X*XkXlX..O.X u 5 < 6 @ & - 4 % # ; B oX}.*XxXvXvXPX@X@X&.x.).HXxX|.sX;XAXxX4./ W [.[.>X;X2.v Z 8.&.-XlXzX@X}.PXx.9.|.*XcX9.8.xXxXxX:X3.8.l.x.V.DX6XoX8XOX~ . ; i i 6 4 6 & $ $ & o : ; =X@X-XPXPX7.0.Z }.[.qXkXvXvXgX].).E V v S.M.lXlXtXG.G.-.@.[ i.w.yXyX1XXXI A A u.u.a.a.d.mXCXu.u.r.XX XH.u.NXG.v.tX9X+X*.r.v.a.n.L.<XL.U.H.'. X0 0 '.U.C.n.t.K.Q.b.7.) y.6.p.y.y.C.m.~ ^ M.OXkX{.{.t.+.) 4.+.b B B }.|.HX:X6XcXPX;X`.4.9.[.x.V.x.Z v + , 8.*X=XP.x.: : V l.h.%X}.cXIXAX8.9.> B Q C +.H S G S p @ o 8 p G ^ I 0 & - - & 6 n f g h h h h h h g g g k k d d d g a g p D D G y v > = % s s s g g r 5 g A G 9 v x : + + . % - K.K.6XMXLXPXcX|.E W 9.f.IX>X%X_ ( A.l.cXIXzX*XiX|.,.( 3.3.C.=XOXbXNX2XY.J.i.i.@.*.@.O. .a. XnXKXKXn.r.^ p.a.v.H.r.y.5.r.e.&.6.s.s.s.0XmXs.U D u D 9 9 9 - ; # - H 7X#Xp.y.6.t.b.eXW.U.m.K.5.6.P I ! .X.XM S N Q..XK.K.S t i b v P.kXkXCXKX-X6XQ.PXLX) 2.. 4.V IXIX|.0.2.t.3.=XkXZXS D a 7 f f f F [ [ f f < & 6 u 9 4 @ ~ H nXkXJXPXzXKX3.8.N.3.jX[.{.LXjX*XA.v V _ :XvX6XV V Q E c.*X:XKXKXcX}.*X;X|.A.A.iXxXxXLXdX6.8 b G J f F F [ h [ h h r 1 5 6 # n m 6X6XzXDXHX2.3.}.gXpXQ W ) ( *XzXgXl.0.W P.P.MXCX5Xe.e.! ! w.NXNXtX7XI I ! 1X.Xy.z.5.e.5.L.U.5X5XXXL.u.",
"b {.{.#X6XVX}.,X}.Z.IXIXA.O . : x *X[.[.) / 8.-X@XkXnX..O.o S p $ 4 4 & & X X P =X{.wX*X:XPXHX*XE.> : 9.jXDXHXcX/ h.V.;XHX}.*X>XvX-XA.A.) 2.2.;XlX@XjXjXwXjX-X0.V.xXvX}.V ` V.V.jXcXx.V B 2.3.c.=X6XdX3X7XH M $ - 9 q D 4 4 & - o v v 4X}.-XPXPX7.p.W wX,X*X*X[.|.>XpXgX3.) Z V.M.lXeXtXH.J.-.-.[ i.e.yXmX1X+XG q q w.w.v.e.e.5X8XS m 6 O.y.tXKX!.!.OX XG.NXY.1XOX1XXX5...A S  .+X+Xq 9 H.n.I.K. X3X3Xy.K.n.oXn.P.b.n.M.K.4.O.Q  X3XMXPX=Xy.+.W H C b 0 H H [.jXJX*X;XKXPX}.> = V.A.cXl.x.> O 9.zX-X*XcX>XjXx.,.,.).l.).AXPXiXIX2.W _ H G o . o X @ ; u M G N H I 8 & - & & y A g g g h h h h h j j j k k k d d k f g g D G G y v > > = s s g g r * * $ & # # # v v = B m B.b.PXNXMXlXoXDXAX9.V.c.gXiXiX8.4.    C v [.;X[.2.4.C 3.4.x.V.xX7XbXJXNXJ.w.i.@.o.o.@.G G. XKXCX4Xr.6.y.6.m.C.K.r.n.u.u.m.m.m.y.m.r.1X~.G.s...~.2X5.5.A ! ^ 6.v..X!.M.5.5...5..XC.b.^ a.H.!.Q.H.W.O.&.O..X+Xn n S !.!.U.K.S i b b t K.NXNXbXJXQ.Q.3.{.P.b.B.}.zXHXHXAX0.` E x.M.MXbXnXD F f q f d d h d e < < $ & @ X o ..+.KXbXbXNXbXMXJX9.4.c.PX:X;XB.x.jXxXPXPXV.|.V.PXHXA.E W b.V.*XPXLXvX6XHX*X|.: Z ).Z.`.sXLXsXLXMX+.J X X * K h F F [ g f 7 r 5 6 # n m 4X4XwXHXPXl.l.DXGXqXW B = = A.LXAXl.c./ [.P.MXCX5Xr.e. . .e.ZXZXtXtX! ! I 1X4Xp.a.O.5.5.r.O...5.w.3X X",
"v {. X=X-XVX|.@XQ.V.HXDXB..   v = |.A.).2.W 8.[.*XwXlX&.5.o A A q - 5 & i X   H Q..XkXwXxXHXPX-XwX> + x.UXAX|.;X/ x.N.HXcX:XZ.}.HX:X9.3.W 8.8.*X}.PX:X:X|.6X6XS.x.PXHX|.Z V A.V.*XcX[.B B 8.9.l.-X=XoX6XJXm 9 9 # 4 n A 4 6 $ @ # b v 6X@X-XPXPX0.7.W @X*X[.jX,XaXhXvX%X( ) B S.M.lXeXrXH.G.@.@.{ i.e.mXmXXX!.H 9 q 5.@.G.5.e.5X5Xn 9 8 5...CXKXn.OX8XL.n.tXXXL.1X XJ...@.G n I L. Xb q z.y.{.K.OX3XOX6.K.C.oXK.OXC.n.z.M.y.y.0  XK.KXPX X0.t.~ +.Q v v v E [.PXHXxX*XzXMX{.> O V.9.PX8.8.: : x.jXjX-X;X*X:Xx.) _ c.f.|.GXPXPXPX8.Q C C H - @ o X X r y s Y D G P ; & ; % - n A D g h h h h j h h h j j d k k k k d g g D Y G i ' > : - y y N p r & - o X X o = Z l = : : P.{.bXMXoXPXxXcXDX3.V.S.AXHX%Xq.q.O O Z B *X;XiX( ) V 2.) c.b.MX7XNXmXmXu.@.i.-.@.w.@.A I.+XKXKXNXp.M.6.5.{.n.b.y.y.6.y.p.m.K.r.J.e.5XrXH.e.G 2X~.w.5.y I I y.v.$X.X6.&.y.&.+.{.t.z.t.5.r.m.v.$X4XO.O.*.L.!.n n G .XL.H.U.S i b b t K.kXMXMXPX}.oX6.oX[.A.c.V.;XAXIXPX0./ _ 9.0.6XeXnXJ F D f f f d f { g w 7 < 6 X . . ..^ bXKX XJXoXPXPX3.l.) HXcXHXZ.x.>XcXPXLXb.|.;XPXHXV.3.) V.x.-XPXDXjXjXPXjXjXR R c.h.[.DXAXHXLXdX+.+.. $ 4 K [ F g [ g r 1 a 5 5 # M N 7X6XjXxXxXl.q.HXgX>XW W O + x.PXLXl.N./ [.[.NXCX5Xr.e. . .r.ZXmXtXyX! I G 1X5Xr.u.5.a.w.e.w.O.5.@.Y.!.",
"m #X=X-X;XlX[.[.l.x.cX}.A.W R <.8.PX|.[.2.Q 9.=X*X-XeX5.5.. 8 u & 4 4 X X & 8 L.nX-X-XoXxX:X|.Q _ P W Z.jXHXx.c.+ v v ;X;XcX8.p.W ^ ) &.x.@X*XVXHX[.wXjXx.l.O x.9.cXjXl.+ + ` Z PXxX}.2.) 2./ 2.x.|.@XoXlXMX3X6 m @ - & q K 9 q o 0 0 -X*XwXPXLXl.x.Z.HXPXl.9.> , ,.gXAXV.x./ S.V.kXeXtXG.G.@.@.{ u.e.NXnX.X{.H ^ ! e.@.U.r.a.3XbXy.M n H t !.v.OXm.n.$X4X&.^ G G ..v.XXY.I I !.v.H.8 4 O.+.I.C.r.P. XK..X=X4XNX7X7X7X3XP.m.I.M S ~ oX XMX{.{.4.) E ^ ^ ; ; Q {.[.PXDXjXcXjX}.*X8.9.PXjXHXcXcXcXzXKXDXjXHXHXxXA.A.4.,.V.%X].gX%XDXN.2.> t X # X ; % s u y Y Y G H - % ; % ; A D D h h h h h j j h j j j j d j j d d f g g Y G N Z : : = - ; p s D s 6 % @ % o # O , _ C.P.MX7XlXJXkXLXkX9.f.zXPXIXvXzXAXzXiX2.f.[.[.cXx.B.v v Q [.P.=XoXLXfXbXL.Y.i.w.w. .K  .G XXKXJXnXbX6.M m P.z.P.0.n..XI.n.n.6.K.I.n.U.n.!.H.....v.L.H.!.~.L.7XXX1Xa.y.y.+.#X#Xt.5..Xp.0.eXnXXX1X~.KXZX&.O.u.n.m.b b H !.J.m.H.M t b b t K.MXCXMXKXb.b.^ b.;XLXPXPXLXAX).N.v E 3.b.t.KXPXnXG D D A f q q r 7 w < < @ @ - ! O.7XBXKXBX=XJXPX4.4.: :X*XPXPX3.+ = 0.c.HXHX>X*X[.[.l.4.9.8.:XjXjXjXvXHXPXPX}.jXQ T R _ h.).f.LX&XPXxXfXJ G & J F F f F f f 6 4 5 5 # S S kXkXlXLXIX8.4.:XIXIXE.A.x.l.*X;X>X1.,.) [.P.NXCX5Xy.e. . .e.mXmX0X0XU U G !.~.w.r.a.tXKX5XmX3XL.u.6.y.",
"v oXoX=X-XVX}.@XE C l.l.*X*XsXDX;XxX0.1.v : 2.*X@X-XwX5.6.  0 i & 4 o 4 0 $XM.4XOX=XPXPX}.2.D.[.Q.KXUX|.>XHX[.|.C ) T zX;XjXB : v B 7.0.-XwX:X*X*XVXcXLX}.|.C x.V.PXcXV.> > 3.2.vXxX*XZ.A.}.A.A.V.V.c.S.Q.-XCXeX4Xm % @ i q w i o - - ;X-XjXPXPXp.V.E.*XgX9.q.    T zXcXA.x./ A.C.lXeXtXG.G.@.o.J u.e.CXCX#X=X+.5.<.y.5.I.m.y.y.5.3Xn.U.b b 6.&.1Xy.5.$XeXb M H n 9 G tXNX@.! J.r.u.- % Q ~ =X.X.XOXOX7X XI.+.+.H +.t.6X4XbXnX^ - - v ; 4XJXMX#X@X+.^ ^ M C 0 C H &X=X6XDX6XHX;X;X|.8.HXxXHXvX[.Z.t.x > 3.x.jXV.[.: > / k.f.zXAXiXiXPX7.t.# ; @ & & s g D X.Y s N - % ; - 6 n D F F F h h h j j j j j j j j j j d d f g g U Y S P : : = % - N N p 6 % # o %     : > x.HXMX*X=XKXMX7Xv C V.l.PX|.>XS.V.,XzXHX*XcXcXHX*X8.9.W _ Q.6X6XnX7XBX'.U.O.#.#.#. .{  .Y.<XBXBXNX5.n.v 5.p.@X}.=XK.P.NXkX#X Xy.oXOXI.W..XU.L.6 9 NXO.O.O.! &.n.L.XX!.W.XX3X#XK.W.#XOXbX=X0.O.b I ~ 5X5X&.5.+Xr.y.i i G !.I.m.H.n 9 i b v P.eXkXbXKX{.@XC.PXjX;XjX9.c.3.[.}.c./ Q 0.6.=X6XnXS A K K q 7 7 7 < w 6 < X X O.mXbX=X=XdX7XPX6.t.3./ *X}.[.PXcXq.  . 3.W DX:XV.v v E _ l.6X-XKXLXLXPXKXjXvXPX|.[.%X[.DXIXc.Z.A.).A.FXdXLXLXNXq a w J J A < r 5 & 5 6 # M N kXkXzXcXxXZ ` q.GXUXHXPXPXIXHXA.9.l l ) {.P.MXNX5Xe.e. . .e.mXmXyXyX . .J L.Y.a.s.a.ZXtXI ~ O.L.#XI.{.",
"0 Q.{.OX6XPX*X}./ B x.Z.:XoX*XsXcX}.3.) : l q.:X@XwXlX&.&.X b b - % o 8 & n.P.kX4X=XzXPXS.7.8.>X-XVXlX[.UXxX|.,XB / W |.|.>XQ C b C t.z.@X-XlX6XwX@XPXPX}.Z.C p.x.vX>XV.: : 3.2.jXHX[.V.x.:X}.c.Z.[.V.p.qXLX-X4X#X~ X $ 4 4 K G o = = -X6XjXPXPX9.x.A.UXcXx.8.. + B ;XzX|.Z.) Z.V.kXeXtXG.G.@.o.J u.r.CXCX-XwX5.y.y.j.r.m.U.t.5.6.eXW.K.b H +.&.U.p.p.W.W.P ~ ^ i n n 1XXX*.5.J.u.v.- - Q ^ bX=XOX XXXtXW.!.+.~ ~ O.O.5X4XNXtX^ - = x b I.MX6X{.oX6.) ^ v m B C m C.oXMXlXoXJXzX@X@X8.cXzXcX}.>XA.b.Z v 9.7.cX[.f.: B / f.k.iXSXSXAXPX9.3.o # - ; 5 r s D ^ ^ s i ; = ; 6 9 n F L F F h h h j j j j j j j j j j j g f g f U U I W : : > - % N p s 6 6 o # % o . l x A.DXHX6X4XMXJXkXM 0 `.x.PXzXpXc.c.,XcXcXjX>XcXMXP.0.4.4.) K.#X8XBXJX9XL.Y.i.w.@.J J #.#.~.<XNXBXPX5.5.- y.y.Z.[.wX=XoX=X6X6X=XC.{. XI.K.{.r.n.0 b CX5.5.G ! r.G.!.J.~.W.L.1XW. X3X3XK.6XJX^ O.i O.O.tX5X5.5.8X@.O.b A G !.+XH.H.n 9 i m b W.MXkXMXMX{.}.C.JXPXMXjXZ.9.l.A.V.V.C v l.Z.bX4XbXS n K D q w q w w w * $ * o y.4XMX3XdXMXMXFXt.z.5.t.}.B.}.PXPX) + O ) / cXHX`.v v / / B.*X6XcXHXMXPXKX*X;XPX|.A.sX).IXIX8.c.%X8.B.xXFXFXBX3X! 4 4 K J K 4 5 6 5 5 6 @ b b 7X7XkXHXcXV ` 9.DXUXPXPXjXiXcX[.l.> > ) {.[.NXNX5Xe.e. . .i.mXmXyXyX . .G v.T.Y.L.e.5XCXS n I  X$X7XOX",
"m .XQ.oX6XPX|.Z.Q / cXgX6X>X6X&X*Xx.q.3.B V 8.}.-XHXHX^ W   t ; X   I  X3X3X6X=XPXPXZ.b.B |.}.cXkX@X[.8.*X*XjXHX[.zX>XgX[.A._ W 0.0.@XoX=X-XlX6XVX6X6XjXMXPX;X+.2.}.xXPX9.8.jX*XcXxX9.V.x.jXvX>X( Q D.8.l.@X-X-XkXOXm m # X q # # > > zXjX:XHXPX9.3.%.HXDX,XqX9.c.0.[.N.0.9.E V.V.wXeXeXH.J.@.@.J r.e.CXlXoX6X3.U.P.I.n.r.I.oXoX.XW.#X#XOXW.p.6.{.m.U..XQ.&.N t n U 9 a.a.v.v.O.U.Y.q 9 ~ Q 4XK..XXX5X X..! n S b M ; 5.&.U.eXn.5.+. XoX6.K.bXlXMXQ.4.) B m H ; : ~ ) oXsXkXJXHX=XlX@XZ v 3.( -X3.4..   B x *X[.zX).%X( ( ,.c.S.SXSX>XAXcX5.# o y D s D U ! U ; t : - ; y t n Y L L F h h h j j j j j j j j j j g h f D a U } ! / l l : - O ; - N s P % % O : v ;X|.cX*XoXKXJXlXMXP <.3.;XzXiXE E   + 8.zX;X;X|.+.4.W 4.+.U.n.7X5X9XtXNXJ.O.@.@.@.#.J @.<X+XKXmX8Xm.y.- 0 M =X=X@X[.=X*X6X{.6X6XdX=X{.{.I.I.K.y.5.m 0 y.OX#XG ..L.!.L.! ! G G w.tXCX+.&.bXn.5.M n - O.O.9X8X@.O.XXG I i G G L. XH.H.M 9 b n m  XbXeXJXKXwX4X{.PXKX3.3.+ _ / PXAXN.4.( t.t.CXCXbXS n K K q 7 q 6 6 & X % O.+.nX4X3XLXLXPXJX/ b.8.KXPX6XjX>XcXHX*Xx.l.[.*X;X*X8.E E x.c.xXcXPXcXMXPXvXcXPXHX:X( q.&XjXPXPX%XV _ ).Z.`.dXFX6XNXNXG J n 4 A n A 9 u u 5 # n M kXlXMXxX;X+.V P.*X-X,X>X:XvXcX;XjX_ Z ( }.{.NXCX5Xy.e.{ { e.yXyX2X0XU  .A *.u.!.~.y.9X1XS S 8 +.I OX6X",
"m .X{.@X-XHX|.[.) / jXjXjX*X:X{.oXc.8.3.v B 9.*X:XcXPXQ Q = - - X . Q  X=XoX{.MXJXPXZ.t.H }.|.PXVXZ.|.8.>X*XgXGX[.vX*X>X*XV./ W 8.p.{.@X4XlXwXeXlXkX6XMXMXJX=X_ <.:X}.PX3.l.:X*XjXPX9.x.V.xX*XxX) / 8.l.V.E.:X;XkXOXM m X o 4 = # > > xXsX>XPXPX3.8.2.vXPX,X:XD.l.N.c.}.3.0._ S.V.wXeXrXG.J.@.o.J r.y.eXJX@XvX8.`.'.U.m.y.7XP.#XQ.$X#X.X.X$Xy.y.{.p.W..XW.6.8 G D D 5 a.e.J.v.O.L.L.p i G H 7XK.L.5X5X8X . .H n M t 8 +...4XQ.K.5.+.I.oX0.OX6XkXMX3X) / M m B : : ~ E MXOXlXJXMXwX-X6Xb v 4.&.-X2.&.O + > V [.}.%X[.>Xq.Q 1.k.S.AXiXpXHXjX4.# % p p D D g U Y y y : ; : y i n D Y g g L L h j h j h h j d d j h g F g F p U U ^ / v : y - % - ; N i b ; # + y : iX[.cX:X|.LXJX6XwX+.) &.:XxX*XW /   + 0.jXAX*X|.+.+.P 5.&.m.U.4X0X9XyXZXu.@.w.#.*. ... .1X8XZXNX#XU.y.8 % M 6X;X{.{.=X6XOX{.&XdX6XxX{.{.P.I.oX6.5.b 0 r. XOXI ! 1XH.!...I J M 5.8XKX5.&.kXt.y.b b 9 ! u.<XXX5.O.XXG J q S J Y.+XK.H.n i m b b .XkXMXMXKX-XoXoXPXPX3.q.+ ,./ IXLXA.2./ t.9.MXKXnXm G J S q q i < & & X X 5.~ nX6X=XLXPXPXPXW z.8.PXMXcX>XjXjXMX:Xc.c.*X|.6X6X( / W x.x.:XLXPXxXcXKXjXDXLXHXvX4.4.sX*XPXDX`.Q E A.`.B.sXLXxXdXFXH I 9 9 G 9 A n 6 5 i # M m 3XMXMXxXDXR Q oX&X-X[.}.jXiXAXzX>XT T ) }.{.KXCX4Xw.w.@.U u.mXNX<X0X .X.K *.e.Y.1Xr.8X$XP N 8 P ~ wX=X",
"v {.{.#X6XVX|.[.9.l.PXUXA.E V B H x.sXjX/ ` 8.*X>XjXvXQ H X + o ^ ^ {.3XOXMXlXMXP.b.P E / lX:XcXlX/ V + 9.S.pX>XiXA.).].V.z.t.t.$X#XwX#XVX#X{.~ W z.jXJX{.4XDX-X[.9.8.V.V.x.xX*XvX:X> = = V.[.IXW %.: : V.Z.l.HX=XMXoXOXQ M # o # : > xX6XsXHXPX9.8.v }.|.gXvX>XgXiX*X|.v v B Q.V.wXUXeXH.J.@.@.J u.u.nXCX{.{.B +.~ t.5.y.5.y.oXK.m.VXCXm.Q.$X.XeXQ.W.m..X$X&.^ p S 6 w.5.XXY.@.<XXXA b I H 3XK.L.1X!.u.n G J ~ b H n t ; y.z.rXU. X X XOX^ ^ 7XoXMXI.oX2.W C M v m - E W =XKXKX-X=XPXV.z.2.3.LXzXjX7.t.A.[.LXcXAXHXPX>Xf.q./ _ N.,X>XAXLXkX+.^ s s D D p D D y C t ; - ; 8 n D A D F L h h j k k h h h d d f g g a a g U ! Y y v : > > % % - - t 8 8 - - B x.Z.;X;XcXcXcXPXLXZ.Z.-XLXzX>XiXzXD.8.Z T ].IXjXp.p.% 8 ^ U.m.XX$XmXNX9XJ.T.*.@.@.U #.#.!.8XNXmXKXBXn.n.n.j.t.4.`.n.oXP.4.H C m C +.5.&XMXJX&X{. X+.+.t N p.XX Xy.r.XX .! 6 6 i 9 H OXOX6.+.7Xm M m m @.1XXXw.w.v.H.L.r.n.H m S  X+XH.m.m t t t t W.MXbXKXKX{.oXQ.wXxX4.<.: 8.f.AXSXc.1.( x.z.CXnX7X0 q K G K q i 5 & X ....CXMXlXlXxXDXzXQ <.: xXJXLXzX9.) W }.;XzX-X6X:X}.B.B.<.x.9.6X;XcXcXxXxXKX}.}.*XsXHXl.+   Z Q IXPXDX<.W 3./ ).`.).LXcXcXcXBXH m m ..S 6 9 P n o n H JXMX=XsXMX8.l.MX6XoXQ Z v v }.jXHXf.0.( }.}.KXCX4Xw.w.U J u.mXNX<X<XG S *.w.e.tX1X@.+XXXa.m.b b - C.C.",
"v {..X6XkXHX|.@XV.c.cXcX[.B v v v [.jX>XV E 0.qXqXxX:X2.W   .   ~ ~ OXkXoX3XMXPX[.t.E V 4.wXjXcXkXW E . f.k.gXaX>XS.|.Z.V.4.&.b.=XW..XW.ZXW.nX+.) z.lXMX{.=X&X}.|.9.x.x.l.x.>XvX>X>X= > O |.|.xX_ 1.v : q.A.x.[.*X6X6XoXC H   + . > = sX:XcXHXPX8.8.l ).Z.:XvXIXIXzX:X[.v v Z S.V.eXVXnXm.J.@.-.{ e.u.NXJX@X}.: ~ +.n.6.u.t.t.Q..XQ.eXeXoX.X@X$XrX4XrXQ.K.Q.5.^ n G 4 U ..XX~.*.~.~.n 0 ! I $XI.Y.<X+X5.n n J G G i ; - M 5.&.3XOX#Xn.K.JXM G 6X6XNXI.P.W ~ v v v 0 b C ^ =XNXlX4X@XkX{.P.^ 0.VX6X6Xx.x.A.[.LXHXAXLXzXiXk.f.` _ f.pX>XcXMXKX5.^ s s D Y D D G N M b y : 8 6 6 5 y S F g g L F g f g g g g f f g g A U Y ..G M y 8 : : ; % % ; - t y t % = C Z.).;XAXcXHXPXcX-XV.c.wX6XHX:XvXvXq.k.,._ N.vXcXc.x.. # O.U.U.$X1XmXmX0XG.G.e.w.@.#.K @.XX8X3XMXMXPX5.n.r.j.y.5.m.C.kX=X4.m H S H 4.<.{.KXJX{.OX6X^ +.0 v y.!.K.L.a.9XU U S i i 8 8 <Xm.5.5.NXH 0 M m e.tX4X&.O.L.K.H.n.u.b b S 3X1XH.v.m 9 t 0 0 Q.bX6XKXPXP.wX{.lX-X( 3.v N.x.PXPXf.2.) l.z.MXnXJX- 9 A b G G q o % X 6.&.wXPX-XjXxXPXPX) _ : jXHXzXsX9.B W 6XjXjX|.vX*XzXV.h.( c.V.xXjXMXHXHXzXxX[.6X:XHXPX3.+ O V E IXsXiX,.,.2.,.N.[.%XAXsXxXPXxXQ Q # ~ I i 9 n a @ S H BXMXkXcXxXz.c.sXjX-Xv V 0 l AX;X*X8.9.( oX}.KXCX4Xw.w.G U s.mXCX2X<X .I y.O.*.8X<Xa.L.L.H.r.- ; 0 n.p.",
"b {.OXwXwXVX}.>XA.E.PXvXl.O O Z E *XoX*XE / q.[.|.>X*X) / = Q W 6X6XkXoX=XKXLXt.2.c.;XoX|.[.}.VXzX3.4.= q.9.hXIX).= : _ ^ Z.6XW.-XW.tXCXrX&.&.8 0 ~ {.OX6XdXJXDXPX*X:XE 2.) HXxX:X*Xv B : *X}.*Xl.D.x.c.9.x.[.Z.A.*XPXPXoX`.v 0 O x : MXjXDXcXPX0.D.4.*X:X9.N.k.l.|.jXjXc.z.) Z.V.wXUXrXv.J.@.@.{ w.r.mXMX4XwXv 8 # n.U.JX+.4.U.Q.C..X@X#X$X#X#X.X.XeXnXrX-X$XrXy.e.G U ! Y.!.w.!.~.n 9 O.+.$X!.+X9XmXG.r.r.J.v.y.a.s.5.P 9 H m.MX3X7X8XI.0 m M ~ I.KXJXK.m.+.Q H 0 t - 8 +.oXJXKXPXMXkXwXC.P.A.VXKXHXMXKXvX*X3.,.N.N.IX%X).B V ,.V.N.xXcXlX^ ^ & - y s s p N D N b b b t 8 ; - 6 y s u s D D g g g g g g g D D D Y ! G p ; 8 ' ; ; y y ; 8 y y i b m - = W ;X%XjXzXcX:X*X0.0.-XzXKX[.wX}.[.PXAXvX>X>XjXjX,X4.^ y.&.$X2X2XyXyX2XF.F.w.w. .K A  .@.1XNXKXKXlX+.5.u.9X'.r.6.H.K..X+...H b M m 0 b H t.MX6Xb.oXMX^ +.M H m.K.m.4XL.y.p G I S A n ! v.1XeX3Xn.~ 5.3X8X7X8X1Xm.m.nXBX3XOX!.e.y.! I.a.m.v.m t t t v .XNXbXJXCXt.M.^ Z.|.[.&XIXzXLXiXgX( / / t.b.bXeXKXI G S w 0 8 - % o +.rX4XwX-XPXHX:Xc.( _ q.h.jXxXAXzX: .   `.Z.PXV.c.R E Q ( l.;X[.xXcXcXHXHXcXxXE 3.9.HXPX9.> > 2.2.PXPXPX%X>X*XjXx.c.V.c.Z.sXzXLXkXMXH o & b ! 9 i & G N 3XMXJX&X&X9.t.DXLXMXW W > = [.vXIXl.9.<.oXoXKXCX1Xw.w.I ..s.mXKX2X9Xu.U.!.H.L.n.z.L.@...eXKX#X^ M H ~ ",
"b {..X=X-XvX[.*X2._ x.|.;X7.9.[.C.LX[.Z.B V 0.vXvXIXcXW ( B *XzXxXsXsXPXPX9.t.( lX6XxXwXwXoX}.MXPX=XjXN.GXvXgX>X1.E W D.p.=XQ.#XtX$XtXrX5.~ ^ ^ C v ^ H x.b.sX=X|.PXcX[.) 2.[.[.vXjXl.[.A.PXxX[.A.E.jXHXqXQ V 9.f.V.|.}.cXIXxXjXO > : zX;XcXzXPXN.A.|.AXGX` T , + 4.>X&XP.Z.E S.V.wXwXwXm.J.@.o.{ e.u.tXeXoX4Xb 4.m.7X3X+.&.&.W.$Xm.4X4X+.~ 6.^ 7X#X X4X7X$X#XrXmXuXa.e.*.T.L.s.8X5X! G e.6.#X!.Y.~.Y.5.e.r.L.H.H.L.K..XrXtXeX6.5.<.K.n.b 8 H 8 - ~ K.I.JXKXC.m m b H t 0 - ~ ~ =XbXoX4XwXPXKXZ.3.3.c.A.HXcX0.  + v Z *X).%X_ 2.q.|.).IXMX#Xi S % % % ; t p N P P Y H N y y y i 8 ; - ; y s p D g g g g D D G Y ..I b t ; y ; ; - % & y p p p S t ; ; + + T sXzXgX>XHXx.9.W ^ PXlX[.B Z v : [.SXvX,X>XS.) ( 0.p.b.r.5X1X5XuXuXs.*.-.o.-.#.{ @.0X<XKXBX3XC.p.% = w.9XfXY.XXmX5...G G ..O.~ J S - o E lXlXC.{.6XQ H H ^ 4Xy.y.5XtXO.S S J I  .@.XXXXXX8XNX8XbX3Xm.n.#X X3XBX8X3XoXI.K.m.O.+.S oX7Xn.v.m i b b b OXeXMXMXCXC.P.+.JXHXzXPXIXzX}.N.f.B V / M.C.kXOXBX0 & 0 H 4 . X +.+.lX4XlXPXHXHX) 0.l.N.PXLXsX%X;XcXDXl./ 2.cX6XJXW / Z V l.V.vXvXxXKXPXcX6XjXHXPXV.0.( HXPXHXV.x.iX|.IXIX}.;XzXPXIX>X3.q.`.[.|.DXjXvXjX6XM S - # S p # G H eXbXkXFXsX~ R &XJXPX4XsX|.*X}.|.V.v V 2.*XoXKXCX1Xw.5.U ! u.mXJX X8XG.u.v.L.m.H ^ 8XI.!.1Xn..XXXrX{.K.",
"m OXOX#X@XlX|.,X/ W *X}.`.3.0.[.}.xXx.Z.E B q.,XgXvXcXQ / Q ;X*X`.xX-XHXPXz.t.Q jX}.[.wX-X*X[.JXxX{.}.V.>XGXgXSX3.E V x.3.wXnX.XrXtXtX4X..5.P C H t H Q &XP.kXP.|.HXPX}.9._ [.*XHX>XV.V.A.vXHX[.|.[.jX,X:XW ) x.9.|.>X}.HX>XAXjXx > l zXiXzXAXPXV.N.Z.IXGX( E   . 3.zX&X[.[.W E.Z.wXwXwXH.Y.@.o.J i.a.mXnX.X#Xm y.6.8XBX5...&.Q.v.W.$X$X..~ &.&.v.4X.X3XnX4X4X$XuXrXG.d.e.T.J.G.<XXX..! y.e.#XW.<X<XY.e.s.a.v.a.H.J.L.rXrXrXnXp.<.y.n.n.Q ^ S ; - ~ P.U.KXMX XH S v m 8 v 0 +.Q MXMXMXkX=XPXVXQ.3.4.b.c.iXxXf.+   l Z vX%X>X( ( 1.}.,XUXVX#Xb M & & % & y p N P P Y H M b N N b v : ; ; ; y t N p f p g D P I I ^ P 0 i ; t ; ; ; & & y D N p G G 0 ; O + B pXiXgXgXPX8.8.3.4.PXPX*Xv : Z B >XAXSX].>XD.%.) z.0.b.m.rXuXuXuXuXs.d.i.@.@.#.o.*.<X5XZX7XnX0.3.y = 5.<X9X8X9X9X@.5.H n ! ..G I I 4 M ~ =X6X{.@XwX^ H H Q 1Xy.y.$X7XO.U S G  .@.*.!.<XL.tXJXBX8X3X6.u.6X XP.bXNX6X3XI.{.OX4...H  XI.a.a.m i b b m #XnXKXMXMXC.z.) MXLXLXxXHX).iXc.f.W E ) A.C.kX=XbX0 w x H = X   &.6.nXlXkXUXPX:Xl.,.N.A.AXPXiXiX*XPXPX3.8./ wX-XPXV W E E V.A.cXjXHXjXMXjXxXcXHXPXA.8.8.HXvXHXB.9.;X;XHXPX[.;X|.PXqXcX3.8.|.Z.A.sXjXPXjXPXb b @ # n i @ P Q nXbX6X6XsXQ R ;XJXkXlXsX|.;X0.A.|.Z v 4.=XoXKXCX1Xw.5.! J u.NXCXY.XXw.n.I.Y.z.+.4.K.OXXXL.n.W.7XOXOX X",
"b =X#X@X=XVX@X|.B : ].[.vXLXDXLXPX-X) ( : : D.>X,XgXHXl.x.%XPXAXPXJXxX*XP.> v l.PXPXlX@Xv - v jXMXdXDX&X|.].3.1.` N.k.qX-X-X$XtX4XrXr.5.b &.+.~ ^ ^ m 8 C m [.cX;X:X}.PX>X>Xl.8.}.|.[.|.[.xXxX8.O > A.Z.cXc.c.l l 3.S.S.iX%XvXGXZ.Q _ PXDXiXDXSXf.0.c.HXAXf.f.> > ,.;X|.B.V.W b.Z.wXkXrXH.L.@.@.J i.a.ZXKX.XoXM +X3X#X8Xq m.y.y.y.$Xr.e.H M 8 i ..tXeX4XXX6.&.+.G.J.r.*.-.J.G.H.H.v.I I 5.6.4XL.G.Y.Y.G.~.!.L.J.H.5.*.*...&.y.1X'.U.8 - 0 H G +.+.^ H H Q.3XJXn.K.~ Q v b ; 0 ; ~ / kX-X-XKXVX-X> v b.A.jXxX|./ q.c.3.HXS.A.,.1.c.IXHXcXwXz.% % % % o o & ; y p b N M P I I b ; t v v ' ; 8 y y r r r p G Y I P v v t y - % = ; y s s s D A a A 4 X + +   : A.).zXSXPXl.A.b.z.JXwX*XQ ` Z ` ].GXGX8.4.l ( &.V.z.rXnXrXmXuXW.^.*.} } } o.-./.<XmXZXnXp.p.y v B b G G.v.s.s.5.O.y.1X<XtXtX5XNXKX1X.X0.Q.Q.@X4XbX5.y.P G W.K.K.#X$X*.O.O.e.a.+X!.XXBX7XXX!.n.r.I.I.C.=XkX6XNXkXn.6.K.6.5.> ; P 7XOXa.a.n b m b b OX7XbXKXKX{.oXoXPXPX{.|.B 4.3.iX>X9./ ) M.b.MXnXNX0 x % # X +.4.KX4XwXlXkXUXHXC T 3.PXPXSX>X2.N.A.DXLX-XjXHXcXcXZ.+.3.0.9.*X}.vXHXHXA.[.*XPXPXxX*XLX*X*X;X&X>XA.|.PXIX;X&XZ B B *XcXjXW W E _ V.[.[.cXlXVXm.W.H i % & o I ~ kXbXbXFXMXC v h.6X4XPXKXPXPX*Xc.l.v v 4.;XoXKXCX1X5.5.! J u.NXJXOXOX~ 0 H <.5.I.K.) 5.e.n.H.H.m.r.U.L.",
"t OXOXOX@XHX@XQ.v : *X[.*XPXHXJXDXoX( +.: > k.,X>X>X>XV.x.HXHXxXMXxXJXZ.Z.v > l.LXKX}.*Xv : x ;XMX6XsX).|.[.q.1./ S.9.-XlX=XrXrXtXtX&.*.G ~ +.~ Q +.: M H C P.6XMX-XzXvX-X:X0.8.>X*X[.A.x.xXHX8.: = x.l.vXN.).: c 3.V.Z.>X>X>XAX>XT Q cXcX;XIXSXf.8.).AXzXq.S.: v Q jXsXb.x.) A.V.wXlXrXm.J.@.@.J u.u.NXKX{.I.S OXOX7X7Xi a.z.y.a..Xy.a.9 H n 8 P tX7X7X4X5.&.5.H.W.a.*.*.Y.T.J.G.a.U I 5.6.rXI.L.+XY.Y.<X!.H.L.r.5.e...+.v.5.4Xm.'.w x I H ~ ^ ^ ~ H +.Q. XMXP. Xm H M C 8 % b &.) PX}.oXlXVXlX= > V.P.jX:X}.8.2.f.8.LXV.V.1./ x.cXUXcXVXp.% ; % & @ X % ; 8 p p s p Y ..^ N = - Z C y > : ' ; ; 6 y n G P P H 0 0 B 0 : O = ; 6 g g s g D p S q X o O . > B.`.vXvXLXA.*Xc.x.lXVX-XP _ Z E N.IXvX8.1.: D.3.S.z.nXmX~.ZXZX~.T.*.o.@.@.{ *.0X0XtXtXKX5.5.B : v C n L.r.H.L.@.w.O.XX7X9X7XmXKXNX1X=X6.Q.W.4X$X4Xy.y.N S n.!.U.$X$X5.O.*.s.r.1X1XL.1XKXm. Xn.m.n.I.OXK.6XeX3X.XM.U.{.4.5.; : Q 6X#Xa.n.M m N b m .XkX6XJXJXC.{.lXzXHX[.:XZ 2.) jXiXc._ / V.M.JXMXkXw m # - X 5.+.VXKX@X=XcXHXcXl 8.,.PXIXzXiX0.V.N.LXPX>XcXHXlXHXM.2.3.0.M.;X-X6XPXPXC.Q.oXKXJXkX-XPX6XkXV.;X*Xx.Z.PXPXzX;Xv : v vXvXUXW W V W ).Z.[.vXHX*X-X.Xy b o # o ~ ^ MXbXdXFXxXC B 3.sXsXPXPXLXLXcXf.0.v > 3.;XoXJXCX1X5.5.! J u.BXBX7X3Xm H M 5.6.'..X~ 5.O.v.v.U.e.H.!.W.",
"0 OX=X#X=XKX=X}.( ( xXjXcXV.P.9.7.C.B.V.E Q q.gXjX:XvXHXcXzXzXjXPXJXC.b.x.Z.:XZ.jXgX>X,X= v Z ,X*XzXLX2.> > P / M.Q..XrXrXZXXX1X5.O.U G ! D t ! ~ ..H Q b 8 Q Q.K.eXoXCXkX6X6XkXE ) Q -XDXcXvXV . O 3.3.vXl.x.9.9.) 8.x.V.N.cX}.jXsXzXxXHX*XIXPXf.c.T zX>XIXiXiX,X).x.Z.B W Q b.A.wXlXwXv.J.o.@.U e.w.yXtX{.@Xt.3XXXn.U.9 y.5.!.L.8XO.s.G G ! J 4 y.y.ZXtXJ.n i p n 6 ^ I ~.1X+X5.O.n S r.y.W.1X8Xa.L.w...*.u.v.XX5XY.e.y.! ..H =X{.n.y.n.I.oX{. Xb.y.6.6.2.K..XK.y.y.m H m - ; ^ +.MX6X=XPXzXC.8.p.>XcXcXlXcXPXHXAXzX|.l.9.2.4.P.kXPX@X-XQ N b - - ; 9 @ * & 6 7 r g Y a P M H C v ' v Z v v l > : : v ' Z v v ; ; : - % ; y D Y g s s p g u 4 X @   o = + _ ,.xXIXiXPXPXc.Q.@X-XjXjXqX}.,X|.AXzXl.c.( q.9.:X=XlXeXmX$XrXd.e.d.{ { *.i.<XZXKX3X4X5.H W Q B C B : - # H ^ 8XbXBXH.n.v.5.*.*.^ p.p.6.m.K.rXwX=XrX$X&.5.p.2X2X$X.X1X~.<X5XtXH.!.m.~.!.5XXXm.a.a.v.v.4X+X!.W.#X&.+.4Xp.5.# = +.=X Xy.y.n t i b 0 oX6XkXJXPX[.P.xXIXPXQ C   x.c.PXHXV.E W l.c.PXHXwX; 8 o X ^ KX6X6XkXlXHXVX%.&.W 8.0.AXIX|.A.+ x v ;XAXPX9.N.3._ ( b.Z.oX6XKXMXPXK.Q.P Q ~ !.W.CXeXMXKXPXMXkXW 5.3.cXKX*X}.l : v jXvXIXl.Z.V.E.0.V.V.Z.V.:XPXjX*X=X: M   W W xXHXPX;XxX8.3.xX`.&X<.8.c.A.PXvXvX( / 4.*X=XMXZXXXe.5.I ..u.mXmX XXX0 m I OXBXm.n.y.OX3XW.!.tX.X$X~.v.",
"0 oXOX=X=XVX}.[.}.x.PXHXP.O O : v `.sX;XW Q 3.qXqXvXvX>XoXkXMXPXy.y.5.LXMXPXcX}.AX,XGXGXN.).A.iXhX,X>XB v W Z.C.-XZXrX$X!.XXa.e.O. . .! G U ..v.a.*...^ M H 8 +.~ K.C.=XoXkXMXlXoX6XV @Xx.:XPXA.E E }.*XPXt.c.{.;X*X2.) c.9.B.V.HXHXcXjXHXvXPXPX/ 2.v A.).zXiX|.iX>X;X;XW R B x.A.jXlXrXv.J.@.@.J w.e.ZXCX.XoXp.W.3XY.J.& ! ^ .X!.9XXX<XS n p G G G 0 L.tX$X! ..8 b 6 ..! 1X+XL.n p ; 6 w.w.v.1XmX..! S ! O.J n O.~.5XtX1X&.+.5.OX=XbXMX{.z.b.{..Xm.JXMX6X=Xn.{.#Xm.n.n S b : 0 C.z.xXkX6XcX6X[.KXVXHXcX[.}.[.>X:X>X*X4.E Q 2.D.-XMXHXz.Z.P P I y p p p a F f 1 1 < f L D Y S P P V B C C Z v v : : = > = : - = = % ; ; t H N M D F L s 6 * < 4 & 6 - - > + x l iX;XiXPXHX( 4.4.3.LX-XlXHXcXIX>XzX*X;XA.c.q.Z.A.KXnXeXK.!.-.-.e.F.Y.yX<X9XmX8Xn.n.U.b.K.P.`.oXoX7.+.3.HXMXkXz.u.O.*.I a.v.yX4XZXeXM.p.p.tXeX$XK.$X&.5.p.2X=X#X#XtXL.s.*.*.P O.p.$X+X!.L...6 - i n ~.y.6.$X+Xb P U.XX=XH v ~ =X4Xy.r.n 9 9 b b OXbXMXJXLXb.z.x.}.[.c.).N.;X*XvXHX4.E / V.V.LXkX}.0 = +.6.MX6X4XPXMXMX^ 4.E.*X:X}.&XAXzXAXLXV ( ,.DXcX*Xv v T W [.-X6XCXKXJXeX!.O.O.P *.I *.O.<XtXNXkXkXCXPXP.t.4.DXHXvXPX).].V.PXPXHX[.*XcXHX|.c.8.Z.|.*X>X:XHXPXjX[.= _ ( PXLXsX;X}.z.c.PX`.A.% + v V *X*X*X0.0.3.@X=XCXCXXXe.w.U  .a.ZXCXXX<XM H m.NXXX~ ..5.y.e.H.W.K.P G H ~ ",
"0  XOX4X4XMX[.[.@XE.HXxXV.. + : : }.zXiXQ _ 3.>X|.qX:X*X*XPXbXPXt.5.0.JXxXvXcX}.gX|.PXSX[.,XiXpXSX).%XC W P Z.W.Q.tX$X$X5X1Xv.s.! ! ! U i I ..y.a.5.Q ! S ! t I ^ P.U.7XOXeXkXeXlX{.b *X[.LXjX*X) ) }.:XvX8.9.:X;XxXW / l.x.V.x.-XxXvX>XvXxXPXIX,.<.B c.B.%XzXiX>XgX;X}._ W C |.A.kXlXeXH.T.@.@.J e.r.ZXCXW.oXb. X3XJ.v.6 ! P !.1X!.5X~.G  .p G ! i i ~.tX$XI ! 6 b - ! I 4X~.K.i i 9 ; r.r.a.1X5X..&.! ! ! n G I tXZXmXL.5.5.5.3X#XMXJXoXC.K. X3XC.kXkX3X4Xm. X Xz.a.m N b b M m.n.=XdXMXzX6Xb.MXcXjXPXZ.*XV.>X:X>X*X/ Q / D.x.;XJXVX0.z.P C H y y u u L L f 1 < 3 f g g i n ~ H V C V B B Z B l : = = % : = = % % ; y N P D N D D Y 6 1 $ 5 p * & - = - = > = sX}.xXDXDX9.c.) / PXqX-X:XjXgXgX%XiX}.].S.l.Z.b.UXrXnXW.~.6.w.w.s.G.yX2XtXtX Xa.5.W.n.C.I.OX.XoX4.) 3.MXLX X5.y...@.S a.s.1XrX1XrXa.v.6.rXrXeX$XrX6.6.a.#X.X!.!.4XU.U.e.*.I P a.1X1Xv.v.I 5 5 i i !.5.5.XX$XH S r.4X4XH M H 4X7Xy.u.n 4 8 m m =XkXbXDXPXB.V.9.sX;XN.l.f.}.vXDXPXW / / V.V.VXVX@X; - 6.6.kXkXJX=XMX6X&.&.}.E.kX*X|.SXxXIXsXZ _ <.LXHX:XZ v _ C A.@X$X6XbX7XnXL.e.6.O.@.n U O.<X7XBXNXJXJX4XP.( ) LXHXcXcXZ.A.).PXPXxXjX>XHXjX>X3.x.V.V.[.>XUXPXUXoXZ.: E / JXPXHXzX|.A.A.PX&X&XO # v B >X:X|.0.8.3.*X=XCXCX$Xe.w. . .a.KXKX+XOXI m I.7X8X~ H 6.e.5.W.W.n.S G G ..",
"v Q..X6XkXHX}.@XQ.Q.jX:XA.= : V B sXsX>XE _ 8.:XjXHXHXVXHXJX6.&.= v {.LXPX8.9.> ).].PXIXA.%XiXiXzX4.,._ [.x.@XoXrXZXrXZXyXa.U ! !  .P Y ..L.!.7XtXmX5.e.H M S N : H Q .X4X#X.X=XMXJXcX0.4.cX*X|.A.`.DXxX}.2.( x.l.MX`.Z.v : 3.3.A.>XvXjX:X>XLXPX0.f.c.HXiX7.3._ / c.}.;XB.c.Q A.A.kXUXlXK.Y.@.@.J i.e.mXnXK..XQ.#XOXa.a.i I N H.G.v.5XyX<XtX*...G i S a.s.W.O.*.p M - n S $XXX7XG S S 6 H.v.a.5X5X..*.J ! O.n G G G i !.tX5XOX1XOX X=X=X X=X6X{. XK.) +.Q H n.I.U.5.6.b t 0 M b JXKXMX=X4XoX=X9.lXPXcX;XO O : *X>X*X>XW ) ,.N.l.cXJX-XB H y M P p 5 5 r U a f F L * @ @ A D n b M C C C N Z Z Z v v = > , ; - ; % ; t t p G D Y D r 5 @ 1 & f p p i p - - : = = x.N.LXAXPXjX*X: > A.VXvXc.c.= ,.3.IXHX*X2./ l.V.kXrXZX$X2Xe.e.*.X.X.<X9XKXtX7XnXnXKXn.H.OXOXn.n.6XlX-XlXlXW.y.y.5.a.+XtX5Xr.w.S G b 6.6.4X.X$Xv.y.y i O.W.!..X$X^ n D 9 n D G $X~.2XO.O.n G P n i W.&.*.XX$XH m ^ 4XeX&.y.+.4XP.y.u.n 6 8 n N =XbXMXHXLX9.h._ }.*XiXLXPXPXjXV.x.Z ) / S.C.UXKX6Xn.n.MXMX6XMXPXMXlXH p.x.jXvXkXZ.A.zX;XcXLX|.xXiXPXcXx.Z V l.8.wXPXKXCXnXK.W.+.! ! O.w.U U F ..! 1X7X3XJXKXPX-XoXV.|.HXPX>X*X:XPXPX2.W Q :XvXPX) ( W ( V.Z.A.>XvXIXPXl.9.3.jXLXDX&X[.h.h.jX:XDX) ) ) W vXDXvX8.3.3.=X=XCXCX$Xe.w. . .s.KXJXL.I...5.8Xm.H.N i n.H.a.XXK.O.M S n n ",
"b Q.{.4XkXJXoX-X[.Z.jX:Xx.% = W <.xX;X>XR C 8.vXHXIXcXcXKXVXt.t.= 0 &XjXPX1.D.> S.V.GXIX>X>XHXcX*Xq._ 3.}.Q.W..X4XrXrXtXuXp...O. ...n u ..~.L.1X$XeXr.y.P H H t N H I OXKX4X{.Q.KXwXkX^ 0.HXzX[.}.*XPXKX|./ W B.A.cXV.V.> 0 l.8.V.*XjXHXvX>XAXLXc.l.N.HXzX8.8.E W x.;X[.c.B.Q b.A.jXlXeXK.Y.*.@.J i.e.mXnXm.Q.Q. X XH.J.9 y ; H.J.J.!.!.2XXX*.*.A n ^ v.v.XX&.I 9 n y S S H.m.XXP S n 9 K.L.a.1X1Xe.r.G J ..S A n q G tX1XtXtXBXK.{.6X7XOX#X=X{.K. X^ 5.~ 0 m.C.I.&.+.i 8 ; H M bXJXkX4XlX[.{.l.cXxX[.}.= = : }.*X*XjXW ) ) Z.[.4XlXeXM C b M i p 5 6 1 g 7 d { { 3 X X u n p M H H V C C M b b y y > = O % % % : y D M N D D Y Y 5 & @ r r D u Y p p - % : O O 3.8.PXsXHXKXvX: y 9.UXcXq.N.  q.) AXjX[.2.3.l.3.VXrXVX~.!.e.e.*.U  .1X5XZX$X5XtX7XbXU.U.XX<Xn.n.V.lXjXoX=XI.U.y.5.e.mX<X2X*.*.G M 8 &.*.5X4X8Xp.v.i i &.$X$X!..X&.G G 6 9 G G XX5XtX..! n G D p 6 ~.*.&.nX4X9 m ..CXkX&.5.~ eX6Xe.r.n 6 9 N m #XbXMXLXLX0.9._ &XiXzX;XPXiXIXx.l.v W W A.E.UXHX-Xb.`.BXJX6XPXPX=XMX> c.l.jXPXHXS.N.IXiXgXiX%XiX;XPXHX8.E W c.x.*XCXCXnXmXU.L.^ ..&.*.O.P G F U P OXJX6XNXNXkXkXoXx.[.xXxX].*XjXIXPX( / / cX>XHX3.( V W V.|.[.jXcXHXHXA.c.x.cXPXAX}.cXl.x.cXDX}.3.8./ ( *X>XcX1.8.3.=X-XCXCX$Xe.w.U U v.KXCXH.I.w.5.bXn.H.m b n.y.v.XX!.^ n 9 n i ",
"m {.{.=X6XVX}.@XB E V.[.}.V.[.xX|.;Xh.h.Z v 0.jX[.qXMXHXlXM.2.+.b.t.6XPXAX/ ` . _ 1.AXIXAX,._ Z T 4.3.V.Z.#XwXCXyX4X$Xa.y.*.! I n U ....L.mX7X7XeX.XeX.Xa.M.H b t b t ^ K.I.kX4X6X6XwXMX*X0.9.4.V.x.jXvX8.    W W jX*X:X2.V E V 9.V.A.:XjXjXxXcXc.N.).cXzXf.,.  + W *X*X|.&X<.`.A.jXkXeXJ.Y.@.o.K i.e.ZXCXm.m.U. X!.!.~.S D S $X~.v.*.*.!.<X<XNX1XJ.v.~.W.1X~.XXv.a.&.G S r.H.CX5.&.I I L.K.y.K.K.~.1X..n S ! @.G 9 9 ! ! tX5Xr.W.I. X3X3X{.I.#X7X6.: - m H K.I.m.G H 0 0 b y.y.kXMXxXJXMX+.Q / PXvX}.}.B Z ) HXxX*X>X( l.l.:X:XPXoXK.= % 6 I Y u u 6 & r f g g f a r < 4 & - P b N N M M S M N y y ; - % ; ; y N b Y Y D p 6 u 6 @ @ @ 5 1 5 & u ; & % # ; o + W E zXiXiXHXPX9.3.}.LXPXN.V., T _ cXPXZ.C Q D.c.@XoXVX2X1Xa.d.*.U  .v.s.tX1XXXO.5.z.7X<X#XfXOX3XP.wX:XZ.P.b.OXL.8XL.H.O.U n A p G t O.O.L.+X1Xr.5.# # ^ $X1X XXXM p P n G r.6.1Xr.y.n G n i n ! *.!.p.a..X.Xm n m OX4Xp.t.&.#X.Xy.r.m 9 t m b =X7XbXHXPXB.Z.V.PXIXzXHX`.A.x.A.}./ W W V.A.cXVXjXdXbXJX7XbXMXoX+.( V Z.E.PXjX2.. + q.N.HXHX;X[.jX2.8.2.b.Z.>XlXVXnXyX!.L.5.5.G U D .... . .U p 5 &.#XOXJXMX6XPXPXMXb.Q ) 3.PXPXcXPXv     V.}.IXl.l.8.2.8.x.Z.|.V.DXHXxX:XxXHXHXjX;XjXv v N.PXLXPXLX:X:XvXc.l., : 3.-X-XCXCXXXw.*.U U G.KXKXL. XU.U.7Xy.j.; ; r.4XL.XX$X6.! G ..! ",
"b  X X=X4XVX{.|.W ) *X|.sXPXLXjXDX`.W W : : l.*XvXIXlX[.P.z.KXPX;X}.&XPXPX%X).2.gX,XPXgX).: v / ) Z.A.4X6XCX4X!.2Xy.a.Y P ..G n U ..L.!.7XtX1Xr.r.+.#X X1XbX5.~ ! ^ S ; ~ ..OX.X#XlXOXVXVX6X;XC B.x.LXPX[.> : V.l.DXB.A.*X:X|.}.&.9.9.Z.[.wXcXxXiX>X|.cXAX;X>XE T 4.*XZ.h.h.Q C.Z.wXkXrXH.T.@.o.K u.e.CXKXM.b.C.OXW.Y.~...r.p.rXyXe.*.*.G.v.d.y.5.p.p.W.J.Q.~.4X$X4XKX4X4XXXH.8X!.W.&.&.m.n.6.n.v.XXW.! S S ..O.L.O.I n q u.v.5X#X{.b.m.#X.XK.=X{.C ; 8 p.m.K.7.y.0 v 0 t S  X4XkX7X6XkX=XW ^ P.HX:XjXPXvXxX*XxXUXZ.Z.3.[.|.:X*XkX+.+.# # # 8 - p g g f d L h d g D u 5 n b # - ; 8 i s N S G G s y ; ; - s N M S N Y Y p & o - 5 6 u p F D D D p y & ; & ; o o , , `.DXxXDXAX[.|.|.zXAX>XSX|.iX%XAXvXD.Z P 2.4.b.m.VXnXnXJ.v.*. . .@.*.mXmXtXH M b <X+X+X#XI. X{.@X}.b.m.r.KXKXG.v. .! U J I A i H L.1XBXtX1Xy.v.8 9 5.7XOXH.J.G G I n n r.a..X^ ! n G ! ! *.+XXXa.v.U.5.a.S i !  XI.r.t.z.eXrXy.e.b t i b v =XMXbXcXHXV.Z.&XLXPX2.2.  f.3.IXjXS.W Q S.M.VXVXVXlX=XDXLXLX5.9.oXoX*X[.V.PXPX9., = 9.9.PXLXV.= O E / c.wX:XlXVXJX1XXX5.*.! U P X.*./.~.e.D D A U S &... X#XKXeX4XKXPX[.Z.V -XjXPXHXl.) 2.PXPXHXV.A.HXHX[.9.0.V.Z.Z.|.HXHXPXzXcXHX*X*Xv v c.;XA.[.;XcXHXHXN.S.v V 8.-X-XCXZX~.5.*.U U G.ZXKX+X#X XOX#Xn. Xb - ! OX1X$XL.m...! G n ",
"t  X.X=X6XJX}.[.) W jXjXjXPXxXxXsXB.) / l = x.*X*XIXHX|.P.0.PXJX6XDXjXHXAX;X|.2.>X>XiXIX).v : <.) `.Q.kX4X4X#X#XmX*.a...! =.G S ..G ~.<X7XtXmXe.r.5.#X$XeX$Xy.H n I ~ ; ~ H  XOX7X6XbXeXMXkX-XB x.x.HXcXZ.: 0 0.c.vXZ.A.&X;X|.>X( x.x.V.x.>XHXHX*X[.`.DXzX[.%X/ / ( ).A.c.x.W A.Z.wXwXrXm.T.@.o.J u.e.NXCXb.b.K..XW.Y.L.! H.K.rXyX .e.d.s.v.v.e.X.s.e.v.H.~.rXrXXXOXKX3XeX!.U.tXXX X^ &.6.e.y.H.v.$XU.! S i ....v.e.5.6 6 y.w.BX.X6XK.n.oXOXP.{. XG : ; z.z.oXy.y.0 b b 0 b I.=X=XbXFX6X}.W _ }.HXxXPXcXjXvXcXHXHXZ.A.0.Q.[.:XlXKXQ ~ - % @ ; & D g F [ r g g g f D q a G G # % = 8 b p p N D Y D s & & & b b b b b ^ ! y o o s y y u A A A p D u 6 $ ; & - # # > % A.cXjXIXAX*X;Xf.IXIXIXzX%X%X;X;XvXS.` E 3.9.V.C.MXeXeXH.G.&.U  ...*.yX1XmX^ O.% I.OX8X3XU.U.P.}.-XK.K.y.KXmXv.Y.U U ..D ..n A ~ ~.5X8X9X1Xa.a.6 6 5.7XXXH.H.S I I p 9 r.v.U.^ ! D i I ..5.~.1Xa.J.L.e.a.9 M P K.Q.m.t.n.oXOXu.e.i i b i 0 4XJXbXxXMXZ.[.cXLXIX2.2.. 9.8.PXHXZ.V E A.Z.HXkXjXxXFXFXMXxX8.8.&X*X*XZ.E.PXPX4.= O l.k.PXIXV.O , W C V.cXwXcXlXCX1XXX*.*.X.U U ..X.<XXXe.G  .F D n +...OXI.PXOXbXKXPXA.}.E PXjXxXxXA.) ) PXPXvXV.V.PXPX|.D.8.x.Z.}.[.cXcXPX;XzXPX;X|.Z v l.}.}.:X}.PXHXPXN.c.B v 8.-X-XCXZX~.5.*. .! G.NXKX<X3X+X.XOXn.j.; m O.XX1X$XL.4X ...S S ",
"0 W.K.3X=XPXoX*Xc.x.vXHX-X/ ) <.7.}.V.Z.W W 9.>X*XvXcX}.*XwXJXlX7.f.Q iXiXAXjX:X>XDX}.*X( 3._ }.`.dXMX3XnX1XtXZXr.*.*.D ! S *...~.XXtXmX1Xw.e.i S - y.5.U.W.4X0.6.n b ! b 0 ! +.U.3X=X6XOXMXMX}.4.( :X:XHXA.9.zXjX>XV.l.l.Z.HXHX:X: : 3.8.[.*X>XPXPX|.sXjXiXiXIXPXA.).h.Z x B A.Z.lXVXeXv.G.#.o.J e.e.mXeXoX4X) n.m.BX<X+X6.O.1X1X5X1X2X<X~.XX!.!.s.K.1X.XKXU.K.y.n.5.eX3XeXZX$XeX#X#X4XI.m.4X3X#XK.v.H S M 5.5.1XL.+X..O.i 9 a.5.5.0 8 P.rXOXW.K.M H I K.n.K.) ..; m i 0 ^ bXkXkXkXMXb.B.A.C.PXgXgX>XiX;X:X:X[.Z.) ) 8.=X6XMXkXoX: : - & 6 p u r r r r g L h g g f U S G I ; % % % X ; & s g D N D y M N P H b I P s y o ; % G n n p i A D D D a 5 5 a s - o .     3.KXPX>X;XPXPXC [.c.SXSXAXIXcXLXIXPX[.[.2.4.l.z.6XnXeXXX+Xe...=.G S XXZXtXH.J.9 ..+.7X7X'.Y..Xm.M.CXCX2XH.J.! U J *.@.U U G G w.<X<Xy.y.8Xe.y.S G Y.+XBXw.v.5.a.a.H.v.1X7XXXr.a.n.L.1XmXtX3X$X! H.W.5.&.M S N tXnXn.n.p.OX#X6.w.n i i n M 3XbXJXKXHXZ.b.cXcXDX) ( > S.x.PXPX0.( 4.p.0.PXPXcXkX=XPXPXB C.*XxXHX[.l.A.vXcXqX[.].vXvXHXcX7.V W b.P.cX-X6XJXPX#X^  .@.O. .F u yXuXuXZXZXU  ...Y ! b t e.&.bX6XeXMXkXPXJX{.|.V.PXPXjXZ.[.PXxX}.( 1.HXjXPX2.( B B V.Z.N.HXAX:XcXvX:XjXZ.[.PXV.9.Z v 3.) >XHX:X2.4.3.6X-XCXKX$X5.*...U J.ZXCXXX XY.'.dX6.6.m b S L.XXy.e.!.XXtXs.L.",
"0 Q.K.6X6XPX}.@Xl.x.cXHX:X) +.4./ &X[.[.W _ D.:XjXDXLX@X[.=XMXLX9.f.W SXiXSXgX>XcX,X}.:X/ 2.7.`.oX6X8X#XnXeXrXuXa.X.=.! ! i ....~.XX5X8X1X5.5.i i H ..+..XW.4X6.e.G I i i t ..! .XP.eX4X#XeXwX-X+.2.jX}.PX9.Z.zXvXMXl.V.b.x.PXHX@Xv Z 2.3.[.;XiXIXHX%X;XiXiXAXIXvX,XA.h.x v H Z.A.lXVXnXm.G.#.#.K e.e.ZXnX@X#X~ I.p.9X5XL...r.K.XX5X1X2XXX~.1X1X$Xv.m.1X.XmXU.K.M.n.y.OX.XnXeXnX$X5XeX4X.XK.W.7X1Xm.m.N S N y.&..XL.!...O.A n 5.5.5.y ; n.OXOX XK.8 M H .X.XP.H ~ 0 m - % 5.NXNXbXeXJXz.0.A.{.jX>XgX>X>XAXiXzXA.A.2._ l.Q.=XbXMX#X8 ; & & 4 u u u r s f g g g f g u G n S G ; = o O o 8 y s D g g D y p t S H H ~ P b 8 # - % N M S n u g F D F p a a p u & @ o   . &.PXPXvX>XAXiX( V.N.PXgXPXvXPXHXDXAX}.V.2.q.c.p.@XrXkX3X<Xr.*.*.Y A L.mXyXK.v.t &.5.fX8XU.Y.bXm.p.nXCX5Xv.H.J G O.5.e.Y U S H e.XXXXy.w.Y.U.u.G i Y.5XtXu.y.5.a.a.H.H.1X5X5Xa.a.n.L.1XmXmXeX5XP L.v.e.w.9 i S rXbXM.b.y.{.OX6.5.n i b S M =XlXMXPXPX`.A.:XzXSX4.4.: V.x.HXHX8./ W x.A.PXHXlX=XDXLXPXQ x.V.LXPXZ.S.9.HXGX}.Z.].,XjXIXPX3.P E c.b.wXeXCXKXKX4XX.X.@.*.U U *.^.2XZXCXyXO...D G G S Q 5.5.4XCX6XkXJXPXVX}.V.|.lXxXjX*X[.HXHXV.2.) PXHXPX2.( B Z c.x.|.AXDXzXgXvXjX;X|.*XcXx.N.v Z 2.2.cXjX}.,.) 3.6X4XCXKX$X5.5. .U J.NXZXY. XXXI.NXz.6.0 ; n 1X!.w.H.Y.5X~.s.Y.",
"b .XI.6X4XKX{.}.[.A.PXVXx.O . = : &XsXjX/ ) 9.gXjX:XlX*X=XVX4X-X, = O ).[.SXjX|.D.3.) ) 4.Z.}.MX7XBXtXBXBX1Xa.5.=.G Y U !  .!.1XtX5X5X8Xu.# 6 I P n.N t +.+.=XOX!.*.a.S I M H ; ^ P #XkXkXkX=XwX6X*X8.8.9.x.`.:X:X*X> > > = oX*XvX( E v : 8.Z.x.;XiXzXzXzXjXxX).].IXcXcX) _ Q B.V.kXVXnXH.G.#.#.J i.r.CXnX@X.XC #XOXL.Y.1Xv.m.K.a.n.6.&.! P ^ ..+.P P p.a.m.r.p.; % ; v b 6.5.OX#X4XQ.b.K.P.m.#XW.p.y.^ 2XW.nXtXW.a.v.r.G.! J I ; N y M .X4X.Xn.m.b 5.5.{.K.p.b b m H 0 8 U.kX6XbXkXMXt.6.MXPXPX` B > c ].%XiX3.) E P oX4XlXCXCXe.& 6 b A S A p p a p g g f r r u 6 I I S C > , = % O % % @ r r D Y s N t N P P : ; = % o % % p s S n 5 u p p s g D A p 8 - % % . . t -X-X-XjXPXPX).: : zX,XzXc.f.) 3.V.UXxXA.9.p.t.@XMXJXBX3Xy.*.O.F A d.mXZX1X4Xm G G +X8XH.Y.U.~ ^ v.W.v.I I A G Y.v.v.n G Y G ! !.tXOX3XI.@.w.e.5.9X8XOX<X<X8XmXeXtX8XBX4XtX7X3X XL.L.I.L.H.L.S !.v.H.L.0 n 5.bXeXy.0.6.=XCX6.5.b i b S M #X6X4XJXLXh.0.9.A.).|.*X;XHXPX:XxXV W / E.E.jXlXHXLXcXR B C DXzXPXxXv = O ,XGXgX,X:XqX*X8.3.^ b.Q.lXwXKXKXNXQ.M.e.*.*.U U  .O.5XyXuXtX5XtXCXCX6...O.! ~ 8 8 +.bXkXCXbX6XkXPXwXVX9.l.2.jXPXHXPX2.  + V.}.PXA.E.3.W 8.8.N.c.|.PXHXIXzXIXPXIXAXiX*XO . v Z *XPXIX9.9.3.6X4XZXKX$X5.w. . .L.CXKXL. X7X3X'.u.I.H ~ e.L.5X5.*.D e.s.Y.T.",
"m oXI.4X=XKX{.@X}.V.PXPXc.    0 > &XzXHX( _ q.jXUXgXxXwXlXPX4X*X> : = ).].IXSXS.q.8.( V h.oX{.I.OX7XBXCXtX1Xe.*.X.U Y G D *.XX~.9X5X!.yXv.; @ ! ! r.% 9 +.6.OXOXtXe.r.n S n m b 4.) {.eXOX4X4XMX6X*X2.( 8.[.}.*XvX:X> : : > |.}.jX2.W v v 8.).|.>X%XzX;XiXAXPXA.N.vXIXxX<./ R A.A.kXVXeXm.G.X.#.J i.r.CXnX$XQ.v 3XBXL.v.!.~.p.p.m.v.5...! I +.&.+.! ~ U.m.p.0.6.- - 0 8 0 ^ +.eX#X6Xm..X4X#XP.b.K.K.5.P rXrX4XKXv.r.a.v.H.J G 9 - 8 8 b K.$X#Xn.z.t y.y.#X4Xt.8 0 m b 0 ;  X=X3XMXJX{.y.7.KXKX>XV Z = l AXvXiXE ) E C |.6XMXKXKX6.y 9 i u a p A f f f f g f r 6 6 & ! ^ M M : = = O O o % @ s s s D p D M M H C = = = % - % % y y U Y p u s g p D D g u 6 ; ; - X X = eXwXVXvXIXjX%Xl v gX*XIXD.c.( 2.V.*X>XA.E.0.0.{.CXJXNX7Xv.*.X.Y D *.uXZXtXtXD S H OX9Xv.n..X^ &.a.G.v.! I S I 8XL.v.S S P I ..5XXXXX3XL.y.5.r.r.Y. X3XBX8X8XeX4X7X5XmX4XCX7X4XXXL.H.H.L.L.v.I v.v.L.+X9 9 e.4XeXz.z.y.=X6X6.5.i t b S M =XMXlXPXPX8.8.q.).A.%XDX;XPXHX>X:XZ W V x.}.PXLX:XPXLXR x W xXsX:XHXv l : gX%XSX>X[.*X*Xl.4.&.C.p.eXrXnXZXNX!.L.v.e.e.F A w.*.0XCXZXmXmXmXKX7XO.O... ...m m ! 3XeXCXbXbXMXHX=X6X2.l.3.cX:XPXPXE O = A.*XcXV.x.( E 3.8.l.A.|.PXjXDX:XIXPXDXjXvX,X+ O v : Z.PXPX2.2.7.wX6XZXKXXX5.*.U X.J.CXKXL.Y.3X3X7Xn.y.M H &.1X~.w.r.! s.d.Y.Y.",
"0 {.I.6X6XPX}.@XS.9.jX-Xx.v Z 2.3.iX`.|.E T 3.jXvXvXVX@X}.wX6XcXE Q Z ).].GXAX9.> > 2.8.P.6XPXJX7X7X5X+Xr.u.@.*.D P U *.5.J.tX<X5XKXv.e.6 6 b L.!.1Xy.&.8 8 ^ I.XX!.~.*.I G 8 M 8 m ^ Q.I.nX7X#XjXPX;XsXZ ) / PX6XoX: > v Z [.*XPX9.9.V.x.9.2.0.N.V.HXIXDXSX%XE T 1.iXxX`.B._ {.Z.lXlXwXv.G.o.o.J i.e.mXnX#X{.b +.O.!.~.~.rXtXmXXXI.y.5...Q ~ I N N M a.m.y.z.p.I ~ Q ~ P G ~ z.OXP.H ~ 0 m y.p.&..X.XC.$X=Xv.a.$X1X5X!.v.I O.G M N N M U. X$X6.5.M m.m.W..X&.8 0 m 0 Q I eX=X7XKXKX<.) / MX-XvXW W c > S.).jXx.h.3.( }.CXbXrX$Xi 6 n Y S u < < a f p r p D g 6 5 % N H v Z : > : = % o o X & @ p D Y Y Y N b > > > = = = o . o o N N 1 @ @ r s g p u u y 8 6 ; % % o M.x.LXcXvXPX;X_ ,.*X,X:XZ B     l.PXPXD.4.( +.z.6X6XBXBXXXe.*.{ U X.~.1XtXtX&.I I !.XXU.I.v.D G S S I A D e.*.+XXXXXn.5.5.^ Q I.t.8X8X8X8XbX7X7XNX8X7X<X X XU.H.U.H. XH.XX3X5XtX7X3X1X8XtXtX~.W.XXH.L.H H W.5XeX6.6.5.OX.X6.5.i 9 i S S 3XkX4XHXJX3.0.h.iXzXPXzXIXjXAX0.9.y ) %.[.Z.-XUXPX}.&XB.Z.A.`.;XPXPXv O = ].].PX8.4.H v &.3.m.4XkXKXCX7X+X!.e.e...U U *.*.<X~.mX9X9Xr.w.G.ZXKX8X7X*.I I ! I S ..+.eX#XPXKXlXMXMX-XV.V xXjXHXvX9.B V |.>XvXA.[.cXPX[.Z.q.].l.Z.x.vXPXGXcXIXPXvXGXS.l.l.8.>X|.Z.V C 8.jXwXCXCX~.*.*.I  .G.CXKXH.I.m.XXXX7XbX~ O.!.3X5X*.*.r.yX<XG.e.",
"v .X XbXeXJXZ.A.V V S.x.;XzXPXPXPXzX7.2.x v 8.jX*XgXjXZ.Q.oXJXJX|.>X].PXGXzX%XW k.q.|.*XHX=XkXNXKXmXtXv.! U D U U O.=.^.~.5XtXtXs.d.- 5 6 r.r.1X.Xv..X.XH M b O.^ XXNX5Xe.r.S P Q P - Q ^ {.OXOX6X|.cXxX>X( ( *XvXLXx.x.`.A.vXjXqXV.|.HXxX*X( W c.8.).[.|.AXIX|.>Xc.zX*XA.C._ {.[.lXkXwXv.G.o.o.J e.e.mXnX-X@XN - @ 5.&.L.e.y.Q.XXOX X3XbXtXMX7X.XW.P.eXeXOX6X=XK.Q.K.6XeX{.{.oX=X=X5.5.# # 6.{..Xm.Q.nXQ.4XnXnXtXm.n.L.Y.G ! I y b ~ +.4X$X!.P ^ 5.4X4Xp.y.G y 8 b 0 n.b.PXkXbX3XMXR 6.8.xX[.;Xc.].|.].GXgX>Xc.l.p.z.-XPXKXm.r.5 a p p 5 u i D f f p u g Y F p a # 8 b Z Z = O , , = : V &.W.~.2XuXuXrXwXm.p.) > : = : > = % % @ D D y * * D U g u 5 u a y 6 ; % ; . C M VXPXxX;XPXc.8.jXjXUXwX:X) V jXPX>X_ ( Z V 6.=X=XMXNX8Xe.w.o.X.U J.G.mXKXm.G S n.U.OX1XY. ...U G U X.@.~.J.+XmXtXtX=XrXJX^ I.'. XI.3Xy.5.5.e.OXm.j.5.u.9 # 4 m G u.y.v.y.a.n.n.y.&.+.O.O.a.e.r.P ^ 5.H.KXnX7X^ ~ +.4X4X5.5.b t i M H 6XJXNXPXPXB.Z.;XPXcX|.}.,.A.l.[.>X2.Q V Z.|.wXqXlXPXLXLXLX;X%X>XvXHXA.].].IXpXPXE ) W C b.C.eXCXJXtXmX!.u.u.@.*. .X.{ 2X<X9XmXBX@.*.G J O.U.!.CXKX8X5.! ! ! G i N 6.4.6XkXkXKXkXKXPXV.|.x.PXPXxXcX*XPXPXxXV.x.>X:XPXHX4._ W ].].>XgXvXzXcXDXjXPXPXPX6XxXPX_ _ V B 8.kXeXCXCX!.O.=.U ! v.KXKXL.I.5.^ XX7XbXI.n.r.v.J.0XyX~.s.s.Y.<X",
"b oX XkX6XJXC.V.B V V.l.*XcXDXxXPX&X4./ : : l.>X>XHXvXx.P.Z.PXJX).%X%XSXGX).].1.8.0.x.V.JX6X3XPXJX<X8Xu.X.X.U U D *.*.XX5XNX7XmXv.e.6 6 9 r.r.W.W.y.eX1XH S 0 ! O.5X1XXXy.r.n S H P t Q +.{. XCXlXHXcXHX[./ 2.*XoXKXV.c.A.V.cXHX*X[.[.cXjXcX( E h.9.|.;X%XSXzX,X%Xx.jXxXB.Z.( [.`.lXkXwXv.G.o.o.J i.e.mXbX-X@Xm - 8 I U +Xs.r.W. XXX X3X7X7XkX3XoX.X.X#X=X4XMXlXb.m.Q.MXMXoX4X4X.XQ.6.+.# % E {.-Xp.p.nX4X-X#X4XtXy.e.L.1X..! ..i t ^ +.$X.X.XP P 6.K.#Xy.v.H t i b ; H.M.bXNXJXJXMXQ 7.4.{.=XMX).].|.aXgXIX[.l.9.V.M.OXKXKX&.6.& P P D a f q q D f u p p a p S n & : y Z Z = = + , = v C &.Q.~.2X2X2X~.$XM.c.4.v Z = > O O + % @ g s r & * g D D 5 5 p n 9 - ; % ; # N b KXIXqX>XPXl.0.gX:X@X@XQ.( ) *XHXjX4./ B H 3.=X&XBXNX5Xu.d.o.o.J u.e.KXnX.XH P m.m.4XW.G.F U X. .K #.X.J.T.Y.mX4X=XrXnXNX+.K.XXy.H.8Xe.y.t.5.kX XH.6.O.G - 8 N H n.a.r.n.n.n.n.y.5.+.....a.a.5.G n r.H.4X$X6X^ ~ 4.7X#X&.5.n b b M M 6XMXbXDXJXZ.Z.jXxXIXZ.Z.,.V.l.|.*X8.E / [.C.-X-XHXxXPXPXPXA.>X%XIXiX].S.S.UXGXSX_ B ) &.b.M.4XKXKXmXNXL.y.u.#.@... .U <X9X9XCXBX .! ~ G ! U.I.KXeXXX*.*.! ~ ! t N ^ &.CXkXJXVXwXPXPXE.Z.}.cXPXcX|.*XPXPXjXx.x.cX*XLXPXA.Z E >X|.V.>XIXPXIXHXPXPXDXPXcXPXPX/ ) V B 8.kXkXCXCX!.O.*.!  .H.KXZXL.'.! +.8XJXBXU.m.m.n.v.mXZXJ.e.d.Y.J.",
"8 K.C.=X=XPXoX*X) ) jX6XHX;X|.}.`.c.9.7.Z : l.*X*XPXjX( ^ H kXjXiX>X).A.V._ 9.3.A.[.PXVXbXbXMX1X5Xu.v...U  .J A *.2XXXmX5X5Xy.*.; p 6 6 ..7XW.*.*.G K.4Xn.m.N t 6 ..! J.1XtXa.a.S H H 0 8 I Q oX-XHX[.:XPX*X|.9.3.jXb.Z.oXZ.LXxX2.v v [.>XvX2.x.= : 2.`.).cXjXSXGXjXIXLX<.4.Q b.P.kXlXrXv.J.o.o.J u.u.NXbX#X.Xv ..e.5.v.r.W.$XW..XoXK.I.I.K.{.K.6X6XeX#XOX6XbX6Xy.0.P.oXz.4.0.b.4X#XoX=Xb.z.~ {.V.wX}.Q.eXlXW.W.H.H.L.5.w.U  .! G H *.&.$XQ.W.M N m.!.4X+.&.8 t b S m eX=XnXKXCXb.I.z.PXKXPXPXsXPXGXSXIX>XIX0.1.2.Q.}.lXCXKXb P @ S i 6 & f f A K q 5 u 5 * & p N ; ; = > v v ,.f.).|.xX=XwXlXrXrXrXrXwXVXwXIXjX*X*X1.( l = O = % D s p p 5 g 5 D r 5 A A 6 & & ; % o y = Q.[.=XvXxX*X>Xq.8.KXwXHXPXPXjX:XvX*X[.3.+.7.{.P.dXNXNXF.G.-.*.D *.X.ZXmXZX~ P 6.6.VXnX!.G D @.@.D @.w.J.J.L.mXmX=X4XoX{.3XK.m.oX3XH # o +.+.=Xt.n.oXK.y.N G ^ ^ oX XC...G M b x 8 - - - 6 H ^ H. XKXnXI.m.{.M M +.MXMXO.5.M n b M M 4XbXbXMXLX;X}.HX:X;Xv v   c.c.PXlXV._ / A.Z.PXVXcXJXFX;X}.v / W zXIXSX>X%XvX>Xc.%.0.b.P.kXnX7XmXNX+XXXe.@.w.J #. .0X2XZXCXKX<Xw.4 9 y.r.~ +.G  X8XKXXXtX&.! ..H +.M 0 4.) lXJXVX6XjXPX*X*XZ.A.A.|.}.PXPX8.O O 3.q.PXvX}.= > _ / x.>X}.;XDXcXHXcXA.A.*X|.vX|.%XQ W 7.kXkXKXCX!.*.*.U { J.CXyXH.Y.H H U.n.n.bXCXL.y.5.O.U p p 6 G U ",
"0 C.K.#X6XMX}.;X/ / xXvXDX|.sXZ.A.B.f.2.Z v x.:X*XPXlX) / C KX=XsXzXV.V.l.2.) t.Q.Q.KXCXeXeXZX8X1Xa.u.*...D G G ! tX#XnXmXeX6.*.9 6 5 i ! XX7X^ &.M !.#Xv.H.H ; 9 I ..!.tX#Xa.v.N P n 0 8 P ^ .XlXlX@X=XcX*X-X3.9.*XZ.Z.}.|.cXcX) x v {.[.PX3.9.= : 2.[.A.cXsXcXzXLXcXjX3.0.H Z.M.eXyXtXG.F. .o.K u.e.NXmX+X XS O.&.y.z.6. XOX.X{..XI.b.{.n.C.K.OXCXNXW..XtXrXrX0.6.C.{.Q.3.y.C.4X{.6XoXy.z.5.z.b.:X|.|.wX-X4XK.L.a.J.e.e. .D X.G G *.&.~.~.K.M N K..X$X&.&.y i N G S bX6X7XbXKXC.n.C.PXPXLXPXDXLXAXIXHX;XAX4.3.( |.[.wXlXJXH H @ A D - 5 6 A p p A 4 u 6 X 6 S i i % ; > : : 3.8.A.[.jXjXDXgXUX@XwXjXqXUXcXgXcX,X%X1./ c , , > ; p N 9 A 6 u u i p 5 A A 4 6 & ; % = = : @X@X}.=XVX:X}.8.p.wXVXlXPXLXLXxX>X*X&X<.2.8.[.Z.zX6XCXJ.G.*.o.{ o.{ ZXmXmX^ ! 6.y.UXrXJ.G f @.e.f o.*.T.J.Y.mXrXeX$X@X=X4Xb.`.oX{.~   . 4.+.3XC.z.W.C.5.P H ^ ~ =XP.A._ ) M 0 m 0 - 8 0 - ^ P L.{.KXPXC.b.=Xb b 2.xXMX5.&.n M m M M =XkXMXJXMX}.|.LXsXiXZ : . l.l.HXPXx.( W x.Z.IXVXPXkXMX=XdXx ) / zXAXiX,XgXgXgXD.2.4.{.C.bX#XbX7XZXL.~.r.w.o.{ F o.2X9XCXmXZXZXJ i 4 r.y.I ! ..'.8XmX5XBX..&.S O...y H ..^ KXCX4XnXlXlX*XlXZ.Q.p.}.|.PXHX2.O O q.0.PXHX|.> = ( W V.*X*XxXjXHXxXHXA.[.[.}.HX[.[.Q _ 8.MXbXCXCX~.*.@. .{ J.ZXmXJ..XN P m.C.U.eXCX$X&.r.I U G ; 5 I G ",
"v Q.{.=X6XCX}.@Xz.x.LXPX[.v v l B }.;X>X/ C 3.*XjXLXPX0.^ - {.-XzXiXB x v 8.x.}.KX3XeXtXNXtX1Xw.e.*.@.J  ...e.5.tX4XeXeXnXp.8 P 6 y +.y.K.e.&.&...&.^ ^ ZXtX..i y & @ I .X!..XQ.5.r.! M M m 0 P oX}.kX-XMX6XHXcX>XE ) ) :XPX:XiXR + + 4.9.vXx.|.9.c.8.3.3.b.9.IXiXjXPXPX/ / V z.C.tXtX5XG.J.o.@.! u.u.JXNX8X+X~  XL.n.I.y.6.^ =X#XoX=XOX4X.X4X#X=XCXtXXX1XmXeXtXp.p.K.eXeX6X6XkXeXJXy.C.P.t.6XoXoXvXlX}.}.@X4XKXW.5X~.*.@.A f D *.@.XX<X7Xa.a.I ^ W.M.n.H P 8 b 8 e.6.bXBXNXLXJX7.0.6XFX6X( <.B |.`.iX>X2.8.V l.l.wX-XlXQ.Q.> = - D n u i p n p A S 4 i - X . . o ; b M x.Q.qXlXqXHXgXDXgXIXgXvXHXcX|.}.[.gXqXGXGXSXgXGXgX].9.,.H M b - ; & @ X u A u u 5 1 r u y > %     &.p.VXwXVXKXVX_ N 0.lXcXjXjXZ.:X*XPXHX>X{.8.t.x.>XjXMX+X/.e.w.#.{ F /.Y.CXv.a.&.+.kXKX1X*.@. . .F U { s.s.v.1XXX4X#X@X;Xc.P.z.P.;X0 B C z.t.P.z.Q.@X=XeXQ.Q.{.z.@X&XDXoX=Xh.b.y.m.y.L.I.!.NX7XNX4X#XoXkX3.+.> = 2.>X@X5.*.n b i S H 4X6XbXJXDXx.l.}.;X;X0.3.q.}.>XvXHX( &.( Z.Z.lXkXlXPXPX[.A.O , > AXSXIX8./ E W 3.A.Z.4XQ.NXKXCX~.H.e.e.X.K f w.i./.CX0XyXmX..*.G G ! 7XmX'.H w M S L.KX3XCXmX5.I n Q M y 0 y.rXrXKXkXJXPXHXp.0.) [.>XvXcXx.> > V.x.PXPX[.|.*X|.Z.( V.b.{.|.cXLXcXA.V.( / >XqXjX_ W 3.wXeXCXCX~.*.*.o.} T.ZXZXJ.L.t ; 6.n.m.Q.6.4XCXZX1XK.a.5.&.O...",
"v {.{.=X4XCX{.{.V.Z.vXKXl.  O v v jX;X;X) ( 3.cX:X|.6X}.cXP.HXsX|.>XR h.8.oX{.6XkXbXnXmXXXa.s. . .*.*.A ..*.mXBX1XtX4Xz.m.4.y.6.^ ~ p.a.W.P H $X1XK.^ P U.m.!.S P ..O.I *.O.rX2X2XrX5.M ~ b N N ~ ) 6X=XMX=X-XcXPX}.E E iX].>XxXV.Q _ *XjXDXl.l.DXcX`.( E x.9.N.).;X*XcX*X}.4.{.Q.nXtX0XG.T.@.o.U w.r.mXmX2X+X..r.H.8XOXQ r.0. XI.b.C.C. X=XnXtXy.H.H.7X5X~.w.r.P ~ +.n.p.K.t.+.H H p.6.P.6Xz.zXzX*X:X:XcXVXZ.K.H.~.a.v.Y.o.X.*.G.~.5XL.J.6 5 r.6.$Xr.6.b y ; b M bX3XMXbXkXoXC.B H xXcXHXE Q + h.c.AXPX8.0.T [.|.VXvXlX3.3.O # i D 9 n n p 6 6 6 6 @ # X 9 u ..P M.KX-XVX@XkXkXvXPXvXIXvXGX|.Z.C V C 9.0.|.].|.>X,XGXSXgX,XgXGXMX.Xb.^ 8 - X o @ 9 p p u r A p ; : : O . Z v *XcXwXcXPX0.7.l.KXcX|.Z.= > = |.jXcXcX7.2.8.V.*XCX+X2Xi.u.o.J F d.-.ZX2XtX6.+..XW.tXv.J.J A U a a e.d.U.4X4XeX#X{.Z.}.JXKX0.4.z.{.C.7.0.OXeX6X+.^ m.=XVXwX{.oX}.}.;X;XcXMXLXkXNXJXBXtX4X3XU.P.t.b.M.b : : = D.vXjX5.5.n 9 0 H Q 7XkXlXPXLX2./ 7.|.>X>XjXPXHXIX).A.: / ( Q.[.lXKXKXLXjX6XIX( c.c.HXiXzXZ Z 2.3.E.=XW.CXCXCXmXU.w.w...J  .-.@./.T.mXyXZXe.w.i n q XXY.1XI.8Xy.y.I 0 G  XL.8XnX5X+.6.I ~ ^ P i 6.0.4XVXwXlXJXMXJXx.A.V.vXPXHXA.V.HXHX*XcXA.HXvXjXPX9.( 4.B.c.}.xXvXHXxX>X*XPX>X:XW E 3.6X4XZXZXL.O.o.{ L J.ZXZXU.v.8 N N 6.&.1X!.y.L.v.H.m.!.ZXKXnXmX",
"0 {.{.oX=XCX{.Q.x.A.xXHXh.+ . : > iXjXxXQ V ) jXDX:X;X|.=XsXxXjXZ.`.C V.t.[.oXJXnXCXtXNX1Xr.d. . .*...G 5.*.tX8X5X4XrXb.b.6.z.5.! ! a.y.p.! G XX4X2X~ G U.s.Q.P n ~ ..P ..&.CX4XW..Xy.H +.n m 0 ) ) Q.C.lXwXlXHXvX:XE E :X:XxX;XZ./ ) }.zXxXA.Z.zXsXjX3.( t.x.V.N.AXvXjXcX*X4.{.{.nXmXtXG.T.*.o.J u.e.mXmX8X8X..H.u.3XOX^ n.z.C.m.b.C.K.eXKXNXZX&.!.J.1X+XrXv.y.P P ..y.r.K.n.&.M H M.z.{.@XK.wXjXjXzXlX6XwXQ. X.XK.G.XXY.@.o.*.G.!.L.~.~.S & v.a..X*.*.b y y P 0 =X#XeXbXPXP.P.Q E xX:XvXV T   B.c.jXPX9.l.V x.V.wXLXPX2.) + X S b & t i 9 9 i t 8 6 # @ i 8 I ^ M.lXKXKXUXwXwXlXUXHXIXPXiXV.k._ Q W D.8.].%X:XvX|.SX>XpX>XgXgXjXP.Z.&.- ;   . % ; 9 y 6 u A G ; = =   o y : KX@XVXVXKXp.l.2.:XKX}.[.= : > *X*XcXPX4.9.l.Z.}.PX1X0Xe.s.*.J { -.i.ZX<X5X..+..XW.4XH.XXY G D p u *.e.K.4XwXeX6X|.A.[.6X:X2.7.P.P.#X4.5.I.NXrX&.&.U.rX4XoX@X4XxXsX=X|.LXMXPX=XKXNXJX7XI.W.n.P.y.p.0.C v : = 9.*X;X&.5.n 9 8 H Q 7XbXbXPXPX) W 2.iXcXcXHXAXvXcX|.Q.: &.%.[.[.wXVXcXPXxXPXHX_ B.|.;XHX;Xv v / / Z.@XtXKXKXtXmXG.e.e. .U  .*.X.2X0XyXyXyXX.w.S n G L.OXH.'.3Xt.y.S ^ I !.8X7XtXtX....Q ~ ~ ~ t 5.5.lX6XMXHXVXJXVXZ.l.Z.PXPXxX[.).jXHXcXAXA.PXjXPXPXt.3.4.c.l.*XPX:XHXlX*XE.jX}.cX1.E 8.wX6XCXZXL...o.{ { ~.CXKXL.m.n 0 N t.4.#XnXr.U.m.Q..X4XCXmX7X5X",
"t {..X=X4XJX}.Q.4.4.&X[.V.0.9.*X*XcXV.x.V E f.;X%X;XdXLXxXLX&X;X<.9.+.=XkXJXnX4X4XnXXX8XG...O.G ! J S 5.mX8XKXtXPX6.n.; : b.4.6.&.5.Q.W.a.K.v.rX.X$XW.v.+.^ Q.U.K.v.a.v.^ y O.&.nXeXeX5.5.H M M C C W ^ oX6XwX|.@XPXjX-X) 3.HXcXHX[.|.PXHXZ.W B l.Z.MX9.c.> > 7.8.`.sXjX>XjX@X@XOXnXZXmXv.G.@.X.A F.e.mXNX<X5XG J S H m +.m.6.y.y.K.L.H.3X!.^ ..G w.*.~.~.~.s.G.^ I I n i b n - 5.6.z.Q.|.V.kXZ.Z.wX;XwXP.{.3X4X#X5.5.e.s.yXyXT.!.v.J.+XS 0 n W.K.U.^ ~ y : i &.&.KXKXnX-XPX_ ^ W ) MXcXMXx.|.c.iX*XiXsX7.B.8.jXvXMXHX{.y v = 0 b 8 0 N M # o . # o i b r.eX4XeXlXnXeXwXwXVXLXPXHX,X}.D.f.v = , = : Q 8.q.q.8.q.A.S.vXgXSXgXgXSXHX6XJXJX#XkXp.6.; - ; 9 y ; & ; t y v % = O   S.V.LXwXlX*XjXl.PXwX*X&XE B B *X}.vXjXv ( 3.V.l.=XZXmXs.F.-.U #. .L 0XZXKX6.&.b.z.CX5XmXe.a.G @...!.W.$X4X4X6XjX>XjXPX[.Q.:X6XK.{.C.K..XI.3X7X8XtXL.z.y.n.P.n.P.&XFXxXsX6X{..X=XkX8XOX3XeX7X7XC.b.oXM.8.> y x.wXwX&.*.n 0 0 H Q 4XMXkXPXPX4.4.c.PXxXvXcX>X|.Z.9.7.C %./ [.}.wXVXqX>X*XcXcX[.;X%XIXjXf./ 7.V.Q.lXCX5X0X0XJ.Y.*.X.*.X.{ X.9X0XyXNX9Xr.e.i S i n a.1X8X!  .5.BXLXH H 9 ! H I..X8XmXtX+.+.~ P N H t p.0.eXCXkXjX-XMX*X|.V.[.>XZ.*XPXAX*Xx.: 8.3.HX-XHX= v ) 2.c.}.Z.xXHXjX:XPXS.D.l C 3.6X6XCXKX~.*.*.X. ./.ZXNXm.v.P ~ #Xb.p.5.&.z.m.P.Q.OX.XK.m.K.U.",
"b .X.X=X4XMXQ.Q.3.) {.0.9.B.x.[.zX;XA.N.v v l.;XdX*X|.xXLXLX&X;X) +.6.#XkX6XeXmXmXKX5X8Xa. . ...! G S r.NX3X3XOXmXe.0.8 ; P.5.+.y.5.n.U.^ W.$XW.5XW.W.v...&.v..XK.a.6.m...! ^ ^ tX$XmXy.&.H M m m C C W oXHXMXoX;XcX*XHX9.x.jX;X*X*X|.cXcXZ./ / A.A.PXx.l.= : ( 2.).:X:XHXVX-X|.-XeXmXZXv.v.@.@.K F.u.mXmX1X1XG A M H b 5.B.z.4.+.m.!.!.4XXX..*.S 5.w.2X<XJ.G.!.U U  .n S y n t y.&.$X$Xx.Q..XA.}.VX6XMXK.{.6X#XNXy.w.y.a.ZX9Xa.L.~.OX+Xi H I !..Xv.~ P y ; y 5.6.lXJXlX=XPX) W ( 3.*XqX>X[.A.c.*XxXiX}.q.8.9.vX>XxXPXQ.v y = = b 8 v b v o # X = # H B b.6XkXMXlXVXKXwXkXlXHXjXIX*X%Xf.9.: > = : v _ 2.4.4.9.D.S.|.gX>X>X,XaXGXPXMXPXcXoX}.0.4.: # % ; y 8 - : t y : O O + # P.V.PX*X-XjXwX8.-X6XDX:X2.v C A.}.HXxXV ) ( x.l.MXKXNXT.J.-.U o.J X./.CXmX6.6.5.y.nXBX7Xa.G.i @.O.J.H.#XkXMXjXMXxX:XHXZ.*XjX|.C.{.K.{. XU.tXtXNX7XH.a.r.v.m.W.{.#XbXMXkXkXkX6X4X3XnX4XeX8X3X Xm.C.P.}.Z.- y 8.*XwX&.&.i 9 t H G 3XMXlXLXLX0.t.[.PXPXcXxX-X|.Z.l.l.Q W W Q.}.VXHX@XjX}.GXvX;XcXiX;XAX3.2.4.p.{.eXnXZXuXyXT.G.*.X.@.U U  .0X9X5XKX5X*.*.D i n n ~.5X8X#.O...NXJX..~ H ~ H !.n.ZXmXXX^ +.~ ~ P N 8 &.6.wXPXVXPXkXHX}.;XQ.-X:X*XV.zXPX`.&X: 8.3.HXvXLX: v / 4.0.[.}.PXHXcXvXPXZ.S.v v 3.kXeXNXZX~.*.@.{ { ~.mXBXH.H.4.4.=Xt.m.5.6.K.{.#XOX3X.Xn.b.W.Q.",
"b {.{.=X4XMXQ.}.= > P.[.xXHXLXvXiXA.( ) = : h.;X&XzXDX}.`.,._ W z.y.oXNXBX8X3XCX5X!.e.r.5.O.J U G *.e.+XNXNX7XLX5.b - v v +.z.C.y.6.m.Q.5.4X4X^ ~ 0 .X4XQ ..W.a.a.H.W.a.9 6 & 9 5.5.3X7XOXp.6.H P H b t ) Q.Q.VXjX@XVXjXwXcX) 3.<.{.}.HXjX4..   V W xX*X}.9.4.C C f.V.V.xX*X>XKXwX4XeXZXv.G.w.e.@.i.d.yXyXmXBXv.J 9 8 Q 0.z.`.C.H.XXmX1Xa.r.G I A ~.Y.w.*.T.0XT.X.*. .Y Y i 5 n #XrX=X4Xp.z.rX-XQ.=X}.{.~ ^ +.e.K.1XmXNX+X5X8X1Xe.*.A 4 b y.5..X.X6.P M i i b M.Z.wXkXVXlX-Xx.p.cXlXHXHXPXPXvXvXiXLX|.A.N.8.l.*XxXcXPX4.= = > = O .   X O ; ^ 2.P.}.JX=XMXwX=X-XwXwXVXPXLXjX[.l.9.9.c.c.N.3.( ) *XcXHXHXcXHXiX>X) 1.V ) ).pX%X,X[.*XvX:XcXcXHXPXcXZ.t.^ M 8 # % ; : y ; > o + C V wXKXLXcXlX|.wX6XPXHXjX*XvXLXxX*XjX8.2.( 8.9.-XmXtX1X~.e.#.@.J U s.CXmX1X!.^ P W.NXmX1XOX&.v.v.O.O.m.4XMXoX*X*X:Xx.qX:XV.:XZ.{.OXz.e.+.H.v.J.v.J S n 6 6 p.M.n.I.{. XK.MXMXVXkX4XI.U.W.#XbX7XMX#X#X=XE V 0.;XkXO.O.9 i i H H 4XMXMXLXMXb.x.;XjXvX2.W v 0.p.-XcX7.( &.Q.C.KXUXM._ 2.PXIXV.3.3.) / &.|.}.#X4XkXtXmXF.F.e.w.*.{ D U G.8XyXNXCXmX5.A 5 n ! O.O.5Xw.w.5.r...n.I.OX#X0 ; 9 n 9 !.tXmXKX7X5.&.~ Q H H b +.4X#XPXMXVXJXJXZ.3.E @X:XHXHXx.B.. B / HXPX*XA.t.3.9.9.V.x.V.A.vXPXIXD.x.V ` 3.cXlXnXmX!.@.X.X.X.2XZXCX!.I.y.t.oX6XOX5.5.t.K.C. XOX#XkXMXlXbX",
"m Q.{.4XkXCXoX-X6.4.cXjXvXV.}.x.l.[.S.A.C Z 0.iXsXLXLX/ <.Z 0.7.=XOXmX8X3XKXtX1Xy.e.*.*.U J G e.a.tXNXKXBX8X6.5.+.H ~ G ) z.5.R y.r.M.p.6.7X4X; ; t m.a.r.5.n.v.U.&.&.e.*.e.G P 6 y 5.4XeX.X3X5.M b H t v &.W =X-XMX-XlXjX-XcX*Xv B.Z.HXPXZ.v B V.Z.6XZ.oX*X*XDXsXh.3.3.A.[.xX=XlX#X=XmXm.J.y.a.*.U o.J.~.yXyXNXH.+Xb - 3.oX`.t.e.a.tX1XO.&.G G J J.T.J.G.d.<X0X*.w.J J U U P r.1XZXm..Xm.m.rX@X6XZ.P.-Xp.t.b 6 S !.L.J.H.1X!.e.q 8 m 0 G m.H.L.I.~ t ; ; M ~ JXVX:X-XPXPXb.-XwXHXvX[.q.3.x.A.DXx.h.l v 7.7.[.HXcXxXHXH .   O . > v E t.l.@XLXLX6XjXcXjXHXKXHXKXLXlXC.Q.v B ) vXxXPXLXPXLXPXsX;XA.Z.( ) ( [.%XAXgX>XE T 3.k.k.A.].%X%X}.HXjXjX*XxXxXPXKXwXQ.+.W - % .   o . O = - Q.lXwX:XVX|./ ( [.sXHXMXcXcXjX:XMX>Xl.V.B.9.z.nXnXZXyXF.*.*.J F -.mXuXmXmX*.&.P U.OX4XXXL.~.$X!.m.=X6X=X0.7.3.2.jX}.qXb.p.wX.X{. X8X .! A S S G 9 9 n S OX!.W.p.z.M M ^ .X#XJXPX3XK..X XW.+.Q {.4.4.v v 0.oXoXO...8 i b H H 6XkXJXKXHX[.`.LXxXvXv y   [.x.PXVX8.) 4.M.p.PXKXQ.E.E.IXgXZ.v > 2.2.V.wXoXKXKXeXJ.F.=.i.-.{ } o.*.yXY.9XCXmXr.w.e.r.H.G G mX1XH.y.r.JXKXn.! ! fXBX5.5.&.+.^ P .X$X7XCX.X.X~ P ^ H Q v p.y.kXJX4XKXMXMXPX0.9.x.PXvXcXsX9.;X*XPXHX>X|.xXPXPXl.2.0.V.|.[.|.PXzXPXN.V.3.MXMXNXZX1Xw.@.X. .<XyXBXm.u.+.) `.b.t.H B C.n.p.{.K.P.MX6Xt.y.",
"M P.#X4XkXMXoX=X3.3.xXcX:X}.A.x.9.[.Z.A.Z Z l.iXzXDXLX7./ V 3.7.OX X7XNXNX7XZX8Xr.5.*.O. .J F 5.r.NXCXNXbX8Xy.5.^ ^ G ^ ~ K.^ +.y.y.v.r.z.#XOX0 8 8 K.n.5.5.m.v.m.5.5.e.5.6.H I ; b &.4XnX#XOX6.i N M N H H ^ oXoXHX-X=XcXlX:XwXv A.x.PXPXA.v B A.V.:X}.&X&X>XvX;XV.( 4.|.A.>XkXwX4XOXCXL.L.u.r.o.o.} F.~.yXNXCXL. X; b <.&X|.7.5.H.1X5X..&.Y G U v.~.T.T.*.0X2X-.e.D J U I Y e.rXtXv.Q..XK.-X$X#XQ.Q.{.b.z.; y m  Xn.H.L.XX1Xw.8 8 6 S S v.W.n.W.I 0 y ; 8 ^ nXKX-XkXlXPXx.wXqXqXGX>X1.3.|.k.PXc.x.v v 3.3.>XcXPXzXxXB , + + + O C R 3.l.*XHXPXiXzXxXjXcXKXPXHXHXkX}.l.B Z ) MXDXPXLXPXLXPXxX>XA.Z.( ) 2.}.;XDXgX|.W ` 3.k.N.S.).].>X>X:XcX:XwXxXPXHXHX:XQ.&.Q O : . . O . + = > }.-XjXcXjX:X/ W ;X*XvXzXHX;XPXvXjXvXV.x.9.l.M.rXeXZXtXG.X.o.{ { { yXmXNXrXe.5.P .Xm.4X4XH.+X1XL.Q.3X.XMX5.+.0.q.,X-X=Xc.b.VXQ. XXX!.@.G G S n S 9 n G n L.W..Xy.m.t N +.{.{.PXCX7XM.W.6XoX+.G m.5.<.M v 8.oX4X..O.- i i H S eXNXbXPXLXA.A.HXsX>XZ :   |.9.PXVX3.%.) C.b.KXPX@XS.E.gXUX[.y ' &.^ .X@X#XKXKXeXv.d.;.;.*.o.{ -. .0XyX5XCXbXn.w.y.a.a.P ! XXtXn.y.u.JXNXn.^ I 7XBX5.5.&.O.O.I m.3XeXNX.X.X&.H P ^ I M 6.y.CXCXMXMXKXMXMXz.9.9.LXlXvXMX9.|.>XPXPX:X-X*XPXcXx.3.2.A.Z.;X}.cXIXGXV.A.9.xXlXNXJX1X5.*.X.U ~.CXBXn.{.H / P.C.6.H H C.b.z.I.K.oX3X3Xn.y.",
"~ Q.oX#X7XMXoXoXM.V.PXPX[.= + : B }.>XjX4.) 0.*X&XsXAXh.h.9.&X=XmXCXmX~.5XZXmX5.O.e...@.A e.d.KXKX8X1X<Xy.e.y.O.I.8XOX3X7XdX5.+.6.y..X!.U..XXXN t 8 K.W.L.W.3XH.U.r.r.v.!.rXK.v.K.v.I 6.5.eX6X3Xp.y.~ P M 8 8 W W oX6XkXcX:XMXVX-X8.2.}.*XLX`.|.cXjXjXx.V.[.}.xXPX;XV B 2.( |.xXcXVXVXwX3X4Xu.a.o.o.} F U G.J.5X8XKXU.n.H 5.7.y.r.U.1XtXy.r. .! G e.G.~.~.X.~.2X0X2XU X.F s.d.ZXs.a.$XW.Q.Q.p.$XwXM.K.4XoXW.~ ~ & e.u.1X5XL.a.I H H M H ^ I.OXp.6.b y b N M y.KXwXlXVXVXcXW @X|.PXqXW     W _ HX0.c.V E x.l.jXcXsX0.l.. v x ( / Z.cXjXPXHXHXxXsXcXHXPXPXjX[.V.V.x.A.[.*X[.[.P.MXHXV.x.c.3.oXLXHX|.V.+ +   E E iX>X>X>X[.PXgXzX).S.,.( 1.|.iX;X[.*XjX*XjXjXLXHXPXjX>X9.C v + .     p.cXMXVXHXjXB V `.Z.vXV.x.> > / 3.xX:X|.l.9.9.#X#XnXtXY.*.w.o.@.#./.~.uXmXW.~.t P H ..y.v.a.a.$X4Xm.t 0 > x x.b.@X=XlX:X=XkXU.I.7XBXG. .I G I I i i ..O.$XW.a.XX1XN b M 4.4.=XbX X5.5.6.M.U.K.m # - v C C.=XOX5.&.6 i b H H 7X7XkXLXJX0.4.V.x.A.[.[.[.cXcXlX*XB &.7.=X@XVXcXlXPXPXUXjXW 3.p.m.Q.nXKXeXtX4XM.e.i.-.o.L F =.2X0XCXtXmX~ H 5.5.OXH.~.e.*.tX+X5.KXBXNXBX3Xy.5. Xm.U.!.OX1X X! H n nX7XKXKX$X5.6.H P N M b 6.p.6XVX6XcXPXVX6X}.:X}.LXPX[.cXvXxX}._ 4.2.HXPX*XR B 3.2.c.9.*XzXgXHXPX;XPXDXMXBXL.@.*.@. .~.CXNXH.I.H v v M H K.I.b.5.4.=X8X=Xr.y.m ; ",
"6..X{.{.=XlXQ.P.b.Z.PXPX:X  . B l zX;XiX2.2.3.jX;XsXxXx.b.b.oXOXtXZXCXyXmX5X<X5.O.5. ...D T.e.tXyX9XBX Xy.&.6.5.U.8XBXOXdXI.t.n.y.5.K. XI..X Xb H 0 n.U.m.{.7XL.K.y.a.!.4X.XQ.$XL.Q.~ &.+.nXW.#Xy.6.N H N y t M C Q.6X6X-X@XPXPXMX/ 3.[.{.PX;XoX;XDXcXl.V.A.A.HXxX;Xv B 3.3.|.>X:XMXKXP.4X7Xe.r.@.o.=.D D a.G.KXCX3Xz.u.M y.7.t.p.H.+X5Xm.r.I D U J.J.~.~.O.L.^.uX!.U U U !.s.rXd.e.5XW.K..Xp.nXnXp.z..XXXK.^ H # &.a.K.OXW.I.+.b m m t 5..X3Xy.y.M 0 ; 0 0 n.kXKXPXVXkXlXW jXQ.PXHXW     4.8.jXl.z.P P l.c.xXPXPX9.8.. V v <._ [.:X;XcXcXxXxXcXHXcXDXLX:XV.V.*XZ.>X&X[.x.Z.&XHXDXx.C.9.z.xXDXJXb.M.  + . W T PX;X;XjX%XIX>XiXS.[.1.2.2.*X}.%X[.%X>X*X:X*XcXcXPX*XA.8.v v + O   . 3.PXKXHXLXcXH C h.t.sXx.P.= > c.3.xX}.[.9.8.8.wX-XZXmX+X*.-. .{ { J.Y.CXKX!.L.H C +.O.O.v.5.e.tXtXu.t - 0 ; {.}.|.|.-X4X=X#X.X.X7X5XL.! I A ! U A u O. .s.~.L.!.~.b b i Q ^ kX7XOX5.y.0.n.C.z.b # o H H P.oXoX.. .9 9 m H H #XMXKXPXPX3./ h.x.f.V.|.;XAXcX;X;XZ 2.&.[.wXHXwXHXvXPX}.qX4.b.4.M.m.W.KXKXNXBXn.u.-.=.{ { D w.<X<XKXKXKXS b 6.5.3XI.n.6.&.8X1Xe.mXNXOXmXKXy.O.n.I.$XXXW.OX$X+.n i 7X4XKXKXK.6.5.N ^ P b H y.p.6XkXVXPXPXVX-X6X=XcXPXLX|.jX;XvXcX+.2.( PXPXjXC Z ) ,.V.l.[.>XzXPXAXcXcXMXlXBXU.w.e.J U Y.KXKX+XU.M E o ~ ~ C.C.K.r.e. XL.3X5.5.b M ",
"Q.kX6X=X6XJXoXoXx.x.HX:XV.= = Z B SX;XzX) ) ( *X6XkXMX{.oX.XkX6X1X2XtXrXXXw.e.w.O.I U D e.uX2XCXNX1XXXv.a.a.OX7XXXm.n.Q G ~ +.5.m.p.W..XW.#X4XQ H H #XbX XI.oXn..X6.U I ^ ~ &.y.nXeXU.5.5.z.p.4X4X1X6.y.P t t : 0 4.P.oXcXjXwX@XjXMXjX2.2.x.&X`.xXHX[.: = = : `.;XPX7.( H v &.Q.|.kXVX4XbXCX XXXe.o.=.X.X. .! L.9XNXKXKXr.6.6.m.K.Q.!.W.L.L.y.y.i e.a.9X9XO.O.U 2X!.<XX.D A U v.a.s.n.z.m.m.v.m.K.z.y.y.H.W.!.3Xa.XXXXv.m.y.n.O.N N I N b.K.K.+.^ t v t ^ ~ 3XkX}.KXHXV.8.v -X-X:XIXZ.( ) :X}.:Xl.z.3.7.}.}.xXcXxX[.}.l.%X:XIXPXcXHXcXHXLXHXHXPXPXjX*X}.c.<.<.f.A.xXcXPXPXPXcX`.*X, : .   4.cXMXzXkXW 0 Z ) ,.;X>XcX;XAX%XPXIXIXvXD.9.3.A.c.V.}.|.*X*XcX:XvX>X-XcXxXPXjX6XB.9.B Z E *X;X>XjXPXV.b.|.}.KXA.A.+ + : B xX*X{.E V 8.Q.Q.eXnXtXu.s.=.o. .-.-.mXmX<XXX5.6 8 9 n J.G.L.G.d.9 % - +.+.=XoXoXwX=X.X.X XNXBXBX1X1Xu.a.....S n n U.<X<X~.e.1X5XI I b b M  XK.NXOX7X4X#XoX X- M ~ {.C.dXz.n.H G n i H Q ~ 3XkXbXDXPX) _ l.|.AXIXjXPXiX;X3.2.l 3.8.[.).*X>XPX,XZ.3.4.6.b.M.ZXKXCXCX5XH.m.5.@.*. .D -.*.<XKXKXXXW...; 8 H +.C.y.6.OXI.y.n.!.L.U.b 0 y.U.OXy.O. XK.M.!.!.^ ; - H H $X.XKXK.#X&.~ P N N N b z.PXKXCX6X=XVXKXQ.C._ / c.PXPX*XB.+ : Z :XjXHXx.8.2._ 0.N.A.).|.HXzXAX:XxXMXKXH.y.e.w.=.J.tXNXZXCXQ.I.t H Q  X4XkX!.OXmX+XI.I H 9 n ",
"4XbXeX=X=XMX}.@XV v [.[.V.[.%XiX`.LX`.[.: B 8.HXkXnXJXwXwXrXVXmXKXZXXXe.5.X.*.U n n v.s.yXyXuX5XrXI O.L.!.U.7XXXO.; i 0 S K.m.p.n.K.6XoXK.{.6X5.y.6.#XOXb.n.OX.Xv.4XrXr.G M y - P ..I.W.OX6.+.U.#XeXW..X&.H ! M b 8 Q W b.@X-XcX>XHXHXcXcX: / h.LXPX*XZ v : Z jXoXcX}.oX}.A.3.8.3.C.Z.MX=XkXMXmXJ.e.*.e.e.J G O.!.W.XX1XNXU.n.&.5.p.W.W.eXNX4XXX&.*.O.mXZX*.O.e.U U tXL.XXO.I D 5.a.O.5.r.5.+.t 6 a.Q.v.K.n.n.K.4XI.W.W.I.5.y.n.b v ^ ~ {.z.y.I H ; 0 v e.6.JXMXKXKXMX6.t.x.PXcXHXcXcXIXPXjX*XcXp.p.9.p.:XwXzXjXsXxXHXPXAXAXsXAXxXcXMXjX;XV.8.8.[.[.|.;X>X*X*XsX*XjXx.f.A.}.LXxXsX/ <.x R C.U.oXJXKXLXzXxX*X}.*XPXPXq.3., 8.f.zXPX}.|.:XIXDX*X>XW Q _ 9.l.|.*X;X:XoX:X:X:XKXPXHXHXA.HXcXjX-XLX}.>XA.`.jXjXPX[.>X*XA.cXZ.|.V v 4.x.x.rXnXmXG.J.*.-.#.{ J 0XyXyXCXa.M M ^ ^ J.J.d.0XtX..! I 3XW.+.&.z.-XQ.z.z.y.W.!.W.L.7X~.XX..J I y.a.mX~.*.*.w.W.~.G I S n S +XOXnXy.6.K.m.+.+.~ OX XBXOXI.I ^ 0 n S i b I ~ 6XMXMXJXPX7.0.*XIXsX*XSXq.|.`.iX|.E ) ( Z.}.PXcXl.v v 4.6.C.nXKX1X4X1Xs.a.O.&.O.J G X.*.yXmXKXtX1X5.e.m O.5.y.z.{.y.5.#X#X5.6.4XI ! 6 0 y.1X1X+...8XU.a.H.U.6...5.M M M ^ W.CXeX@X4X6.P I I M N 6.y.lXPXJXPXVXMXPX( _ 9.PXPXvXcX) x.V.PXcXcXcXcXHXIXk.l.l.[.S.A.%XPXcXJXJXJXn.@.X.*.o.w.T.~.mXKXnXnXK.C b Q.m.5.5.O.<XtXv.A I ! ! ",
"4X4X6XoX.XkXQ.oX^ v *XoXx.*X}.|.>XiXA.>Xv Z 7.*XwXlXnXrX4X$X4X4XZXZXW.=.*.=.*.U D G s.L.2XrXZX4X1Xy.*.s.+XXX5X7X5.- ; S M U.m.n.H. X3X X{.P.oXy.y.y.K..XI.C.K.m.W.2XrXp.n n & 6 ~ ^ v.eXOXr.5.n.W.$XrX4X6.H ~ b H 8 W ) Z.oX6XVXsXHXxXcXcXV 8.) PXxX|.Z v B V *XzXMXsX[.A.V.3.3.3.S.l.PX4XkXPXKXH.e.X.@.*.U ..I !.!.5XW.ZXv.H.5.5.6. X.XCXCXnX#X5.! ! eXtXv.....O.*.yXXXv...^ ! 6.r.r.5.e.y.~ m H K.n.p.M.n.z.m.bXW..XI.m.r.y.u.8 8 4.4.OXy.6.H G 8 0 8 y.z.bXkXkXwXKX0.4.}.cXPXcXjXHXPXPX*X*X,X0.3.0.0.}.jXvXvXzXxXIXHXIXjXsXiXHXHXPXjX>XA.8.8.P.{.*X6XvXzXjXjX;XcXB.B.).c.DXDXLX/ +.m v B.}.oXPXjXcXPX*X[.|.}.zXAX8.9.> 9.f.IXvX}.}.jXHXPX>X*X2.W W 8.9.[.*X*X*X&XxXHXvXPXLXxXzXZ.6X:XvXzXKX>XvXx.[.zXKXcX|.[.x.P.xX`.A.v v 4.p.z.rXrXCXT.Y.o.o.} J J 0X2XyXyXr.b y U D *.G.T.2X<XJ U G I.8X4.5.z.4X.Xm.K.M.K.W.!.!.1XL.J...I i *.y.rXyXw.=.r.1X2XP Y S G H '.XX.X+.+.K.{.+.^ H #X=XdXBXm.H H 8 i n 9 6 ! ^ lX6X6XcXKX0.h.;XcXPX>X|.l.).*X).[.Q ( 7.}.V.PXPXc.0 M 6.6.W.CXZXrXyXmXv.H.w.5.O.S S 5.e.tXtXmX1XmX..+.~ 5.<.n.n. XO.e.OX#Xy.+.OX..^ t 0 &.1XXX..+.XXn.a.I.H.r...O.S S P M .XCXCXeX4X5.H S t M N n.K.KXCX6XKXCXJXlXE W 8.KXPXxX:X( l.V.PXPXvXvX:XPXPXx.N.1.].%X|.>XIXLXJXNXJXH.@.O.=.*.i.T.~.ZXnXnX7XW.8 N n.U.z.O.5.XXyXL.! ! ! S ",
"MX6XkX6X=XKX@X6X0 > `.|.;XPXPXHXDXiXf.c.> : 8.wX#X-XrXrXrXyXnXnXW.W.a.*.-.U U U s.s.5XmXtX1X$XY D H.v.a.$XXX5.6.- - m L.J.y.! ~ 7X7X#XOXeXW.W.C. XI.n.b.K.Q..X4X#XX...m.L.$Xb n 9 9 ^ Q.m.U.K.y.n.v.nXrXm.&.5.S C 0 : - H Q P.oXPX*X-XPXPXA.3.3.}.|.LXx.V.*X[.HXjX{.Z.{.HXPX*X3.2.0.3.}.=X=X=X3XZX~.J.w.*.w.e.U U ! #X~.KXrXrXr.0.P ) Q 4.5.b.C..X5.&.K.m.4Xn.y.y.e.L.!.!.$XW...I H ! A S J 8 i & M i r.H.Q.W.m.m.n.H.y.e.8X8XOXG G m.z.OX6.5.v t ; M H OX4XBXNXKX}.}.0.p.PXwXwXZ.*X>XqX>X}.|.2.( &.Z.Q.cXKXlXjXAXxXAXzXHXAXPXLXjX-X6Xc.p.3.2.4.}.;XjXcXkXjXcXHXPXN..   l Z >XDXFXsXFX6XFXPXt.0.3.7.P.HX-X-X:X;XLXIX4.( + _ / HXPX:X@Xl.S.@XcXPX[.p.0.C.h.V.B.l.[.A.:X%X&X;X:XjXcXxXAXcXHXcXDXjXzX3.3.A.jXjXHXHXLXHXPXHXPX|.[.9.&.3.oX.XCX<X0Xw.-.o.J A T.G.yXmX1XG i =.=.e.o.U yX9XJ.+XL.+XXXy.y.p.Q.I.v.K.L.m.H.H.m.e.^ ! n n y.rX$X~.H.D Y /.G.J.u n I w.y.NXOX3X4X.Xn.y.M G K.BX3XU.U.~ M M S H S n b y.6.KXbXbXPXPXV.V.DXAXzXZ v O ).N.SXPX0.2.) A.Z.PXPXc./ +.C.M.ZXtXXXZXuX<X=.O.! O.I ..O.4XrXKXKX4Xy.r.y.m.bXbX7XbX#XK.y.5.n.K.8X#XBXO.O.0 9 &.tXyX.X$XeXu.y.L.L.eX5XtX#X#X6.&.^ 4X@XCXKXQ.^ O.^ ^ 8 8 0 p.M.wXbXkXPXPXPXPXV.|.[.cXPX-XcX6XPXHXx.9.l.xX>XGXPX) ,.,.c.V.%XDXxXBXKX3Xr.u.-.-.o.*.@.~.XXCXCXnXm.m.^ +..XH.H.H.G.Y.O. .G S ",
"lX@X4X=X;XKXoX;X: v Z.V.HXPXPXjXcXiXf.8.: : 7.-X-XwX4XrXyXmXuXuX^.~.d.=.*.U U G G.G.yXtXrX$XmXG U U.K.L.~.XXy.5.& 9 ; Y.5XO...&.bXbX=XOX4Xt.n.#XW..Xz.n.W.Q.Q.4X4X^ ..Q.W.eX8 i 9 y +.U.M.W.3X! M.r.CXrXW.6.5.t b M ; : P H 6XoXMXoXzXKXLXPXH 2.|.|.PXx.9.*X*XHXMX;XZ.[.xXjXvX3.+.3.3.l.zXMX=X6XKXH.+Xw.@.e.5.U O.D XXW.5XCXyXy.y.v Q ~ 6.&.b.K.#X+.+.K.n.eXa.p.a.v.~.H.K.$X7XO.! G G J J n 6 i n i 9 L.a.r.L.K.W.n.n.y.5.3X1X3XM H n.t.K.6.6.0 b 0 S S  X7X7XPXKX{.K.b.z.PX-XcX|.*X[.cX>X*X)./ &.&.P.A.-XVXlXHXcXHXjXzXiXAXPXPXjX6XjXt.0.3.4.3.[.*XVXPXVXwXxXPXPXl.. + v x |.DXLXMXDXMXFXLXt.0.) 9.*X-X-X:XvX}.HXPX,.3.. ( E IXUX>X:XD.Z.*XPXPX}.l.9.A.9.b.V.z.V.x.xX*XcX*X;XjXiXAX:XxXcX:XcXPXLX8.( A.:X:XPXHXDXDXHXHX:X*XvX2.2.8.@XW.mXXX5X*.-.@.U K G.u.yXmX5Xn p X. .5. .@.<X5X<XG.H.!.L.n.n.a.I.$XK.K.!.m.v.m.H.5.! P M N 6.rX~.Q.~.U D /.^.~.u p I r.w.8XBXH.XXXXz.n.H m  X3XBX XU.b m 0 n n b S n M.y.NXeXwXPXHXB.N.HXxXAXB T   `.A.SXiXq.q.4.).).LXIX).) H OXI.NX1XyXyXyX^.*.*.O.5.S 5.5.MXeXbXKX7Xy.6.n.m.bX4XbX=XJXU.+.+.!.K. X3XBX&.5.6 9 5.7X1X1X.X5Xe.y.!.W.ZX4X XeX.Xy.5.~ rXwXnXrX4X+.O.H P M N t n.z.KXeX-XKXPXHXPXV.{.}.PXPX|.xX:XPXcXA.x.x.vXjXPXPXW ,.,.).A.Z.LXxXMXLXBXu.a.-.;.o.o. .!.~.KXZXrXm.z.&.&.K.v.a.L.H.XX..*.G S ",
"V.*X*XzX*XMX{.}.x.V.HX>XqX3.l.3.3.A.Z.;XW B 9.:X4XCXnXrXuXuX/./.i.-.=.*.*.D F G.ZXtXyXtX2XS G P ~ Q.m.K.L.~.- 6 5 *.*.u.~.L.<X~.+.^ N H K.C.C..X.X.Xn.m.{.=X~ ^ ..!.5X+.OX1X&.e.- - 0 p.m.p.p.n.M 8 p.0.eX{.6X4.6.v N H ; m M M #XkX-XoX6XJX;X=X8.0.}.xXjX>X*XjXcX( = > x.x.cXl.l.: = V.l.A.:XkXeXeXeX5X1X*.*.5...U O.U J.yXNXyXKX5.# ; 0 0 K.n.K.=XOX+.H MXOX7X$X1Xr.m.m.5XtXe.! I H H S S G 6 - y.r.XXL.v.5.y.S ~ ....O.6...n.m.z.I.K.P.P H b 0 H I &.NXZXeXKXJX8.3.{.{.PXA.l.+ + E >X:XS.].Z l.c.:X*XzXMXcXHXHXHXKXvXxXsX) 8.V @XwX-XPXVXVXcXcXvXZ.D.C S.A.zXjXzX_ ) l.c.;X&X:X-XxX;X=XC./ / ) / [.8.8.V B 9.IXHXjXHX3.[.c.PXPXx.Z., V C cXvX>X:X;XPXPXHXq.9.B Q 3.A.A.|.[.:X*X6XjXxXjXHX-XDXcX>X;X4.vXjXsX6X3.9.W Z.{.cXcXA.3.9.A.Q.6XrXtXH.G.@.J { #.@.yXyXNX..w.! ! v.Y.L.! ..e.J.s.Y.!.9X1X!.S G ..! ..O.5...O.S n M a.y.ZXQ.~.d.d.O. .0Xr.e.G  .J.L.7XL.#XI.y.m.+.5.8X XbXu.n.! P t M M P i P H.v.KXCXbXMXMXPXKX9.3.DX*XsXC C Z [.[.zXGX3.1.,.[.[.HXHX}.C.P.LXmXBXyXyXJ.d.-.X.-.G G 5.mX6XPXKXoX6XK.OX{. XI.OX5.6.m b ^ 1XK.K.n.W.{.bXr.r.N 0 .XKXnXbXbXm.M.m.6.4.N 6.5.#X@XkXMXb.6.6.OX#XKX XQ.+.^ N b t C y p.bXKXeXkXbX6XJXC.P.t.t.x.MXjXcXcX: = O }.[.MXPXN.B B f.f.A.pX;XxXMXlXOXmXw.F.i.o.X.o.*.J.Y.ZXmXKXW.{.b.eXrXa.~.~.$X5XO.&.",
"A.&X}.cXjXHX[.|.l.l.HXHXHX3.8.4.( *X[.[.W E 8.-X=XnXtXrXyXuX/./.e.e.o.=.o.U U u.mX9XtXmX#XM M ^ ^ y.a.OXH.v.i - 4 @...J.s.L.L.mX+.+.P H z.{.Q.OXOX=X{. XK.{.~ ..O.8X3X5. X.Xv.5.; ; - z.z.p.p.n.0 C 5.t.KX=Xb.4.+.H N C 8 t b ~ {.lX4X4XkXJX=X{.6.x.A.sX*X>X;XDX:X2.O > V.V.PXl.2.v : 8.[.Z.*XcXeXZXtX!.L.5.&.! ..! I  .u.mXmXKXmXa.% - H H z.z.OXoX{.E +.MXMXoX.XL.6.n.L.5X7X5.^ ..! ! S i n 6 6 5.5.1XL.XX5.5.G ! U ....*...U.p.b.{. XK.P C b v 0 ^ 5.tXZX5XnXPXt.3.}.P.MXx.l.O O E ,X>XS.E.V l.l.:XxXcX6XzXxXPXcXDXHXxXjX3.&.Q #X|.VXlXJXjXcXjXvXA.A.V c.c.zXvXiX( _ 8.S.iX}.*X}.*X6XjXP.+.Q ( ( N.4.3.V B 2.lXHXLXjX8.x.c.PXPX].Z.O B B cXDXvX*X;XLXcXIX9.8.E W 2.9.x.Z.*XvX6XcXvXjX:XvXjXHXcX*X}.8.>X-X>X;X9.l.H [.[.HXHXA.q.q.V.Q.JXCXtXr.v.@.{ #.{ #.9XyXmX5.5.~ I I.!.!.^ ..y.L.G.Y.T.0XtXm.H P S I 5.@.*.O.@.H H n y.r.KXK.J.a.y.....8Xw.5.I I Y.1X3X+X X Xu.w.y.O.L.1X7Xn.m.I M p P S G p ^ m.v.lXlXeX6X6XLXPXh.9.cXiX*XV B v |.,XAXGX( 3.4.].[.IXHX>XZ.`.JXNXyX2X0XJ.T.o.o.@.F G y..XNXJXJXMX6Xn.K.=X=X X X5.O.G G ..OXK.{.K.#X#X#Xy.y.b b 7XnXnXMX7XK.Q.P.+.+./ 6.5.3X#XeX=Xb.6.0.oXW.KX4XeX~ ~ P 0 8 0 N z.PXCXbX6XbXNXKXn.C.b.b.0.cXjXcXHXv = + |.{.JXPX).V Z ,.g.k.%X>XjXDXPXcX4XJ.F.-.o.o.#.o.T.J.CXKXtX4XOXh.oXoX$XH.K.tXrX&.^ ",
"q.[.}.AXjXcX[.*X}.Z.PXxXV.O + O O }.xX>X2.W 7.lX-XnXnXrXuX~.F.d.e.e. .X.o.s.T.uX2XKX7X4XS & b W.I.n.m.1X..I I A @.<XJ.G.*.<X*. .; 0 0 : ~ {.Q.{.K.I.I.K.4.+.8 t - 5.~ H.p.v.!..XI +.y +.+.$X4Xm.p.6.; 0 p.eXOX6X$X6.% 8 H P ; % Q P.OXMX4X6XlXVXkX;X) E ) *XiXxXvXE   + 9.A.PXV.|.|.V.9.9.3.V.V.@XVXnX4XtX1XXXv.e.e.X.*.X.J.G.9XNXNXe.&.O.&.P.=Xy.7XPXM ; Q oX{.CXtXOX1X1X!.J.! i S n n m m ! 5.r.1X1XmXr.v.G S 6 9 - i ; q 6 O. XOXoX{.y.M b m S b K.{.NXKXnX7X{.C v c.x.vXx.9.= > 3.cXPX}.|.1.Z.Z.>XjXxXxXPX-XZ.x.l.Z.V.[.B.l.P.6X6X=XHX@XcX>XPXIXD.3.O ` _ |.iXAXAXHXPXHX;X8.) C v V ) 6.P.}.vXgXvXA.V.) W W V.A.:XjXUXvX,XPXUX*X}.v W / vXHXqX9.x.x.l.PX>X*XV.x.}.Z.[.9.9.2.7.V.}.6XxX>X6XvXcXcXLX>XHXxXvXcXR E O 9.h.DXPXx.q.1.D.9.wXMXKXL.L.*.o.@.F F T.^.yXJ.s.e.w.7XI.L.L.I.H.v.u.Y.G.H.U.p...&.! ! ! n S n A G v.H.eXrX.X.X4XH.v.XXXX5X5.w.Y.!.8XXXn.w.O.H S ~ 8X7XBX8Xu.^ ..i i i G p G P v.tXnXKXVXlXMXlXPXPX_ E 9.B.`.|.>XHXzXGXN.%XB 4.3.].[.HXHXjXzX6XKXKX8XG.F.-.-.J L U e.u.tXPXJX=X Xz.z. X6XOXm.y.G 8 ; 5.n.U.m.I.5X.XI.K..X7XOX+.O.rXm.K..XW.bX=XMX7X=X6.- - b P b.P.NX{.r.y.0.NX3X7XOX{.^ H P 0 b C z.p.nXMXkXbXKXJX6X+.^ ^ HXcXHXxXQ C Z >X-XkXsXjXjXgX].S.c.S.S.}.|.lXlXrXXX~.s.e.i.o. .o. .~.tX7XKXKXC.5.^ p.r.!.eX$X.X2X",
"( |.|.;X%XzX*X:Xl.l.HXHXQ.v v / W xX;X).) _ 3.}.wXCXnXuX0XJ.-.=.U =.*.G.T.yXyXyXXX~.i I # 5.+.K.U.6.e.L.~ O.mXZXu.r.e.r.a.1X..! b m H H ^ 3X{.W..XOX7X4X5.+.t b 9 ..G !...H 6.v.4XeX5.P M rX#X6.P.Q.C b ; 0.m.4XkX4X5.&.M 8 ; t - P P Q.=X6XkX=XMXPX{.E W oX:XHXPXx.l.9.*X|.>X>X[.>XHX*X8.2.x.3.Z.#X4XbXCX4X$XW.*.r.@.e.J O.X.L.v.tXKXKXz.n.OX XOX5.4.0 H v b.I.n.H.3XtXtXL.~.y.r.a.5.&.5.5.U.eX1XmXtXH.9 i ; n S  .! r.r.XXXXKX#X=Xm.n.) M v m t H CXCXeX3XNXK.C.9.x.PX;XLXxXPXvX*XvXHXjXS.x.q.[.;XcXcXcXxX;XB E 4.9.sXxXMXHXHXlXwXwXV P O x.A.xXIX;XAXc.,X|.vX|.A.%X[.V.x.9.W W 2.0.Z.M.M.=X{.:XlXvXjXIX:XcX*X9.p.A.c.p.W W Z.}.PXPX>X*X}.cXvX|.v =     A.cXPX|.}.PXDXHXx.l.Q E 4.8.l.V.b.*XxXjXjXxXxXxXxXsXsXLXMX0.>X|.cXHXQ v Z 9.9.6XkXCX.X<Xe.@.@.K K i.-.mXyX<XJ.G.L.*.O.^ ..H 8 i e.r.e.n.W.&...+.^ J ....I S ..5X$X$XU.Q.tXmXU.a.3XXXr.L.m.NXbX5.i m 0 9 I 7XbX<XL.I.m.I - 9 p P S I P $XW.mXnXVXrXeXVX@X-XPXPXQ ) Z.PXPXIXIXiXLXzX8.4.: ( 3.[.|.xXjXzXLXMXNXtXL.w.*.{ { { w.-.CX8X7X7XeX4.5.{.=X7X{.I.M G N ..O.CX3Xy.!.OXnXNXnX4XM.m.4XI..X4Xm.U.3X7X4XOX{.6.n.4X+.+.v : b v I.OXOXQ.b.6.=XNXbXPXK.Q Q t S - b N p.y.NXKXMXnXPXbXeX0.Z.}.PXPX:X:X%XPXLXHXvXZ.zXvXSXIXq.q.f.N.9.*XKXPXKXCX<X5.-.*.-.=.o.*.!.+XNXKXKXy.z.b 8 I 6.5.eXeX",
"R }.).%X%XHXjX>XV.V.IXwXA.Q C Q E }.jXjXW V 9.wX-XnXnXyXuXJ.=.=.=.=.-.J.J.9XmXmX<XXXI H X ~ ~ m.K.m.p.L.^ O.mXmXY.w.w.e.e.+XU ..S b H S Q  XU.m.K.K.3X3X&.+.v t 9 ! &.m...~ a.e.eXOXU.~ P #XK.p.b.I.N M - +.p.CXnXOX) ^ ; 0 v t - H ~ 6X=XOXwXJXcXHXMXQ W B.`.LX:XA.x.9.[.[.cX*XvXcX*XjX9.8.8.7.b.#X4XCXCXrX4X$Xe.a.5.e...! X.s.~.mXZX7Xy.n.L.m.OX5.+.M B ; 0.m.n.U.BXNX7Xm.U.y.5.5...&.u.u.U.OXtX<X5Xw.i 9 9 i n ....r.u.<X+XOX7X4Xb.z.^ H 0 8 ; &.KXKX3XOXKXt.b.l.c.MXcXPXPXvX>X>XHXxXgXS.9.9.*XsXHXMXDXcX>XB B 3.8.-XLXHXLXPXKXJXcXP B = V.Z.PXPXgX%XA.%X,X].AXA.*X|.Q.l.7.Q W 6.p.b.t.b.wX@X:XUXvXUXLXjXLX*X0.9.p.c.7.V E }.A.PXHXIX|.>X:XvX>XZ : . . Z.cXxX[.[.xXcXcXB.V./ W 3.8.h.x.V.*XHXzX6X}.:XcXLXHXcXsX6XV.[.&XvXKXV v B l.l.*XwXbX#X7Xy.@.*.J U @.} yXyX9X~.XXy...+.Q ^ S 0 b 5.y.m.y.W.w...! ! I O.G S S ! 1X!.XX.XQ.rXrXXXW.1X3Xv.U. X8XNXH.- - ; 4 ! <XtXI.7XW.v.I t i b b y G G U.Q.VXnXKXwX6XCXkXzXPXHXE _ x.DXLXPXAXIX|.;X_ 2.Z ( 4.,X}.:X-XMXKXPXeX3XL.u.e.o.} } u.w.yX5XKX#X3X+.&.#X=X6Xm.W.H n 0 5.&.eX!.y.$X.X.X3XeX4XL.K.H.3XbXW..XW..X.XOXrX#Xy.y..X^ ~ M v b 8 m.3X$XC.U.M 4XbXCXKXQ.Q ~ 0 M b m C 5.&.MXJXbXbXPXPXJXt.*X@XPXcXcX*X*XvXlX6XHX9.IXgXIXLXq.q.f.c.7.*XHXkXeXbX1Xe.5.@.w.@.X.U J.~.CXNXKXa.Q.: y ; 6.6.nXrX",
". N.%XcXjXAX>X>XW E D.p.Q.@X-XwXPXxXV.x.y v 0.}.-XeXrXyXuXG.=.=.U U s.uXyXmXmX~.I I *.5.&.~ P 5.6.P.I.OX! ! +X9X*. .! O.O.NX&.^ H v N M +.#X4X3XW.W.7X7X6.5.m b i O.O.7X+.+.n 9 6.y.z.H H #X#X$XOXOXb M ~ M 0 6.t.OX#XeX+.~ v ; y ; = m.OXkX=X=XlX;XPX[.*X[.c.%XvXPXA.}.PXHXvX> : [.Z.cXE.V.v > &.P.Q..XOXeXnXrX XJ.w.5.*.U ! ..! L.tXtXZXNXU.K.m H G ; ; 4.6XK.K.H.3XbXtX8X7XXXNXnXXX1XeX7XeX7X X5.5.J ! ..5.&.!.tX7XmXBXKXmX+X+.+.N H b M b b t n.eXbXkXnXPXb.P.zXxXHXjX[.*X}.HXUXxXl.0.4.%.l.vX;XvXxXcXHXPXsX>X:XA.*X[.V.V.V.zXzXKX_ ) = l.3.A.|.;XgXIXLXIX).V.B v v ) 3.A.S.x.Q.{.P.P.#XnX-X-XwXwXlXlXwXHX@XPXHX-XkXZ.2.E 9.9.>X|.vXx.[.>XxXUX2.2.V V jXPXxX) ) 0.-XxX:XMXZ.|.>X:XoXl.9.W ( 0.Z.[.*X:X>XjXzXMXHXcXsXPXPXPX8.: : ) ( b.cXKXKXNXs.O.*.X.o.#.J 2XyXyX9XmXy.@.5.~ ~ ~ ~ H G Q m.K.2XtX5Xy.w...S S n 9 m v.p.K.K.W.VXZX4X.Xy.6.S JXKXr.r.I.m m 6.5.NXKXmXa.v.n P t S D b t ^ W..XKXnXnXQ.{.z.m.kXMXcXHXLXh.x.:XPXsXf.8.T A.).|.,X,.3.4.*XoX6XjXJXkXbXH.n.5.X. .F {  .0XmXmXtXtX~ ~ +.5.7XbXMX5.H i 6 b  XL.$XXX1Xe.5.^ ! ..5.W.4XI.tX4Xa.W.W.y.5.+.t.n.Q.K.{.m.=X8 t 0 ; 4.6XeX=XnX^ y.&.rXnX6XOX#X^ H H v 0 t N y.M.7XPXPXbXCX6Xb.p.[.[.}.[.:XPXPX9.2.+ ).%XPXAXc._ E f.9.V.}.-XkXkXKX7X3Xr.r.w.s.X. .U <X2XZXmXeXp.M.i M.6.p.p.",
"  c.[.DXcXzX*XjX_ P 8.q.A.kXlXlX>X*Xx.V.v v 0.:X-XrXrXyXuXs.o.o.} U T.0XmXyXCXJ.O.I *.^ &.N P 0.t.{.#XnX^ O.H.<Xr.G G O.*.XX^ ..H M n m 5..X3XK.L.I.1X4Xy.e.b 0 8 5.! mX..&.b S y.m.6.H M $XrXW.Q.I.S 0 P ; m 5.5.=X4X.X^ ..0 b ; - 0 C.P.MXwXJXjX6XPX-X|.l.V.*X|.xX*X*XPXPX>Xv > >X*XPX[.[.v : 6.{.Q.OXOXkXNXCX XJ.&.5.*.! ! I O.L.mX1XNX8Xa.U.H 0 b 0 ; +.K.{. XU. X8X3XBX7X+X7X8X X3X8X7XbXXX1Xw.J i I I 5.5.~.8X7XtXmXtXmXI.5.5.P H v t b v M Q.=X6XMXKXkXb.A.vXsXzXPX[.*X}.:XcXHX8.8.q.) x.vX*XHXHXHXxXcXxXjX|.*XHXA.V.[.B.zXLXPX2.,.O 9.l.[.*X;XcXIXDXDX[.V._ P Z ( &.V.x.C.m.m.n.Q.4X4XlXlXwXkXlX6XwXlX*XKXLXwX*X9.( ( 9.0.[.=XHX}.A.vX6XxX9.3.E Q Z.jXxX2./ W 6X:XHXHX{.[.|.}.{.0.B.E 4.) Z.oX*XjX*XjXMXDXxXHXjXxXjXcXx.= > Q 1.l.HXJXPXKXL.@.*.@.*.{ J ^.yXyXmXyXa.5.&.H G H Q G G G H.z.!.5X1Xr.u.O.S G n i i r.r.L.K.Q.CXKX4XeX5.5.S BXNXn.y.I.H 0 +.&.tX5XZXK.J.b D p P M 9 ; ~ Q.Q.rXlXlXoXoXz.p.6XzXlXjXxXB.N.jXsXzX7.8.Q V.N.[.,X8.q.3.*XoXcXVXMXMXMXn.v.w. .X. .U w.9XZXtXCX5X^ P 6...#X7X.XQ ^ 8 8 H W.!.L.$X5Xy.&.I I 5.5.eX!.1XtXXXK.K.!.O.+.P m.K.3XW.m.W.n.8 m 8 0 Q nXbX1X.X^ ~ 6.#X6XPX{.C.~ H M v t y b n.C.eXNXMXPXPX6XP.[.A.[.A.jX:XHXPX3.4.O ).[.IXvXN.T B l.x.N.A.sXcX*XlX#XOXe.r.e.u.X.{ U /.!.yXKXCXQ.p.; p.z.M.M.",
"/ %Xf.|.jXAX:XvX) 2.,X}.qXVXqX-XvX>X9.D.B Z 7.@X-XrXrXyXuXG.=.*.Y Y ~.uXmX2X~.G O.&.v.Q.!.M.6.z.z.0.0.4X+.y.u.y.1XH.Y...O.+XW.J.N H S N u.OX4Xa.n.H..X1Xp.a.S n N U.n.n.O.+.U.H.$X!.Q 5.&.4X4XK.m.U.n.p.OX0.6.t 0 C.#X#Xz.n.; 8 b 0 v b.b.JX-X6X6XMXjXPXPXxXcXV.l.3.[.[.cXPX2.O O B E vX[.|.2.8.W 5.3.P.P.{.oXnXbXnXU.L.a.*.O...G ! ~.1XZXKXmXtXy.M 0 0 v 6.{.I.OX XXXfXOXBX3X XI.I.I.I.n.e.5.M S ! &.!.7XXXtXtX5X1X~.v.r.! ! i ; b b N b b H H H =XlXlXKXPXP.A.V.PXPX*X|.> : Z A.}.[.B E 1.%.|.HXjXPX:XMXPXDXMXPXZ.|.Z.= + > O *XjX*X*XsX[.sX;XcX;Xl.9.<.( q.2.7.3.z.z.}.M.wXoX4X#XnXnXKXCX$XCX$XQ..X#X.XwXnXkX-X-X:XlXHXHXcX[.[.V.z.4.W C {.}.KXjXVXjX:XcXlXjXV : O x.x.xXDXoXoX-XKXPX*XcX/ 3.2.B.0.3.|.|.;X*XxX:XcXcXxXzXxXjX:X,X,XV.9.:X=XMXJXK.O.@.@.*.J { F.uX/.yXyX9X5X9XI.U.4.H M H b ^ +.W.$XOX7XNXH.G.a.a.v.e.L.a.$X-XwX6XoXP.OX8 m H <XOXBX3XI.6.t.3X8X5Xr.a.n G 5 9 S G n I X.m.CXVXnXKXlX|.Z.0.6.wXMXPXPXHX).x.HXcXDX: >   [.[.IX,X4.2.2.*XoXJXKX6XK.K...e.O.J X.*.*.mXZXyX9X8X..0 v wX X7X.XOX+.+.5.r.n.XX1X XXXa.S G M n S n 5XXXXX5X$XtXr.a.i i i P G .X1Xy.4X7Xn.a.S m m eX$XH.Q.#X; - +.&.#XPXKX#XI.Q 0 t m b 0 8 t.MXkX6X=XMXMXVX3.( E IXIXPXHX) W O c.Z.HXPX*X|.).%XA.).c.8.zXiXPXcXJXoXXXa.r.X.e.o.o.U ~.ZXKXnXZXm.W.Q.-X-X",
"N.Z.).iX:XjX*X>XA.|.vXwX:X&.) Z V [.%XHX) W c.:XwXnXrXuXyXd.*.=.D D T.mXZX<X~.i I n !.XXU.p.t.P.}.+.y.bXn.z.S n ..L.a.J.L.5.eXmX6.5.....!.3X3XG I O.bX7XI.1XG &.5.8XOXM  X1Xn.m.t N 0 a.p.4XlX6.m.m.I.I.H.L.I.- - y.I.XXp.r.S 0 : v b }.P.4X6X6X-X6XjXxX:XLXAXjXcXZ A.V.jXPX*X: v x.V.PX|.>X*XjXjX) ) 6.7.Q.=X#X6XeXKXNXI.&.u.*.5...5...L.!.tXnXNXy.z.; ; t.m.t.M.I.7XI.m.6.y.5.b M = b m b r.H.L.+XXX7XtX1XXXL.w.I I n S n n H H N M S b b t m.b.kXMXJXwXKX2.c.A.:XHXV.*X= _ ` :XjXvX) / l.9.jXvX>XPXLX*X*XV B.x.xXHX-X( 2.V W }.jX*XAXjXsX;XjXb.Z.C C C A.9.b.p.{.=X#XwXeXrXnXtXnXmX4X#X.Xa.a.5.6.&.6.5.v.U.OXkXwXKXVX6XHXJXzXkXJXPX@Xz.p.9.9.Q.cXwXc.Q.}.qXHXb.x.( *X:XLXxX2.3.> c.x.PXcX[.vX;XPXMXb.Z v ) ( 9.7.*X*XxX>XvX*XcXHXPXHXcXvXvXvXlXPXa.G.e.*.@.o.{ i.-.T.s.yXKXmXNXbXMXoX{.4.e.M N P 1X.XtX7XtXmXmX1XNXeXtX#XXX.X6XP.oX.XI.5.e.8 ~ H 5.5.5.OXBX4XeXW.G S n 9 D M i I ^ !.Q.VXW.VXKXPXjX: C V W PXxXjXPXjXx.9.-XA.).f.9.c.cX>XvXvXV 9.3.{.oXJXMX3X5.5.e.e...*.u.yXmXNX<XtXn ! # +.+.{.=X=XrX6.r.r.CXeX!.! ! !.~.w.! I ^ +.! ! +X1XXXtX5XmXe.5.n I ~ G I $XXXM.^ +.H.L.5XNX&..X!..X=XQ.~ ~ ; ; Q rX=XeXbX.Xm P b H 0 0 8 6.y.CXMXHXHXPXcXHX2.V.).;X*XAXPX).gXzXIXcXcXIXAXzXiX).x.l.A.k.[.LXzXKXnX!.L.e.e.*.=.@.D 2XW.KXCX=XrX4Xm.W.",
"c.|.[.;XjXcX:X:XA.V.}.jXkX) W C Z |.iX>X) ( 7.wXwXlXrXuXyXd.*.=.D D T.mXNX2X<XA n G 8X$XM.p.p.P.m.t.p.K.m.M.n n ~ a.H.XX.X! mX5X&.&.! ..3X3X!.G I ! NXKX!.a.S O.&.!.NXn OXW.L.U.b 0 t m.K.#X#Xy.I.n.m.I.I.m.z.- = y.OX3Xy.6.m t 0 0 0 oX.X6X6XkXzX6XcXzXjXvXHXLXcXW x.Z.vXxX[.V V l.x.PX*XjX>X:XlX2.2./ 0.Z.b.6X6XkXbX7XXX&.O.O.*. . ...L.L.KXZXtXn.K.8 b 5.M.y.I. X7XI.I.y.e.O.H b b 8 M H y.L.I.!.XX1X5X1X+XY.5.!  .A G G S G I H M 8 y M M z.b.wXlXLXHXVXW x.x.jXHX|.Z.: E Q >X>X*X) / c.l.jXDXjXPXPX}.jXE V.V.KX:X:X9.<.E Z `.%XxX:XvXvXxX*Xx.l.H B W 9.0.b.n..X#X$X4XrX4XrXZXZXNX2X$X~.s.s.5.5.*.6.w.a.m.L.NXkXKXMX4XMXMXkXkXMXCXoXb.t.6.6.Z.|.wXE.[.,XIXcXx.A.+.*X|.HXcX9.8.O V.t.KXLX[.*XsXMXsXx.B V _ ) 8.l.}.-X;X*X;X:XvXIXIXPXvXcXvXcXHXVXn.L.5.*.X.L o.-.-.T.F.5XKXKXNXBXJX=X Xy.6.S H P W.XXtX5X8XBXtX1X5X7X$X$XXX@XkXQ.oX{.K.5.y.0 ! H +...u. XeXnXtXa.P S n i M P H +.G !..XKX4X4XPXPX@Xv B ) W lXvXjXHXPX9.8.[.[.Z.7.4.8.zXjXcX>XB 0.8.oXOXNXbX#X&.*.5.w.O.e.G.yXyXmX5XKXI i - ^ +.{.K.#X4Xy.p.6.mXZXL.! I 1X~.5.! ! I ! ^ ...X$X5XtXrX5Xa.e.G G ^ S G XXXXL.H Q m.XXCXeX+.OXK.mX3XI.P Q - 8 ~ eXnXKXkXW.N P 0 M v t 0 5.6.MXMXMXKXHXHXHXl.x.].;XiXHXSXV.vXcXjXHXjXHXiXHXzX[.f.N.c._.|.PXHXPXPXL.L.e.e.-.@.=.J Y.#XlXCXKX!..XU.W.",
"/ Z.).*X:XjX}.[.}.[.cXIXQ., + = = [.vX%X3.8.) :X-XlXtXtXuXi.*.=.A D T.yXmX2X0XS A 6 ! H ^ z.b.b.C.6XOXn.7X7X+.O.0 ..! H.$X^ W.a.+X+XL.v.+XJ.H.n i n r.v.XX!.r.XX XO...y.nX.X8 9 # - &.nXeX.XoX.Xm.n.n.H.u.~ Q - # 5.3X8Xe.5.n S b 0 8 OX=XkXkXMXoX}.:XjXxX*XjXHXxX*Xl.A.HXjXvX|.[.PXvXxX) / 8.x.vXjXjXZ C ) _ {.4XkX7XbXKXC.p.m.a.*.S G  .! ~.!.NX4XNX..&... XOX XI.u.S m - 0 m H H m.n.8X7X3X7X7XXX1XJ.a.w.G S I G G i n n n i t b ~ P y.Q.Q.lXkXKXjXlXlX:X/ jXqXGX:XqXHX:XxXcXHXxX;X3.4.Z.Z.HXsXjXHXLX9.9.  > = }.&XxX}.*XPXPXPX}.[.B B E 3.) 3.4.5.0.oXP.P.OX$XeXeX4X7XeX5X5XXX~.Y.s.s.d.*.e.w.*.*.O.@.O.*.5.6.y.W.$X3XNXMXbX7XlXMXMXbXlXVXJX6Xp.p.P C ( UXUXKXPX|.zX*XcXvX8.3.  9.4.HXLX}.}.[.sXMXHXV.B.8.3.V.V.3.l.c.}.*XxXjXvX>XxXvXPXvXzXxXcXMXKXv.G.F.d.-.o.J J K J *.5. XXXBXBXNXKXBX1X.X&.+.I ! &.u.1X<X1XXXmX$X4X5XrXwXP.Q.OX=Xm.U.M b b ....nXnX$Xa.a.S b M S M b N P Q.K.KXeXkXKXKX-X=X) = = ) 2.cX6XxXcXPX) _ t.}.jXDXHXLXcX*Xx.l.v 3.6.@XOXnXbXOX*.*.@.*.*.T.<XNXKX<X..*.*.v.L.+.+.4X4XPXnXn.a.e.XX5Xa...G W.~.1XA I I ..w.e.1X<X~.XX$XL.a.e.! P t +.! tX1Xa...G e.&.$X4X! tXXXOX6X=Xy.m.4.+.H +.+.Q.3XKXb.b.M N M m ; ~ ^ 6XNXJXwX:XPXPX>X9.N.[.).AXcX%XPXPX{.*XV l.x.PXIXA.Z Z c.g.c.%X|.zXMXBXmXL.r.e.*.*. .*.^ rX2XCXeXZXy.6.",
"W %X).[.*XjXvXxXV.Z.LXVXx.O + : : [.:X;X8.9.( @X-XnXnXyXyXi.*.=.A D J.yXmX9X0XA 4 4 ! ! +.b.m.C.z.6X@X6.3X#X5.5.- @...XXXX5.5.a.1XH.L.L. XH.L.6 9 I L.v.~.v.a.L.XX..O.y..X!.M S % # 5.4XCX$XQ.K.K.m.a.n.n.Q M # # &.1X8X6.5.M S b t 0 .XOXlXlXMXoX-X*XHXHXMXzXxXHXPX2.x.jXjXIX|.[.HXvXvX( 3.l.9.cXHXgX: B ( 2.V.oX#X3X6XNXK.n.a.r...G I J ! +X5XKXNXmXu.n.G n.OX7XOX5.M b 4 - 0 ~ ~ U.U.8XNX3X3XmX+X<Xa.5.*.S J ! I G n n S S S b i G N 5.K.=XMXeXlXcXHX>X|.2.:X>XcXDXIXHXHX:XvXHXjXZ.3.3.P.{.MX:XcXPXPXB.9.O : : *XsXMX:X*XPXPXPXA.Z.Z v Q 4.) &.+.6.0..Xm.{.4XtXmXtX7XtXtX5X<X<X~.Y.F.s.F.e.d.i.-.-.X.@...@.O.e.r.I.XX8XBXbXbXkXkX7XMXCXbXCXJXoX8.9.W W 2.UXUXHXPX-X:XvXHXHX9.8.+ <.3.xXHX-XV.[.zX>XPX[.b.7.3.x.V.2.l.V.[.[.;XcXxXjXvXAXIXSXgX;X:XLXCXv.G.e.d.o. .{ F !  .e.r.3X3XNXKXBXKX5X9X4X5.I P ! 6.u.L.J.!.~.tX$X4XtXrXlX@X}.-XkXI.m.b b b +.~ 5X4X5Xr.a.S i b N N H b +.Q.=XkXCXeXPXPXvX,X_ : = _ 3.vXjXHXHXPXH V 9.-X|.sX;XPXcXPXx.p.v 4.3.#XOXMXBXXXw.*.X. .*.0XmXZXNX~.a.@.&.5.W.^ &.=X4XCX#XK.*.5.ZX5X5...O.U.v.!.S I S S *.e.<X1X<XXXXX1Xv.r.I J G H ..!.eXH.G H O.&.1X5X! 4XtXtXbX4Xy.6.5.6.&.~ +.OX#XKXP.b.0 ; m m ; Q W 6XCXMXwX*XPXPXHXx.N.x.[.>X%X|.PXPX}.oX0 t.9.PXIX].B T c.f.%XpX%XLX6XKXKXXXe.e.O.*.X.I ! tX#XmXKXKX5.&.",
"O l.).iXcXjX*X[.3.3.[.Q.@X8.8.8.9.jX[.*X/ W 7.*X=XeXtXyXuXi.=.=.A A G.tXNX9X2Xp I ..n.U.m.C.z.Z.[.6X4Xz.3X=X'. XI q 8 O.r.K.a.p.a.L.mXmXY.G ! i G 6 G S u.H.+Xv.n.n.m.XXP 5.# ; P ~ $X#XW.p.m.4Xe.!.#X.XH.^ ..H b 5.OX8Xe.6.b t 8 b v I.P.kXlXkX6XcX9.[.`.LXjXzX*XxXcXPXV.x.l.Z.Z.PXcX9.    v V zXgXgX4.W v / 7.P.P.6X6XbXeX7XI.~.e.@.*.J J U ! ~.BX1X1X7Xn.!.OX!.n.n S I a.u.~. X<XOXXX!.1XK.m.e...O.G S ! S ! n i 9 n n S J ..v.m.#X2XKXZXnXkXnXVXKXPXA.Z.[.cXIX>XjX*X>XHXcXcXA.V.8.8.9.}.*XcXHXcXKXHX>X>Xl.V.V.*X*X;XsX[.}.[.x./ ) Z v 3.c.C.}..X#XoX4XOX4XtX5X2X<X<X2X2X<XY.J.G.F.i.u.u.-.w.e.-.i.-.i.-.w.*. . .O.O.6.m.I.OX8X7X3XNXCX4X4X#XKXkXKX@X@XM.[.V.|.*X9.V.P.PXHX[.{.8.}.6XPXxXl.O + W E xX*X*X>X:XPXLX[.2.E : B ( c.x.[.[.>XgXIXIXGXUXHXnXyXmXG.T.i.e.i. ...I I M H H O.v.H.2X+XKXKXnXtX4XL.n.O.G ! ! ....&.5.m.m.Q.@X}.oXoXp.y.H 6.y.mXtXtXp.a.~ P n b b M m 5.~ 4XlXMXlXHXHX6X-X0.l.x.c.S.S.c.jXcXHXPXLX2.4.oXzXPXPXUX*XZ.V.9.V.Q 3.5.#XOXNXmX!.*.@.{ U w.yXmXyXBX! O.5.1X+X5Xa.z.W.I.!.W.rX&.&.v.1X1X~.v.p.J.tX*.5. . .s.G.XXs.s.e.e.tXXX~.U I S a.v.1XeX5.~.7XtX1XO.G *.1X~.+XI.4XeX#XnX4Xm.b 0 y.0.4XC.K.S H 0 m 0 +.+.MXMX6XPXxXvXvXHXjX>X).k._ 2.%XPXMXb.t.  ( 3.LXPXzXf.k.,.g.g.f.N.sX4XkXtX5XL.L.e.r.e...! ..*.!.nXeXZXKX",
"Z Z.A.;X;X:XPXPXE E 8.9.wXlXLXlXHXHXl.V.: : 3.*X@XrXrXuXuXe.o.X.D p G.yXZX0X<Xn L.G.H.m.y.6.5.b.b.b.C.t.C.U.8XbX7XS ~ 0 - ! K.L.L.J.u.J.NXO.S G 9 G *.@.7Xv.w.+X7X!.8X! i 6 H H .XK.rXOX4X$X.XW.W.n.^ ..U.I.m.M H &.XX3Xe.y.b 0 0 M M W.K.kXMXlX6X-Xv / / 6XiXHXHXjXHXvXHXvXv x.9.HXxXA.B V 3.) PX,X|.|.:X;XjX7.8.3.P.{.=XJXKX7X9Xs.w.e.O.*.I G I ~.XXZX7XXX!.H.L.$XH.5XXXtX!.5X+X7XH.Y.5.&.G i I S I S S G q n I I I e.a.v.XXtXmXrXrXrXtXrXnXnXeXkX:X-X) q.cXDXgXV B : C A.,X*X) 2.) x.A.6XxXcXKX:X:X>XcXPXLXPXLXHXcX) v v E Q 8.4.z.}.Q.kX}.@X-XrXnXnXrXeX5X1X9X<X~.~.Y.Y.J.s.F.F.G.G.T.T.u.F.-.;.i.i.F.i.e.*.w.5.@.! +.@.+.5.5.u.n.8XnX6XCXkX-XjXlX-XlXkXUXHX@X}.V ) E :XvXDXHXHXjXoX:XxX[.O + / W PX>X&Xx.l.[.[.DX[.[.7.l.Q.b.l.9.f.S.].%X|.>XgXkXwXKXKX/.uXyX9X8Xu.u.5.+.~ O.^ G ! G  . .s.s..XKXCXNXnXtXXXL.w.5.i 6 - 8 y 7.-X@XP.z.+.&.5.mX.XnXmXp.y i 6 ; S H H ^ ^ 6X=XCXMX4XKXxX6X<./ gX:XgXS.V.D.k.DXcXxXPXHXA.[.PXjX*XB B > }.}.cXjX4.0.5.=XOXJXNXL.@.=. . .i.ZXNX5X8Xi G I !.~.v.5.p.W..X.X$XCX6.y.t n &.1XtXy.e.~.~.L.e.e.<X5X2X*.O.G J 5XyXmXO.! w.1XCX..&.v.a.a.9 S 9 n W.mXtXXX X#X4X$XPXKXU.% # 5.5.bXK.C.v 8 M H b &.4.MXCXkXHXPXHXcXDXPXIXAXIX_ E ).PXJX6XlX2.=X[.HXLXzXgXGXIXIXq.N.A.c.{.{.1XCXKXCXH.v.r.O.&.I G &.eXXXKXNX",
"R V.N.jX:X%XcXUXV V l.x.wXqXVXKXcXjXl.x.: : ( -X-XeXrXuXuXe.o.} D p G.mXNX<X<XS v.L.Y.I.6.5.5.Z.b.x.b.C.P.K.3XbX3XH G @ ; ^ W.m..X~.G.v.XXO.I i i G ..! !.v.5.5X!.BXtX! % ; Q n .X#XnX#X.X.X.XW. Xz.~ ~ u.L.I.G I O.XX3X6.y.m b v C B oX{.kXMXVXjX;X0 W ) ;X:XIX:XHX:X|.PXHXV V.x.PXHX[.E B ( 2.DX%X>X|.Z.gXvX8.t.8.C.C.4XJXJXbX1X!.*.w.! O.I I ! L.~.KX8X$XW.U.m.!.XXeX1X1X5XZX1X1Xa.a.&.O.^ ! n n G G G G n n n ~ ! r.a.J.XX4XCXZXmXCXnXnXeX-XkXPX:XwX4.q.PXvXUXZ ` Z : c.E.|.W ) Q A.P.6XxXsXMXzXjXxXvXPXPXHXcXMXPXW = : ( ) 9.p.0.P.V.-X}.-XnXrXrX2X#X1XyXyX9X~.Y.T.G.G.J.d.F.u.F.F.T.F.w.i.i.i.w.i.i.i.i.e.@.@.*.O.5.5.+.5.5.j.u. X4X4XPXKX=XlXkXkXwXVXUXUX@X}.W / V Z.&XHXvXxXMXjXPXjXx.+ > W E :X`.:X7.h.*XA.PX*XoX9.9.V.b.x.2.f.8.%X,XgX,XgXHXVXnXuX2XuXyX5XXXr.r.5.~ ..^ ..S S J  .*.s.v..XKXmXnX1XtX!.L.5.w.S 6 y % - ) kX4XK.z.^ ..p.tX1XW.rXa.Y p y i m M 0 ~ ..=XMXJXsX*XPXPX&X4.Q >XpXAXk.c.x.0.cXvXjXLXLXZ.|.KX-XsXv Z = qX[.jXwX3.0.5.3XOXJXNXY.*.*.X.X.u.CXNX5X1XH ~ ~ !.4Xv.5.&.$X#X4X$X4Xv.v.b b ..rX5Xd.s.XXtXXXs.r.Y.<X5XO.*.I U XX5X9X*.@...rX5X..O.L.K.r.G ; i S L.tXKXL.OXOXW.3XMXCXm.; - 5.&.kXb.b.M m G H b +.2.MXJXVX;XcXPXcXHXHXIXPXSXq.q.V.LXjX;X4X5.oX:XLXPX,XIXIXIXGXg.k.A.x.U.6X XBXKXCX~.L.5.! ! O.! ! 1XXXKXtX",
",.Z.A.IXcX}.vX>Xl.9.qX:XvXx.D.x.V.E.V.[.E Q ) :X:XlXeXtXyXi.o.} D p G.mXNX~.XXI H.a.5.y.n.oXC.[.oX=X*X6X6X{.I. X#X7XOX5.6.5.+.^ 5.r.1XXXY.L.8XS I n <XXXw.H.tX5XBXm.r.e.5.^ W.7XnX4X.XW.$X4X3X XXX XU.H.I.L.I.~ ! 5.3X8X5.e.i b v b v .X{.6XlXJXzX6XR 8.l.}.`.&X:XHX}.HXxXPXxX2.3.>XjXHX:X*XvXxXHXx.A.V.V.HXPXxX) _ 2.2.{.6XoXeX1XCXG.Y.*.....O.I J S H.1X7X1X1XmXXX2X<X0X!.J.y.O.^ I G D S D G I P n n S H ..&.v.3X$XCXbXNXNXeXtXrX.X$XQ.eXnXwX:XPXl.9.B B iX,X>X. O = > *XvXjX9.l.2.*X&XxXDXcXDXPXxXsX9.f.0.h.V./ 8.3.l.8.Z.l.Z.-X}.eXwXnXrXrXnX1XtXrXrX!.~.T./.F.F.F.F.J.^.T.T.F.F.F.d.;.{ #.@.o.{ #.{ -.-.e.u.u.r.5.w.w...5.O.y.O.5.5.5.Q.Q.wXlXkXUX@XUXvX-XxXHXjX[.Z.A.Z.A.[.4.0.f.IXcXLX|.x.[.A.KXV.Z.. . > l jXsXjX%X&XPX6XKXZ.Z.Z ( / S.).V.@XeX4XrXmX8XNXbXNXbXNX6Xn.W...y.O.X.*.X.{ D D I w.e.~.XXKXtXCX1XNX!.5.r.b m : Q.K.m..Xp.p.2XyXZXe.&.y s y S N m +.6.6X6XlXkXkXMXPXcXsXv ,.q.PXGX].: > / ( HXjXcXPXPXc.x.6X6X}.= O > vXjXjXvX2.3.2.=XoXJXJXY.-.-. .{ w.NXNXtXtXG 9 8 ! ..O.U.p.CXW.oX$XOX4X.X..+.n *.r.uX5Xr.L.<XtXmXmX8X~.S G i G e.v.J.r.v.~.v.r.a.L.1Xn G 6 9 a.5.nX$XXX!.{.=XW.=X0.6.H % - 5.5.CXn.n.M b b M b 6.e.NXMXkXzX;X&X[.HXDXHXSXPXAXzXN.jXjXlXMX4XMXzX;XiX/ V.).IXPX%XZ l f.3.P.I.#XeXmXbXKXK.6.6.O.5.O...I tXyX",
"3.V.[.jXgXqX,X:Xk.9.gX:XGXD.c.x.l.[.[.Z.E / / wX@XlXnXtXyXi.o.o.D J s.ZXCXW.W...v.G.e.*.!.K.U.{.OX=X=X6X6XOXI. X7XOX3X5.+.y.^ ^ u.5.+XXXI.+X3XH H G  X X5.v.8XtXBXz.n.r.~ ~ #X XNXrXK..XXXrXnXU.1X!.!.n.n.OX!.~ +...$X4X5.y.9 0 b v m {.OX4XMXVXzX6XV h.l.V.;X}.*XHX;X&XIXHXAXq.4.HX;XIX:X*XHXjXHXV.V.x.x.KXDXxX) 2.) <.&X;X*XeXBX1X~.J.O.O.! O.I A ! v.Y.mX9X0X2XyX0X<XuXJ.T.d.X.X.F Y A D n Y G D n n G S &.^ b.}.wXlXHXHXjXxXlXVXoX[.@XwXlXjXwXPX9.8.V B jX}.A.= O = : [.iXvX0.8.q.>X}.AXzXzXDXPXsXDX9.h.4.V.9.7.3.8.8.9.x.A.Q.!.$XrXeXtXtXrXuXuX2XuX<X^./.^.T.T.F.F.F.T.T.T.T.R.R.d.F.;.F } -.o.J o.#.@.*.i.u.u.i.w.w.w.5.@.O.*.5.5.*.e.m..XeXVXjXUX=XwXqXvXcXHXxXZ.[.N.V.Z.Z.8.h.f.IXzXPX).P.V.P.zX[.P.+   : v sXDXSX|.%XIXcXjXZ.[.v ) 2.x.V.V.:X:XlXwXlX6XMXDXzXMXKX{. XU.&.5.X.@.o.{ } F f U e.e.0X~.yXCXmXmX3XXXe.y.v m t {.C.Q.b.p.5.bX4XKX5.*.i a p M N M 4.4.=X=XlXMXcXPXPXxXjXv ,.4.HXPXV.' : / ) HXjXsXPXPXt.z.xX;X*X= . v cX:XzXjX%.0.2.|.*XJXNXY.-.-.{ { e.NXKX9X9XG n 9 ! ! O.K.M.wX@XOX=X{.OX.X) &.S 5.r.nXrXr.L.XXZXKX1XrX!.n n G S r.v.s.v.v.W.v.a.p.v.4Xi P t ; e.p.BXW..XOXXXI.OX=X6.6.E = - 5.6.bXH.u.S n n N b 6.6.MXMXMX=X6X[.|.LXDXLXAXAXPXcXN.*XjXDXzXxXjXHX6XxX) c.[.PXIX|.v Z 9.8.Z.P.oXHXkXLXVX[.6.5.5.O...! ..7X5X",
"3.S.V.>X:X>X,X>X|.[.vXvX|.= = O = V.-X|./ 2./ @X@XlXeXrXyXi.o.o.f J s.CXKX.X$X*.G.^.=.s.v.BXMXxX7XK.m.K.3X3X6X6X X3X6XnX7XC.y.y.b 0 ~ ~ v.L.<X5.y.e.L.H.!.XXG ~ ..m.y.M.NXNX#X7XU.Q.3XCXrXW..X4X1X<XtX5Xu.y.n.a.y.e.4X4X5.y.0 t b v m {.OX6XMXJX*X;X9.*XsXt.x.E E |.AXcXcXxXPXzXHXh.l.}.:XV.HX*XvXQ C = > V.Z.HX9.4.: : / V.Z.6XeXeXnXmXL.m.&.O.O.G A U U G.<XuX/.2XJ.e.e.U L p D D A U ! U p a p P ~ p.Q.$XnXVXVXHXjX:X>XcXvXPXE.[.0.0.Z.UXUXUXUXvXP W 7.8.cXqXLXA.*X>XZ.cX;X:Xc.f.l.iX;XIXLXLXAXxXA.x.C V B <.l.l.x.A.[.}.>XjXlXtXtXtXtXtXyXyX<X/.T.^.G.s.J.d.F.R.T.^.^.T.i.o.-.$.o.{ } o.{ @.#.o.-.-.{ F F {  .o.w.i.u.s.i.w.w.@...O.w.w.&.~ &.t.m.6XwXVXjXvX*X:XAXjXIXcXAXzXcX0./ _ N.c.SXAXJXxX=XLXZ.`.v R _ W iXjX>X,.,.f.AXjXjXHXx.*X{.A.[.0.7.4.x.Z.&X}.iXzXiXMXLX6XMXmXtX5XJ.s.i.-.;.*.=.} F 6 D A *.v.!.5X7XJXbXNXOX4X6.{.P.C.C.6X.XnXn.n.n n u a p M H 4.6X4XPXKXJXlXxX@X[.9.x.l.*X).PXPXx.= O E ) HXDXMXLXPX/ ) x.A.A.,X-XzX6XcX|.Z.Q 8.3.}.oXJXNXY.-.;.{ { e.NXKX9X9XG w.u.tX9Xz.m.Q.eX6XwXkX=X6XkX4XdXH G 0 n.v.tXQ.W.W.H.CXKXS ! U i i n r.e.yXmX1Xp.L..XtX+.; t p.y.4XOXNX.XOX6X4X XoX=XC.P.z.H 0 6.5.tXH.a.S n n m b 6.y.MXMXCXxX}.C B 9.sXHXDXxXKXPXsXB.9.3.2.*XLXHX3.( + Q ) cXPXcXl.8.( 2.A.V.A.vX:XHXHXvXZ.K.O.5.5.*...O. .",
"4.c.l.}.>X>X>X>X[.}.vXIX>X, = O   E.gX>X2.&.( |.@XlXeXrXyXi.o.o.f K s.ZXNX.X#X*.W.~.o.s.e.BXPX&XoXt.n.C.6XOX7X=X4XK.3X6XMXOX+.6.b b n b !.XX!.n.y.n.XXI.!. Xm &.^ K.z.m.OXbX X.Xm.L.tXCXCX$XL.1XOX+X9XNXn.6.e.y.e.y.3X#X5.6.t b b v m {.oX6XMXJXoX-Xl.cX>Xx.x.R R A.xXjXxXxXxXxXjX).[.`.V.V.:XHXcXB B O = Z.A.PX7.3.v Z E A.[.MX4XrXmXbXW.v.O.^ O.Y G G I J.yXZX0X2XJ.-.*.U U D A D Y G P n A G i ~ ^ v.W.$X{.4XVXUX>XqXqXHXGXUX*X|.q.2.E.LXHXLXPXjXV B 9.D.*XcXcXoX*X:X&XjX`.|.0.8.V.>XiXcXHXAXLXzXA.8.T V Q 3.0.t.b.[.oX*X-XwXCXmXyXtX9X9X0X0X0X2X~.T.F.s.F.i.i.d.F.^./.^.F.;.;.o.-.o.#.o.} { o.*.e.*.#.J  .o.@.*.w.w.i.i.e.w.@.X...@.*.w.5.*.e.z.m.$X-XlXkXlXzX6XcXjXcXxXAXiXcXc.,.( 0.9.iXIXJX-X}.PX`.B.B R W Q %XAXIX,.,.0.xX>XHXxX}.6X>XZ.x.0.8.8.x.V.[.}.*XiX>XxXxXdXbXnXtX7XY.H.s.w.*.X.X.U D A U  .*.H.H.<XtXKXJXeX8XOXK.M.I.p.n.mXeXW.6.&.S M H n 9 n t 4.4X=XVXVXHXJXPXoX[.V.9.x.V.|.xXHXl.O O E ) vXDXHXDXPXE Q t.{.Z.>XsXKX6XPX}.[.Z 3.8.,X}.FXNXY.-.-.{ { e.mXKX7XNXA w.r.1XmXK.Q.Q.4X-X6X6X@X4XkXoX6XG Q Q K.6.eXH.v.2XrXCXKXn G ^ y n 6 u.w.tX5XH.K.!.2X.XP S t r.z.4X#X3XQ.I. X7XXXI..X{.C.z.0 B 6.5.eXm.a.A n n m b e.y.NXNXJXkX6Xv B c.PXDXjXAXcXPXcX8.8.2.h.Z.PXPX3.( . W W PXPX*Xx.9.W 3.l.x.l.vXHXPXPXHX}. X~ O.I ..5. .X.",
"1.c.k.,X:XqXvXgXx.x.,XgX,XB ` E _ :X,X*X/ E &.=X}.wXwXrXyXi.o.o.K K a.NXnX.XOX! ~.2XJ.~.tX XoX/ ~ b m ; M M y.n.3XOX6X X4X3Xy.n.t b - - y.1X!. X!.m.XX1XO...- 4 8 y.OX4Xz.n. X.XrX$XU.~ ~ ~ H I e.r.XX8X+XL.n.....5.$X$X5.6.t t b v m {.oX6XMXJX}.Q.}.jXPX) 4.  O ) *X*XHXjXcXPXHXjXjXE ) ) xXAXzXE V O = V.V.cXx.Z.B.V.7.8.3.l.P.1XNXBX3X$XL.W...I ! D S *.e.*.} } Y D D D D F D D P n P D O.r.H.4X.X4XeXeX@XwXVXcXcXHXPXUXgXV.Z v v B Z.jXvXHXwX}.x.V.UXlXvXxXxXHX:XHXPX-Xq.2.3.7.*XxXHXcXDX:Xc.h.0.0.8.l.`.6XoX=XeXMXMXMXMXNX5X5X5X5X<X~.Y.T.F.G.F.F.J.^./.J.^.T.F.d.i.;.o.} { F J K K @.F.F.~.T.J.e.w.X.X.U { U U U X.*.e.r.u.a.d.e.@. ...O.O.....+.5.z.K..XMX6XkXkX-X4XzX;X;XcXcXxX;X}.Z.4.3.R / oXcXLXsX:X&X[.AXzX>X= O   [.[.HXxXZ.[.:XKXPX}./ R 2.9.x.x.}.}.|.jX;XzX6X6XbXtX9XtXtX<XY.s.u.e.@.*. .U p S n I O.a. XXXKXKX4X5XCX1XOX7X4Xa.b b M n n N n 5.p.oXKXkXlXMXMXKXQ.0.8.cXPXPX|.;XgXDX*X/ ) l.9.LXcXMXJXPX+.4.}.cXIX:XPXLXJX}.9.9.v q.9.,X}.JXNXY.@.-.{  .r.mXCX5XOXJ '.8X9X8XK.m.m..X#XoX.XoX=X=XMXNXI.P H G I H.1X!.nXCX!.+XL.P G n G ..H.L.XX!.5X!.W.G ..- e.~ 1X7XNXnXbXkX3X=XH.m.z.K.6X=XdX+.^ 0.6.eXn.a.A n n m b y.t.NXNXJXoX*Xx 0 8.;XsXzXcX:XcXPXLXHX4.R 9.MXPX;XjX/ x.x.PXPXcXjXHXHXUX[.|.8.Z.A.[.}.HXjXLX X8Xe...*.G F ",
"_ c.c.:XgXqXDXDXW _ Z.[.qX|.}.vX*XjXE.}.v y &.@X}.wXwXrXyXi.o.o.K K u.NXNX@XoXM W.~.s.e.9X+.+.: 0 b Q M ....b.n.+.=XU.4X#Xp.6XW.e.&.9 - t I.L..XmX.Xn.n.- 6 +.n.m. Xy.6.7X3XK.M.5.a.K.^ ! P i i ; b v.a.OXH.U.H ~ y.3X3X6.6.y 9 v v m .X#X6XMXJX6X6Xx.PXcX`.V.Z : E A.c.jX}.jXcXHXPXPXPXW 2.*X&XHX[.{.V.B.PXHX-Xc.A.cXcX}.3.7.9.4.P.CXnXnXeX1XtXv.5.5.! Y ....Y Y Y D D A A u A O.X.*.e.XX1XyXmX4XCXCX#XCXKXKXPXVX-X*XZ.|.0.q.Z = > &.8.PXVXcXHXIXV.:X:XIXVXx.W E V.x.-X:X3.v v 3.8.jXxXHXzXjX}.Z.Z.{.{.oXoX4XkX6XeXbXeX4X3X4X5X1X<XXX~.Y.J.F.F.Y.~.T.J.F.F.F.*.*.o.X.X.X.{ U U X.@.s.T.~.0XZXyXCXmXNXyXZX5X~.a.*.@.X.X. .U U { X.X.-.u.G.G.s.u.*.*.@.O.@.O.@.*.r.u.I.kX7XbXMX7X6XLXlX=X&XHXPX*X;X2.( 6.&X-XHXcX).A.;XiXzX( q.) |.}.PXHX<.V V Z.[.-X}.;X:X*X-XjX8.<.+.t.t.[.P.P.kX7XeXbXmXNXBXtXmX1Xv.H.5.w.&.5.O.I n i S m 5.@.L.9XtX1XXX5.*.S i n S M b O.5.NX4XnXKXKXMXkXQ.{.: [.|.PXvXV.E Q Z.}.*X9.l.x.9.MXcXMXPXcXh.l.xXzXjX2.2.R [.-XjX*XC 0.0.,X}.LXLX'.@.;.{ X.r.ZXCX4XBXw.Y.U.u.y.1X4X#XnXKXeX6XJXKXMX3XOXJXI.nX1XL.y.5.y.y.p.$X.XKXO.&.O.O.v.J.<XL.L.n.y.6.m.r.n.$XrXCXnXOXOX4XNXNXbXKXBX{.K. XP.=X4.4.0.6.tXn.a.n n A m b r.p.CXNXJX;XzX2.) >X[.%X[.}.PXPXjXcXLX>XPXA.cXsXHXPX*XPXPXvXxX*XV.A.HXcX:X:X2.9.9.A.Z.HXKXBXtXtXG.*.*.@.*.",
"E x.x.jXjX:XGXHXW E S.c.}.:X|.>XqX-X}.@X; y 2.Q.@XwXrXrXyXi.o.o.F K u.ZXCX4X#Xb ~.~.s.u.0X+.) R M M M t +.6.n.n.5.K.n.7X#Xp.7X4Xe.&.N n # L.!.3XH.$Xn.n.b - ..n.6.W.K.m.CXW.m.!.v.v.K.O.! t t i 0 9 n.u.mXL. XI H y.#X$X5.5.t t v v m .X=XeXVXJX-X*Xx.jXPXP.`.Z Z T x.Z.LX;XcX*XiXLXPXAX8._ [.&XxX:X[.V.c.HXPX[.l.9.HXcXcX3.3.W +.K.KXbXCXnXeXZXJ.&.&...!  .! G I U Y P D F p G ! ..5.a..X.X$X2XrXnXKX#XJXKXJXVXPXjX*X[.].4.q.l , O 3.9.HX>XjXcXLX2.vX:XlXPXx.V E *XZ.cXvX( Z B 9.9.zX6X6XwX-X}.b.V.Q.}.=X-X6XrXnXmXmXrX1X1X8X5XXX~.T.J.G.J.T.T.G.T.G.J.F.s.F.-.*.X.X.X.{ Y U  ...5.e.G.L.<XNXNXZXNXZXyXyX1XL.s.O.O... .U U U U  .X.*.e.s.G.u.e. . .@.@.*.@.*.@.5.r.H.5X7XNXNXCX7XMXMXMXkXlXkXP.P.4.9.4.[.}.zXxX*X|.jXcX;Xq.7.T &X|.HXPX_ v : *X*XHX}.>XzXjX>X}.[.3.<.7.8.A.P.{.6X-XlXkXMXKXMXJXnX4XU.v.5.6.&.O.&.G S S G J w.5.G.9X~.2X0X*.*.G b M i i M y.p.rXlXVXVXPXHXVXA.Z.= *XZ.cXPXA.W B [.[.*Xl.V.x.l.PXcXMXPXjXA.C.DX;X:X( 8.) oX{.[.}.Q 9.8.}.&XLXFX'.-.;.} X.d.ZXZX1X<X5.H.H.u.w.8X$XeXnXCX4X=XKXPXNXoX=XKXkXXXXX$Xm.y.5.y.6.nX.X5XO.O...O.n.L.XXH.I.v.&.5.y.a.v.OXrXnXrX X#XkXNXJXeX4XbX#X{. X X&Xy.0.y.y.nXn.a.n n S m b p.z.CXNXJXoX[./ R sXZ.zX).Z.PXHX-XPXPX6XjXx.jXzXPXPXMXHXvXHXHX|.V.V.PXjXUXxX( 3.8.|.A.vXcXJXNXXXL.w.O.X.*.",
"W S.x.vXgX*XGXGXE W x.V.jXPXIXIXqX,X,X%X0 v ) }.@XkXeXrXyXi.@.@.K K a.ZXNX6X4Xb *.e.G.~.tX@.Q v C H I 5.3X.Xy.6.W.+.5.y.e.u.u.H.4XOXm.a.b W.U.#X7X$X5.5.6.6.H.!.3X#X Xm.5.&.n.n.r.y.K.U.U.^ ! n 6 & O.O.XXv.a.4 9 e.OXXX5.5.t b v v M .X=XeXVXJX6XjXE }.|.KXPX;X;X%X[.B.2.) :XPX*XPX:XPXjXHXx.x.;XsX*X:X|.PXLXB.v v Z.}.HXx.c.B y +.m.n.3XeXrXmX#X6.e.5.&.I G H u u a D Y *.*.v.~.eXmXCXmXnXnXKXVXwXMXeXlXwX{.[.Z T _ A.}.:XIX[.D.q.:X*XcXcXcXlX:XV HXxXjX*Xv     3.3.cXPX3.E E P.Z.LXlX6XVXkX6XkXnXnXVXeXeX4X4XrXtXtX8XXX~././.T.J.G.G.J.T.^./.T.T.F.F.w.o.@.U  .I U  ...*.a.~.!.tXmXKXCXXXY.G. X X X3X1X5XtXCXtX1XL.s.-.X.!  .F U U U U  .@.w.F.u.F.w.w.o.@.@.@.*.X.w.e.v.v.!.OXOX#X6XeXwXCX6XMXkXPX}.P.b.) _ Z Z l.DXIXAXLX}.vX*XHXcXv .   x.l.HX:X:X}.*XcXPXMX9.3.4.4.8.l.b.A.Z.>X>X;XsX&X;XeXlXCXCX3X6X Xa.y.! O...I G G A D X.{ @.*.A G q n S b N y.rXeXkXlXKXbXMX{.oX0.0.3.PXHXPXxXv + . S.x.E.2.3.4.7.cXcXMXKXMX[.P.MX-X}..   = 6XMXzXHX_ 0.3.}.&XLXFX'.-.;. .X.d.mXmX$X5Xr.3X<XXX XNXeX#Xm.K.z.p.{.oXoXNXdX3XkX5XmXnXQ.P y t y p.v.nXL.W.a.u.!.m.y.m n I &.O..Xm.ZX4X3X#X4X4X7X6XK.K.z.U.7XMXMXeXbXoXh.t.0.t.ZXn.s.n n S m m n.n.CXNXJX6X6Xx.9.PXN.l.: : P.[.vXxXHXzXHXcX*XA.9.3.Z.zXHXvX}.: : B *XjXPXPX) V B l.8.[.6X8XmXtXNXXXG.*.*.",
"_ A.x.vXjX*XHXDXQ ( D.Z.jXUXIXvXHX,XZ.).v Z E :X@XlXeXrXyXi.@.@.K K a.NXbX4X4XN e.*.~.T.<X..+.C b M n e.nX$X5.y..X&.O.5.&.y.K.K.4X$XW.v.M n.n.7XeXH.6.&.5.a..X$XI. XW.W.O.5.n.a.y.p.~..XW.! ..t - 4 5.*.Y.H.n.0 4 y.3X3X5.&.0 y v v M .X=XeXVXJX;XzXE [.}.PXPXjXsX&Xx.|.2.3.*XsXLX|.jXLXsXjXx.x.6X-X;X:X{.HXxXV.: v `.}.cXZ.x.: 0 / b.z.bXJXkXeXeX6.6.5.&.H G I S p p n D *.*.L.$XrX4XCXnXCXrXCXPX6XkXPXkXjXA.Q.V / _ |.A.>XzXA.8.7.*X:X-XPXHXqXjXZ jX:XUX-X:     9.9.LXLX( Q W P.Z.CXkX=XVX4X=XrXnXtXZXrXmXrXrXrXyXyX0X<X~./.Y.G.G.G.G.G.T.T.T.T.R.s.s.-.#.o.{ X.I I ! ! ..r.XX!.BXtXKXKXXXI.I.OX XI.4X#XeXtXKX1X~.L.s.6...U U U U J F J { @.e.s.i.s.w.w.o.-.-.@.*.{ @.w.G.G.<XXX3XeX5XbXrXKX4XeXJXPXoXx.A.E Q C Z l.PXDXIXIX}.:X*XPXHXB     c.l.PXjXzX:XsXcXcXHX0.0.3.3.3.t.x.V.A.>X;X;XjX;XzX:XlXKXMX=X3X X6.y.~ &.O.G G S S F U #.@.U J U S S D i 6 p.nXKX-X=XPXKXMXC.}.8.0.l.cXxXPXHXB O   x.x.[.( 2.3.0.xXcXHXLXPX`.P.6X6X:X. + # DXcXjX>XW q.3.,X*XFXBX+X-.;.#.X.d.ZXmX$XXX5.9XOXXXOX1X1XtXv.v.p.r.U.{.=XMXMX7XNXCX4XrXXXG ~ ; ; z.m.eXQ.K.a.6.8Xm.n.9 i M +...W.W.rX7X#XW.4XkXbX4Xn.K.K.n.4XJXJX7XJX{.z.z.y.z.CXn.s.p n S n m n.n.CXMXJX[.*Xc.h.PXZ.V.> : V.V.PX*XxXLXPXLXA.A.l.l.{.vXxX>XHX> v B *XxXHXPX/ B Z x.9.A.=X6XJXKX7XL.L.*.*.",
"x.Z.>X>X*XgXjXcXx.l.*X|.HX4.D.( ( ].|.,X<.4.2.|.|.lXwXeXyXF.@.-.K U u.BXnX=XrXt a u u.J.J.+.) 0 ; a.n.tX..~ n.U.8Xm S ; 0 e.L.!.a.y.m.m.y.n.W.#X4X4Xn.n.K. X5.a.r.3X7X..9 0 G !  XL.&.!.!.rX1XS n n v.r.Y.U.a.@ # n.4X#X5...b b 0 b b OX=X=XVXJX@X=XW ;XP.vXzXiXzXcXxXjX_ ) v ;X>XsXvX;XvXPXPXPX8.B W [.|.PXvX2.O   ( ( HX|.`.8.3.3.7.6.M.b.bXJX6XeX4X5.+.t I n I &.a.1X4XtX5XnXtX7XCXrX6X4XKXMXMX}.}.S.x.A.x.9.( [.[.IXPX}.[.c.x.Z.vXjXjXHXPX0.0.: A.Q.*XcXx.x.9.>XjXMXPXl.0.p.-X4XwXwXnXCXCXrXmXrX2XrXyXmXuX2X2X~.~.T.G.J.d.F.F.F.G.T.T.F.i.i.#.@.#.{ #.J A J G &.v.m.8XtXCXNXKXXXbXj.5.S y.e. XI.n.m m 5.6.H.CXnXKX4X4X!.m.a.e.{ X.U *.J  .U { #.w.F.F.F.s.i.@.w.-.o.@.X.X.*.5.a.L.1XeXrXtXnXkX3X7X4XMXLX4XlXz.x.4.c.c.&XiX[.|.V.HXjX}.) 2.A.V.PXx.x.Z B 4.8.MX}.*XjXxXPXA.[.C Z E f.9.%X[.iX;X>XxXxXLXlXJX4XBX1X Xa. .O.! ..U K D U U F Y p n S n.y.CXPXlXwXMXeXC.b.p.z.6XkXPX}.gXDXHX[.2.4.}.,X*XB B 3.2.PX;XsXHXPX3.9.`.*XV.f.l.l.MXKX;XvXv k.D.[.}.KXMXY.@.-.o.X.v.ZXKX$X4XO.!.L.+XXX8X..6.~ G D t b Q ~ BXBX6XeXrXeXKX5XH P 8 ; b y rX4XeX.X$XH.! ! ; ; ! .XW.#X.XW.ZX4X1XCXn.m.0 ~ ~ m b ~ OXOX6XMXFX3.5.K.m.tXa.v.n p S S b n.M.BXJXJX&X}.`.P.PX*X).O + B v *XHXcXHXcXPXcXMX) 3.( PXPX:XxXZ Z V vXxXPXcX|.|.[.x.x.x.x.z.NXMXBXNXtXa.m.",
"}.qXcX:X*XjXjXgXA.A.xX*X>Xv : + + x.gXcX9.7.( }.[.kXwXeXyXs.@.@.K J u.NXCX$X.Xi Y U s.G.!.+.3.<.5.CX7X6.I y.KX7XO.n G i 8 O.8X3X6.e.U.W.XXrX.X! S p.OX X!.$Xm.Q.H. X!.! M S H n 5.U.L.O.I <XmXG.S 0 u.H.G.I ~ 8 - n.#X$X5.+.n y v b m #X4X4XJXJX[.[.V.HXPX|.`.T C 0.zXPXZ.Z.B V.Z.jXPXAXxXcXxXcXvXW W V.x.jXDXZ.W W jX[.HXx.A.}.*X6Xt.4.t.6.z.{.MXkXMX#X#X6.U.W.1X4X8XnXtXnXnXKXCXCXKXKXbXkXP.4.2.Z B x.iXvXPXPX;XAX>X*X%XZ v = x.V.-XjXcXVX:XW %.*XHXHXPXHXHXjXcXPX:XS.z.&.p.K.eXnXeXrXtXmXnXeXyXyXuX2XXX^.J.J.J.F.J.F.F.T.T.^./.J.F.i.w.o.#.#.{ #.{ { #.*.i.XXXXnXKX5XmXnX3Xu.e.b 0 # m +.U.K.{.C.oX5.+.b - n ^ ^ r.n.5XmXyX5XtX<XY.r.w.X.o.#.o.{ { { { #.@.-.F.F.u.w.-.*.*.w.@.......O.6.H.$X3XkXCXMXFXMXdXDXPXPXLX|.&X0.8.v W ( sXDXPX*X*XzXxXLX) W   + W _ PX@X@XV.V.cXzXPXS.l.c.).f.k.l.l.f.).;XiX|.;X6XJXeXBXJXBXL.L.u.s. .D D J J Y I I e.r.CXVXwXoX6XKXlXt.b C VXPXJXlXx.2.9.cXPXHX*X:XcXvX|.E V 0.8.PXcXLXPXMXC C t.&XjXcXLXJXJXcX0.9.l D.D.|.}.LXBXY.@.@.o.X.G.ZXKX$X.X~ !.L.Y.L.I.I n G S P ^ +.BXNX6.6.m.nXmX#X.XK.rX4X6.+.y ; n..X4X.XOXn.n P n..X.X$XXX#XW.4Xv.Q.a.^ 7X7X6.H M b H 9 5.y.=X4XoXQ W m.b.5Xa.a.q q S S b n.m.MXJXJX}.[.0.3.AXxXPXN.A.x.) 9.V.A.HXLX-XPXPXsXvX3.cX}.HXPXV.>X:XPXvX|.:X*XPXPX>X*Xx.x.b.b.m.kXbXCXnXrX",
",XxXcX*X}.jXcXjXA.A.HX:X*Xv : O + A.>X:Xl.l.,.}.[.kXwXnXyXs.@.@.K D u.mXCX.XK.~ Y =.e.s.5X^ ) 7.5.5XKXO.&.*.NXtX! G i n S O.mX!.y.y.U.m.m.Q.4XQ ..p.4X$X4X4XK.r.U.I.XXO.n i S S r.*.~...e.mX~.L.i q u.H.I...~ - 4 a.OX$X5.+.n t v m M 3X6X6XJXJXZ.Z.P.PXPX*X|.: v 9.PXDXZ.}.V x.c.jXHXcXvXxXxXIXzX_ / x.A.PXHX|.E _ *X|.DXx.A.MXcXjX3.4.6.c.P.Z.MXbXMXkX=Xy.m.Q.OX#XeXmXCXnXkXeXKXKXkXVXwXMXZ.&.( : : [.vX>XIXLX*X>X*X[.;X: v l l.Z.qXjXxX:X*X2.E HX@X:XxXcXPXqXcXcXLXP.c.z.M.M.bXnXnXrXrXnXyX5XmXmXmXuX2X~.T.T./.T.T.F.F.T.F.J.T.F.F.-.w.#.#.{ J { J  . .*.u.~.+X#XeX3XbXCX7Xp.6.M b ; b 5.z.n.C.I.kX^ ^ 0 0 m ..+.r.v.4XmXnXeX<X9X!.u.@.*.@.@.#.J J { { #.w.w.i.e.e.e.*.*.*.@.@. .! ..O.5.H.1XkXJXkX6X6X=X7XMXKXMXPX[.:X0.8.x ) 3.;X-XLXvXjX:X-X:X_ /     ) / PX[.:Xb.l.HXPXPXV.l.l.).S.l.).8.N.A.;X*X:XkX*XeXMXJXKXCXXXY.e.w...J ! U I G i I 6.r.nXPXwX-XKXCXPX3.b v PXKXlXwXA.7.( cXjXDX;XjXcXqXl.E V 9.l.HXxXcXcXsXC B t.}.>XUXDXPXMXPXt.l.: 8.D.,X&XLXMXL.@.o.#.X.v.ZXKX$XOXH I.L.OXXXv.G G I i n H 5.7XtXz.r.K.4X4XXXQ..XeX#X5.&.; v n.MX#X X XM.H S U.a.!.$X2Xv.K.ZX$X.X&.6.7XOX4.Q G ~ H m t.y.7X4X{.Q M P.U.eXm.v.i i S S b n.m.NXJXJX}.4X7.3.PXIXAX`.B.8.0.0.x.V.PXPX:XPXPXPXzX2.*X:XPXHXZ.|.|.HXPX>X*X].PXPX*XjXl.x.Z.`.C.xXMXMXKXkX",
",XjX:X,X}.:XHXcX9.9.qX>XvX) ) / / >X,X|.3.9.2.[.}.lXwXnXyXs.@.@.F K u.tXCX.XW.p.L.J.-.*.9X+.<.`.XXG.L.G H.r.tXtX! ! S I S i J.J.nX$X4X4XrXK.L.% % b U.K.W.U.4XnX4Xm.a.I n n n q O.! NX*.X.!  .CX5.5.v.u.I.v.n.I i p.1X#X&.+.m N v m M 4XeXeXKXJX*X{.{.MX-Xc.l..   Q HXAX|.%XV N.Z.cXsXsXjXxXiXsXPX:XjXV.8.[.:XLX*X|.cX:XzX3.) B.[.jX*X}.v v 0.3.b.@XeX6XeX6XKXCXnXnXMXnXCXJXPXKXQ.C.t.9.0.A.Z.Z.|.0.f.IXgX,X].).).*X;X[.|.> = > vXcXVXlXjX[.|.x.x.PXVXcX8.0.}.jXlXV.c.v : &.C.W.lXnXnXtXtXyXyX5X~.J.J.J.J.J.F.d.F.d.F.F.F.T.F.F.o.X.*.} @.U { J #.#.e.J.9XNXCXtXZX4X4XeXeX3X XM.I.z.K.0.5.n.b.C.{.I.bXn.K.^ +.p.5.y.C.m.U.W. X$X+XCXmXNX<X<Xv.u.w.o.@.*.#.#.#.J o.o.w.d.i.i.d.w.e.w.5.w.*.! U ..~ 6.0.{.MXMXJXdXbXMXMXxXDXPXPX;Xl.l.A.c.A.B.A.x.[.PX&X:XE V `.A.VX2./ O + 3.zX>X,X|.[.IXPXvXDX3.) v 2.W }.[.{.*X3X6XOXbXNXKXNXBXtXI.m.O.^ ..~ K.PXnXlX4XlXCXJXz.b.^ b.Z.PXkXwX=X= = > cXjXHXZ.V.0.l.2.9.9.*X`.sXLXHXHXKX3.4.6XKXHXHXxXjX;XMXb.V.v q.9.>X*XLXNXL.@.o.#.X.v.ZXKX$X-Xb u.a.8X9Xn.S U I Y a.a.KXa.e..X!.a.^ I y.r.W.$X4X=XwX+.~ 0.3XNX3XOXK.r.u.CX3XtX4XXXv.K.S 6.y..XI.5.y.KX5.5.v m i 6.4.JXPXP.- ; U.m.3Xa.r.9 9 S n b n.m.NXJXJXP.`.x x >XAXLXLXPX:XxXx._ _ b.V.PX:X:XHXPX;Xc.h.Z.[.}.jXjXHXHXE E v }.:XPXPX3.V v c.h.V.zXzXkXcX",
">XvX>X:X:X>XHXHX9.8.*X}.:X3.2.( ) Z.>XAX3.3.3.%X}.cXwXlXtXs.@.@.F K u.BXNXW.oXU.XX~.w.*.<X..)  X!.J.!.I u.a.9XZXI I I I U J v.K.nX4XeX#X.Xn.Q.- % N .X.X.Xm.4X4X5Xa.r.I G I n n *.X.uX*.r.O.*.tXy.5.w.v.8Xu.5.H ^ n.#X$X&.&.m b t m M -X6X6XJXJX*X[.vXcXPX0.c.    B jXPXsX;XQ V.l.:X*XzXjXAXjX:XPXMX;Xl.V.;X;XcX>X*XHXcXsX2.2.*XZ.cX%X|.: v 8.+.P.zXlXlX6XbXKXeX7XbXkXkXkXCXKXJX@XV.t.3.0.0.V.|.N.3.N.GX>XGXN.S.9.iXiX).c.l = v PXcX:XwXcXZ.Z.Z.}.wX[.:X8.0.A.cXlXp.l.Z v p.@XW.tXmXmXyXyXyXuX2X~.T.J.J.T.T.T.F.F.d.F.F.F.R.d.d.o.o.*.#.X.J D a *.@.d.d.5XtXKX7XeXrXeXbX3X.XI.I.K.z.K.6.t.z.n.t.W.W..Xn.M.4.+.0.y.t.C.m.n.K.K. X7XBX9XNX9X8XH.G.e.@.X.o. . .X.{  .{ *.u.e.d.s.r.*.*.*.5.*...! ....6.6.K.eXbXNX4XlXMXsXkX;XPXKXMXV.b.A.A.[.b.V.x.c.PX&X[.W W A.[.HX3./ .   3.PXPX*X:X).PXPXPXcX) 2.v 2.W A.x.|.MXlXMX=X7XBXLXbX7X7X{.K.4.~ ^ ~ K.bXkX6X=XPXPXCXb.y.4.C.Z.;X6X6XkX% = = :X>XHX[.[.l.9.) 8.8.|.}.vXjXcXcXcX2.+.jXPXPX:XjX{.6X=XA.A.V 8.0.*X*XLXFXL.@.@.#. .v.ZXKX.XoXm n.a.OX1Xv.O.I J G v.v.tXe.6. X3Xn.~ P y.6.K.#X6XlX@X+.~ b.NX7X6X4XC.m.n.OX7XW.rX2Xm.m.t n.n.n.1X&.5.bX6.p.m H b e.6.JXPXC.; > P.C.4Xa.y.q i S n b M.m.NXJXKX6X*Xv l [.iXLXPXLXxXxXA.Q +.9.x.PXxXjXHXPXPXx.9.A.V.V.>X:XcXPXE / : *X[.PXHX8.T E ).A.A.zXjX6XvX",
"|.:X*XxXvX*XHXPXV V 9.x.:X|.>XjXIXcX|.].l v _ %X|.vXwXlXtXd.o.o.K A u.NXCX{.@Xp.L.~.~.<XXX5.<.6XXXa.e...L.~.XXH...O.! p S p n 6 t +.Q.Q.U.K..Xb b M y.6.W.$XW.+...I O.n S G 9 A p D 2Xd.G.Y U v.n. X!.L.U.*.U.OXa.H.OXOX5.6.b 0 t m m =X4X6XJXJX[.[.x.zXHX;XvX7.l.B.:XcXx.c.R V.V.HXDXPX&XiXPXPX:XcXHXzXjXV.8.8.[.[.zX*Xc.O . : v HXcXzX4.B C R 0.V.b.6X-XkXkXbXPXPXNXbXoX4XP.b.C B W 3.:XcXPXPXPX%X%XGXN.k.. . E %X,X).x.q.q.Z.:X>X:XcXvX2.4.Z.V.PX7.W +   / IXHX9.D.V C b.wX$XtXnXmXrX2X2XXX!.J.J.T.G.F.F.F.F.T.F.F.i.;.;.} } L F f f F *.J.2X~.2XKXZXmXv.p.5.O.K..X XI..XI.K. X X=XK. Xn.K.n. X4XK.y.y.C.m.K.K.U.I.`.P.oXm.m.5...w.L.7X9XBX9X5X<XL.v.u.*.X. . .{  .X. .X.*.*.a.u.u.u.r.5.O. .I ^ P H ^ 5.n.P.6X6XJXcXMXcXcXsXLXHX6X;X[.3.( W W }.jXPXxXcXHXvXHXl.8.> O 8.vXPX|.*X) c.V.MXPX;X*Xx.[.|.[.V.0.8.7.`.P.6XlXMXdXMXMXxXPXMXjX=X{.kX=XlXJXMXlXK.z.K.@XMX-X=XPXPX=XjX&.3.3.PXxX[.Q C B E 3.*X>XHXzXcXLXKXHXKXb.x.KXjXgXE E Q kXzXjX*X_ 8.8.*X&XLXLXY.-.-.#.X.v.ZXKX@X=X: H Q ~.5Xa.n I s.H.tXmXy.H.y.7XXX~ 8 6 I &.tX6.y.Q.{.P.b.Q.b.K. XOX X#XC.n.K.a.5X2X^ M H I m .X3XM.m.y.KXMXy.&.n 6.6.I.P.) : 8 {.I.nXn.r.S S A n b m.C.CXJXKXb.[.9.c.LXsXzXA.`.:X;X:X8.3.v : [.PXDXLXzX>XxXHXB Q ( HXPXHX*XZ v = }.|.PXIX).x.h.8.f.l.).}.gXgX",
"l.}.|.vXjX;XPXKX2.) b.x.>X:XxXcX}.[.k.Z.E Q / [.[.kXwXnXtXd.#.#.K K e.ZXKXOX4XO.s.s.~.~.O.+.4.MX7Xv.r.e.H.a.XX5Xi O.5.! ! A ! ! P ~ +.+.p.rX4X^ 4.6.Q.p.Q..Xn.~ O.G I p w.a.G S Y Y <XJ.J.F U J.!.Y.O.*.tXJXBX6.n.M.XX#X6.6.m 0 t b b #X-X4XJXJX[.*XB }.A.MXjXcXcX:X}.;XW W Z l.x.xX;X*XQ W c.A.LX*X}.HXPXxX;X/ 8.9.xXPXjXV B _ / PXZ.A.|.}.jXDXt.x.c.LXVXJXlXKXQ.P.&.5.&.oX*X4XsXjX=X*XPXxXc.) q.q.g.SX%X>Xv Z _ gX>XN.f.f.l.>X>XxXPXPX@X: : l.9.cX9.l.Q v V.cXcXD.p.( ( C.nXrXtXnXtX$X~.~.W.J.J.G.G.G.F.F.F.F.w.=.o.} { { g g X.e.s.2X<XyX0X0XmXyXXXv.! - 6 &.&.1X5X!.K.L.6.5.5.U.I.=XXXz.n.p.y.5.&.H.W.n.u.3Xm.n.B.P.U.=XK.P.bX@.! 8 S H Y.<X5XNXmXyXmXXXa.s.X.o. .U U U  .@. .X.@.5.r.u.w.O...&.+.H m m v M b.b.MXcXKXjXzXzXcXHXxXPXPXcXMXsX;X*X}.Z.3.0.8.3.HXjXIX,XZ.HX-X*XZ.A.o : ; Q.wXHXPXjXcXPXKXHXc.v > ) <.x.P.P.U.oXAXjXxXxXxXMXMXlXPXKXJXkX5.6.p.PXkXJXb.t.}.kX6XKXxXwX*XHXcX[./ ,.l.D.>XPXvXvX>XvXcXMX6XMX[.P.LXA.[.+ . = ;XzXcX:X/ 8.8.>XoXJXLXY.-.-.#.X.v.ZXKX.XQ.^ m.p.!.L.L.e.*.0X0XXX<XI 8X3Xm.H.P ^ ^ I P W.eX-XoX.X6XwX#X) ~ ^ ~ m.OXoX4X4X#Xm.K.^ P I ; b 6.^ NX3X6.z.K.3X7X+.y.m. X=X) > > m.M.BXy.5.A n A n b m.C.CXJXKX}.&XsXsXAXl.0.= , W / V.V.A._ W l.xX6XcXPXPXPXPX>X*X) >X*XHXPX}.}.l.PXcXxXjX*XIXPXpXaXc.N.).A.].",
"0.}.&XvXjX>XPXHX) ( Z.A.jXvX6X*XjXgXf.f.T E E |.E.kXjXCXmXs.#.#.F K 5.NXKX4XnXI e.e.~.2XI 5.5.6X8Xa.r.e.J.s.5X~.A ..!  ...y G P ! P +.5.p.-XQ.4.+.4.K.K.#XW.y.^ ..! ..p 5.w.9 n G G <Xs.G.U U e.+X X..! 8XKXNXu.y.p.=X4X5.5.b b t b m #X=X4XJXLXQ.oXv P.*XMX:XLXAXcX*XsXZ Z B B.l.zXzXxXW W x.V.LX*XsXPXHXvXKXB 0.9.MXMX}.v V ( ) IX[.).[.}.HXjX8.l.t.HXMXKXwXlX@X{.+.3.+.6X*X;X*XcX}.&XzXKXV.,.Q c.c.GX%X%XZ Z ,.zX>Xf.f.9.f.*X>XwXVXPX@X= > V.V.Z.l.x.Z B |.vXVXl.9.&.( z.eXrXmXmXuXXX^.^.^.T.T.T.F.F.T.T.u.-.-.o.=.X.#.} D f X.e.r.~.^.mXuXmXuXtXW.$X^ & # 6.5.1XXX.X.XL.5.y.5.I.n.bX3Xm.n.u.5.w.5.v.L.a.z. Xn.n.m.U.b.oX'.3X XQ +.8 S m  XI..XZXNXZXKXXXy.r...*...I U U U *.@.*.*.*.e.u.w...O.+.+.M m H v M z.z.lXJXJXkX6XMX;XxX:XHXPXHXHX>XvXx.{.{.3.8.3.8.PXvXiX|.}.PX[.[.|.Q.  = - 4X-XJXMX-XHXKXPXKX{.= > ) ) c.`.|.[.*XzXiX;XcXAXLXLX}.PXJXVXKX^ U.p.kXMX-Xz.V.Q.-XKXcXjX:XjX>XHXA.W ,.D.8.vXPXjX:X6XLXMXKXcXzXb.b.PX[.Z.+ O Z -X*XsXDX/ 8.0.:X}.FXLX!.-.;.X. .v.ZXKX.X.X) p.y.XXY.!.&.5.5XyX!.L.O. X1Xn.H.S ^ ..I I !.#XlX=X=X=X6X#XW E ^ H OX=XI.lX{.7Xv.U.P ..I i 9 O.5.nXeX5.K.t.kXXX5.H.{.C.#X+.: > b.n.ZXr.5.G n A n b m.H.JXJXJXoX`.jXxXDXx.B.O O ) / c.A.x.W ) V.>XIX>XvXPXjXPX*XUX2.:X|.PXHX[.Z.l.PXPXjXjX|.LXIXGXhX,.N.|.l.[.",
"% 9.8.}.{.;XHXzXZ.9.jXvXvXE ) : > ).*XgXk.q._ ,X}.wX=XnXmXs.#.@.J G e.mXtXrXrX..; - p n - +.+.=X8X!.1XJ.~.~.~.J.Y r.s.~.W.e.U.!.KXCXa.y.3XC..XP.[.{.b.t.kXCXQ.nXmXY.~.G.XX~.I J D A tX5X2XX.! r.1X1XG G @.+.4.b b z.=X#X6.5.b b y b m $X-X6XKXJXQ.}.2.jXlX[.|.*X*XjX;XAXV.l.C l.9.LXHX*X: v : : [.vXIXZ.@XPXVXlX8.p.@X-XVX-X@XjXjXzXZ.}.A.}.HXHX*X) ) t.K.K.C.}.c.z._ wX}.HX:XDX;XcX:XiXPXPX/ .   0.8.HXgX:X,X%XHX[.gXq.2.4.2.cXcXVXLXPX&.S.x.PXjXHX*XAXIXGXHX,X@X7.4.6.p.$XCXCXZXZX<X!.T.T.T.T.F.F.d.F.*.-.o.F { U D F *.} J.G.uXuX1XrX1X4XI ..^ ^ n.p.&.^ ~ eXCXv.XX.XS P - M 9 % ; +.6.XXn.L.O.Y ~.a.*.$X3X+.0 0 = O H h.b.`.I.m.m.Q t.t..XQ.^ ^ 5.oXM.rXnXmXtXtXJ.*.r.D  ...! ! ..G ! ! O.....5.6.+.S I t 0 ~ ^ lXkXbXbXkXKXLXcXxXcXzX6XvXHXxXjXHXDXV.x.( ) A.zXsXIXAX%X:XoXHXVXE Q / lXVX@X=X+.4.z.{.wXcXZ.[.*X>X[.0.0.) ,.V.).[.;X*XjX*XIXVXKXb.b.H kXMXPXPX2..   &.8.:XxX:X>X[.c.l.q.Z.D.*X>XAXHXjX:XcX:XMXMXsXJX+.4.P.B.x.P.P.oXHXHX%X>XC f.0.>X*XHXKXL.-.;.} { s.CXKX}.@X{.oXU.H.H.2Xs.p.tXnXv.m.y.mXtXy.r.H ..! n G +.oXoX7X=XkX4X6X8 ; m v x.P.`.6XkX{.4.~ P ..D P M G ..tXNXp.~ ^ NXmXy.3X#XC.oXC.K.{.C.m.BX5.e.q A p n n U.K.JXJXPXoX&X`.|.LXx.[.: 0 0.&.>X-X[.3.3.k.UXHXHXHXiXAXAXPXPX}.N.x.xX:X*X>XA.PXHXV.x.&.}.>XIXGXf.Z T N.f.",
"# 9.8.&X}.-XKXLXx.t.xXxXcXE W > v }.:X>X3.1./ |.[.:X#XnXmXF.o.@.J J e.yXrXrXrX&.y 8 i ; - ^ ) -X#X1X.Xv.5X2XJ.T.D w.d.~.XXa.m.v.NXtXa.a..XK.{.A.P.P.z.b.CXKXOX4X9X~.<XJ.<XXXI U p G mX5X~.=.=.a.5X5XS G +.4.4.x 0 y.#XOX6.5.b i y b m $X-X4XKXJX}.oX8.*X6X@XvX[.[.iXcX;Xl.c.V l.x.HXVX:X: t % = V.PXjX|.-XKXKXUX6.p.#XZ.MXMXcX*X*XPXV.|.*X[.:XjX:X+.+.8.t.{.=X}.M.p.) :X;XjXHXDXAX&XjX-XMXHX/   + 3.8.vX*X:X}.}.PX].|.( ) 9.8.:XMXMXKXKX8.x.x.vXIXcXjX;XvXvXIX}.*X0.&.t.z.-XnXnXyXmX<X~.^.T.R.R.R.F.i.d.=.*. .Y A F A U =.=.G.G.yXtXrX1X#XW.^ +.P I M.z.&.^ ^ -X4X!.$X.XS b t ; M # @ ....1Xm.H.U X.v.r.a.5X$XH m H o = : z.0.`.U.z.0.P y.p.oXQ.5.) 4.C.K.eXCXnXNX1XJ.&.e...! ! I G G I  .! O.&.O.&.+...I Q 0 b H ^ 7XNXKXCXnXMXcXDXHXHXjXxX:XMXPX6X6X;Xx.V.2.) B.iXIXIXPX[.sX*XPXVX/ H H lXHX-X{.+.4.6.6X@X6XQ.A.*XiX[.q.q./ ,.k.|.%XgX*XAX;XcXPXHXt.6.P 4XlXPXPX8..   ) 3.vXUXDXZ.Z.Z.l.q.l.Z.iX%XIXzXDX>X*XLXJXcX;XxX+.<.Z.C.h.B.A.sXIXLX).%XC f.9.:X-XHXJXK.-.;.} { s.CXKX}.oX=XP.W.W.G.<Xe.p.eXVXm.m.a.BXtXy.y.! ! J S ~ 5.'.oXbXbXJXeX=X; : M B x.P.P.;XsXm.5.&.^ ! G n n I  .5XtXH.+.+.7XtXz.I.oXoX XU.P.{.K.H.bX5.e.q n i n n U.I.JXLXPXA.[.Z.%XPXZ.c.: : 3.9.xX*XQ.3.) k.vXDXPXPXiXsX;XHXPX%Xc.x.iXcX;X}.|.PXPXx.V./ ].%XPXIXk.Z Z f.c.",
"+ 3.t.HXcXjXMXjXZ.V.jX|.|.v v = O l.>XvX0.D.3.].].qX#XmXmXF.o.@.J J e.tXrXrXrX^ % & n t P 6.0.lXbX3X.Xv.~.~.J.~.Y -.e.~.5X~.$X~.~.~.H.K.K..XoX@X*X=XV.P.kXkX=XXX+XXX<XG.~.!.F D U Y XXJ.5X~.!.~.7X8XS H x 0 0 # ; y.=XOX5.5.b y y b b $X-X4XKXJXb.P.Z.lXlXV.p.+ , ( DXAX&X;X) x.x.cXlXjXv : o O ' ).Z.LXVX-X-XwXKX-X|.A.{.|.}.vX;XIXT B v v V.|.PX8.^ v 0 z.wX=XVXPX:XjX;XsXzXC : l >XvXvXwXx.W ) [.}.cXZ.*X*XjX*X8.2.B V V.V.jXcXVXjX}.S.VXHXxXvX).DX;XIXgX,X,./ E W z.m.eXZXZX5XyX/.~.^.F.F.i.o.o.} #.{ U D Y  .a.a.uX5XyXZXmXrX1X1Xv.a.+.; ; &.&..X.Xz.p.p.rX5XW.Q S H ~ H.K.M.+.Q G 6 U.XXW.XXXX~.J.v...! S +.z.4.0.0 H H 3XoXoX{.z.K.C.{..XH : : t P 5.P.Q.1XyXNXZXCX1XL.e.G.w...O.! G S I ~ I H I ^ ^ m H b P m.tXNXbXnX6XC.{.jXzX:XcX*XHXHXxXHXKXxXLXzXjX`.).A.,.9.Q |.zXvXcX:X|.[.PXVX}.kXv   . =XcXPXP.*X:XxXHX;X|.) C _ c.V.[.[.AXcXHXc.t.=X=XKXoX=XMXcXx.v B S.V.HXcXA.v : E ,.A.Z.*XcXjXPX9.x.8.2.jX}.HXPXLXC Z U.LXPXPXHXxX:XiX) ,.B 9.0.:X-XKXCXK.-.-.} } s.CXKX{.{.}.#XnXZXyX!.J.m.JXKX$X.XH.NXBX5.O.! ..@.! m 8 0 m ^ 5.{.=XlX) 2.8.4.P.P.x.B.b.H b H S M ..n G U I 1X1XI.&.+.U.m. X XI.3XK.&XOXC.I.U.tX5.w.q p i p n U.U.NXJXLX|.`.3.8.PXHXPXxX6XMXwX*X2.1._ Q A.DXgXvXIXvXHXPXcXcXDXLX;X( <.3.3.>XHXvXV B . 8.9.SXIX].q.2.k.k.",
"> 9.3.6X;X*XMXLX0.0.[.V.jX8.l.x.V.cX;X].B E %.|.[.wX4XNXmXs.#.#.J J e.rXrXrXrX~ M G n.n.C.Z.Z.-XeXn.K.H.e.s.2X2XA X. .e.s.G.!.XXs.v.XX$Xb.oX@XlXzXcX{.P.Q.P.#X$X~.9X9XY.<X~.U Y @.*.rXG.G.G.~.5XXXtXH.1Xn.Q I H 8 z.4X$X5.5.b 8 y m m $X4X4XKXJXP.Q.*XLXLX|.[.O . E HXiX`.|.W V.x.xXjXwXv v O O . v : |.}.-XwXlXwXVXlXPX4./ W xXHXAXE Q O O *X[.KX[.{.b.t.JXJX;X-X[.V.lXHXiX;X: Z l iX>XDXPXVXlX>XHXHX|.V B v B 8.) 3.8.9.PXcXlXHXJXZ.l.x.HXHX*X*Xv W E gXzXA.: C ) 8.jX#XnXrXeX2X0X/.T.^.i.;.=.o.o.J J { *.s.uX2XZXrXuXW.~.XXXX$XXX4X.X4X#XU.I.y.6.{.OXZ.{.Q.=XW.U.t M {.m.#XnXeX$X4X..H p.OXU.1XXXL.H.H.H G U.8X X#X7Xn.0 ; m.m.Q.Q.K.C.z.0.6.C.M.Q.Q.K.C.{.Q.L.XXa.!.+X1XKXCXNXXXr.r.*.O.I ~ H S n M ^ +.S Q M H 5.bXCXnXKXCX8.0.P.P.*X:X*XPXzXjXvXvXjXcXDXHXHXIXPX;XjX3.c.l.*XA.lXV.[.-XVXPXkX5.^ W lXoX-X8.+.V W Z.HXPX%X).gXPXzXV.8.) W B ;X;XcXKX6X{.b.PXPXUXV.Z.HXPXPXPXD.( 4.Z.V.DXvXiXxXPX].= , Z V vXPXKX*X-X8.h.dXkX&X`.=XA.}.cXl.N.B 8.q.>X-XJXCXL.-.-.} } F.CXKX{.{.+.p.6.e.v.a s.m.eXVXW.W.m.3X<X~ ! 5.5.+.J ! e.I.C.m.b.OX6XMXn.b.b.x.oX;X[.[.A.OXb.n.5.O.U.D J ! U tX7XXX5.&.p.y.3X6.5.bX3X=X+.6.I.K.tX5.5.i n i n m U.U.NXJXLXC.x.V T }.;XgXHXPXPXPXwX/ ) / W x.cXvXHXPX`.x.c.LXLXJXMXPX}.Z.W E :XvXHX*X*XV jX>XPXIX).[.>XvXIX",
": 7.<.&X*X;XHXPX4.4.x.l.:Xl.l.x.A.*X|.*XW _ %.|.|.kXwXmXyXu.#.#.J J w.eXeXlXwXP i t n.C.C.Z.*X*X4Xz.U.L.r.G.~.~.Y *.o.e.r.G.J.~.v.v.1X$Xz.@X}.-X*X:X[.P.C.m.#XXX!.9X0X~.T.J.J G *.*.0XJ.s.r.v.1X~.1X XI.n.G I ; 0 z.3XOX5.5.b 8 t b m #X4X6XKXJXZ.C.|.PXLXP.V.O = Q zXjX%X|.Q V.l.cXlX:Xv Z O + O O : Z.b.cXwX-XwXLXlXcX/ _ ) PXzX>XV E = > *X[.MX&X{.c.z.VX.X-XQ.|.|.HXjXcX;X= Z Z ;X*XPXHXQ.-XvXxXHX[.W V B B l.8.8.8.8.vXHXHXPXPX0.z.V.VXxXxX*X> V V iXgX).V v _ 2.wX-XnXeXrX<X2X/.T.T.-.o.$.F { { U o.*.s.2XrXZXKXyX5XW.XXW.4X1X.X!.W.OXI.{.C.p.{.{.m.P.P.oXkXK.H H W.K.=XeXkXeX=XH ~ p.OXrXtXbX7Xn.M.~ m I. Xm.BXBXXX- 8 K.C.{.W.{.P.C.t.t.6.p.C.oXQ.{.Q.K.!.!.!.<X1XtXNXtXtX8Xv.s.5.5.I m I I I M ~ ^ H I P H ! tXmXeXCXKX0.8.[.{.LX|.Z.:XDXcXjXsXcXcXHXHXIXIXAX;X*Xh.9.0.[.A.zXA.Z.wXwXVXJX0.^ ^ {.cXKX4.8.B V [.PXPX%X;XiXcXzXB.N.W ) H =X-XPXlXkXZ.P.PXjX>X[.[.jXPXxXPX2.q.( x.8.>XHXcXHXPX9.= O V V :XPXKXjXzXz.c.zXlXPXB.&Xx.jX*Xl.c.E 9.q.-X-XJXCXL.*.=.}  .G.CXKX X{.~ t.n.n.a.6 L.K.wXeX.X.XI.OXXXO. .5.r.O.G ! u.W.K.n.n.{.oX#Xm.z.t.t.A.*X*X*X{.K.p.a.*.&.+XG F D G tX5X!.5.&.y.e.OX..+.kXkX6X+.~ K.I.tX*.&.i A i n n L.U.NXFXLX`.V.R T |.;XjXPXHXLXHX>XQ ) ) ) x.cXgXDXPXA.c.A.PXKXKX;XPXxX:XW W }.HXxX[.S._ gX:XIXAXZ.zXAXAXcX",
"O <.2.6XzXjXLXHXR E 8.8.jX*XgXHXcXzXV.S.v Z E E.[.kXwXnXyXs.o.o.J J w.bXlXrX-X~ ^ ~ P.oXP.A.}.Q.oXoXW.$XrXuXT.~.f  .X.e.w.s.r.s.L.v..X!.Q.eX@XQ.Z.|.[.|.oXoX{.m.G.~.Y.J.e.w.A A *.X.XX~.XX~.L.<X!.~.U.u. XI..XI v z.oX.X5.5.i y t m N #X4X6XKXKX}.Z.9.MXVXvXPXZ.}.`.iX|.x.c.V V.x.HXlX-Xv Z # + x + + : ; |.6XkX@X@XHXPX:X0.3.}.iXPXV.%X&XZ.-X|.xXjXMX6X6XKX3.8..   v PXPX;X;X`.|.|.DX*X6X*X9.:X[.x.V.8.( 3.9.8.l.Z.*XjX>XxXjX}.KXVXv v ( lXcX|.*XE 8.8.gXiX).3.D.V.l.kXnXnXtX5X2X2X/.F.R.$.$.$.;.s.Y./.uXrXyXZXrXQ.a.I &.&.~.5X.XXX XOX{.OXI.K.{.K.=X{.b.b.Z.=XoX7.) 2. X6X=X5.+.6X6X+./ oXC.b.kX7XbXm.m.~ H KXI.n.I.I.I.G S u.r.Q.{.b.6.5.y.C.Q.Q.m.K.U.{.K.C.m.5.L...I &.O.XX5XNXmXtXtXtXY.e.&.^ ..H I ^ ^ ~ P M S #X#XeXeXMXwX|.A.l.*Xl.x.}.V.;XcXMXLX:XcXHXcXIXAXHXLXPXxXcX:XoX4.v > x.M.wXPXlXwXMXkXlX-XB Z   . 9.HXIX).|.cXHXLXjXcXq.0.( jXjX6XwXv = O P.;XHXcXvX}.|.3.3.9.A.l.HXxXPXLXvXx.l.=   . W W cXzXcX-XzX[.}.JX=X[.O , v jX;X%X%X/ c.0.:X6XJXCXL.@.@.#. .G.CXKX X XG - 8 q ; 9 1X#XVXCXrX7XeXBXBX .J *.NXKXBXOX3XNXkXOX{.6X6X=X4XzX=XoX&XMXMXxX;XbXnXNX+XJ.tX!  .U X.KXKX1XU.m.W.I. XH b C 0 m x m P.I.tX@.@.n A i n n I.U.NXFXLXZ.|.c.A.PX,XS.( ( Z.;XPXV.V.4.( 9.cXHXPXPX2.> % A.A.MX6XDX6XDX}.}.A.vXHXvXHXvXDXcXzXjX8.*X>XLXPX",
"% 3.4.=X*X6XPXPXB B 3.8.*X*X:XcXvXlXx.l.v Z E |.Q.eXrXyXyXs.o.@.J J w.nXrX$X-X&.^ &.b.K.oX|.|.,XC.$XW..X5XuXG.^.F X. .w.w.J.r.a.G.v.W.K.$XeX*Xb.S.Q.}.|.@X#XC.n.T.^.J.T.@.*.D G  .O.2X~.L.J.J.1Xm.K.L.m.OX{.B.0 H z.oX.X6.&.t t t m N #X4XwXKXKXP.{.2.KXHXVXvXoX%X%X;XiXc.h.V P.A.MXjX>Xv b O O v O   # v @XoX-X-X|.LXxXsX4.8.;X%XGX[.[.}.}.[.-XzXoX6X-X#XPX6.4.  . / HXcXsX*XZ.%X*X}.sX:XjX3.S.|.V.x.3.3.3.x.l.A.}.*X*X:X}.>X>XPXPXb > 3.vXHXV.*X2.,.3.,XvX).2.3.c.D.-XCXtXZXyX2X/.^.d.i.F $.o.u.u.J.^.rXyXZXyXZXK.a.~ y.6.W.~.3X3X#XI.I.H. XK.`.P.`.C.B.b.B.&X;Xz.^ &.oXkX}.+.6.wX-X+.R oXP.C.NXkX7X{.K.H G JXu.H.3XI.n.G G H.r. XOXp.5.4.z.W.K.K.P.m..XW.W.K.v.u.OX5.O.! ..1XXXmXKXmXbX1XU.6.a...O.P G I O.O.I P H L.K.ZXmXCXoX-Xt.x.&XV.l.t.[.sXjXjXHX*XjXjXxXHXxXiX;XcXvXHX*X*X2.v v 9.l.cXjXJXMXLXcXsX*XW E .   2.vXPX}.*XiXLXIXPXLXx.9.) jX}.LXcXZ . O oXV.PXiXcX[.Z.c.9.2.l.S.wX6XzXjXPXZ.3.>     P E HXcXLXzXjX@X-XPX=X;X#   l jXiX;X%X) c.8.wXwXKXCXU.@.o.}  .G.CXKX!.OX..; 8 b % S L.#XnXCXrX1X4X7XmX..@.5.KXyXtX9XNXJXMXoX{.4X=X.XkX6XoXoXP.:X6XjX;X7XmXCX+XL.1XU ! J U tXyXL.L.K. X#Xn.b b 0 b v H m {.I.7X@.@.n n i n S I.I.NXFXLXP.|.A.[.PX].[.W _ [.V.PXV.S./ %.S.GXjXHXVX/ = # P.P.KX#X6XPXPX6X}.A.cXPX:XqX:XxXHX>XcX3.jX-XPXPX",
"O 9.t.xX6X:XLXLX2.4.|.}.cX>X|.[.A.:XZ.Z./ ) ) @XQ.lXrXtXyXs.o.@.J J y.NX4XW.#X3.Q.#XQ.C.-X}.V.*XwXwXwXW.&.*.U U U { f U  .u.@.*.a.G.!.m.W.W.Q.8.9.V.}.V.C.W.b.Q.J.J.s.J. . .D J A i *.O.y.!.L..X#X$X!..Xm.n.C.6./ m.oXOX6.&.t t t m N #X4XwXKXKXz.C.v |.|.vXwXLXAXLXsX&X_ E v [.Z.xX>X:Xv v O = 0 v : - . - v C.kX-XjX*XLXIX>XZ.).%XSXAX%XjXjXPXA.) ( ( +.VXK.C.v > 3.-XjXxXzX;XsXPXcXcX4.( y +.( 0.V.x.[.Z.cXxX>XvX:X>XHX>XHXPXZ.[.H +.;X[.jXjX>XvXLXLXGXgXc.1.1.A.|.KXKX1XtX0X/.^.T.;.;.j $.o.<X~.mXmXZX2Xm.I P ; y t r.m.$X$X Xn.y.G ~ ~ P.{.OX`.B.C.&XoX`.;X*X-XH W -XoX[.6X=Xx.V.t.z.oX{.{.&XdXOXI.'...^ n.n.e.L.H.1X..! r.M.K.U.y.m.K.Q.n..XP.U.+.5.~ 6.6.W.XXL.n.H.b 0 ; ; G u.n.XX1XnX7XXXO.&.I S M ....G G n e.6.ZXZXCXKXPXV C / V.>XHXcX|.3.2.}.*XvX*X-XLXPXcXvXHXvXcX6XHXHX|.*X8.2.Q.{.oXh.h.oX-XLX|.|.3.3.jXPXcXh.0.Z 3.8.:XcXsX>X|.zXvXKXjXZ E B Z.|.PX3.2.v v ( 2.[.*X-XzXLXJXt.t.O O : .   ) E 6XLXPX6XQ.z.V.-Xx.9.0 v <.zX>XcXjXW 9.q.6XwXJXCXJ.@.@. . .G.CXKX!.H.H m b ~ I *.7X=XMXCX4X.XXXXXtX@.*.J 5X!.5X5X1X3XOXI. XkX6X{.bXMX-XsX}.sXzXDXMXrXtX5XJ.H.!.U U *.*.mXCXXXtX5XeXbX=Xm.n.G Q x M M OXW.4X&.&.n p i n S I.I.NXJXPX`.|.[.%XAXq.8.+ + 4./ GX|.|.( 3.S.cX>XcXVX/ # O 0 8  XNXMXeX3XJXPX6Xx.8.l.V.x.PXPXc.8.+ ^ &.-XkX",
"O 9.h.xX6X6XLXLX3.3.Z.*XjX:X:XZ.Z.-XV.Z./ ( ( [.{.eX4XuX9Xs.o.-.J J 5.NXrX.XW.0.$X.Xb.OXoX}.|.,XQ.KX=XK.X.*.U F U J D U  .e.@.*.J.s.K.Q.W.K.E.8.0.Z.Z.C.M.{.z.m.Y.s.G.d.X.U Y Y A n ! r.5.H.XX.X#X.X.X.Xm.C.{.+.4.z.oX.X5.5.t N y b b oX-XeXPXKXM.z.B |.Z.HXjXHXDXLX;XsXV R B [.A.jXcX-Xy y > % M > 0 O o = 0 C.6X6X:X;X:XAXPXN.A.>XzXHX;X%XPXHXA./ _ 3./ MXQ.Z.; : 0.*X*XcXHX;XAXHXsXxX7.) B E ( 9.l.x.[.V.HXxXcX:X:X:XjXxXHXPX@Xz.^ ^ |.-X*XjX:X:XPXIXvXvX0.1./ Z.,XVXnXZXyX0X/./.T.;.$.[ F =.<X<XmXrXZXCX5.~ P ; 8 y p.n.W.#X XI.t.H H ~ `.'. X`.C.z.;X}.oX;X-XoXQ / P.jXoX*X=XP.t.b.c.[.=XoXoXdX;XoXB.+.+.n.H.5.Y.+XG.! @.r.m.K.W.5.m.Q.m.U.Q.C.W.5.+.^ 5.r.OXm.H.L.M.8 0 6 8 S a.H.!.XXCX#X4X5...I n D ..&.I D I *.6.KXZXKXJXPXZ W V *X|.cXcX|.2.4.oXsX|.>X*XPXHXHXzXcX:XDXxXjXHX}.&X3.h.V.).*Xl.x.*X[.PX}.|.l.7.jXHXKX9.9.v 3.3.HXHXjX*X*XHX>XcXMXB V v }.[.PX3.q.v = 9.( P.6X4XMX-XPXC.0.# O = . . W Q lXPXVX@X-Xp.Z.qXl.l.v : _ cXIX%XSXQ 9.0.jX6XCXnXJ.*.@.{  .G.KXKX!.OXb M b Q ~ u.OX4XkXlX6X#XJ.tX5X@.*. .<X<X1X<XtX7X XoX#X=X6X4X6XlX6X=XoXcX;XLXMXeXeXNXH.!.s.J U X.=.yXyX5X5XtXtXKX Xn.n.~ ~ ; V B {.I.8X*. .S p n n A I.I.NXFXLX|.[.[.|.AX7.3.+ . ,.,.AX|.Z.1.1.x.vXcXwXcXH = o ; b H.NXKXkX#XPXPX;X0.l.l.[.x.cXVXp.z.  ^ 4.kXlX",
"+ 7.9.kX-X:XLXLXA.Z.>X*X}.W V O = x.}.:Xl.9.&.|.}.nX7XyXyXs.o.#.A K 5.mXrX#X$Xm.eXZXXX4XQ.Q.A.Q.A.0.p.tX&.*.D O.o.U D f p J D U s.J.m.s.m.@XQ.V b 0.-XeXQ..Xm.Q.^.-.@. .F J J I J A q G ..L.1X+X!.$X.X4XoX=X6Xb.m.K.oX#X0.5.6 8 b B N #X4XeXKXJXZ.Q.V.wXzXV.Z.2.4.|.AXPX9.0.R x.V.zXcX:XZ v > % v ; ; 0 0 % X ; Q.C.;XxX;XPXSXzXzX8./ / *XcX>X:X3..   Q ) MXoX}.-X*XPXVXHXV.3.Q q.3.h.0.4.( z.}.[.>X*X*XcXcXPXcX:XvXcX:X>XvXvX:X0.Z.#X{.PXLXxX*X>XxXjX;XA.A.2.q.S.gXqXlX4XtX0X2X^.^.F.$.[ F F d.ZXmX5X1X4XwX$Xm..Xp.p.6.=X-X#X.Xr.# - H +.~ 0 0 7.<.;X=XoX&XsX|.P.@X/ ^ P.{.}.=X6X=X4X6X{.Z.oX X=X6XP.oXdXOXK.n.K.XX1Xr.!.G G !.n.Q.K.Q.m.K.P..X+.+.Q +.^ ~ # ; ! ~ 5X.X!.r.O.O.&.O.a.a.r.a. XBX7Xa.a.&.G G G G ..! P ! ! .X+XnXKXPXV.V.E vXPXvX:XB O , Z.Z.}.*XQ.[.A.wXsXHX:XxX:XjXcXHXHXzXiXsX:XA.T C W ( sXPXPXxX;XcXHXMXV.V.# W 3.MXMX;X-XB.[.`.PXPX`.;X}.xXSXzXT B ,.4.).}.cXjX6XKXPX7.- # ; > >     W W VX@XVXlXlXV P S.@X&X>XIXPXPXvX8.f.Z 9.f.jX6XJXKXL.@.o.{  .G.CXCX+XU.S u.m.7X3XI.3XoX6X4XkX1XXXtX0X*.@.U s.s.Y.Y.8X XOX=X#X=X=X=XMXlXMXMX;X:X[.=X4X7X1XtX~.<Xr.D F d.e.yX5X+XL.OX5X4XoX X=X{.=X2.b M .X X4XO...G p n n n  XI.MXNXLXZ.[.|.%XPX%X*Xq.8.|.}.PXl.l.8.1.].lXxXlXKX^ v t - # b m. XCX7XMXoXPXjXjXv > [.PXPX{.{.M p.p.lXPX",
"o 3.8.sX-X-XJXLXZ.[.>X*XjXW ) : % Q.*X@Xp.p.( Q.P.5X1XyXyXF.o.#.K J 5.tXrX4XrX.Xv.v.P I ~ t.z.Z.oXm.Q.m.5XrX*.*.J A U F G p 5 q e.d.....p.#XQ.- ; ( }.{.4.5.y.H.s.L D L J U G F n S O.~.5X$XL..XQ.K.5.5.^ 3.t.z.n.b.K.Q.6.5.8 8 0 b b @X4XwXKXJXP.{.@X:XKX7.9.+ + ( jXDXZ.}.) V.x.cXcX:XH B = = - ; - 9 0 # % ; ; % ;XV.DX}.>XLXAXjXW W [.9.LXPX;XW &.-XZ.kXZ.{.}.}.jX7.l.v v W 9.q.V.V.&X[.jXwX*XcXHXcXHXPX}.[.|.jXjX*XjXPXHX*Xl.z.VXlX|.v v ` V *X;X).Z : ` |.[.UXlXCXrX0X2X/./.^.;.[ [ F F T.mXtXy.p.p.p.rX$X-X.X$Xp.W.{.4XeXH ~ <.#XI.U.BXBXC H <.~ ;XFX}.6X4XQ.K.C.C H =X6XlXOX#Xm.{.#X=Xb.=XMX=XoX&XOX3XOXXX#Xv.~.J u.*.v.W.7XK.MXm.M.r.r.^ .X.X#XK.K.M H 0 0 .XM.K.OX.X#XU.m.4X7XU.t.5.nXNXL.+X@.G G G G ....I S D a.v.ZXlXHXcX:X) jXPX*X:Xv v v :X}.cXLX/ V V V.Q.VXxXHXHXcXzXcXsXDXDXAXAXcX;XAXiX[.P.P.A.c.P.P.LXJXkX6XZ.{.P.KXPX*X{.= C V xXHXjX>X%X}.>Xf.4.9.Z.%XjX:XsXPXJX5.6.- ; m y : : .   W W MXVXLXwXKXW ) [.HXPXPXHX;X;XzXq.( l 0.f.sX=XKXKXL.*.*.X...G.ZXmXL.!.5.nX6XkXdX XMX6XsX{.eXXXXXG.u.Y U U *.*.G.u.G.U. XOX4XMXbX=X=X{.P.A.A.xXcXoX{.K.m.L.!.<X*.D D U F T.J.!.L.XX5XbX4X X.X=XMX}.H C .XOX4X+...G p n n A XX XMXMXPXB.h._ _ jXIXPXLXPXAXSXpX: Z 1.4.E.qX:XwXVXH ; 0 8 4 @ i 0 {.3XeXkX:XLXPX:XjXk.}.*XJXPX|.4X#XPXLX",
"% 8.9.xX6X-XDXHXx.B.:X:XvX/ V = - b.|.-X0.0.( P.I.rX5XyXyXF.o.o.J J 5.1X#XrXtXyXr.s.G ..^ p.t.C.K.K.v.r.mX2Xw.i.Y f { Y U a 9 9 e.5.Y ! s.v.K.; = P {.$X6.y.m.v.d.F D U U U D D p p *.XX+Xv.K.3X.X.X5.5.^ 3.5.C.b.I.{.W.5.&.y 8 0 b b #X4X6XJXVX-X6X}.LXLX8.0.    / AXxX[.}.Q l.x.cXxX-XQ V = - - 9 0 9 8 - ; ; % = [.Z.cXiX).iXIX*X/ B f.[.cXvX[.( ^ b.P.KX{.{.oX=XVXp.h.: : W h.9.x.[.&X-X*X[.:XPXPXcXjXPX*XxXA.xXcX>X:XHXHXQ.V.c.JXlX@XB C B v vX;X|.B v _ %X[.lXlXmXyX2X/.^.T.^.-.F [ L { <XmXZX*.6.m.p.rXnXwX.X#Xt.K.K.3XbXm +.H OX8X#XNX#X~ Q <.+.oX3XoX&X4XW.M.p.H ~ z.KXMX4X6XQ.C.P.C.K.kXMXoX{. XoX3X.X X.X!.<XG @.5.+Xa.bX XeXm.m.5.5.+.K.W.U.Q.W.^ P t 0 M.K. X{.#XU. XW.6XeXW.m.~ mXtX!.1X..S I J I ..O.I n G e.r.CXkXcXjXjX8.sX*XjXcXV v v Z.vXLXcX( V P C.x.jXxXDXxX:XHXcXHXsXIXcXLXLXjX>XV.[.V.A.}.t.V.t.KXVXJXwXQ.C.Q.wXzXA.*X+ R C jXHXzX[.>XiX[.,.f.f.f.A.cXLXMXkXKX+.5.; - 8 0 : 0 X . ^ W lX:XlXkXVX/ / @XPXPXPXPXjX>X%Xq.2.Z 0.9.xX4XNXNXU.w.*.....H.CXmXJ.n.u.bXOXoX=XoX4X&X&XoXCXmX1XG.F.F U X.*.*.~.G.J.I.{.=XeX6X4X3XC.P.*X;X-XxXzXA.A.K.m.J.W.!.X.L U  .{ s.s.J.XXXXXX1XOX{.OXoX}.=XW / {. X4XO...G p n i A 1XOXBXMXPXx.h.W / HXPXIXPXAXiXIXpXc B 1.1.Z.xXcXkXMXH ; 6 b q # % 9 3XoXbX6XlXHXHXgX*XS.PXLXKXlX-XMXwXMXkX",
"= 9.0.zXjX-XHXHX8.<.l.x.|.[.[.:X}.cX-X@XB b W @XOXZXtXyX9Xd.o.o.#.X.e.<X$XrX4XuXJ.~.e.5.M 9 8 H P z.a.rXs.^.J.^.d.X.U p n y n Y u.d.r.e.W.*.a.6 ; P OXrXm.L.XXL.~.=.} } Y F Y  .u.e.~.5XXX3X3Xy.i b O % % b B 3.7.Q.OX.X5.&.n y N H H 4X4X4XVXMXZ.}.Z.PXHXp.V.Z v 8.cXiXV.Z.W [.x.cXlX*XE V > ; t 9 6 % & i t ; ; O y > V.HXHXcX%XPXLXcXx.x.}.>XHXPXPXPXJX=XV B y y / 4.l.9.c.[.}.}.*X*XoXwXLXPXjXxXcXV.2.2.> : ) jXPX*X,XHXPXx.+.&.VXJXZ.% = > : iX%X,X( ( 8.}.-XnXrXuXuX/./.^.R.T.o.F L X.X.mX1X7XI P M.p.m.rXMXP.P.b.MXBX7X3XM U. X7XOX7XH.3X.XK.H M B.`.3XJX7X#X4XrX5.&.; +.+.+.&.W.K.W.n.OXI.}.{.=X3X#X7X#Xu.y.! ! q +XY.r.6.JXCXI.M.m.~ ..H.r.u.I.L.H.5.6.M M K.I.{.K.Q.y.z.t.m.P.{.OXG  X+X~.5X*.Y U Y G ..O.U n G O.&.tXKXKXHXLXx.vX;XPXxXV.:XjXPXHXLXVX7._ W c.0.:XHXzXzX;X:X>XzX;XzXSX;XAXIXLXxXPXjX:XjX0.8.Q {.{.lXMXCX#X6XPXPX;XMX= V E IXiXjX3.2.Z T q.).%XPXxX:XsXDXt.t.- - 0 0 t 0 8 : . . ) ) VXVXjXwXwXz.x.UX-X}.) ( 1.iXgX,X,X_ h.0.MXbXNXnXW.*.O.U  .J.KXCXL.!.3X3X.X4XlXHX{.=X&XkXBX3X*.F  .=.o.{ f f *.@.5.3X=XMXMXn.n.=Xt.+.l.B.=X;X-Xx.V.M.a.r.w.*.A A A p a D F O.2X1X5X#X4X4X4X-X}.JX9.0.Z.K.5X&...S S n i S 3XOXBXMXPXB.Z.8.3.:X>X[.:XIXPXPXgX/ 1.) _ V.HXKXwXkXI t i A n G & @ 4 ; kXMX-X>XPXxXcX>XD.l.|.{.C.}.vXIXlX",
"= 7.3.jXjX6XHXLX3.) l.l.[.}.x.*XcX-XQ.}.N b ^ .X!.mX9XyX2Xi.o.-.o.@.u.2X2XnX4XnXs.a.*.*.S 6 t M H M.y.+XL.~.~.s.s.=.X.D D S S P *.e.s.r.~.e.y.# - C I..Xv.K.1X!.G.o.X.} Y Y  .*.G.d.Y.+X XOXOX6.N t % % = C C 5.7.{. XW.&.+.M y b C H 4X4X4XJXVX*X}.Z.PXLXp.x.V C 8.jXPX[.A.E V.V.cXlX-XV C ; : 9 4 6 # % p N b % % : = [.jXcX[.iXIX|.AXl.9.:XxXLXKX-XkXJXoXV E C b ) 9.8.c.N.).}.|.sX}.vX:XVX-XPXvXvXV.3.( : = ) vXcX}.:XPXPX( ) ^ lXPX[.+ O v v *X,X}./ _ 9.:X-XrXtXuXyX/./.^.F.R.} F F *.5.ZX4X4XI M m.m.m.lXlXK.K.n.MXbXbX7X9 Y.Y.#XOXfXI. X'.6Xx m oX6X`.8XKXW.$X$X^ 5.N ..~ y.&. XI.7Xm.p.m.P.Q.#XoX.XeX4Xy.v.! J 4 <XL.y.m.JXNXu.m.L.Q H H.n.r.XXn. Xu.m.v m =Xn.m.OXI.C.y.m. X{.W.{.C H.W.tXtXe.I U I G ....! A G ! ..1XPXLXPXPXc.P.;XMXPX[.}.>XKXjXHXwX7.Q P &.3.;XPXcXzXzX[.:XzXPXiXzXjXzXHXIXzXzX*X>X{.8.7.W b.b.4XKXPX.X{.KXPXkX*X: Z C LXcXPXW _ B Z q.N.).sXzXDXcXFXt.6.8 # m 0 - v 0 :   . +.&.KX}.-XVXwXx.p.HX=XDX) 2.8.GX,X[.,X,.9.3.MXMXNXBX!.&...I ! H.KXCXL.K.eX{.{.*X@XHX|.sXoX7X8XBXe.U { o.X.U f D @.w.r.1XOXkXNXC.C.=X+.0.b.l.MX;X;XB.t.L.a.d.*.X.U U U f f D D O.2X$X1X#X6X#X{.{.{.LXb.b.C.m.5X&...S G i n S 3XXXMXcXPXc.N.0.f.cX:XvXvX%XPXIXpX/ / W 4.V.LXLX=X#XH i b G i n X & - - OX=XKXHXcXcXPXGXc.A.Q.@X{.cXxXvX-X",
"# 4.4.sXjXsXLXKX_ W 8.8.-XjXvXPXUX:Xp.9.v C Q n.H.5X2X9X0Xd.o.-.{ { *.s.s.~.~.uXZXmXZXZX1Xa.6.P M b 8 ! 5XJ.~.2X~.^.~.~.~.!.a.a.*.*.w.e.v.U.v.M b I W.XX.X<X5XJ.^.d.J.^.T.Y.!.~.!.~.3XXX!.O.S t ; 8 C ) p.oX[.;XoX=Xb.b...^ b y 0 b N #X=X4XKXKXV.l.3.wXPXlXLX}.:XiX|.[.E / C `.V.zXcX:XB B 0 : ; 6 p G p 8 y & % 8   O : l.c.PXGXiXPXPXiXjX2.0.3.x.A.{.z.+.m W W +.V.*X|.*X%X;XDXcXPXPXPXHX=Xt.8.V Z O     . + }.PXvXjXHXHX*XQ 3.8.{.oXlX;X>XZ.*XcXA.V.3.q.S.:X-XrXuXyXZX/./.^.d.F.{ L U s.s.NXv.v.H H y.p.K.@XkX#X6Xm.OX X#X8X .r.5.NXJXY.'.3XBX#X4.5.~ U.dXOX#XeX.XW.5XXXH % # w.5.m.y.m.!.I.kX}.z.b.I.=X3Xr.b 4 - 4  Xv.e.+Xn. XI.p.n.n.5.+.m.I.n.n.m.3X6...H ~ =XK. X{.m.n.K.OX=XK.n.t.N n.r.mXtXL. .! ! U I I ..Y I J I W.MXxXPXDX|.) 8.V.V.vXcXPX*X[.jXvX@Xc.9.3.7.Z.HXcXcX:XT = : 3.f.%X>XAXPXGXAXxXHXcXLXcXMXoX4X#XOX=X0./ 4.4X-XcXKX6X:X}.IXgXA.v Z 9.l.%XzXAXzXLXDXcX7.; o : b 0 8 m v 0 :   . +.+.KXLXjXqXwX|.-XPX|.x.O   : |.gXiXiX) 9.3.kXkXBXBXI.&.&.! ^ v.CXCX!.K.4X#XwX=XQ.jXcXdX6X#XI.1XH.U F -.-.} F A i p q L.K.n.{.{.oX{.M 0 / +.xXc.t.Z.oXr...O.J U U J L 4 5 X.X.G.XXXX1X4X=XQ.P.P.Z.6X}.P.P.K.4X+.^ n G i n G OX XMXMXLX=X&X|.%XAXq.) = l |.pXPXk.9.2.9.|.PXPX6XwXP b n 6 n I 6 ; % % C v jX6XHXPX*XIX>XwXv v ) PXqX-XPX",
"= 3.4.sXzXjXLXPX8.l.*X[.PX[.V.3.&.|.Z.}.6.t.5.Q.K.7X5XyXyXF.*.*.@.#.#.} D U Y *.J.F.0XyXyX5XKX~.1XJ.v.O.S I *.=.L.W.L.W.m..Xm.J.e.u.u.G.y.!.$X.X3XI.1Xv.v.L.!.a.J.e.s.J.J.!.!.L.!.XX5.4 A b S &.W.Q.$X@XwXVX#X{.K.6.m I M P M H v M M #X-X6XKXKXC.A.2.oX|.wXcXHXHXLX*X;XQ / B l.A.jXVXwXZ B v : b 5 @ D F 6 N ; s y o X O : : V.).>X;X}.LXPXjX:XE B B / ( x.A.A.jX>X>X*XiXHXcXLXsXsXV.c.P E = . O   = O + O Z V jXvX*XPXPXZ.[.V.HXcXVXzXcXvXHXHXPX).W _ ) 8.[.LXKXmXuX2XuXT.^.^.=.;.L { @.XX.XKX..&.b P &.5.Q.b.b.m.OXn.OX=X8XOXL...~ +.5.<X+X<XI.I.5.5.I 8X3XK.m.I.$X XXX$XXX9 6 +.! !..Xy.K..XeXeX#XP.b.K.K.+.- 9 y.n.H.G.U.y.u.K.L..XO.Q 5.y.m.3XbXm.I.+.M P OXI.K.m.I.5.n.r.y.z.b.n.K.t.- S G 5X9XtX5.O...U A G O. .I A A a.lXcXxX>XPXB Z 8.8.PXA.Z.> Z C V PX-X@Xp.8.9.jXLXzXLX8., , > = = , ( ).[.gXcXPX>X6XVXKXMXHXPX-XoXZ.^ C z.x.*X-XLXcXLX|.,X4.f.2.%X).HXIXSXPXLX( 3.O b t H H 6 n H 8 : : . . ) ^ kXVXlX:XjX9.l.=XV.Z.Q 2.A.PXAX).N./ h.8.kXeXNXmXL.@.=. . .G.ZXKX8XtXH.+.Q b : T h.c.=X6XoXXXtXG.^.{  .F U G q n q n.K.4.4.z.b.y.t 0 P C =X7.5.C.C.e.S I A U U A A *.*.2XL.mXL.J.W.b.^ : ; = = ( {.}.}..X4X~ ! n S 9 n G XX{.NXMXLXoX*XzXcXIX,.2., , N.N.GXN.S.4./ E.xXlX4XkXH 0 t S q 6 n G m M ; ; v *XqX>XIX:XPXPXV.|.4.HXHXHXjX",
"# 5.4.MXwX;XPXLX9.8.;X;XPXZ.V.4.( [.oXQ.0.p.5.I.L.tX9XyXyXF.*.w.@.o.} { L F { *.T.F.uX/.ZX0X0X/.0XF.d.O.G ^ +.5.C..XK.P.K..XU.U.r.w.s.G.e.Y.OX<X3X+XY.n.U.n.+Xz.C.n.y.I.U.XX!.I. XI.5.9 i A n *.L.XXXX5X1X5XmXK.W.5.I b H n G G y C P -X=X6XJXKXC.A.2.>X*X:XzXHXxXHX>X>XE / B x.S.cXVXqXB B : : t 8 5 p S p 5 6 s y o # O 8 0 V.A.|.;X%XHXPX>XjXQ B B 1.1.c.V.A.>X>X>XzX;XvXPXzXkX-XP.b.^ V = . + + o O + O V B :XjXvXHXxX*X[.x.PXHXjXvXPX>XgXIXIXZ.` E q.3.@XVXCXVXyX2X2X/.T.^.;.;.g o.X.8X9XtX5.~ G M 5.p.I.u.z. XC.m.$X#X{.4XK.^ ^ +.y.L. X8XL.OX&.5.~ 7X=XK.I.n.4X3XOXI. X9 6 ..! $X X&.=X{.nXkX@XC.Z.{.b.&.4 0 y.a.L.U.v.w.y.W.L.L.&.~ 5.6.n.eXeX.XK.~ ^ M oX Xb.P.K.5.5.n.n.y.M.U.r.n.; S S mXXXNX@.O.! ..G n *.! U G G 5.nXlXwXMXKXQ H 2.8.HXA.`.: : Q V HX6X-X9.8.x.*XLXHXGX8., O = > , = / V.A.PXkXJXwXwXcXPXvXPXvX>X,XV._ / 3.l.,XjXIXgXPX*X|./ 9.f.%X|.zXIXPXIXPX4.<.% ; i S S u 9 S ; ; - O   / ) cXVXLX;X*X0.c.*XZ.E.2.) V.PXPXx.A.) l.3.lXbXmXmXT.o.} o.o.F.yXyXyXyXJ.+.~ v Z E 9.8.6X=XoX.XeX.XM.^ ^ I S H m 0 b C.n.&.5.n.r.r.t b P S 1X5.e.e.L.&.P G G H G G n O.5.1XtX XU.XXm.K.^ ; > : = Q *X&X{.Q.6X~  .p S n i G 1X XCXeXPX&X>XAXvXIX1.,., > k.A.IXS.0.8.2.}.kXbXkX4X! ; i A A 4 n G b M ; = y jX>XcXcXgXIXIX[.[.1.jXDXIXgX",
"O 4.4.MXkX-XPXKXx.c.>X[.jXQ T + O l.;X;XP.M.) m.K.eXtXmXyXs.*.*.X.X.o.o.o.{ { { f f } o.F./.0XmXyXyXmXmX!.!.t.t.Q ( ( 4.6.6.+.O.A S  .#.5.r.r.n.v.y.L.L.H.z.&.~ ) W ~ <.+.+.I M m b ~ u.v.XXY.tX8X5X1X8XH.5.O.n D t i n M i 9 6 0 C P oX}.6XKXPX[.@Xx.HXxXS.9._ ) Z.HXPXV.x.E l.M.cXVXqXC Z > - 8 ; ; 6 5 u a p u a a i 6 % . 0 x jXPXPX:X*XDXHX>X].A.,XiXvXgXaXSXGXGXvXvX|.}.6.H m : ; O > > : : 0 > o   . 0.V.wX>XcXPXvX8.f.jXvXlX2.0.1.].].gX].( v V z.c.-XnXeXrXrX~.~.^.F.R.[ $.F d.s.NXtX.X&.6. X X XH. X Xm.m.M.t.=XeXoX-X4XP.C.0.6.K.L.v.XX+XI H 0 H.P. XoX6.n.y.XX8X7Xu.G.A i e.n.OX6.t.z.V.Z.C.Z.Q.U.H 5.5.OX1Xr.w.G.I G ~.7X.XG S ! ~ 4X Xm..XoX4.m.=XkX4X X{. XP.K.{. X.Xn.u.OXL.H.! G J.r.tXJ.L...G I G O...! S G ^ CXlXkXVXPXt.p.C.9.LX%X[.O + E T sXjXzX_ E h.%X}.GXPX%Xl , O , = > = % # C C z.wXwXPXPXjX>XgXGXPXPXgXvX,XZ.N.9.3.W V Z ( f.[.A.%X;XLXjX}._ _ o O 0 n n 4 5 A a 5 ; ; = O . ( ( lXHXcXoX&X) E x.;X:XHXPXPXHX:X( ) v l.c.kX4XZXZXG.-.o.-.=.F.uXuXyXmXyXL.W.t.0.C : y H W {.=X4X*XcXlX;XC.0.5.4.4.6.n.K.b.K..X XL.# & G S tX!.~.0X2X!.n.y.y.u.M.K.I.bXI. XW.7Xn.y.; ; 0 M C 3.7.V.*X&XMXNX#XG ! D A S n I 5X3XKXMXPXl.c.V.).IXaXGX].A.vX,XgX1./ 2./ [.lXMXeX8X^ 0 i U Y 4 5 p y b % ; > B v jXUXvXcXvXGXPX>XV.S.vXPX",
"o +.&.MXlX6XPXPXt.x.jX%XHXC C     t.6X6X}.C.^ Q.I.eXtXyX5Xs.*.*.*.*.o.X.o.o.X.{ F F { o.;.^./.uX0XmXmXZXXX~.5.6.^ ^ / ) 6.6.e.r.K J ! J u.u.w.v.v.5.L.I.u.n.! O.~ Q ) +.5.+.~ H b 8 J H.n.8X1X1XNXtX1XXXv.&.O.I S i n H b 9 t 8 0 W +.=X=XlXPXKX|.;X[.HXPXl.x.V T A.PXPXZ.A.E x.S.lXcX:XC v = % 8 8 5 ; 4 5 a g a u n 9 ; % = 0 v @XzXcX6X*XPXLX%X%X%X%X,X%X>XSXGXIXLXjXPX*XoXp.H M t : # = = = > y v # +   l.x.HX>X*XzXPXq.( }.VXHX3.%.W [.].A.*XE v v c.C.wXKXmXmXyX<X/./.F.F.o.{ g i.d.NXCX4X5.e.I.8X7XXXL.z.I.H..XU.wXwX}.{.{.{.{.p.6.n.n.y.1X~.G I m I.{.bX.X5.y.y.7X5XL.J.a.G 9 y.5.I.z.b.p.p.M.Z.oX{.K.v 6.n.L.5X!.w.5.G ! 1X1X~.S I ..G 1XI.n.I.I.p.OX=XoXP.=XkX Xb.n.{.U.#Xu.U.XXI.L.S G d.v.tXa.r.G &.U U  .....S G H nX4XMXlXVXM.C.t.c.cX*XZ.+   R B zX-XzXV Z 0.*X[.PXPX,X= > + , l : o . O b b z.eX#XPXwX:X[.*XGXPXPXvXvXZ.).Z.N.4.B B Q B 7.A.|.jXiXPXzXvX_ Q # o - S S ; - a f i ; : = O + 2.&.lXHXlX*X}.W B B.cXcXPXPXPXzXjX/ T : 9.x.kX=XCXCXJ.o.} =.;.F./.yXmXmXmXXXL.z.b.Q > : B W `.oXkXkX7XlX&XP.z.7.3.5.&.n.m.C.I.m.M.L.& # ! ! 8XJ.J.yX<Xv.a.y.y.n.H.L.XX!.1XXX$X3X5.5.t 8 8 H M 6.8.`.=XsXJXJXU.G I G p i i G #X$XCXkXJXx.V.].[.PXGXgX].aXhXSXgXE ` 3.3.P.MXJX6X3X..n i X.{ r u p y i - ; O v C :X:XPXiXIXIXGXvXk.V.gXGX",
"X ) +.MXcX-XPXKXx.x.;X[.AX2.1.v B |.kX*Xt.6.) =X{.eXtXmXZX5X5XtXG.s.w.X.X.*.*. .*.o.U F F } o.;.i.J.J.~.0XmXeXKXkX{.b.+...b 0 9 9 q 9 4 ! 5.5.G.a.r.L.!.&.&.0 i M x : # x m ~ +. XU. X3XL.5X9X!.v.e.O.! S i i i S 9 n t i t ! ~ 0.K.Q.lX6XkXcXkXQ.@X}.HXIX) /   + ( vXxX|.|.W x.x.kXlX-XC v % O ; 9 i 5 5 u p a g a p 9 - 8 0 : ; C P.}.KXlX-XxX%XjXgXSXSXhXgXPXAXiXN.E Q ; # o o # ; 8 - > > = ; ; >   > > xXjX}.HXPX|.>X( 1.zX@X=X= :   A.|.HXjXW ( / -X#X4XrXeXrXrX~.^.T.i.;.{ F { T.~.NXmXL.r.u.n.U.v.Y. XY.U. X.X XoXoXlXLX6X-X7XeX=XXXXX3Xv.a.m N 0 C.b.&X7X+.0 M U.XXXXXXXXG.v.H t I.OXP._ C p.{.M.M H y.U.m.y.H.r.A p O.! s.s.1X .I n ; n.L.I.I.U.K.OXz..XQ.kXbXoXQ.I. X3X.XOX1XH.U.L.L.Y.v.e.+X5XtXO...U  .G ..O.G ! S m.m.KXCXPXlXlXM.V.jX;X:X9.0.;X}.PX[.oXW E ( V.|.cXAXHXW ,.= O c v y y : 8 % 8 ; b 4.0.cXPXHXcX|.:X:XDXgXPXPXIX,X( 2.x.7.;XHXcXHXPX|.( ) > : - # - 9 i i u 5 5 n 8 : = o + 3.4.lXcXHXsX*X0.9.jXvXzX}.@X|.|.A.1.8./ 9.8.wXrXCXnX~.i.;.;.;.;.i.F.T.T.9XCXNXKXJX3Xz.t.5.~ m m +.oX{.JXkXlXbXkXKXPXKXm.p.m.m.M.p.L.r.e.U.v.<Xs.s.<X~.U. X!. X4X1XXX4XtXKXL.y.S i M ^ 5.y.!.OXJXMXMX6XoXn.a.&.J G A a i i I $X#XKXMXKX8.8.8.q.>XGXSXIXIXSXSX|.: : / 2.P.KXKX=X#X! S p D D g Y Y a i 8 0   o . > Z [.PXiXvXHXPX].A.1./ ",
"o ) +.MXcX-XKXLX/ E 3.2.[.|.*XcX:XcXxX*X_ Q / .XK.OXXX3X4X$X9XyXyXuX2XT.F.F.u.*.{ {  .#.o.{ { F g L } X.G.J.~.XXNXbXmX5XtXL.v.u.K G q q 9 @.5.H.L.+X5.@.0 n m H b H +.6.oXOX6X7XOX8X9X!.L.r.5.! n A S n S I G G S b O.^ a.a.eX4XwXJXwXeX-XcXKXPX}.|.[.jXPXx.*X( T l.>X}.x.V.W x.x.wXjX>XN Z = % ; 5 u u a g g f F g & 6 @ i b 0 t   N v }.}.-XVXIXLXiXGXvX%X1.,.C C >   # # - b t t N b 0 : 0 ; - = - O ) / PXvXxXPXHX) 2.` _ Z.}.wX[.E.V.gXgX].gX/ l.9.lXkXeXnXrX2X2X^.T.F.=.o.F F -.yXyXtX5Xn.Y.OXL.L.w.5.S - - ! ..b.M.b.@X*XlX6X4XbXeXK.J.+X8XXX..~ b  X'.dX7Xb.H m i 9 s.5XmXL.5X~.m.H n..Xb.K.Q.C P 6.6.K.I.a.J.!.S & 5 r.v.!.G.1XG n G ! v.n.L.3XXXOX7X8XK.oX Xt.z.bXbXz.n.M ^ I n.a.m.a.s.H.~.tXtXtX5.w.! ..n ..@.! ..H ^ +.lXeXnXKXJXM.z.B.Z.|.zXcXLXLXHXP.;X[.Z.3.8.f.:XjXPXx.c.+ + v 0 b b 8 y y S 6 ; #   ; Q ) [.}.jXIXPXIXAX>XsXjXiX|.;XjXPXzX*XLXvX2.Z P P H ^ G b 5 6 p F a < & y : % + . 3.3.cXcXHXxX:X[.;XPX*X*XZ x E zXGX:X;X8.8.4.wXkXCXnX5XJ.F.i.;.o.[ { #.{ @.J.G.5X8XKXLXJX3X7X XK.+.6.+.y.z.{.6X6XeX-XZ.6.&.p.r..XW.H.mXCX!.H.G.r.a.e.5.6.n.m.m.L.n.e.r.G G N H &. XL.tX1XKXKXBX X4Xn.^ 5.H S S G G A A n p ! .X$XMXMXKXA.Z.[.].gX,XS.].|.>XGXIX1.1.2._ [.PXPX#XOXG M i 5 r g  .U 5 8 p H b 0 : : : v %XGXAXSXgXIXPXS.A.",
"O +.+.cXlX;XKXLX2.W 3.,.A.>X[.AXPX>X6X6XE H +.C.OX4X3XeX5X1XeX5X<X5X2X!.J.G.d.w.F { o.*.w.X.{ D L U X.X.G.s.2X<XeXmXZXyX9XJ.e.5.G J b G 4 #.@.+X!.KX5.5.S q n m S ^ 4.6.{.OX3XbXmXBX3XG.L.....! S G G n S G M S i M *.O.K.v.#XW.4XMXkX6XwXMXVXPX[.Z.*XPXPXV.V.E ( V.}.:Xx.V./ x.x.wXjX=XC C : : i u 5 5 r f g f g f $ < @ n S t t @ 8 0 .XC.KX@XcXzX,XzX>X|.g.3.B C : O o # o 9 9 8 i 0 8 8 b 0 v ; = . ( 2.xXlXvXPXPX1._ ` ( %X:XkXV.[.D.:XvXvX,X%.S.l.-XwXmXCXyX2X<X~.~.F.o.} { L e.0XyXXX1XL.n.Y.L.<Xe.y.G 4 - H G z.OXQ.@XZ.jXMXeXbXbX.X!.~.+XY.5.O.b I.P.6XOXy.4 t n p H.<XXXmX8XL.!.N oXb.b.b.p.P H +.5.eXa.K.L.H.S p 6 a.w.J.L.<XG A ! ! n.H.L.OXY.OX7XnX X6X{.m.K.3X3X6.e.^ S ~ u.n.!.a.a.v.L.+XtXtXr.w.....n ..O.....G +.+.KXnXbXPXKXP.P.8.[.Z.LXDX;XxXzXoX`.}.{.8.l.V.jX*XAXV.V.+ , v t N i i p i A u 5 # @ ; P ~ Q.-XxXIXSXGXzX;XzXPX*X;X;XsXsXzXDXDXMX( P B H y G S p p p p D a 1 & 8 : % . . 3.7.VXHXcXjX:X*X*XPX}.|.: v V gX>XiXzX4.0.9.jX6XJXbXrXJ.F.i.;.=.} o.#.{  .G.J.mX<XNXNXNX8XBX3XOX..4.^ +.6.C.#XwXlX-XK.5.5.y.+.#XeXK.nXNXv.L.L.a.G.O.*.a.m.H.m.H.n.a.a.5.H ~ i y. XI.1X1XmXmXKXOX4Xr.^ G n S i A D A D S M +..X$XkXlXHXx.V.[.|.zXS.A.|.S.GXGXIX,.2.2.,.|.PXKX=X#Xi p y u r g } D 6 6 n i ; ; v > v B %X|.zXSX>XPXPXN.N.",
"= 2.+.cXzX;XPXPX_ W 8.0.zXcX>XSXAX[.*XjXQ Q 2.b.z.m.C..X=X4XNXtX7XtXtXrX7X5X1X~.G.v.@.@. .X.*.*.=.X.U D F p X. .r.L.XX0XyXmXtXmX<XXXu.e.S 8 - y.y.!.9 i H I y.L.H.4X8XeXmXeXL.W.m.r...S I 9 H H m n S i S I Q 6.p..X4X$XCXeX4X4X6XCXKXMXVX6XZ.Z.B v ) >XjXHXPXHXgXcXx.x.Z B Z l.M.lXlX-XC V v N D p 5 6 7 r r f r g r D u n 8 X X % @ . 8 % oX}.>XA.N.1.E : c c v v M ; 8 ; & i 6 ; i 6 8 - ; # # + = = [.[.:XjXHX>X%Xf.).gX>XDXHXUXPXHXIX>XiXk.l.2.Q.}.rXrXrX2XuX~.^.~.^.d.{ { F U s.yXKX~.!.H.v.Y.j.u.4 w A w.5.! H N C.C.Q.Q.{.jX=XeXnX1XOXXXa.r.y.u.m U.K.6XMXK.0 8 i 6 5.tXZXY.1XI.7XI.H M N H H y.n.4XI.e.tXKXe...n n 4 s.G.Y.Y.Y.G ! v.a.r.+X Xn.u.OXXX XP.{.z.oXQ.+.+.~ H y.M G @ - *.!.!.L.J.L.tX7XL.J.....S ........G H N 1X.X4XKXKX}.P.v Z.V.cXcX|.*XE c.x.LXLXl.2.) }.[.xXvXxXv v = - n p p D A p u p y u 6 @ X o X ) l.l.jXHXLXjXxXxXLXjXsXDXPXjXB H ; P P P y ; & 5 D Y D f r 7 5 ; - O   . 7.8.LXPXvX>X*X&X[.HX|.{.O + B HXHXcXvX2.0.l.vX6XKXcXrX~.~.s.i.e.*.-.o.@.{ J J #.X.v.<X8XmXNXBXCX7XBX3XU.n.&.H C H H H M G i 8 5.y.e.y.y.&.r.v.O.*.G I i i i 9 6 t n n 6.e.5X!.KXmXNXNXCXL.5.w.I G S G S G I A a D A U ....r.bXkXVXJXPX[.}.DXIXzXB : O O Z.|.IX3.q.,.3.|.LXJX6X4X; 8 9 D g g F g u y n P b b C + O l W ) iXvXgXiX>XGXPX",
"= 4.+.cXlX-XPXPXW _ 3.8.LXiXcXzXcX*X:X>XQ Q +.b.C.K.K.oX=X4XCXrX1X4XeXnXmXtXOXL.s.G.O.w.! @.O.*.o.o.U L p a X. .e.Y./.yX9XmXyXmX2X1Xv.u...& @ H.H.XX9 9 ! I &.H.L.tX1X5X7XeXL.~.a.a...H n S I t S M H M S S S y.6.4X4XnXCXCX.X-X-XMXKXCXKXwXZ.Z.v y ) xX>XPXHXAXDXIXx.A.: : C Z.A.UXUX-XC P C P D u 6 7 7 7 d h r f r u p 9 y # @ @ . X ; ; K.Q.:Xl.c.E W > T v x 8 H - i & & 6 & & q 6 9 ; 0 - ; O O O |.-X*XvXcX*X;Xx.l.gXgXGXHXVXcXDXvXvXgXl.l.q.P.}..X4XmXtXuX^.^././.i.L { L { s.yXKXL.K.H.L.L.w.u.w q n y.r.S ^ ; W.Q.m.Q.}.kX=XMXKXOX XXXu.w.u.H.m n.C.BX7XM.8 - S u ! NXyX9X8X+XL.4XS H P N 8 m.p.Q.3Xe.ZXmX*.w.i 9 n a.u.G.Y.!.J G u.v.u.1XY.r.y.<XOX3X=X=Xy. X X~ ~ G ~ 5.H b 0 ; &.L.Y.L.H.L.9XXXY.XX!  .G ....O.! G H b $X X7XPXJXoX=X= }.{.AXAX).V.V A.9.LXHX9.3.8.Z.}.xXHX:Xv B = - P p 6 p D D p g p u 4   @ @ o H c.l.cXDXPXMXKXjXLXcXxXcXcXDXH N 8 ~ P s s & 6 p D D L L p 7 6 % = O . . 8.0.KXPXlX>X|.}.*XPX|.&X+   E HXvX>XHX8.8.9.xXxXPXvXjX!.~.d.i.i.w.i.o.@.#.J { G #.i.<XY.mX9XKXKXCX3XOXu.r.+.S P P C H t S 6 M 5.&.v.r.r.6.5.s...&.G S n i i 0 6 b J G w.v.$X8XCXmXZXyXtXJ.r.w. .I G i n S A A i S n ..+.&.n.nXlXbXMXVX,X|.cXHXgXc v , O >X].IX8.f.( 4.[.MXHXkXeX- ; 8 F g g r p D p s u ~ 8 ; > # x E T >X%XPXvXpXPXvX",
"= 5.5.KXMX;XKXKX8.3.%XIX;XA.A.E E :X}.|.oX*X:X*X[.Q.{.4.6.p.P.P.3XU.6X3X3X4XNXeXtX5XXX1Xu.5.O.O.X.U o.o.o.X.L U { f A @.X.G.2X0XNXmXmXmX9XH.Y.w.w.y.H.r.1X~.5X5X1X1X1XL.5.6.I U P n D n i M n M H n +.^ K..X4XnXnXnXeXCXCXeX=XeXbXeXkX0.l.b.z.z.x.0.[.*X*X>X[.*X[.cXvXIXq.W C x.b.KXVXQ.W W C C 5 & 7 * * 7 2 g L L 7 5 p n n % @ @ @ @ o % y N C : :     , > > C S 6 i 9 a q 6 5 4 A n t 8 # = = % O H lXLX*XHXPX[.[.[.A.PXGXS.) %.[.V.>X9.3.v v 3.6XwXtXrXmX<X2XT.^.T.T.o.} o.{ U 0XuX1Xa.p.n.L.Y.@.#.K J u.'.U.bX7X~ &.+.OXP.Z.t.C.4X4XOX1X1XtX1X3X7XM j.B.OX3X3X^ ..J 4 1Xs.G.r.r.8XtXW..X XM i L.OXL.6.v.H.!.XXL.5X5 i Y G.G.<XU.G...O.v.H.u.v.n.n.r.7X7XI.n.b.=Xz.n.+.+.PXCXOXm.m.; 4 i +XL.Y.L.r.XX+XNX5X5.O. .G n w.O.I n n 6.y.tXKX6XKXPXW {.oXPXHXW ) . ) ) LXvX|.V / P.Z.cXzXHX3.2.= o i 5 s p D 5 * 1 5 r 6 * @ @ o - # : B Z l.8.=XMXLX6XcXDXW R # % o 6 ; Y Y 6 y 5 D U L g p s A ; :   + + t.9.lXHXxX}.:X( ) [.[.[.x.Z.HXxXHX[.V.2.}.[.>X>XiXiXPXKXZX1XrX<Xs.s.i.*.*.-.*.o. .!  . .w.@.J.Y.0XmXmXCXCXCXK..X5.&.&.n t p ; n 9 1XL.!.+X.Xy.H n G S p I S 5...H.5XtXNXNXmXZX<Xv.a.O... .D p D J A p u F A I e.w.2X5XeXlX6XKXCXJXLXMX*X*XHXHXcX1./ ` E |.).HX0.9.( ( |.HXPX=XeX% 8 ; 5 6 F L } p g D F 9 @ # v v Q = , T T vX>XvXAXAX",
"= 4.4.VXcX;XKXKX9.l.;X}.PXV.x.W / [.vXjX[.[.:X}.*XZ.A.+.8.8.Z.{.-XoXMXkX6X4X6X4XCXrX#X.Xa.5.....*. . .} o.=.U F L A D o.o.G.2XyXmXmXKXmX9XH.G.w.r.r.v.a.1XXX7X1XtX5X$XJ.5.6.I ! G n P P n n n P M S +.&.m.$X4XnXnXeXwX$XlXrXwXwXPX-XP.t.0.A.z.z.0.l.[.vXxX*X>X[.A.IXPXcX2.) B x.c.VXUX[./ _ C C u < < * * 1 2 f f g 7 r p n t @ @ X o @ o & y b M - > . . O = > G S - 9 5 p a q 4 6 i i 9 5 - - = O . ^ cXPX:XqXHX[.Z.].].PXIXS.%.( E.x.,X8.8.` Z 0.6X4XnXyXyX/./.^./.^.T.=.{ { D { tXmXZXy.y.n.OXL.O.O.b w H.L.L.bX X5.5.5.C.{.P.0.b.4XeX3X1XOX7X1X.XOX+.m.z.3XXXXX5.5.6 p ~.G.e.d.u.8X8X1XOX#XM ! K.L.n.m.J.v.~.~.<X!.5 G Y Y.+XG.v.Y.!  .!.Y.u.u.r.m.H.+XOX XC.P. Xn.n.+.5.7XKX8Xr.n.0 8 H H.!.~.L.s.+XXXyX8Xe.*.! S n @...U i G e.y.tXnXkXPXbX+.P.}.PXPX) _   4.8.PXLX*XQ V Z.C.kXzXMX6.4.# # i i p a g 7 1 1 6 7 1 @ @ $ @ ; - : m M 0.6.Q.PXJXkXkXkX^ E # % o 8 ; Y G - 6 6 Y } D g g s 5 : : O + . 8.0.KXVXHX:XcX8.( Z.V.Z.V.Z.cXPXcXx.A.2.Z.A.cXvXvX>XGXVXCX4X$XXXL.G.*.e.-.*.o. . .J J J @.-.Y.~.0XmXmXCXNXKX$XW.e.*.I n G i 9 y 9 r.5X.XXX!.*.H n I ! 9 S S *.5.L.5X5XCXZXmXNX<XH.H.w.O. .Y S F p A U G U u S *.6.+X$X$X-X.XKXMXKXJXMX@X*XHXjXiXq.( ` ` Z.].HX8.7.<.( *XPXKX;X4X; y s u s D F L F L L L 5 $ @ v B V = = C B cXIXHXcXHX",
"O ) ^ kXzX-XPXPX4.9.;X).HX( C .   E |.xXzXcXjXLXHXPXxX3.2.( l.c.c.M.[.}.=XMX6XMX6X=XkXnXnX#XOX.Xs.e.*.X.=.-.X.} o.o.{ { K J J J *.w.G.L.9XyXyXNX9X8X8X1X1XXX!.s.5.O.! G p P n D n p G G S I ~ ^ !.OX#X4X6XnX#XeXkXPXKXVXlX-X@X#XC = b 0.b.HXwXwXVXPXHXPXvX2.2.= O q.:XHXV.E.) V.S.HXVX=X) / C M u y r g D r a a f g r 5 u y 8 @ % % ; y y i i y H ; ; o o o % ; I S & 4 6 p A a 4 u 5 5 6 - ; % % = # b.jXjX:X>XxXE ) [.).PXgXB   . %.0.*X3.3.V E V.eX4XmXmXuX~.^././.F.F.} F D d.s.5XW.1X~ ^ m.1XL.5.a.#.S 7Xe.w.y.e.I.m.U.m.n.z.3.&.5.p.OXCXKXr.v.n.m.O.y.4.6XbXmXNXtX5.w.a.~.yX<X~.mXZXy.~ ~ !.L.J.n.L.tX1XJ.1X~.s.a.5.<XXXyX8XL.L.<X . .L.H.H.<X+XY.U.6.j.u.{.=X.X X#Xn.C.U.6.p..X5XG n G v.G.Y.L.r.s.v.7XtXv.s.! G G ! ! ..S J ! ! 5XBXNXKXKX{.{.A.xXjXx.}.W *X[.PXHXx.C 0 ) 2.oXPXPX@XP.; 6 p n A 5 r r f f g F f 6 5 a A ; ; 0 b t ; # - M +.C.p.Q O ; - @ o & & U  .D Y r G L g p p r y ; : : o . 3.3.LXcXHX&XV.v v |.HXHXHXUXPXPXwX3.3.C A.A.Z.).SXhX>XVXKXVXmXCXCXmX<XY.G.u.w.w.w.5.@.#.#.J  . .@.u.J.XX~.tXmXyXZXKXrXe.v.! ! p i n !.~.W.v.! Q H ^ ..L.<XXX9XmXBXtX8XL.G.r.e...G G 9 J A F S U 5 D X.U r.s.tXKXKXCXeXnXJXCXMXVXVXJXoXC W x.Z.HXHXPXDXjXPX:X,XZ Z ,.2.oXKXHXwX4XM C Y N G Y L F L L F g 5 6 - S B > + . O + W [.[.HXPX",
"o ~ W 6XzX-XPXKXl.l.*X>XjXV.).3.9.cXPXiXZ.f.: 8.2.%XjX:X:XjXjX;XiX;X0.W / V.b.{.@X@X6X4XMX=X4X4XZXmXyXT.r.e.=.*.{ *.o.X.#. .D n K A S S *.v.a.Y.1X+XY.!.e.5.I i U P D p u p i a G P O.&.p.4XtX4XnXVXlXlXkXMXeXCXwX|.7.7.6.C.x.M.=Xb.m.@X{.-Xb.P.@XoX*X:XjX9.f.: l 9.:XwXx.[./ x.c.kXwX@XP V ; - % & < L L r r 1 * * $ @ * 6 i y t i M G M n b y P i i % % o ; 8 P S 4 6 5 u f a 6 p 4 ; ; & ; X . ; : kXlXlXPXPX|.V B c.S.[.[.S.,.) |.|.cX9.l.3.&.@XnXrXmXmX2X^.^././.;.i.F D D ^.<XCX6.&.o 8 #XI.XXr.y.m b 7XI.8Xa.u.#Xy.U.OXK.Z.oXOXm.n. X1X!.w.r.a.a.+.6.7.NX8Xy.e.e.NX9X .s.i.~.<Xi A A !.8X X!.J.a.r.w.r.XX~.!.p I d.1X2X*.w.Y.L.L.*.5.U.L...XX3X!.I.t.3X8X{.Q.K.{.=XOX Xz. Xz.!.a.9 G ..~.L.Y.G.G ! *.ZXKXXXXXO.I ! G I O.U I i i !.tXZXnXKX=X6.0.cXcX].V.;XPX>XHXPXA.l.A.6.4.Z.6XbX6XlXQ M a S A 6 5 a F D F F F f f D D 9 S G I I # o o % o 8 b C M b o 6 % & % D D 5 y Y Y D Y D < @ @ o O : + o 3.4.HXVXHX>XjXV.b.HXjX:X).x.9.[.@XZ.V.|.:X*X|.A.g.N.].>X*X=XkXbX5XtXmXKXNX0X~.Y.H.r.*.w.-.@.o. .J J K  . .w.Y.Y.0XtXuXmXKX5XmX~.J.I v.r.r.y.&.W.#XbXnX5XBXyX1X5Xv.5.O. .! I I J G I I S n I U e.O.F.<X2XZX5XtX$X4XlXKXlXVXVXb.Z.b.P./ / ) A.Z.cXjXcXvXcXPXDX;XZ v 2.2.}.LXcXlXeX^ M G @ & & p a L F L F g { Y ..Q # O O # o   ) / oXQ.",
"o ^ W kXcX-XKXDX9.l.[.,XSX[.).3.4.*XvXIX}.[.= 8.x.zX|.gX%XiX%XgX,X:X8.Z V x.A.;X;X-X6XoXkX@X=XwX4XrXmX~.d.e.*.-.{ o.X.{ @.X.I G D A A A  .r.r.~.!.!.J.!.6.6...P A D D D D p n p D G &.e.z..X$X#XkXbXkX6XMXlXVXKXPX}.8.&.p.p.l.x.|.Q.Q.P.=X=Xt.A.[.A.cXjX*X9.0.Z V f.jXcXx.A.Q A.b.jXqX=XC B = % ; 6 - D L r f r * $ * @ & y i b b b M N y y p s N N N ; % # s a n p 5 5 u 5 s 5 5 a & & ; - -     v 0 kX;X-XPXcX>Xl v A.k.[.iXD.,.( |.*XgX3.q.2.7.-XnXrXyXyX/.^.^.^.^.;.;.F U U ~.XXKX&.&.: ; #XQ.#Xz.p.m H z.8X!.n.n.m.e.M.OX6Xb.Q.P.z.b.W.1X1Xr.5.a.n.^ 6.z.bXmXy.5.*.mXmXF e.d.<X0Xu q G I.W.L.L.+XJ.L...5.L.G.J.n G s.<X1X*.*.L.L.L.@.O.H.I.6.1X3XW.I.y.{.{.oXP.{.{.Q.4X#X{.r.m.1XH.H n 5.~.Y.L.L.A ! O.ZXtX8X5X5.I ..S G O.U  .p i a.8XZXNXKXJX0.l.:X*X*XV.jXcXxXxXcXA.b.M.4.5.C.MXMXnXeXH I 5 S D 5 7 a D F g F F g f f u # G I i i o & @ X X s s y b b - & @ @ % G P p u F D D Y Y 6 $ @ o O : + O 8.3.KXVXLX;X}.l.h.HXcXAXq.9.V.-X*X@Xb.-XZ.|.,XgXq.S.>X;X&X;XkXlXkXeXNXmXtX8X<XXXY.a.@.w.-.w.-.@.{ K q J X.o.J.~.2X<XCXmXyXmXmX+XY...&.w.y.y.y.OX4XkXbXZXmXZXXX2Xs.e.e. .! I G G G A G n n I S 5.5.J.~.!.yXtXCXeXVXJXPXPXPXwXP.M.b.b.+.) ) V.[.xX[.*XvXjXPXPX>Xv v ( ) *XPXcXlXwX) i t @ @ * p f F h [ { g U Y  .! # %   # % X ^ ^ Z.Z.",
". W W lXHXjXPXKX8.8.) Q HXzXIXLXLXcXjXzX,.4.+ B v ;XjXIX>XAX>X,XSXPX%X/ V ( ( 0.9.V.`.{.cXjX-XwX4X4XnXrX0X0X/.~.F.d.*.{ @.X.! !  .X.X.U A G G O.O.O. . .n G A A D D p p D D X.=.Q.H.rXKXnX4X#XmXbXKXJXMXMXQ.M.9.8.Z V V qX[.lXwXeXKXCXwXJX}.b : O = [.xXcXvXgX}.|.:XHXvX/ W C |.Q.VXkXlXP P > - o @ @ 6 5 * * * * & r u s N t y y y M P b N N N y n S ; * * g p u a a a f 6 r 1 a a 6 6 ; & #   o 4.4.PX:X:XHXPX8.x.Z.IXGXSXvXAXcXqXIXUX}.q.0.c.p.#XrXtXuXyX/.^./.R.^.;.-.F X. .mX5XtX^ ..H i W.@X-XoX6X5.+.^ 7X8XNX7X!.7XL.^ ^ z.z.p.p.p.5.^ ! J ..m. XQ 6.j.OX3X1XNXmXs.J.u D A 5 & 6 A a.!.XX+XL.H.e.H.! ! J G Y n D r.CXyX2X1X!.XX5X .~ W.!.O.5.5.n.K.t.K.K.z.b. XOXC.I.C.I.OXI.H I ~ I XX!.L.Y.XXG S n 1X1X1X5Xe.G I S G .. . .n A w.BXBX4X4XVX0.&.P V A.|.vX}.|.8.0.|.MXcXp.0.t.OXOXMXKXy.*.; S P p u f g F g g L L F D p $ *.*.5 ; @ % X 8 y P P I ^ ^ M D u & % A n p p F U D a g D g p t y y % % 9.8.HXPXcXZ.[.*X*XLXA.%X, O Z 9.x.MXPXPXvXHXvXGXq.1.T 8.0.N.V.&XJXnX7XBXNXCXCXKXKX7XL.G.e.w.o.*.w.w.e.*.*.J { { { U s.!.Y.yXtXtXmXNXNXeXmXnXeX4X4X4XeXJ.u.r.! ! S A D I Y J S G I G  .&.r.L.J.tXyXyX2X0XmXmXnXbXcX>X*X4.+.C Q.M.lXvXPXPXcXKXHX:XW W W ` *XcXIX3.2.q.2.&XVXzXwXeX4.P P M b a F F F F | } f g F U I o X # ; - b M N H ^ ",
"  Q W kXMXjXPXPX8.9.W Q AXAXSXLXPXiXAXAX0.3., l V AXIXzX,X,XiX>XIXGX%X,._ / ,.f.x.Z.B.Z.6XMX;XkXlX4XrXeXtXuX/./.d.-.*. .*.X.O.@.! @.X.@.S A S G ..O.U Y S G S F D f r r G D *.w.~.L.rXmXtXrXrXCXCXPXkXMXwX{.V.p.z.C v Z -X-XVX=XMXJXbXCXlX}.v ; O = Z.HXvXvXiX*X:XiXvXHX/ E E [.Q.lX:XkXB C = = o @ & 6 6 1 & 1 @ @ r u b H b N t b C P M N p y y p n y 1 * p u r u a s D 5 r 1 s r y ; & % X .   8.z.kX@X*XjXPX9.V.Z.zXgXIXPXIXjXvXDXHXV.3.3.p.V.#XrXmX0X0X/././.R.R.o.o.D -.*.rXmXrX5.^ I ^ Q.Q.-XkXeX4.) ~ 3X8XBX8XY.8X X..^ z.M.t.4.&.+...*.I *.n.L.H n.n.OXOX7X9XCXu.F.U u 7 7 7 F i !.L.v.Y.+XL.s.a.U ! J S S D F *.yX1XtX2X!.~.5X....!.W.5.....z.m.n.z.z.t.C.K.lX=X{.K.{. XH.G H &.+.~. X1XY.H.! i i L.5X5X5XH.G G G G  .@. .p S ! NX7X1XbXVXz.p.C V |.[.PXZ.*X8.2.jXHX=Xp.z.p.4X3XNXNXn.K.6 p n a a g g g r f F F F F D $  ...u ; o X @ y p M G I ^ ^ Y p u & @ u u A F J U D u u A A n b Z - % O 9.0.VXzXcXoX[.}.[.IX}.N.. + Z Z.A.lXKXPX:XjXPXIXg.,._ q.8.N.x.`.kXeXtXtXmXZXmXNXbX=XL.G.e.d.=.-.-.*.*.-.o.L L J { o.e.J.!.mXyXCXyXyX5X4XnXnXKX4XnXkXnX!.r.u.@. .U G I I J J n F U G ..! y.L.~.yXmXyX2X0XmXCXnXJXcX>X|.2.) C @XP.MX:XKXPXPXPXPXjXB V v V MXzXjX,.3.,.4.}.cXMX-XwX&.P ~ N n S D F g F [ { g F } F D % % % ; - M b N C ~ ",
"X ~ W 6XjX*XLXHX*X|.) 2.0.Z.A.|.[.Z.*X>XzXjX9.iX*XHX*X*X>X_ V V %X|.;X*XAX;X}.*XA.x.W E 2.V.C.=X@XQ.#X4XrXtX5XyXyX2X2XL.L.5.&.+.! ..U 5.!  .O.I A J A p G S p A S F ! e.~.!.yXrXrX5XrX.X$XKXCX4X=X=X&.3.) p.V.oX|.-X-X-X@X[.}.kX0.p.C.KX=XkX) ) ( E V.jX}.jXAXvXcX|.f.c.: v _ [.|.lX:XkXZ B = = % @ % @ # 6 1 p g s D p s C v V V Z v ' - & - & S S A p u * u 5 r r s s F r p 1 & * 6 - % % o = : -X=XMXcXcX>X:XV.PXjXAXjXA.l.|.xX>XA.x.` E 2.Q.}.4XyXKX0X0X/././.;.R.$.$.L J.J.uXZX!.$XlXnX@Xp.Q.E.|.@XoX#X6.^ ..^ e.e.m H m m v t.P.p.r.n.n.n.U.n.^ ~ 0 {.C.{. XXX5.*.U D U { X.7 u X.I Y.!.L.a.u.e.Y.+Xa.w...Y X.D Y A *.e.s.v.1XW.U...! 5.&.H.n.m. Xm.{.n.6.) +.m 6.t.5.y.e.6.^ O.O.3X7XL. X!.a.r.~.G.u.a.w.BXtXXXI G I J ! O.X.U I i 5X3XNXkXKX}.|.Z B qXvXAXT B . . c.HXPXz.z.5.K.I.MXPX3X4X8 6 ; ; 5 g D L g g F D D D D A U Y p 5 X . p p G p N Y Y Y D Y U D u D 4 - 4 @ & 5 A Y D u i # > . O + 9.0.cXPXPX*XZ.|.`.LX}.*XT E 2.PXcXLXMX+.c.V.*X).%X,X].jX*XiX|.b.z.z.oXoX3XkXkXMXKXLXbXmX2XuXT.J.i.=.o.o.o.-.w.o.o.#.g F F F Y r.v.XXtXtXtX1XmXv.K.6.O...A U J D U S A A S Y J *.v.v.1X#XCXCXtXrXmXmXCXZXCXCXK.C.l.l.l.9.0.0.@X6XMXcX:XjXHXjXHX*X0 v = = jX:XvX8.9.W ( >XKXPX-X@XV ; 8 M H ! D F f h f f 7 f L < 6 6 S Y I ..! +...*.^ ",
"X ~ +.FXDX;XiXHXcXLXHXvX:X4.9.C V l ).N.LXAXPX;XxX:XvX:X}.v x v jX;XcXjXjX}.|.:XoX*XQ ( V A.A.V.Q.Z.V.*X@XoXeX.XkX#XeXCX6X@X@XOXv.u... .J a Y U U S A F S D *.W.W.6XoXMX4XKX=XkXMXkXPXKXKXb.oXM.+.2./ C 8.jXjXLXPXcXVXHX*X*Xc.t.. M 8 -XoXJXcXcXjXcXPXZ.].Z V _ Q 4.c.8.h.l.[.|.@XUXVXwXy : O - 8 5 ; n S y s r r f D D N v v Z Z c c c ' : > = ; 8 y p p p y & & 6 6 r r r r & ; & % % : = O E E vXHXjXPXPXx.3.}.HXPXW / .   W :X@Xl.V.Z l.x.=XrXeXZXyX<X/./.^./.$.o.$.[ { 0X2XtXmX6.U.C.=XkXS.x.p.M.K.eXwX#Xn.m.n.m.....O.N H Q N 8 b Q H 5.~ ~ H ~ Q C {..Xm.W.!.I ! X. .Y A F D D w.e.9Xv.L.8 w J.Y.J.G.H.! X.U F U 6 5 u D G y.a.Q.p.v...&.+.p.5.5.5.~ P M 9 9 b t 0 Q G &.5.H. X!.5.5. Xe.a.G.H.v.!.<X .O.XXXX8Xa.r.S S A X.@. .U i a.6.KXVXVXcXHXD.0.=XwXIXl.3.: x ;XPXLX4.3.R x.x.MXsXMXVX&.o . % - S P Y F Y D U A D D p U U p L * * D D Y ! =.g N p s p F }  .} U Y D D < & u u 5 5 6 .   , + . x.9.cXlXHX}.}._ V KXHXPXAXPXDXIXPX8.8.  = - M.P.vXcXPXJXMXPXPXh.v Z 7.8.c.%X].iXpXgXzXlXCXnXKXCXrXtX2XH.Y.-.-.o.w.i.-.o.o. .X.F U  .e.u.e.u.@.{ { D D J J J D A q  .U e.e.$X<XtXrXmXCXPX-XLXLXJXMX6X0.t.C B E jX|.LXPXLXLXPXDXvXZ.A.= / W cXjXPX|.Q.Q.Q.HXPXjXW W 4.8.[.IXPX*X>X: % = - y n .. .g d $ 3 $ 2 1 d F =.} U  .U U X.o.{  .",
"o Q Q MXxXjX;X;XIXPXcXzX&X0.6.V V l c.Z.cXHXLXcXjXsX-XoX`.R v : &X*XLXvXHXP.V.-X;X|./ ) Q t.A.[.[.V.P.Z.:X|.xX-X6X}.*XHXMX*X}.{.r.r.*.*.U p G F  .D S n S G w.~. X;XsX-X6X;X6XzXxXPXLXPXPX*Xb.c.2./ H V 8.>XDXPXPXcXPXPX*X*Xt.x.  v m kXwXHXcXwXHXUXHXV.V.V Z E ( 4.9.7.c.l.Z.}.}.HXVXwXv b # % 9 y 8 M S y s r r f g A b v v Z c c v c c : > > ; 8 t s s s u 5 1 1 1 a p 6 u y % % # O > > O ) ) jX:X:XPXPX8.9.}.PXPX2./     / MXkXz.t.v 9.x.lX7XrXmXyX/././.^./.$.o.[ F } uXyXtXZX5.U.M.zX}.}.x.z.A.Q.lXeX=Xm.p.y.r.O.O.O.H H H b m S m ^ Q +.Q H H P ~ {.K.Q.L.~.U ! O.U Y U D f q e.r.1XL.Y.8 6 G.L.G.J.Y. . .U D D u < & D I a.m.m.r.a.&.&.+.5.5.y.y.~ M S 8 b 0 i i ~ ..! +.XX X#X5.y.n.H.r.v.G.L.XX5X@.&.!.~.5Xw.5.G I I @.@.X. .n e.5.KXlXcXPXPX8.8.@XjXcX9.2.v l &XPXPX<.2.T l.c.AXxXPXcXD.+ + % o P I ! G D f U F J F f } } r r * * r L L Y } g D N p s D U { U Y Y F u 5 5 u 5 5 4 & .   = O O 9.8.cXHXVX>X*XE ) *XPXIXPXHXPXPXPX_ 0.X % O Q.z.nXKXKXJXJXPXPX9.E V 0.3.S.>XaXpXaXhXhXvXVXlXKXKXnXrX1XJ.J.w.w.*.@.-.@.*.o.{ U g L o.d.s.d.d.o.L L D F J J K J K A  .G r.e.L.Q.5XmXKXCXcX:XLXPXLXcX}.9.0.C V / zXzXHXzXPXPXPXcXHXV.}.= ) 2.cXcXVX-X[.}.|.cXPX}.W W 3.8.}.IXPX:XqX: O + = ; M O. .g 7 3 $ $ 2 2 g L =.} U  .} } } } { } ",
"% M b =X}.xXjXiX>XiX>XHXHXcXDX|.:Xl.x.l.0.l.9.x.Z.*X}.|.oX|.oX|.HXDXcX9.0.: : 2.-XvX*X-XjXcXvX}.oX8.8.V x.9.Z.V.6XzX;XzXxXjXPXJX1X5X<X~.u. .! I G G 5.y.L.U.5XtX=XzXLXHXLXDXLXHXxXMX4.m v W ) jXHXHXPXKXvX}.[.9.8.B V.c.PXDX6X;X4.c.5.*X{.oXcXHXA.V.[.3.1.E / A.N.A.Z.[.zXiXgXDX:XPXLX=Xm P b M n S i b b y N p D g g p t y l c c v Z v c : : ' > y s s i y r 5 @ @ @ y s & ; y v v > = > ; % l.l.HXHXVXHX:XB B l.[.Z.) 3.: v l.=XkXZ.V.) A.M.lXrXtXyXuX/././.T.R.$.o.$.{ -.0X~.~.nX8 M M Z.B.Q.|.M.C.Q.UXnX4Xm..XOX1XOXL.!.OX8X XL.L.I.H..Xy.M.W.Q.n.n.6..Xm.rX1XJ.J.G.J.~.*.U U A a G.u.Y.Y.L.- 4 v.L.J.Y.~.J J U A A a.T.T.~.v..X.X.X!..XL.K.XXm.p.r.n.n.y.n.I.XXn. X~.XX1XI.n.H.u.n.KXKXXXn.v.L.L.U.*...@ o a.H.CXa.a.~ J n  .{ ! ! i ! ~ eXeX-XPXPX[.|.[.x.HXN.|.PXcXPXcX;XA.V.4.c.f.%X|.jXvX}.= ; y - ..M D 9 6 u Y Y U F 5 F g * 1 r g g F Y U U 6 - ; p p P ! U P D G U Y ! I A u 6 $ o - O =   + 3.0.PXPXcXvXcX/ q.3.;XsX[.&XoX{.P.C.oX0.t.C.PXCXlXVX^ 5.y.{.6Xc.A.B.AXzX>Xc.k.q.q.].pXqXwX}.eX4XeXnXmXKXmX8X~.J.w.w.*.{ o.*.e.o.X.U U  . .X.L A D A F D D D  .@.G.yXmXCXmXKXnXnXCXVXkXPXxX|.Z.2.q.l.|.*XV.[.[.HXLXgXvXB.).xXDXPXx.{.. E ) *XwXVXLXHXKXVXVXjX9.V V q.8.>XHXcXQ.|.y : y = o % 6 & < r L L { } { X.U U Y U U U Y g g Y U ",
"% b C {.{.-XiX|.zXiXpXiXjXjXcX*X;Xl.8.8.3.x.l.V.l.}.}.}.Z.|.[.|.*XxXHX9.l.> = ) *XjX*X*X*XHXDX>X*X8.4.v 0.l.[.;XB.jX6XjXjXjXPXMXXX$XXX!.u...P H G ! r.a.1X.XtX4X4XsX*XjX=XLXJXLX6XxXt.C v ) +.jXzXxXHXHX-X[.*X8.c.V c.Z.PXPX*X*X+.9.9.oX;X|.jXjX}.[.}.8._ _ _ Z.V.[.Z.).jXgX>XiXgXHXLX}.~ G y u p M N b v b N n S p s u y y ' ' y t b b v ' v v = : y i s s r 5 $ @ $ p S : : y ' c : > = = = C.c.:XHXHX}.*XE V l.[.A.8.3.v V l.MXCXC.t.4.P.M.eXeXyXtX0X/.^.^.R.R.$.$.F F i.9X0X5XnX; I H z.{.C.-XW.Q.Q.wXwXrX.XW.W.I.3XI. X5X7XY.XXL.J.!.n.n.a.XXW.H.m.+.K.M.1XXXv.!.!.v.XXJ.F U u S G.u.+X!.+X# & r.H.L.XX0X .p A D p s.G.^.L.1X$XW.W.~.L..X+XL.m.K.a.n.U.y.5.I.I.m.7X3X!.U.U.U.n.L.a.KXBXXXH.m.U.H.L.&.O.- # n.a.NXa.n.! ! I  .U X.O.G G P #XoXeXPXcXQ.}.V.%XjXA.B.DXPXAX;XAXB.B.8.9.h.%X*XPXlXlX' > : y ..y i ; 6 A U U  .U g g a * * 5 p r U ! ! U ; & - N i M H G S D I ! P ! P p u & X o # O O   . 0.p.PXzXHXPXcX/ 3.,.jXxX*X&XLXV.[.{.A.6.M.t.JXnXPXKX&.+.5.oX=X{.;X}.iXzX,Xf.).q.,.].GXoX-X*XJXlXCXwXrXCXtX7X!.L.w.5...X.*.*.w.X.X.U U X.X. .U D f p p D U J O.*.J.1XtXZXbXCXCXeXJXVXJXcXjX[.[.c.9.x.[.Z.A.;X;XvXPX}.jX[.A.cXLXcXh.A.: ) 2.@X:XHXHXPXPXcX>X[.( E E 7.7.*XHXPX@X@X: - = X   & ; < 5 r U F } } { =.! Y Y X.! U G y s U ..",
"6 - % 0 Z W ).%XSXpXGX>XSXzXHXzXzXjXHXHXjXZ.) : B 2.l.>XjXPXxXPXxXxXvX) / . + E 6XHXjXPXZ.*X|.MXjX[.A.<.8.8.3.l.l.V.x.Z.`.[.:XoXNXNXKXCXbX3X XW.Q.W.rX.XmX4XnX=XkXLXPXPX*X{.x.8.0.4.( Q +.P.}.zXvX:X>X:XLXxX>XW C . 3.W zX;X6XjXvXHXHXHXsX0.2.V 9.q.c.9.l.[.x.}.Z.>X,X,XvXPXGXzXjXx.8.M p y D U u p M C B B v v y y 5 r y y ' ' ; y p M C C Z v > > ; ; y p p a 1 1 - s M v v ' + , > > % % v @XHXvXHXHX9.x.8.3.*X:X>XvXHX*X:XPX{.Q.4.^ 6.=X{.lXtXmX0X2X/.^.^.i.i.{ { F L T.yXyXs.6.! W.I.=XdX=XoX$X4X@X=X.XrXnXCXBX3XCX3X3X Xv.a.Y.H.v.L.Y.~.XXXXK.L.!...2X$X.X$X#X5.a.s.d.uXs.s.A U e.5.1Xv.G.J J v.H.J.G.L.J @.@.J.T.2XG.2X0XW.1X~.L.v.a.!.!.!.v.L.m.G.!.!.7Xv.v.U.!.H.+XL.1X3X8X9X3XL.L.H.XX XW.m. XM.m...I G ~ #X.XOX&.Q i J F X.O.U S S U.{.JXMXlXPXPX) ` 7.AXjXjXPX}.c.h.DXxX}.f.0.c.l.*XqXwX( W N N P 6 - % - p i i p A * @ * r s g Y ! ! Y s N i b y y : : : y b N H P G Y P I ! G p S % 8 = # o t.3.wX;X*X>XHXIXPX[.l.4./ ) v c.h.KXJXJXKXPXkXPXp.p.# . # 4.t.sXcXPXHXIXPX[.V.W Z 1.N.x.A.Z.oX@XMXlXCXMXNXPXbXKXNXNX3Xr.e.*.@.! .. ...U U Y I I U ! ! 5.G.!.7X7XKXmXNXnXkXCXPXMXMXQ.[.|.q.Z v ) l.cXPXPXHXHXHXjXjX) _ + O l.PXPXDXDX}.xXcXLXHXx.8.4.c.[.].|.c.N.N.[.Z.>XLXPX=XQ.- - - ; ; Y Y D U D D D U U ! ..^ P ^ H s t ; % & t s ",
"b t y % O   = = Z B N.N.iXiXzX;XiX>XjX|.xXHXDX*XZ.x.0.l.l.V.3.9.9.V.HX;XxXl.x.;XxX6Xc.V.= : v }.|.}.&XsXHXPX:X*X( : : Q ( 2.3.4.}.{.4X4XeXbX6XeX6X6XMX4XCXlXCXeX6X}.{./ Z v h.A.cX;XLXMXDXHXcX[.v v v Z Z.HXPX}.*X0.`.[.*XcX[.*X&X|.A.c.l.2.9.8.Z.V.}.}.>XGXqXvXjXIXUX:X).S.,.l v . X . p r 7 & U G V v l c : v y 8 6 6 y y ; ; & 1 a G I P B v c ' > = ; u a a r r & & - > > , + , + O . + &.CXHX|.>XcX8.9.>XcXHX>X*XjX:X-X[.[.2.4.Q Q z.MX6XnXtXmX<X/./.^.^.;.o.F [ o.o.uXyXuXy.&.1XXXU.7XXXH.a.y.n.n.Q.K..X.X1X5X<XXX5.5...O.5.*.5.w.5.tX*.*.H.U.1X1XS L.~.K.K.y.b G !.K.m.5XyXO.O.^ ..<Xe.e.e.e.~.XXXXe.w.A J.s.~.J.~.G.d.F Y G.!.s.U ..s.a.5Xr.H.CXKXI.5.5.a.r.5.H m e.a.XXXXn.n.H.U.L.I.u.z.m.m.W. X{.m.K.6.5. X4X7Xr.e.! p p U U U a p 6.&.eX6X@XPXDX8.c.( PXPX[.|.v : x DXDXsX9.9.l.x.xXjXqXE.Z._ V M P P n S ! S A F Y * $ 1 L F D A G G D ; y y b : y ' > = > : : : 8 i t b I ..P A G G I 8 # o 6.0.PXMXHXcX:XvXAXPXAXHXcX*Xt.4.3.P.Z.Z.wXQ.t.p.|.wXM.A.A.JX6XLXh.0.T T V.).|.%XzXIXgX:XoXZ.4.2.l.Z.oX}.oX6XOXeXKXJXbXtXtXXX!.a.y...I G H H ..y.v.XX1XCXKXKXCXMXPXMXJXbXwX{.Q.( 9.c.jX*X;X;XiXIXjXcXc.x.l.V.cXAXAX8.q.v : N.AXzXHXMXPX;XcX}.cXQ / Q A.N.A.|.|.iXjXAXxXHXPXPX.XU.8 S G ! Y ! G D ! X.U U ! G H b t ; y N b b b 8 : y y ",
"y y 8 # % + = > Z B N.).iXHXSXxX*XwXlXwXLXVXcXqX:XV.9.0.l.x.4.0.V.B.xX:X*Xx.V.V.xXcX[.oX: : : Z.*X:X*XDXxXHXcX*X3.> v E _ 8.3.2.}.}.kXwXkXVXkXMXMXlXwX=XwXlXJXJXHX;X*X/ v x t.V.LXMXLXHXxX=XxXoXv B V B *XcX:X}.|.9.[.Z.:X:X`.V.}.}.).N.l.8.c.x.V.A.|.[.|.*XwXqXUXwXqXgXA.A.3.Z l + o o s g r 2 *.~ C ' > : > v v 9 5 5 r 1 ; * 1 2 r g P P C B Z v : = % ; r s a p 6 - = , , , , + .       a.tXMXcXcX:X9.2.jXvXcX*X>X*Xx.*X*XlX2.( W P p.eXrXtXtXyX^././.^.T.$.=.F F o.o.yX0XtXw.r.1XU.U.7XfXI.u.e.p.p.W.I.1X1XXXBXmX<X5.w.! 5.w.*.*.*.@.KXd.5.G.!.XX~.n L.XXrX$X5.b b Q.~.U.tX$Xy.5.P I L.y.e.e.u.Y.<X0X*.*. .T.H.T.s.~.H.u.! U T.Y.J.G I u.s.9X*.*.ZXKXL.e.w.y.w. .J G w.G.XX!.G.v.G.+XH.XXr.n.P.K.K.=XK.m.K.5.6.M.kX6Xz.6.b A D U U X.S S O.*.nXeXlXPXIXl.4.2.HXPX;X*XO 0 Z vXxXjX7.8.8.9.jXcXwX}.Q.C C Q ^ Q b b ! n n A A @ < r L L ! Y ! N P y y ; b t M B c > > : : - - N i N P G D G D G G p % ; ! 4.VXkX-XvXjXHXIXIXzXLXoX6Xt./ ^ P.C.}.}.|.z.c.:XcXS.V.P.MXcXLX4.7.C C V.%XN.>XGXzX>X[.`.|.( 4.c.{.}.-X;X6X;X-XLXHXPXKXmXXXI.y.6.! H P ~ ! 5.a.M..XOXNXNXNX X6XKXKXPX@XjX*X}.( l.9.V.*XcXzXzX>X:XcX9.x.D.l.HXPXvXf.l.x v N.iXcXjX:XLX>XvX[.*X) &.&.x.S.).).%X>XjXzXDXPXJXCX!.W.p D g ~ Y Y Y Y Y ! G ^ Y P P b N v b y b b v v : > = ",
"; s y - - O O O O   > > Z 0.c.%XjXcXwXwX:X@X*XjXvX:XcXvXqXV.V v W Q `.jXvXcXPXjX>XjXV.t.= V W *X{.sX;X[.3.3.}.6X*XV Z O . / l.x.{.}.cXjXjXcX:XzXjXcXLXKXMX*XV.9.t.c.P.b.3.x.-X:XzXjX{.-XzX6XcX;Xx > O . x.-X}.xXcXMXLXPXZ.x.W E _ 4.l.V.A.V.|.*X>X*X:XqXHXUXLX@XQ.6.W Q : Z c , = = % & 1 k 2 k =.M C v c c > v : 6 6 1 1 7 5 2 e e r r p C V ` c c : > - ; u s r s 6 : = O , , + O , > > O .X#X{.PXHXV.9.9.PXHXx.v = > Z Z.x.9.y B ^ &.Q.CXnX5XtXyXT.^./.^.T.{ o.F } i.u.ZX~.W..XOXa.OX3X+...q m H ..I G H 5.L.L.<X5X<XG.Y.G G 5 A A 5 5 s.0X2XtX<Xr.w.p ~.L.XX4XK.= : b 6 eXm.K.L.v.! n O.! ! 2XXXY.L.!.J U X.T.T.!.T.w.@ & u.d.Y.u.J.S i ..e.tXv.v.KX9X! i 9 9 q q y.v.a.v.H.L.1X*.5.G G G G C M 0 H OXOXK.M.m.K.b.kX4X{.{.! n D U D  .D D U I $X6XlXxXHXAXzXl.LXPX}.*X: 3./ sXjXjX( ( / ) Z.Q.kXcXVX2.3.2.: b - ; P n S p 5 1 L F g a ! Y P : b % % ; M b N C Z c v v v v v ; - ; ; - t G S y p X.n G & X N m.p.;XcXHXPXIXIXcXFXlXJXMXHXb.A.W + o 0.8.LXVXPXlXHXKXLX%Xl :     2.zXiXPXSXzXPXPXHXxXQ E / 0.8.N.l.x.x.l.|.[.xXJXKXMXKXbXMX.Xm.b.P.P.eXMXrXNXbXMXKXPXkXKXlXP.b.l.0.H W E xXvXcXcXPXcXPXxXHX}.: > + O l.PXPXzXcXHXxXPXsX*X8.2.) |.Z.P.A.}.[.-X|.|.iXiXIXHXPXDXPXMXoXM.*.d.p } } X.^ H ! Y D ! G M i y M ; t y v t C N b N y = > ",
"6 s y ; % O + O +   : : Z 7.f.;X}.VXkXkX:XkX=XlXvXHX:XHX*XV.B v E W P.jXHXMXDX}.cX*Xc.V.> H _ [.A.xXxXZ.3.8.|.>X;XE Z + + E c.V.P.;XsXzX*XMXcXjXcXvXPXPX:XzXc.9.l.A.V.l.8.t.6XjXjXcXA.vX:XjX:XjXx > O = 9.;X6X;XxXLXvXPX[.b.W V _ 9.l.A.B.[.{.}.:X}.6XVXlXkXPXQ..X&.W W c l Z O , # - @ g 2 d k -.N ` c c c l l : 4 4 1 1 2 r r e e 2 r f G P Q Z > : > - - p u a p y - = O + , , + , O > = W..XoXPXPXS.9.8.HXHXZ.> > > > [.[.9.v Z &.&.W.mXtXtXmX<X/.^././.i.} #.F L d.G.yXJ.~.1X!.I.U.fXO.+.0 S n I O.A J *.L.G.tX<X1XG.G.! G q a D u q J.0X5XuX5Xw.*.n !.v.uX#Xm.; 0 : b rXm.U.m.!.i M ....U 0X~.J.~.<XF D *.Y.v.L.~...& * u.s.u.Y.G.q F X.O.9Xv.a.NXKXI 9 9 q # n H.e.v.w.L.L.1X*.5.G J J S M C b H .XOXK.b.m.K.m.7XOXOXP.! S D G F ! D U F ! XXNXbXMXcXzXAXf.PXHX;X[.: 2.( jXwXPX/ / ) ) A.V.LX:XHX2.3.) v v 0 y M M b 9 5 1 h L p F Y X.b y > - % ; N M C C B v v v v t y - % ; ; 8 y P G p A F P A o % y z.z.jX>XPXIXPXIXDXbXkXKXMXkXA.C.E O O 2.l.HXcXPXzXHXcXKX;X: :   . 2.;XHXHXPXiXPXPXLXcXQ W _ 8.9.N.V.l.x.c.].,XvXPXPXJXVXMX6XOXb.P.Q.{.lXbXeXJX6XMXKXPXcXPX:X[.b.x.q.E / E zXiXcXHXHXPXIX:XPX%X= > , O D.PXPXcXcXHXHXPX;XsX3.( 2.|.b.V.Z.|.@X}.[.}.>XiXGXIXHXLXLXKXK.m.e.*.Y } U ! ^ H Y ^ P P H H b y t v t t t y P M P ; v = = ",
"6 s u - % # o O > = : = = : , - t +.M..XlXkX6XcX*X:X;XjXcXHX;XcX|.x.[.x.x.3.x.3.c.V.sXPX[.*X}.>XjXvX|.) + + E W V.8.V.x.[.cXvXvXcXxXvXDXcX;XvXHXHXV.h.8.Z v Q >X;XxXHXPXHXzXDX*X3.3.= V / jXzX;XA.|.|.`.:X|.|.[.b.x.l.9.8.8.8.9.B.A.Z.*X[.:XcXzXVXVX6X{.C.4.) y ; @ % ; > Z E , O o @ X r 2 d r *.C V : : > > v v i q 7 r 2 r 2 e e 2 e f D Y P C y v > - % 8 - s s y : > > = , , O + + B H lXCXzXPXPXQ ) ) HXPXl.O O : B *X>XA./ / z.b.rXZXrXuXyX~.^.^.^.^.;.{ }  .o.~.2XyXL.L.J.L.7XO.~ 4 H y.tX<X1X7XXXL.@.i G w.H.BX9X9XY.2X..5 q q S  .e.J.w.w.n G n e.*.4XnX-Xz.b.~ b p.W.Q.XX!.G D y.~.rX*.a.5Xu.X.a 6 *.X.e.v.d. .X.*.0X2XJ.J.u.U D A K u.XX!.s...G i i n I v.a.J.1XmXY.G.I G *.y.v.G.H.H.6.e.t H b  X3Xn.m.b.4X3XkXOX+.G D D D ! Y U D A v.eXkXlXMXIXLXA.*XoXxXLXA.HXjXcXvX}.2.2.W 2.l.c.wXcXHXD.k.Z = > = = O % @ & & D L U Y ! p D y ; % ; - y G H P H C M N N N b b b y t - = # = % D D Y Y G @ # & % o v B 8.l.*XcXJXKXMXMXlXJXMXJXPX{.}.7.W l.l.[.A.l.x.b.>XV.[.c.V.HXPXIXS.9.l ) ( oX;XHXLXHXiX|.q.8.Q _ 2.k.q.8.V.P.kXkXlXJXVXPXlXKXMXMXJXMXPXPXPX-X=X3.&.W c.x.:XHXPXPX;XIXzX;X|.V 8.x.cXLXjX4.) 2.,.*XiXHX:XHXzXsX>Xl.x.4.3.9.[.{.}.*X|.lXHXLXIXPXIXIXzXiX|.`.W v 0 P A L L Y ! ^ M M M y y : i i b t ; = ; y D ! Y ^ i N : ' ",
"6 s y & % % # % b v v 0 0 0 - o   X % # M I t.=XMXKXPXzXxX:XiXxX;X&XcX>X:X2.4.: 9.t.:X*X-X>XjX[.A.[.}.l.v Z t.0.6X:X:X}.;XxX[.*XcXLXxXsXIXA.h./ <.f.`.[.c.Z.}.HXvX[.l.l.[.}.HXcX2.2.O / E }.|.*X:XxXjX-X}.2./ v v V 8.8.P.A.*X}.xX>XjXKXlXVXbX-Xz.p.H o #     .   % N N % - H : - # @ X g k j k =.N B > = , > v m n f d r r r 2 e e e d d f D D P N N ; = % - # y 8 t v : v c , , , , = l.c.VXKXHX*X*XO ) W |.V.*X3.l.}.[.vX:XV.8.2.V.C.4XrX2XyXuX~.^.T.T.T.;.L { *.-.yXmX<XJ.H.L.a. XS H +.O.OXu.u.a.a. X7X!.O.+.9 - ..!.5X1X8X!.w.*.tXtX2XO.@...&.G Y M a y K.z.lXPXbXz.P.m.I.W.ZXnXK.a.H.s.5.<X<X!.Y.<Xs.G.!.J.L.H.v.J.tX<XJ.G.^.~.@.J F K D 5 D J d.v.1XO.+.L.J.!.2XXXv.w.A I S +XG.v.Y.L.s.H.n.u.6.# - n.m. XK.y.M.U.MXnXm.P P n p U  . .p p w.5XnX7XzXLXLXc.( 4.}.*X*XPXPX6XjX[.wX:X9.x.9.0.P.LXPX,XgXB l v : : O % % i p { L U } ..y y ; % % ; y p Y G Y G G D D D G G H i t b ; : = : - n D F U U & % # X   ; > 0 = B +.+. XOXMXJXJXMX6XzXwXPXPXPX].*Xl.2.W 8.3.jXPXPXPXcXHX*X}.) ) O ( ) ;XcX;XAX2.:X:XPXGXZ     v v 2.b.x.kXlXVXPX;XzXLXPXKXMXPXMXZ.Z.@Xc.|.7.7.3.HXHXIXHXcXsXLXIXsXf.Z.  v Z %X:XLXLXPXPXPXPX8.4.v B f.B.A.V.|.&X&X*XvXHXcXLXjXPXHX:XjX:X}.f.E T , O , o . H p X.L Y Y P N i b 8 8 ; ; ; 8 t N D Y U F U U =.G P v B ",
"1 u 5 & % % & - b b - = ; 8 0 X X @ # % M ~ z.7X6XJXMXvX;X:XcXHX:XjXjX:X*X( ( > 3.8.:X*XHXjXjXZ.}.{.V.2.v C t.l.&X*X|.}.oXcX}.jXsXLXsXjXLXV.9.4./ 9.c.x.B.[.;XjXvXl.D.8.*X|.HXjX8.3.> ( V V.|.xXcXjX*X*X|.2.( v B / c.9.Z.V.*X|.sXoX*XkXVXKXkXnXy.y.P % & .   . o ; N s % - M ; 6 & $ X f f h f =.t Z = , , = v b p f d d r e 2 e e e d d d f g Y G H ; ; % - O ; - y v ' v v O > = + . l.V.jXPXPX}.}.+ W W [.>X}.0.9.[.jXvX>X8.3.2.P.K.#XeXtXyXuX/.^.^.F.T.=.L F w.w.yXZXJ.!.!.m.n.XXH H 6.5.8Xr.n.U.n.OX1X!.....4 q 5.1XOXXX!.L.H.y.8X1X7X*...I ^ ! ^ P y b p.m.eXPXCXK.OXt.{.I.CXtXW.H.s.s.*.0X0Xs.J.~.a.G.s.v.G.H.J.~.tX5X!.T./.2XX.D a A p 4 ..U e.r.W.O.! L.Y.L.<XXXG.s...A S 5X!.H.a.u.Y.n.n.H.n.- % H.r.U.H.n.v.U.CX7Xn.P P b a U X.o.f f O.0XyX4X6XLXMXjXW ) @X[.HXHXLX*X[.x.VX6X9.x.0.b.{.HXcXpXgXv = > = > + - % p s L L } U Y 6 ; ; % % y s D Y F L L L F F F F G G i b Z - > O , , i p D Y ! ; & # X X 8 ; 8 - m ) +.oX XbXKXNXJXkXzXlXxXPXPX}.jX9.) ) l.l.vXPXPXPXPXxX*X[.) _   W ) ;X:XsXAX3.%X}.AXGXB +   v l 2.V.b.6XMXKXPXzXHXMXHXPXKXPXLX[.Z.|.c.Z.0.l.x.HXcXHXPXsXiXPXPXAXc.9.+ T C [.}.cXPXLXLXPXzX3.q.T V 0.c.c.Z.`.;X;XsXPXLXcXHXMXLXPXwX-X|.}.( V T > = , O + P p ^ Y Y M P b y t y y y ; ; 6 u g D D F F L L =.U I M C ",
"< s r & & & ; ; G H - % ; i n # & 4 & 4 4 - # 0 v +.7.&X&XcXDXvX:XxX}.zXxX:XLX:XV.l.x.0.4.) _ ) / l.Z.*XvXjXjX>XvX;X;XcX6XKXMXcX>X*Xl.b.) , > 8.l.HXPXPXcX:XxX*X:XE B . / / jXcX:XcX[.:X*XPXvXl.8.8.9.x.x.3.x.l.x.[.>X}.&X;XxXcXJXVXlXoXOX5.; ; o @ ; & 6 ; 6 - * 6 u 5 @ @ i u s u 5 @ d d g f &.y v = , , = ' u r d d d d d e e e d d d r d f L L G 8 : = > = > = : y : v b % O = y v xXcXvXPXPX9.8.B [.}.}.[.jXxXPXvX*X9.9.) 2.3.6X6XmXCXmXuX0X/.^.^.F.F.o.[ o.Y.G.ZXCX5.v.n.m.Q..XH H &.6.BXn.n.5.5.!.<X8Xa.n.S m m ~ ..!.eX X7XNXn.!.L.ZXnX! H P P Q G ~ H v n.7XbXP.oXn.oXK.nXtXa.d.-.2X0Xw.u.J.-.u.0X<X0X0X<X+X!.!.<X5X~.T.o.o. . .U  .! u G.s.1X5X1XmXKXd.a.2XJ.J.6 A 4 p  .a.G.8X2Xa.r.w.U.H.v.# # y.u.OX!.n...O.5X7X1X~ ^ M n D X.X.D g U <XuXrXeXKXHXVXy : l.l.VXA.c.= > ( PXPX}.[.9.4.b.*X:XGXSX1.c l > c = b b U D L } =.D s ; ; % ; - s p g L h h h h h h h F L G I ^ / v v > > > N N G I I % @ @ X o t N Q H 8 = o ; - P t.b.7XkXHXlXPX[.[.PXHXPXxXxXqX}.*X[.Z.l.9.9.jXcXMXPXZ.PXHXPXPX8.3.O C T ;XHXq.( ) ).N.DXzXMXHXVXzXwXMXPXLX-XzXx.H E / &.PXPXPXHXHXMXzXzX0.7.: v h.MXPXPXLXV.*XZ.jX;X;X;XiX[.%XV.0.l.l.x.A.Z.[.AXjXcX:XxXxXHXLXLX*X8.8.&.4./ q.> : : > > = = % P N Y } ^ N C b : : 0 8 t N G U Y F D L } | [ [ =.=...H C ",
"1 f a < & ; 6 6 i i # @ ; a A & - 5 $ - 4 9 - q 0 ^ <.6X&XHXLXjXsXHX-XLXcXvXjX*Xl.l.c.V.3.( E 3.) l.l.Z.vXjX;X>X:X|.oXjX>XxXMXzXoX|.V.V.W > : 0.3.HXPXHXPXjXHX}.|.B B   _ W :XvXcXjX|.*XjXxXHXV.9.9.x.9.l.8.9.x.l.[.*XzX;XxXsX6XMXbXMX.XOX5.- ; @ X - & & & 5 & 5 p D g $ X 6 a p D g * r r g f &.y v = = > = ; r r d d d d d d d d d d d d d d L L Y s b > > > > = : ' : y y & # % b v *XgXgXPXIX8.3.2.A.}.*XHXPXHXPX:XHXl.q./ 8.9.MXeXtXZXyX2X0X/.T.^.i.i.} { D G.J.mXKX5.U.K.I.W.K.H ^ &.6.4Xm.H.y.v.8XOX Xu.y.m m n I 5.1X1XXXtXKX XOXK.KXKX+.~ ^ ~ H H ^ : b K.bX6XC.oXB.K. XbXmXH.J.w.~.^.u.u.e.e.s.<X~.T.<X~.<X<X5X9XNXY.^.o. .{ U U Y p p L.v.tXZXU.rXZXG.a.~.G.a.q q q q a.G.G.<XyXG.*.e. Xa.v.# 0 5.n.m.L.J...! 1X+X.X+.&.H n n { X.L F F ~.2XrXeXKXVXVXB B x.c.HXp.9.= O 4.HXlX|.[.4.4.P.6XvXIXhXg.> l > > = v b Y A L } =.u ; ; ; % 6 6 p g g h h ] ] ] ] h h h h L M ^ ^ v v > , = b n G U I @ X # X @ b G ~ I 0 % - # # H p.m.bXJXcXHXPXUX:XPXcXPXIXHX*X:X:X*X:Xl.9.7.xXqXVXHX*XwXVXvXPX2.8.  Z Z %X%X2.,.,.`.`.xXjXMXkXMXVXMXKXVXKX;X6Xx.v B +.) :XPXPXPXPXPXjXHX7.3.> Z x.PXLXDXDX|.Z.}.*XjX).%X}.A.|.x.D.8.f.l.x.x.`.LXcXDXsXjXxXHXVXPXwXp.p.3.&.) 3.: : > : : = > > C N D =.=.t v v > ; t 0 N p A F g g h L [ | [ [ | =.=.! P ",
"1 f f 6 & 6 6 5 D S 6 ; y p a & & w - - 9 9 % % - - + x x _ B.A.;XjX:XjXjXjX>X:XPXHX}.Z.) 2.<.}.*XjX&X*X-X*X-X6XcXLXPXHXzXV.3.( +.3.P.{.{.*XP.-XzXZ.m v ( W oXPXPXD.9.v 8.3.>X:X>X}.*XvX*XD.l.W Q Q 3.2.A.}.[.-X:XvXjXcXsXzXiXjXt.P C # # # o # 5 & D p f s r 6 u 7 6 5 1 & r r r g g * 2 < 7 5 &.v v = = = % ; r r 2 e e d d d d d d d d d j j h L L D P : = > , = > ' y ; ; 6 @ % &.5.KXHXgXSXIX3.3.}.HXPX>X*X*X[.[.) ( O > W N.l.kX4X1X0X9X/././.T./.;.;.[ } @.0X9XmXNXJ O...K..XkX) / b M M.XXOX5.5.y.y.U.W.!.5.6.&.i t ..^ 8XXXU.#XK.C.OXOX~ ~ ^ ) ~ H ^ H M 0 m ~ ^ ^ <.7X8XeX3XH.W.s.J.d.*.e.o.^.T.J.0X0XJ.~.mX9XG.@.w. .X.X.X.L F  .J D 9 mXrXv.p.r.W.K.!.<Xu.A p w.w.X. .u.G.Y.G.u.G.ZXtX!.Y.G S n 8X5X!.~.G.n i L.+XBX7.7.H S p U { L { F T.~.tXrXnXVXLX4.3.{.P.KXp.x.    3.PXPX-X@XC M 5.oX*XGXhXN.l l > > > b M H D U D L 6 6 ; ; ; t y D g h h j ] ] ] ] ] j j h F U 6.6.` ` > , O b t S ^ ! o X & S S P n 4 - 4 S H # X o # # m B S.-XA.PXPXvXPXcXHXDX:XcXvXcXvX( 2.W [.|.jXVXLXwX@Xb.l.7.&.v Q E Z.[.}.IXAXPXDXsXPXKXPXJXKXJXP.6.p.z.Q.oXM.{.VX6XwX:X@X[.P.=XHXPXE / = = / 6XsXPXPXzXDXPXvXiXC E W 3.D.S.|.}.;X;XLXjXiXHXxXLXPXPXoXQ.Q / > > : : N ~ W Z = = > : O = , N s s =.&.' v v > ; m m P ! ! U L L [ [ ] ] ] ] [ o.=.&.^ ",
"< f f 5 4 5 5 5 S a 5 < 5 a r 1 * 4 w * p 5 - % # # + 0 Z Q Z.`.cXzXHX-XxX:X*X:XHXHX&XZ.( 2.2.}.}.*X;XjX}.[.-X*XjXPXLX-XcXh.( 2.3.) {.P.oX@X[.wX*X}.V v 2.2.6XcXHXl.9.C 3.0.[.}.*XjXvX:XZ.x.A.W E W 0.( V.*XA.:X;X;XsXcXAXzXiX;XC.M S % X # & @ u 6 p 5 f a 7 f 5 a a r 3 * r d r F L * 7 < r r *.N B = = % % 6 r r e e e e d d d d d d d d j j j h L F I : = > O , > ' y - & 7 @ @ 5.0.cXDXvXGXjX3.9.cXHXPXxXvXHX[.[.( 3.O = / V.t.kXnX7X0X2X/././.^./.;.;.[ o.#.0XyXyXmXI &.O.Q.K.CX+.&.m v M.4XtX5.y.r.n.K.W. X5.5.5.t t O.O.7XH.K.3X3Xn.3XOX....H ^ +.M H Q Q 8 G Q Q ^ +.#X=XnXtX$XW.H.s.s.e.*.e.s.G.uX~.~.2X!.1XtXY.@.w.! U @.X. .U U 4 D D 2X$XL.m.v.v.K.<XJ.a.q J O.5.@.@.r.~.L.r.u.J.7XNXJ.L.J S G tX7XY.~.J.i 9 L.Y.7Xt.t.G H i J U F U f s.J.yXtXtXCXKX6.3.Z.|.PX9.9.  . &.zXJX=XlXv B 4.sX*XvXSXS.l > = = ' b M N D =.s p 6 y - % ; N p F L h h j ] ] ] ] ] j j h g D *.6.E E : O + N y S ..! X X & D A G F 5 & & p n X @ o o % M C z.:XjXHXPXHXIXgXcXxXcXUX:XPXHX) / C V.-XcXHXLX{.=Xl.c.9.2.= E V x.c.&XPXzXLXPXxXcXcXPXJXCXPXC.9.6.Z.Q.{.C.A.kXlXkXQ.oX{.[.-XPXKX^ W = O 3.HX=XJXPXjXPXPX>XcXv T E 9.3.x.).*X>X%XHXjXcXHXLXPXPXwXb.}.~ 4.O : 0 b t ^ ~ W = > , > O = , N s N &.&.' v v > : B M I F { } L h h [ | ] | | ] [ o.=.X.",
"< r 7 & & 6 u A r u & * 7 r 7 r 7 7 7 6 6 7 q - - b : # = . , = V / l.jXxXcX&XjX&X`.MXvXcXvX:X>X6X*X|.>XHXcXcXPX}.x.9.3.W 2.9.3.[.>X>XxXxXHXjXcXjXV.O . # = x.xX}.vXjXvXzX>X>X*Xl.8.9.9.3.3.h.x.[.A.-X*X>X>XcX;XzXiX%X>X4.,.Z > + # # X @ 5 A D p a a r 1 < 1 r r r d d d d d r 2 f D 1 7 7 d r ..' y = % % % r r d k k e e d d d e d k d d k k k j j L G B > , z , = : 4 7 j 7 4 i I.[.IXjXPX9.9.oXZ.HXV.[.Q V x.;XzX3.( , = l.}.oX-X#XNXyXyX/.^./.F.R.o.-.F F.w.KXCXJ.G.n ^ ^ .X$Xm..X4X5.5.t N Q M H $X$XC.{.{.C.P.6.I.n.S n +..XW. X XNXn.&.M m 6.e.a.m.W.U..X5.C 0 X o <.oXK.K.a.U.Q.v.~.~.e.d.s.=.*.5 4 a.1XtXL.J.! I G w.e.o.e.<Xu.a.a.e.n ..G tXKXm.H.W.L.w.! G.H.a.v.H.!.s.L.!.XXH.r.P S n S G n.L.Y.L.<XL.O.& - &.5.3X'.{.^ ~ n G K { { D *.w.2XuXyXmXZX-XwXx.M.vX>XqXx.x.vXKXHX{.K.= # +.P.[.PXIX:X` B > = P P D *. . .; % ; ; : ; i P D F F h ] ] ] ] ] ] ] ] ] ] [ D X.+.y B > : : b y G p D 6 & U =.U { g $ $ f F F 4 5 & 6 5 . X % = : / &.*X}.HXHXHXHXPXjXcXxXHXPX}.x.l.8.A.V Z v 8.4.x.B.[.zXxXLXPXcXvXcXPXPXPXKXjXA.A.8.0.; V.A.jXKXLXPXHXKXcXLX0 v . + 8.PXJX=XcXV.t.PX6X6XZ.A.x.l.l.N.f.8.Z.[.*X*X:XcXcXcXvXxXPXVX}.oXt.t.&.9 n 8 % - n D D A * ; P n i - ; % # ; C C H &.^ y y : > - H G U U { [ [ [ [ [ [ | | | ] ] [ :.=.",
"1 f r $ @ $ & 5 g D D g D g r 7 d 7 r r q a i 6 8 0 8 v Z = + + + .   = > 2.0.jX;X&XvXsX}.;X|.}.oXPXHXKXV.V.E B ) 9.V.}.}.sXMXvXV.9.: x / :X6XjX;XxXl.V.) E ( A.{.:X*X|.[.V.Z.A.8.4.8.t.l.x.`.[.}.|.:X:XxX:XjXA.c.T = > , = , , > b M H N D D r 7 r f g f d f g g f d r d d k k g g r $ 1 7 f d &.y v = = % % r r d k e e e e d e e j j d r k k k k e h D P > z z z , # $ j h 7 U O.MXjXHXqXKX&.( A.}.PXW V + . 3.jXHXV.*X3.2.l.oX@X6X4XNXyX9X/./.<XF.F.$.o.F T./.KXyX*.O.G r.M.&.6.$Xm.K.OXXX8X!.M.eX4Xz.y.oXC.Q.oX#Xy.0.n.n..XM 5.5.3X$X.XK.L.m.m.$XW.5X4X#X7X4XOX#X4XK.p.U.n.U.L.L.4X$Xr.*.! U  .X.O.*.Y G ~.!.L.+X<XO.e.H.L.!.Y.Y.+X!.<X!.Y.G.r.*.U.m.L..Xv.S O.Y.L.H.a.v.s.J.H.$X!.H.v..X.XOXXX!.I.OX!.L.U.U.L.L.y...t 8  XBX7X<...n S A { U D  .o.<X0XyXyXZXVXUX6.q.,XgXvXGXGXIX>X`.) ^ = - Q c.l.:XqXlX&.&.y 8 P G D 5.e.D 8 y ; % ; y N P D F h h ] ] ] ] ] ] ] ] ] h h L *.*.t B = = = M p Y s D r 5 U f r F F 1 2 F { o.g D r a A ; 6 6 % o O   % > ) Z.|.DXHXxXjXvXxX;XvXPXPX{.[.) +./ A.V.>X:XxXPXHXxX>XPXPXLXjX}.3.3.9.|.Q.@X-X}.zX6XLXcX-XQ.[.jXVXPX/ +.> = 4.zXkXPXMXKXKXJXA.b.v Z 2.x.c.V.[.*XAXiXAXcXHXHXIXDXDX{.oX5.b M H H 8 S S i 5 u p D Y Y @ @ r  .*.! G - # & M C C %.P y v : > - H J { [ [ [ [ [ [ [ | ] | | | | [ | | ",
"2 g a $ X $ < 5 p g F g a r r 7 7 7 r f 7 q q 6 - ; 8 0 : =     O . + : > 3.3.*X*X>X6XjX|.xX:XvXoXLXcXxXc.P.W W E V.Z.*X*X6XMXHX`.Z.v v W HX>X>XsX}.x.V.2./ <.:XoXvX;X*X}.Z.P.Z.4.( 4.9.c.V.[.Q.wXjXwXwXHXjXjXl.A.T = , , + O , > C b P p p s 1 6 r f g g g g g D f r r d d d d h g r $ < 7 j d &.y ' , % % % r r d d e e e d d e d h h d r k k j k e h p Q > z z z O # $ [ F < X.O.MXcXcXcXVX_ ( *X*XDXW E     8.PXPXV.A./ 3.x.oX@XkXeXNX2X0X<X<X/.i.d.{ $.} <XY.yXtX*.O.O.a.r.6.6.#Xv.K.eX X7X XL.4XOXM.z.Q.K.z.Q.=XP.5.t.H.U.H 5.6.nX4X#X#XM.z.H..X.XCX7XW.3XW.tXMX#Xn.z.I.m.M.v.H.2X$Xd.*.=.=...U X. . .I s.1XY.1X1Xr.w.a.a.u.<XY.G.9X9X!.!.J.@.5.H.v.!.v.L.S S L.m.L.e.a.L.v.a.W.K.H.v.XX.XW. X XOXK.I.W. XXX.XU.^ ~ 0 b U.NX7X5.@.S A A { U U J U /.2XyXyXrXKXVX3.3.|.UX>XgXPXHX}.[.+.W = : Z 9.0.@X}.VX0.p.y i G ! I X.&.y ; y - % y b N G F h h j j ] ] ] ] ] ] ] ] ] F L *.5.t v = > = M D U r s r 5 L r r F L g g [ { { D L r r p 6 8 & % % O + O > E x.Z.HXcXPXPXHXxXcXHXPXPX[.V.W ( / x.V.-XxXcXHXjXMXjXPXPXPX>X}.9.8.t.:X{.}.*XPXwX:X6XMX*X>X@XKX-X6X+.+.; 0 4.oXzXKX6XKXPX=Xt.x.v v 2.l.c.A.}.;X;X;XcXAXPXHXPXAXHXoXK.~ y y S P N S p y s g u r Y U * * 6 U  .X.U 9 % % n D Y ^ Y ' v : = = P J U [ [ [ [ [ [ [ | ] ] | | | | [ [ ",
"1 g f * $ < r r 6 6 a s 1 7 r 7 < 1 7 7 4 4 6 4 9 b B +   O + + + . > H Q V.x.cX{.*X6XxX:XLXDXzXHXP.x.4.8.3.Q ) 8.HXcXvX:X-XvXzX9.l.O + O x.V.6X6XzX:XV.cXPXV.> : B R ) 8.8.t.9.A.V.Z.oX;XjXcXjXwXlX*X*XUXcXLX[.).4.E E B > , , + ; % y y M ! ! g g g a a f g g g f f d d d d r r g g & 1 1 d f ^ : : O , % % ; r d d d e d d j e d h h d r k d j k e h p _ = z z z , % * [ F * @...6XcXcXPXlXV B xX}.:XZ.jXW / x.zX6Xx.A.W ) 9.;X@XkXeXmX<X2X2X2X^.;.;.[ { o.uXyXyXyXe.w.s.K.U.Q.m.z.K.$XXX1X X#X3XC.n.4X-XK.|.Q.Q.Q.Q.+.4.u.e.M.n ; n.m.m.4XNXKXnX$Xm.n.5.5.z.M.$X.XW.#XMXNX X3XQ.H.!.Q.r.-.w.*.O.I I U O.O.*.XX~.+XXXtXv.r.L.v.~.Y.u.<X!.L.L.G.9XtXJ.v.U.M n m.v.#Xu.U.K.!.p.U.p.K.L.W.L..Xz.W.I.I..Xn.U.I.W.p.y.OX3X7X..~ K.7X3Xy.u.J n q G U X.D D ^.~.yXuXrXKXPXl.l.:XPXGXSXIX,Xk.A.Z.Z.H v : 8.8.*X.XKXs.m.y s D &.&.P H : > ; % ; M M s D F h h j j ] ] ] ] ] ] ] ] [ [ U *.*.8 8 = : ; S g L & 1 * * g L F [ [ h F [ [ L L } g s p 6 6 8 y b > > = = + O = C W b.jXxXcXcX:X6XHXxXPXjXLXLXPXcXxXcXcXPXPXcXHX*X) 2.: > v @X*XLXPXcXHXHXcXHX:XjX: = + Z.}.PXzXJXoX4XjXoX{.t.l.0.6.b.6.V.V.Z.}.*XzXAXzXHXIXPXLXxX;X8.2.C B ; 8 : P H M y p D n p D D p a L D 1 r r D p p D q & & N G ! ^ ^ ; ' : % % H J J [ [ | [ [ [ | | | ] ] ] | | | :.",
"1 g a * * 5 5 < & - u g r 7 r < 1 < 6 w < & 6 6 8 0 C + . + O . . + Z E <.l.c.*X*X&X;X*XvXHXPXPXcXx.l.2.x.<.W W l.HXHX6XvXvXLXDXA.l.= O O 9.x.jX-X}.&X;XPXLXV.v v E W 2.9.9.9.8.V.V.[.*X>XjXzX:XcXHXqX}.vX:XAX}.%Xc.E T l l , , = ; % 8 8 p P Y G D D p r a f f g D g g j d d r 5 g D 4 7 7 d f ^ : : O , % % ; r d e e e d d d d d h h f d k d d k d L D ~ > l > > , - & D g < *.O.bXVXcXHX-XV V sX*XzX|.*XW / sXxXcXc.x.E E V.-X@XwX4XmX2X0X0X0XT.-.;.{ $.i.yXNXXX<Xr.e.v.H.K.!.#Xn..XOXL.7XOX7X.X.XOXP.{.@XP.Q.b.b.{.5.+.6.6..Xt t 6.n.3XeXbXKX#XU.H.a.y.r.y.a.XX XQ.3XeXeXOX3XL.K.W.Q.a.-.w.w.*. .S U O.*.I <X1X1X+XNXJ.r.u.G.u.G.G.!.Y.<X<Xa.7X1X~.~.v.S H n.K.M.n.n.H. Xp.M.p.P.K.K.m.oXP.m.b.M. Xm. X X{.Q.y.3X3X3X5.5.+.6X7XU.L.! n q D J  .D A J.T.uXtXwXVXKXl.9.}.GXIXIXgX|.Z.A.|.[.v B > 4.2.@X$XKXG.T.s p D *.&.M N ' , = = ' H D p g h h h h h ] ] ] ] ] ] ] [ [ L } *.*.8 ; % 0 ; D f L < * @ $ g { [ [ [ F [ [ [ L [ | L f g u u N N B > : = O   + = B W l.HXvXPXDXcXcXHXjXjX;XxXjXLXDXcXPXHXPXLX;XjX[./ ( : > v xXcXzXPXHXPXjXPXPXjXwX> = = [.A.KXMXJX=XMXMXoXoX5.l.4.+.b.9.t.[.[.%X*XcXvX>XHXLXIXvXcX:Xl.q.T C % % 6 P n p u D n D g g D f f F g r r g F U p A 6 & & D D ^ Y ^ = : > % % H J { [ [ | | [ [ | | | | ] ] | | :.:.",
"< r r * & 5 5 < u 5 5 5 6 7 7 < 6 < 4 4 & & - ; ; o +   + > Q ) c.x.-X-XxX-X:XjXvXxXPXKXHXb.8.C E 2.l.|.xXPXHXHXA.b.c.V W 3.*X;X}.{.8.h.8.Z.x.V.`.6XvX;XA.Z.9.R B W W 4.x.A.[.[.&X&X:XxXxXcXcX:X:XjXlX*XHXcXcXzX>XIXzXHX|.).,.W = O + . o % - 6 i s p g p r r u p g D f 7 2 r f p A p & r f j d &.v v = = = = ; r r 2 2 e d d d d d d j f f f r d h k L G M > > , , : t u a a & 5 b #X*XlXcXjX9.8.3.l.HX;XsX}.*X>X:XvX<.E = > 4.*XoX-X3XyX5X0X2X0XT.;.i.#.o.F.yXmX<X9XXXXX1X!.W.ZXrXa.&.+.m.3XBXtX3XBXKX{.=XnXwX@Xb.C.MXMX=Xn.e..XP H b m L.3XK.OXnXKXtXI # - 8 % &.m..X6X X X3X.Xm.U.L.Q.H.r.d.e.e.X.n U ! O.n w.e.L.J.+XXX1Xv.i.G q w 9 S e.H.7XL.v.mX1X5.M H K.U.6. XW.3XkX=X{.K.=X=X=X#XbX4XkX7X4XeX=X#XK.n.n.z.6X=XbX3X=X5.3X3Xm.H.G n A U F U U U W.!.tXmXPX=X@Xx.A.DX[.).l > ,.SXGXvXvX_ W Z k.9.eXrXuX*.=.r F } X.^ ; y > , > : ' N g F g h h ] h ] ] ] ] ] ] h ] L L F } X.=.y 8 % 0 ; D g L 1 < $ $ h h F F F [ [ [ h h h h g r r a a i t b v B > c l = O +   . Q ( *XxXHXLXPXHXHXDXHXcXKXPXHXcX|.V.l.V.l.[.[.oXZ.*XP.[.-X[.P.lXwX:XjX-XPXPX&.: > 0.l.jXlXKXMXcXoXz.t.Q ^ +.8.C.{.*X;X*XcXiXcXcXAXHX).[.( E > + = : B P N N s ; a a p s g g p f f f g L L g L F } f D * < 1 g p ! g Y = > > = - I J  .[ | | | | [ | | | | | | | | | [ ",
"1 r 7 * & 5 u p D u * @ < 7 7 6 4 & & - % # # # # : C l.V.:XSXzXcXcX>X>X:X*XMXMX;X|.B.x.8./ 2.) ( *X*XHXoX-X&X[.cX3.<.    > l.V.*X*XvXxX:XsXjX*X[.B v Q ( 3.( l.x.Z.A.[.;X:XcXcXvXjXxXMXMXHXxX*XZ B 2.2.A.}.[.iX>XLXSXzX>XzXiXLX:X9.3.t : % o # & & u D A 5 4 5 6 a f 7 * $ 1 f S D n & r d j d &.b B = = > - 6 r r 2 2 2 d d r d d d f f f g r d L h L Y ; : = O O Z m S 9 u &   X p.z.cXcXPX>XoXv v b.Z.[.-X:XvX6X-Xx.[.) V W [.}.6X#XyXrXyX2X<X/.d.d.} } F.yXyX8X~.G.H.!.L.L.p.r.r.r.n.1XH.a. X3XI. XW..Xm.K..X6.5.p.eX3X6.5.L.m I e.6.m. XOXtXtXW.$XL.I.I.m.U.4XC.n.=XOX X#X7XW.W.H.m.v.e.e.*.*.U G  . .O. .v.v.!.!.Y.L.~.H.2XT.G.<XY.G.r.5.v.~.!.XXW.v.I t W.8Xn.5.5.bX7Xt.b.0.b.m.Q.Q.{.z.n.m.C.K.oX{.P.C.oX{.kXbX=X^ +.p.OX+Xr.y.A S G U U J *.*.1X1XyXnXwX8.4.,.9.gXW Z     T SXSX,X,X,.,.,.].E.KXZX^.F g r D =.U Y % = > , > : 8 N g F h h h h ] ] ] L ] ] ] [ [ h h g } U U 8 6 % y 8 g h [ < 1 < < h g h h h F [ h f h g d d d r g D S M b C v + O O     = = H l.h.xXxXHXMXcXHXLXLXxXcXzX:Xx.c.8.l.V.cX*XHXPXHXHXPXcXV.l.=   y Z lXPXlXPXVXjX@X;XlX:Xt.4.<.) / 2.3.6.;X}.-X6X4XDXDX;XzXPXzXzXcXHXiXW _ = v = = = > = ; ; I Y G Y D u D Y L F L F F L [ } } L F g 7 g $ < 7 g p } s s - > > > : I J #.} | | | | [ | | | | | | | | [ ] ",
"r f r * & 6 u A S i @ @ 5 f 5 5 w & & - # @ @ o o B C x.q.;XAXcXvXcX[.:X>X:XHXcX>X*XV.[.3._ ) ( <.jX*XPX&X}.*X}.HX/ 8.. . > l.9.sX}.cX:XvXjXHX[.|.0 E v ) 2.2.x.l.[.[.}.;X>XcXHXxXjXjXcXHXKXcXoXB v 2.2.Z.*XZ.zXiXzX>X*XAXAXzXSX*X2.6.y v = X o % & y P S 6 - 5 & u A r * @ < p n P P 5 r 7 k d X.t B = = = - 8 s r 2 2 r d d d r r d k d f g f r L D G P % 0 = = = C 8 b ; n - @ o y.0.KXVXHX>X:XZ : 3.}.{.>XvXjX6X[.V.[.V R / A.|.wX4XyXtXyX2X/./.F.F.{ [ F.9X9XyX~.G.H.!.L.v.a.y.5.a.n.L.H.H.U. Xm.I..X#Xm.K.P.y.n.y.7X3X6.u.!.H G u.a.p.XX$X5XKXW..X X!.U.K.m.4Xb.p.4X6XOX=X#XQ.W.v.v.v.6.-.*.5.F .... ...*.a.J.v.L.1Xv.u.tX2X~.G.Y.Y.Y.w.5.5.5X4XU.!.H.b S I.W.H.6.5.eXOXC.n.0.z.b.K.P.@XC.C.P.P.n.oXK.I.{. X3XOXOX7X5.^ t.7XXXr.e.n G J F U D 5.r.rXrXrXrXxXf.f.3.2.>XT E   + ` gXSX>X,X1.,.1.].A.CXZXJ.F F g f X.G I - : z z > > ' G F g h h h h ] [ [ L h L [ [ [ L L L =.Y Y ; ; # y 9 a g [ * 1 7 7 g g F g g F L h g d d 7 d f r p A S G b v v = , . O   = O / l.l.6X:XLXPXHXHXHXHXjXDXcXcXA.x.8.9.V.xXLXKXPXLXcXcXPXc.c.+ = Z y LXcXHXcX:X:XHX:XlXjXP.4./ / W 4.7.+.}.=X6X4XkXJXxX;X}.HXcXHXzXjX>X/ 2.= v O = = > = : & ! ! Y p p p G L F L L g g { L } o.h L g 7 r @ 1 r g g =.s s ; = > : 0 H G #.| | | | | | | | | | | | | | [ [ ",
"1 r r & 6 * % @ 6 b 6 i # 6 p X X X @ $ 0 8 ~ K.C.sX*XcX>X}.}.*XjXsXvXxXcXZ.6X/ W W *XsXDXcXcX;X}.[.V.9.> = 9.t.>XoX{._ 8.V.l.V.V.[.}.[.V.l.9.8.3.V ( ( V.x.`.;X[.HXsXPX>XHX}.cXcXHXvXoX|.:XvXc.8.l.x.9.x.8./ V.c.*X;XcXiXHXAXzX:XqX:X:X:Xp.C H O # % # o % @ @ @ p p p $ * 5 b b Z y # 1 7 d d ..N Z > = , > 8 p a r r r r r r r 1 L h 1 r g F D Y U y 8 & ; - 8 - H t t b 8 % % . N v HXUXqXIXPX/ / = *X}.jX|.;XZ.V.cXHX-X*XE 8.9.}..X#XrXZX0X2X0XF.d.o.{ F 0X2X0XCX....&.v.H.5.O.W.W.L.L. X3XH.U.8X.XU.m..Xz.b.K.I.n.+.5.H. XI r.y.1XI.BXm.n.m.H.nX8XKXKXNXCXCXeX#X=XM +.Q. XP.=X2XW.$XH.&.=.! ! Y *.=.U U G.+X~.J.L.e.~.+X!.0X<XY.2X2X<X9XyXw...y.$X4XL.a.6.Q +.I.y.n.n.6. X{.K.m.b.{..Xp..XK.6.t.NXn.K.K.n.m.n.7X5.4.0 0 =XI.XXJ I n A D U o.Y L.J.tXnXCXMXsXB Z ( ,.N.V.c.k.3.>XSXgX>X|.1.1.g.GXgXJXmX} 7 1 L D L Y Y C B z Z z , O s r L h h j h h [ [ [ L h h L L L L L =.p u - % % y i F f F 1 < r 7 } F F r f 1 * D r r 3 2 h r a 5 u & o O +   , = : f.8.:X}.PXPXPXHXPXLX-X>XPXHX[.9.8.}.[.:X*XHXHXjXxXsX|.cXHX*XxXHX@XwX> : Q C t.jXjXLXPXHXLXxXZ.V.{.5.4.C.C.P.MXzX=XjXMXMXJXJXlXPXHXcXcXAXvX*XjXPXPXZ.[.8.> v = = % % % s i ; u D p r g p g D f } L f f { f g f f * r r F F =.g p ; : = : 0 I U { [ | | | | | | | :.[ ;.| | | :.| ",
"5 a s * & @ o @ 8 t 8 b & ; w @ X . X # 0 0 +.{.P.;XjX&XjX}.;X,XcXLXcX>XcX*X}.W ) ) }.*XvXxX:X|.}.&X[.8.= # 8.9.}.[.}.9.) 8.P.A.x.V.Z.{.}.[.h.<.+.E 3.4.V.x.`.*X}.>X6XjX;XcXcXjXcXHX}.zX}.cX-X[.9.9.9.V.l.) 3.A.V.*XxXjXiXjXAXvX*XjX*XwX>Xx.C Z - - = o o o # X o t n u @ & b b v ' ; # 5 7 d d ..b v > = = > : a r r r r r r r r 1 h L r d p r ! I P 8 6 - ; & 5 ; i M C ' y = O o M C HXcXcXIXjX3._ + :X*X>XjXjXV.V.LXvX6X&XQ 9.p.*XrXrXmXyX2X2X2XF.d.o.o.{ /.yXyX9X! *...L.K.*.6.U.a.m.L.OXOX+XY. XI.U.m.4XU.m.b.W.M.e.5.H.Y.m y.a.!.3XCXu.J.n.I.NXtXCXNXmX8XmX5X3X4X~ ^ m..XC.$X4X!.~.H.*.*.Y X.! *.=.....v.L.~.Y.+Xw.J.~.8XY.9X9X+X<X0X5X9X*.r.&.5XXXr.n.e.^ ^ H.I.I.y.j.I..Xz.n.{.{..XQ.t.K.n.m.nXn.n.U.I.m.K.7X5.^ N m  XL.!.I I n D F U Y I W.!.tXeXnXkXAXQ l ,.,.N.h.V.9.0.|.vXSX,X,Xg.g.N.SXgXjXnX .a 5 L g Y Y U P V z c > , % y r L L h h h h L [ L L h h h h F F D X.p u ; & % y y D g F 1 < 6 6 L F D a p & & D 5 f 1 1 r 4 u u 5 ; o X O   O O v 8.x.*XjXjXPXPXHX-XKXxXPXcXPXx.9.3.*X}.jX;XcXxXDX:XMX{.jXjXvXHXPX[.[.: : Z Q V.@XxXPXPXcXcX:X|.[.P.0.7.b.b.P.lXMXkXlXzXJXPXkXMXPXPXjXAXcX>XcX>XPXPX).A.9.v l = = o # # N S N i i - 5 G D p D D U } p r D s g f A * 5 r g g =.g g : : = : y I U { [ | | | | | | | | | :.| | $.=.=.",
"& p p & 6 # o # # % ; 0 % # . o = m +.6.U.C.&XMXsXsXjXZ.>XxXIXIX>X*XZ.l.c.l.8./ 3.x.zXxX-XzX>XHXjXxX&X3.+ . W / -X*X*X6XP.*XPXxX9.( B v E 4.9.h.b.x.*X[.>X}.:XjXHXHXPX}.cX;XPXPX;X|.v V v A.A.oXcXPXPXPXcX,Xl.> v W l.l.Z.Z.:X:XcXIXcXjXHXxX:XvXc.8.E > =   #   o - N M b M Q > > = , o r r e e X.b Z > > > > ; y r 7 r r r y 5 r r 2 r d f D g P N v > ; - 6 4 a u i P P = : O + o = - C.A.UXGXPX|.V.v :X&XjXDX8.> > 8.8.sXcX0.&.) Z.W..XyXuXmXuX0XT.T.=.=.{ i.u.yXNXs.v.6 I n a.XXn.XXXX! 5.I n 0 ; G y.n.4Xn.I.y.M. Xm.u.e.~ ..!.1XL.Y.BXH.v.G ! O.y.Y.!.1X!.v.&.H b o # +.Q.4X4X!.p.p.d.r.^.v.d.O.X.I D U H.7X8XL.v.S ! O.e.i.<X+XJ.!.G.O.O.& ! ! ZXZXXX4XKX....@.L.Y.XX3Xp.e.6Xn.P.n.y.7XM N H b S K.I.L.n.OXL.O.6 ; +.5.BXw.e.S J p U U U I e.5X4XeX4XkX6XN.f.h.PXDXPXcXPXPXPXDXHXjXS.x.3.1._.SXIX}.[.t @ & u 5 D Y U Y ~ v c : > = ; & g L h g g h L L L h h h h h L L Y X.p s ; ; % y y A f { 6 4 * & i Y D p 5 X o N 5 5 6 5 < & & # . o # - W ) S.S.cXHXKXHXcXsXDXPXPXPXMX|.[.) V B }.[.PXMXDXzXMXvXcX[.oX> / V cXjXPXjXjX[.vXHXHX|.C y / W ) 8.8.c.x.Z.P.oX;X=XkXMXJXJXJXMXJXjX) ^ _ <.8.}.jXvXxX>XzXIXHXIXHX}.|.Z.V.^ H = % # - b M N n D u 5 U Y r r * * D G  .U U * 5 r g p =.Y Y ; > = : t I U { | | | | | | | $.| | :.[ o.o.o.o.",
"; S N & ; X   O = + = # 8 R ~ C.n.=XJX;X6X6XxX&XsXxXHXHXgX:X3.( B B t.:XxXMXcXPX}.&XV.9.x V Z B.V.jXPXjX9.8.[.Z.A.Z.x.}.&X}.l.8.+.2.3.9.x.Z.[.[.}.*XMXsXDXjXxX:X|.<.V O V.B.HXcXxXxXZ E E PXMXcX}.A.x.Z.A.A.|.x.9.l.Z.l.9.q.3.q.l.[.qX|.vX%XAXAXIXLXxX*X6X3.3.t = O = ; v B E O O + O O s r e d =.N B : ' : : > 9 5 5 r r r u y r s * < d f L Y Z : > = - 6 q r g f S C B , = O O % o O 3.8.IXHXPX&XxX4.|.oXPXPX8..   E Q jXPXZ.v v C.Q.rXyX1XuXyXuX/./.;.;.U  .#.mXKXyXyXi w.*.3Xv.v.m.G.A 0 w.OXY.5.&.+.^ #XOXOXp.6.5.4 m ..O.mXr.a.BX8XY.tXCXe.O.H I G 9 q 0 b 0 t M ^ ^ n..X.X$X$XH.m.v.r.v.U I *.~.~.*.O.L.!.!.L.XX*.@.! ! J  .J q q i 9 n G !.~.L.H.1XU.J.1X7Xw.! 9 y.v.O.5.&.U.m..X.Xn.!.L.!.5XI n t 8X X!.L.! i i OX+X9XU  .p F A U X.U D v.rX7XeXwXJXPXV.SXHXPXsXxXoX;X6X-Xp.W W / 8.S._.aXSXGX8.0.y ; % & & p G Y ! ! ` c ' ' ; % # s F F g g h L L L h h h h h L L U X.s s ; ; % y y n A  .6 6 @ @ # 6 t S M % % i % X X X   o # n M p.=X;XHXzXPXzXPXLXHXPXPXPXA.Z.2.+.9.}.}.jXxX}.xXxX-X[.9.l.[.PXPX*XA.= > Z V.A.V.jXHXPXPX:X*X9.v C 7.4.l.[.Z.:X*XoXlXLXMXMXKX=X6Xl.b.`.{.x.) 3.V.x.[.8.( 3.3.;XZ.).cXxXcXHXLXPXHXvXwXoX0.+.v t - % # @ o @ ..X.5 y & & G I I n p * 5 y N g =.Y Y > > = ' v ! U } | | | | | | | o.:.:.:.| =.=.U U ",
"y N b % % + O > .   O + : / ) B.P.=XMX&X&X=XcXsXzXjXcXPXIX:X2.( C v V.PXHXHXcXPX;X*Xl.A.: H Z :X*XxXjX[.9.l.[.Z.:XA.A.|.|.;X9.h.2.3.8.9.c.A.[.|.}.*XsX>XMXcXcX&XcX/ W > l.9.PXLXsX6XQ Q ) xXzXjX:X|.V.x.[.[.x.Z.V.x.V.x.0.p.2.q.c.,XiXgXzX>XSXgXzXAXzX:XlX8.4.y ' + O = : v ` , O + O % s 2 e d =.N B ' c : : > 8 5 5 5 r u y y 5 p * 1 g f D P v ' > > - 6 7 f f f Y y : > , = O % X % ) ( IXzXvX*XcX0.Z.|.PXHXW     W W -XHXA.v y V.p.eXrX2XyX0X0X/./.;.i.} { o.9X2X9XtXn 5.*.L.+X!.U.n.q 0 5.L.L.5.O...P  X3X{.y.z.O.t 9 ! G CXu.w.BXtXL.JXBX+.O.G J n 6 b i 0 n m t ..&.U. XW.W.$X.X~.W.d.d.U Y O.s.J.O.O.~.~.+X+X5X5.@.G S A A  .K 9 p i 5 S L.XXa.m.XXQ.L.XX<Xe.A A 5.5.5.5.! <XL.OXXXe.~.+X5XL.S p i ~.1XH.!.U i 4 !.+X~.U U D Y F {  .F D !.eXeXwXwXwXxXh.IXPXcXHXoX=XQ.OXeXoX^ Q 3./ 8.k.gXGXIXq.1.l = > - & y A N U U P ' y t ' % % y M D D F L L L L L h h h L L L Y ^ s y ; - = v v M S ! 9 i @ o o = - b B : : v O o X     % # b C 6.oXoXxXjXPXDXPXvX:XKXPXPXx.b.3.2.V.*XA.*XPXzXsXjXV.:X8.9.B.PXcX[.`.= B : V.V.*XPXLXPXVXHXjX3.B v 2.) 9.Q.Z.-X@XzXHXKXJXJXPXP.{.t.c.oXP.8.0.2.x.c.[.3.9.q.8.%X}.%XAX>X>XxXjXPXLXcXjX>X3.3.b H : ; ; % # @ P ! 9 ; ; ; M S H p n # y t S M &.Y Y > : > ' v ~ U } [ | | | | | | o.| | o.| -.*.S m ",
": y y % % + O O v T 9.9.}.zX|.6XsX&XsXsXsX*XxXcXHX[.A.l.Q.l.D.V.x.3.}.6X|.[.[.[.DXPX>XjX= = + l.9.P.>XsXxXcXjX}.:XV C C Z 0.t.9.x.V.A.[.;XvXzXjX:XjX:X:XcXDXMX&X|.Z ) : O O [.[.jXDX>XDXHXHXvX:X: : +   / *X[.vXPXHXPXPX:X*X2.( v ) E N.l.,XpX>XSXzXiX;XcX*XcX*X>X0.W C : , > O , , , % s 2 2 r X.b B ' c : : > 8 6 6 5 5 y y y y a < 1 f g D I : : > > = 5 7 f h g U % = > , , , % . o b B gXgXvXKXcX9.*X&XzXvX:X( W [.}.PXPXS.> > 3.&.#X4X0XmXuXuX/./.e.d.#.{ K J.Y.ZXKX*.H.H.u.a.7Xn n w.O.NXn.v.w.a. XU.3XK.W.M m # G ..7X3Xn.CXNXmXtX3XCX3X! O.I J G ! H 6 0 5.I.Q.eX3XeX#X4XW.L.H.Q.~.~.2X*.d.~.5X5Xe.*.a.XX1XXX8Xe.v.L.XX<XJ ! #.G G G I n tXeX+X!.v.ZXKXJ.v.1Xe.G.9 - i & G XX<Xv.m.ZXH.G.u.G.XX6 9 G.d.v.~.w.*.*.NXyXs.Y Y D F U U U U ! 1XmXCXVXHXP.|.N.SXzX2.4.= ) &.CXCXU.- = 4.3.>X].GXgXaXT T c c > = % ; s s Y L ! y b t y ; = ; i p N D L L L L h h h L L } } } U y 8 > > = v v M H G 0 b - # o = = > v v v >   O % = ^ Q.}.kXkXHXPXcXKXAXzXcXLXHX:X}.|.8.E / 8.3.vXPXPXHXPXvXPXKXl.l.+ . : xXHXHXcX*X-XHX*X}.3.E ) 0.&.3.3.8.[.Q.vX*X:XVXlXHXVXJXzXMXMXkXzXH B O # ) 2.c.JXcXPXLXPXjXvXV E V }.}.}.[.>XcX,XcXIXzXzXPX>XPX}.@X8.C m # # X i H i P ^ P P y ; X X # y b P M &.Y P ' ' > ' v I U [ [ [ | | | | | | | | =.=.o.O.m v ",
"8 - : % O O = O v Z <.4.).;XsXDXdX|.&X}.;XzXPXcXxX*X[.Z.*Xc.x.x.x.x.*XoXjX`.[.>XLXcXsX[., O = h.A.}.*X}.6XxX6XjXvXQ C B B 3.Z.l.Z.Z.A.P.}.:XjXsXjXcX-X6XjX:XxX*X&XW W v + : [.{.HXcXxXHXxX*XxXxX: > . O 2.A.|.PXPXcXPXPXlX,X( _ : W _ S.A.%XiX>XgXgXSXAXHXjXqX>X}.D.B ' , , > z z , , % y 2 2 2 ! b C c c : : : 0 8 6 6 6 6 y y y 5 5 2 f F D P > > = > = t r d F [ S O = z , , > = o o - > >XSX>XPXHXx.}.|.cXLXb.3./ V.>XVXcXl.: v / 4.$XyX2X/.yXuX/.2XF.T. .U  .F.G.mX0Xr.s.J.u.!.9XH A 5.w.OXn.v.u.y.H.n.Q.b.U.m 0 - ! ~ XX9XU.8XNXKXNX9X<XNX.. .G G H ! m 0 ; 5..X4XNXbXMX7X3XK.W.!.~.$X~.~.! 5.J.~.2Xe.w.v.XX1X<X1Xy.H.v.G.U.J J #. .U i S n ZX5XH.r.W.KXmXa.G.yXJ.u.@ 4 q p 9 9X5XH.v.L.H.s.Y.d.T.6 6 e.s.~.T.@.@.w.yXNXr.D D g A U U Y O.X.$XtXCXPXPXl.N.k.IXPX0.3.o ) +.KXCXn.6 ; 5.6.oX,XGXaXaX` Z c > > O % % 6 5 L F X.N D t y : : = ; y p D L L L ] h h h L [ } } U D - ; = > = v v H Q M 8 8 - = O . O : Z Z l , + . > - ) V.|.cXHXcXxXvXLXPXDXPXHXjX*X:X}.8.) W +.8.PXcXPXcXPXPX-X;Xx.h.+ + B &XvXcXcX*XHXzXxX;X3.( ) 3.2.0.8.9.V.A.;X*X*XlXVXLXPXPX6XlXJXMXMXZ 0 = O ^ Q A.HXPXLXcXLXPXHXW Q B |.).).}.%XjX*XcXcXzXSXIXcXPXsX:Xx.R B o - o 8 N H v ^ Q N : > o o % b b P C &.Y Q Z v : y y P Y L ] ] | | | | | | | :.;.-.Y I v x ",
"y % - = : W N.x.iX>XAXiXSX;XpXiXzXDXPXzXzXsXZ.V Z ( 2.*XHXLXHXcXcXjX[.2.2.O O E jX|.cXHXA.[.[.jX}.*XZ.9.9.9.3.t.2.) 7.l.Z.x.}.P.*X6XlXlXkXkXkXjX6XHX6XlX6X4XJXMXMXPXKX;Xp.3.+._ }.}.;X:X-X*XjX[.2.8.v v V.PXPX[.A.8.Z.x.[.Q.x.V.Z.].Z.k.f.Q N.c.|.%XpXgXjXvXgXvXgXgXE.,XZ.k.W > = , O o y r 2 1 ! b C v v l v v t 0 6 ; ; ; : : 8 ; p g F Y y : > ' = > % p f d h L 6 O : = l , O O O % % O A.>XiXHXPX|.8.7.>X*XN.;X>XLXLX*XjXQ.V.x.) +.p.nXrXyX0X0X/.uX/.<Xo.{ J #.@.9XyX5XL.H..Xm.3XQ J 5.5.mXI.H.a.y.OXXXH.&.+.8 8 y.3XOXI.Y.tX5.e.a.r. X5.O.! S I  .m n n y.p.4X4X XW.{.1X$X5X!.XX~.Q.H.y.5.rX<X2XXX~.O.O.J.2X<XJ.Y.r.XXXXY.Y.<X<X..A  .J ! i Y ! XXtX1X5.5.0X<XG.Y.<XG.v.4 9 n r.e.!.XXY.5.5.G.J.s.q q L.s.Y.!.v.v.G.!.<XU U F A g { U U w.e.rXeXkXlXMXE W 4.iX;XV H o 6.5.ZXKXU.^ ^ C.m.oXaXhX_.S.c z c > l = > % ; 6 L g X.p G y i v v = - ; i N Y L L L L L L h h g g p s % = = > = v v E ~ m : = = , O O = > , , , c 3.2.*X@XLXcX:XsXsXHXHXKXHXIX;X*X2.+.+.*X*XPXLXLXzX:XcXl.7.4./ }.PXcXLXvX) 2.V.[.[.jXvXcXjX|.V.}.) W W c.x.V.S.*X>X>XHXPXvXxXlX>XcXt.B W l.{.PX7.z.= > x.c.KX*X-X3.c.Z.|.[.).).,X*XiXjXiXl.x.[.iX[.iXAXzXcXcXcXLXHXcXLXP.[.~ : = b Z ) ` : O = % - = b N P M &.Y Q V B ' v y H D F L [ | | | | | | | o.-.*.q i : : ",
": ; O 0 ; / 9.V.}.jXzXiXzXiX%XcXiXcXcXjXcXcXV.V C ) +.sXMXPXjXDXxXxXZ.( 3.O O V ;X>XcXjXZ.|.A.gXiX|.,X8.8.8.0.D.) 3.5.z.m.M.W.Q.4X4XkXnXbX7X4XeXeXnXeX7XbXeXeXNXKXCXCX4Xz.0.Q W {.{.wXwXwXwX[.@X0.&.: v V.HXPX}.Z.( [.Z.[.c.x.S.A.|.*X3.0.4.4.V.%XA.SXzXiXSXIX>XvX*X|.[.].N._ = = + O + b y 6 8 G S b t t v b v t 0 8 ; - - ; : ; : t M P M t : : = = - - u D p L L 6 % % - y % O = O > O O f.PXHXHXHX>X4.9.*XjXc.zX&XzXPXsX&X`.A.C.) Q b.MXkXeXyX5X0X/.0X0X-.h } $.} yXyX1XW.K.C. XMXM ~ *.5.mXU.m.j.n. X3Xm.+.O.8 # j.OXXX+XU.1Xw.e.s.s.v.r.@.J G J I ~ t b p.y.nX.X2X!.W.XX1X<XJ.5XL.<Xa.r.6.5X<X<XG.2X=.X.J.~.2XJ.!.s.!.1XG.H.5XOX! ~ G H I t ~ ..!.mX1Xy.5.3X XL.!.5Xr.v.4 8 b w.y.!.XXv.y.6.U.n.a.i b v.v.~.L.H.u.v.~.XXU L F f f { U I w.r.nXrXkXxXvX_ E 1.;X&XW V O 8.5.bXPXK.) ~ C.p.*XpXSX_.).l v l = O y = o u 6 g L U ! Y 9 b t b % % ; N N I P ~ H Y Y Y D G D D p 6 ; % % % - ' Z / P Z : : + : + = + : O , , v 4.2.*XvXHX:XxXHX>XHXHXPXHXcX>X}.2.( +.oX}.PXHXLXjXsXxXh.h.W ) *XLXcXDX:X7.) V.}.`.zX>XHX}.iXZ.A.2.) _ c.9.|.A.%X*X;XcXzXDXvXIXvXUXl.H H P.C.JXl.0.> = 8.x.IX*X*Xl.f.[.*X[.A.[.*X,X>XxX>Xl.x.V.jX|.zXiXjXHX:XPXcXPXxXDX[.P.W = : B Z P / y % = - ; # N P t Y X.Y Y ` V v : ' B P G S U X.} } o.=.o. .w.*.O.t 0 : l ",
"o b Q }.}.-X6X:XxX:XiX;XjXjXAX;XHX[.V.q.[.).Z.A.l.*XsXjX&XB.B.Z.sX*XHX[.8., , ) [.}.iXvXjXxXiXjX>XS.8.C C P ( 3.m.Q.m.~.$X$XtXtX1XBXBX7XL.y.r.a.a.I.1X8XCXeX3XeX$X.XnXrXnXnX4XwX}.{.6.y v / 9.lXcXPXPXcXcXjX}.E W + b E Q.-XwX;XPXcXPXLXPX0.v O T T 9.].].).%XSXgXgXvX>X>X,X&XV.V.7.) y 8 : y b y t i n S M m i 9 i m b b y : : : : ' v v v 8 ; - ; 6 i i D Y Y a 4 @ 6 G ! H ; # : : B : = W }.:XHXHXcX,.W v v ;XHXxX|.`.W / `.;X&X5.9.3.6X6XnXnXeXyX0X0X0Xi.[ ] [ L /.XXtXOXOXoXz.oXy.6.G 9 v.BXJXBX XU.n.<.M 0 H.I.OXH.I.BX1Xw.Y p - % U r.v.~.a.I I S &.+.Q.$Xz.W.m.5 i s.~.5Xs.e.# # P I.mX+XtX2Xe. .X 6 v./.<Xd.*.A e.v.~. X1X!.r.S H ~ ~ n.v.5.~ ~ 9 8 i H S 1Xm.n.OX X1X X! 8 0 n.I.3Xn.U.K.I.b G b L.W.v.m.~.8XXXv.v.U a g F L U  ...!.m.VXnXcX%X[.W ` ).PXHX*XgX[.cXDXHXLX0.4.4.P.{.HXSXSXq.3.l : = > - ; ; % ; & p D A U  .G P t N 8 ; - ' ' C V W P C C N y 8 y y 8 & - - - - ; : y E / B = = = = . = : ) 3.l.x.}.HXxXjX>XPXPXcXcXPXcX[.V.}.>XZ.V.8.{.{.MXHXJXzXsXMXMXsXV v + O h.&XxXxXcXPXPXPXjXiXR E ) 9.9.x.x.c.|.A.;X[.gX>XvXUXcXIXLXcXHXDXAXUX+.- = v ) jXHXPXLXzXPXLXHXq._   . B l.|.DXPXHXHXxXPXPXl.E Z ) 2.l.V.Z.*X>XPXvX:XHX>XcXPXcXxX}./ 2.W V > + = % = % P ^ I ! =.Y Y : v B v : : y y b H P P ! ..X.X.@.5...P ; - % = ",
"% &.4.wX6XoX6XjXPXDXHXcXjX|.,X2.) > S.[.jXjXPXHXPX*X*XxXsX:   . c.8.DXsXiX&X}.jXcX:Xx.0.8.9.l.q.9.8.8.l.Q.Q.@XoX#X-X#XeXtX4X2X.X!.H.&.O.O.~ ~ M S ~ ....n.n. XNXKXnXNX$XrX4X6X4XlXPXlXQ.A.4.W C.*XA.[.oX[.Q.*Xp.x.W Z.A.cXVXVXLXl.+.3.x.[.x.}.}.iX%XV.3.1.2.3.N.x.V.,X%XiXiXxX}.%X,X*Xx.V b ; ; 8 6 6 9 i n n n n M M m b t y t t ' : : > > = # % y y p s G D D . X r D n 9 9 P b v % = O O : |.Q.xXHXPXx.B.V W ;XDXxXR B   O c.xX6Xc.C./ {.=XkXnXrXmXuX2X0XF.o.$.[ h w.w.tX7XMX{.kXK.7XBXw.e.J G H ~ ~ H M O. X3XU.U.I.OX Xm H 9 5 5 9 p T.9X0XXXyXL.L.H n.y.=XW.W.b y I U ~.~.~.e.e.& & p.1X!.tX8Xw.5.d.A u X.2X~.~.2XS & & !.K.K.m.$XS ! a.u.BXKXKXW.H.b i 8 8 # ~ U.3XXXH.n.y.BXm.n.S b Q H b 0 0 Q I.$Xa.H.XXW.L.<X~.*.5.A 7 g [ { F X...4X4XKXCXjX9.x.A.>XzXIXiXDXLXLX:XcXV.A.W 0.z.P.oXMXAXzXT Q T B v P ~ M I n 6 & 5 6 g L } ! U s p y y ; ' v ` C C v y b N t 8 ; - & - 6 y y i N C B v B : , = : Z 0.|.}.HXMXHXcXDXPXPXPXHXxX>XxX[.x.E x.*XxXxXPXPXMXsXMX6X}.C V ) xXDXPXC.[.8.) :XsX}.|.Z.|.|.l.8.9.<.+.4.[.V.[.`.>XHXjXcXcXHXPXPXPXHXUXcX,XxXjXPXPXPX=X4Xt.3.z.`.[.;X}.[.|.;XB.&XW E V.PXPXvX*X3.x.[.[.*X*XjXvX:X|.vX[.3.) 2.l.x.vXxX:XcXvXjX>XcXPXIXqXwXA.E Q ; ; # M H ^ U ! Y G C C Z v v B b y ; ; ; s N P U ..~ ! S t - ; = = ",
". 0.4.6X6X}.xXxXHXPXHXHXjX|.|.( ( > Z.}.cXPXHX|.cX:X:X;X&X0 . . h.h.cXsXsXjXjXzXcXvX9.9.3.x.B.9.) &.+.c.[.P.#X{.$X.XW.$X4XrXrX4XH.H.&.O.! H ..! I ..&...n.u.!.KXmX5XrX#XtXeXnXlXKXVX#XZ.z.( / b.*X}.*XlXV.S.S.c.t.W x.{.LXPXcXcXh.0.8.Z.9.x.>X*X%X%XS.E ,.,.4.N.].].>X|.iXiXAX*X[.:XvX}.b b ; ; N y 8 9 i n S S n n m b t t v b v y : : : - % o - S p n a F s p X @ p D u 6 ; P t t O O % > O V.A.HXHXjXB.A.C Q zXDXLXx Z     f.xXzXz.t.Q P.{.6XnX4XmXyX2X0X^.;.$.F { e.e.KX=X X=X7Xz.7XBX5.r.n ! S H ! H M 5.fXBXn.I.m. X7XH ~ S A 6 4 9 Y.2X<X2XtXH.H.0 p.p..X#Xm.- % ! X.0X2X<X*.a.6 # a.8XeXtXZXv.s.5.5 u O.~./.2X^.D @ & H.M.I.H.3Xm G u.y.tXNXKX1X!.b 9 4 % 0 8 U.XXn. Xn.U.CXy.u.m Q G b Q 0 - H L..Xa.W.J.~.XX1X~.O.w.D f g U { D e.O.5XXXkXMXLXl.9.|.,XPXzXzXLXxXPX:XxXA.x.) z.z.P.{.jXDX&XC V H Z v M H S ! p 5 r & * g L h L Y N N y y : ' Z V Z v : 8 y i y y 5 5 6 & 6 y 6 y b M b v : = O . : B x.*X>XcXHXHXxXsX:XHXVXPXLXjXvXV.x.W l.Z.vXcXvXHXPXHXKX}.sXZ E R :XsXPX|.`.9.8.jX-X&Xx.|.-XoX[.t.8.3.2.9.C.C.b.P.oXzXjXcXLXVXKXwXlXPXPXLXjXHXcXHXPXJX=X4X4.) 4.P.*X;X;X`.Z.sX[.V.C Q V.PXPX}.jX2.*Xl.>X[.}.jX>X|.Z.:X}.l.) ( 8.l.:XxXvXPXxXPXjX*XPXPXqXqX[.` P # = ; M N O.! ..! Y H Z ' : v N b y y 6 ; y b N P ! ! ~ H y = % O o ",
"  x.0.6XkX6XPXPXx.[.2.q.x.[.>X).*X,XHX}.:X*X( [.A.&X*XcXzX+.v v oX`.[.}.*X3.<.t.[.[.W _ v 2.3.8.P.{.C.=X6X=XbXnXnXrX2X$XW.v.5.&.I ! G ~ ! G ~ H S H H i H b H 5.5.a.U.rXeXnXwX-X#XeXVXVXVXPXKX=XS.A.Q C Z *XjXHXPXVXPXPX@X[.4.7.  . + 9.9.zXPXcXHXHXPX).A.c > V Z ` 8.0.l.l.).).*XvXlX*X; y % # ; - - 5 y 9 9 9 6 9 b M C M N b b y ; ; 8 8 ; % - n p p p g 6 6 < $ 1 6 u A 5 p & ; # % ; y . 3.2.wXLXwXjXcX8.3.;X&XcX( 8.l > }.HXPX4.( B [.C.kXnXrXyXyX2X0X/.;.F.[ { { { yXtX7XP.p.kX X1X1X<X5XH.L.W. XXXXX!.U.m.BX8XI.~ H ..H ! 5.r.G.u.9XY.G.<X5X8X7XO.I.Q.#X-X5.6.y.rX$Xs.uX0XD G i S 1X1XU.e.v.e.~.<X*.U A ~.~.~.<X<X..! O.5.OX1X8X6.y.7XtX8XOX1X5XtXu.n.U.&.y.6.&.+.W.OXOX Xn.m. XmXI.n.e.5.U.I.!.M.n.v.a.~.L.J.v.J...@.a D g U { F s.r.NXCXVX-XlXV.V.HXvXiXE E V Z V.*X:XB V ) A.P.JXkXPXjXx.E R M M H N p U ! p p g @ @ 2 g g L L U ! N s y : v v l : x 8 6 & & & 5 p p A Y Y S M H H N = > C 8.9.PXHX>XvXxXsXxXDXPXPXHXvX*X*X*X|.*Xx.V.V.xXcXHXHX*X}.>XHXPX|.>X: v : A.B.:XPXPXcXHXHX*XHXv v v v 4.6.p.A.Z.oX6XkXNXLXJXeXlXbXJX@X@Xz.M.b.{.=XJXPXPXwXwXMXbXPXKXJXdX[.l.W / B C |.PXPXPXcXPXPXHXl.x.  = > *X[.cXPXHXPXPXjXPXA.: : ( 3.2.9.3.|.E.*XPXPX:XHX>XvXPXiXPX|.}.Q C M +.^ ..! Y P P P P C M M M M b t t y 8 t M i n m ; - ; 8 y ",
"o M.0.}.}.=XPXPX|.}.2.,.V.%X;X}.A.*XxXxX>X}.V [.A.6X;XPXMX3.: v P.}.V.A.;Xc.9.Z.`.P._ W x ( 3.x.t.C.K.6X6X6XeXeXrX#X2X$X!.U.e.6.! G S S ~ ^ I n P H S S S S I O.&.n.m.tXrXnXeXrX4X#X-XlXkXKXPX@XC.A.E V V *X}.cXVXVX:XHX6X*Xp.3.+ + . 9.c.LXcXPXHXvXPXV.c.Z v V Q _ 3.9.8.D.].:X].qXcXwXt i o X 6 ; ; y i i n S 9 i n M M M M M b y ; - ; ; - & 6 p S n A r < * < * 1 7 r A a u 4 - % % = ; X W W wXHXwXMXjX0.) ;XsXiX2.( v : 9.PXPX) 2.b C.0.lXeXnXyXyX0X0X/.d.i.F } { X.2XnX4XM.n.bX X XmX1X<Xa.m.L.W.XX3XOXI.U.XXI.L.~ H O...*.w.e.v.v.2XJ.G.8XXX8X.X6.m.#XnXrX6.5.y.5XyX~.uX~.p A I J ~.$X5Xa.a.a.~.^.w.O.u ~.J.T.!.1XG ..O.&.8X7XI.u.y.L.I.3X.X XmXmXL.m.n.6.5.5.~ ^ XX!.OXtXn.I.H.3X Xa.u.y.n.p.W.y.v.K.a.XXJ.~.J.~. .! A D D { U U J.L.mX4XCX-XcX[.V.PXHXAXV E C B ).:X[.v B 3.Z.M.JX=X@X6X+.^ E m H I n p O.U g D g X X * k g L F U ! Y N b t v 0 0 > ; - & & & 4 r f A A G Y P D M b y > + : 8.8.zXHXxX-XvX*XvXcXPXHX:XvX*XZ.|.}.:XA.x.8.xXPX>XHX}.*X:XvXPX:X|.> > : A.|.*XPXLXPXPXHX-X@Xv V C Z t.c.t.C. XoXbX3XKXJXBXCXCXnXnXW.K.y.p.m..X#XKXKXKXrXeXJXNXbXMXlX=XZ.b.W ) B B A.PXAXPXPXHXUXxXV.V.+ > = *X}.PXPXPXcXcXPXPXZ.: v ) 3.( l.V.*X}.vXHXcXxXcXDXGXPXAXAXZ.A.9.M H ^ ..O...I ~ P H N b s b b N i y y 8 6 9 i H H M - % % 8 y ",
". 0.6.6XkXzXPXKX/ _ q.0.zXiXHX;XIXjX-X:XA.S.O = 0 oX6X[.{.6X6XMX}.JX-X&.Z - # 0 4.3.t.b.C.@X&XkX4X7XeXeXOXeX3XeX.Xa.e...U ^ I ....! &.I S ~ I &.~ G H O.H I H G S ! ! 5.y.n.OX#XKX6XOXbXkX@XkXjXkXlXjX=X3.9.0.oX{.6XP.P.A.t.P.P.H ^ 4.6XjXzX8.t.q.3.V.V.).,XgX;X:XE.q.1.l Z ) A.[.:XqX*Xt b % % @ o @ @ * * & 5 i i i t y t b b N s t 8 ; - - ; H S ! D D 5 a r a r 7 g L F g 5 5 5 p p y ; o : v {.}.MXLXMX`.b.l.iX&XZ.B.>XzXIXoX*X0.V.) 3.2.@X@XnXyXyXuX0X0XT.^.} o.f F d.ZXCXU.n.~  XOX3X8X5XKXBX8X8X3XOX1XtXBXBXCXOXv.1XU.H.1XXX+X+X5XCX8X1X8X XtXnXnXCXeX.XrX.X$XmXL.$XyX*.e.6 9 *.5.7X!.m.n i r.+X2XJ.a.p U d.yX<X5XH.L.*.O.XX3XI.I..X!. X3X1X1XmXNX7XBX7XOX8X X1X Xm.I.1XOX8XCX7XI.7XH.I.1Xy.U.m.4Xm.a.&.P &.5Xs.r.i i A U U { U O.~.5X2XrXKXz.8.) / gXcXl., + O : V.jXHX4.+.3.A.b.KXKX6XoXm H n n p 4 & & p r g g f < * 3 r r F g Y Y Y p M b N 0 v ; - 4 5 p A A D D D Y U U P S b 0 : + . B HXHX>X;XHXPXPXDXPXxX:XV.2.W B V |.HXHXcXPXPXHX|.l.V.= O V vXxXUXPX:XjX}.xXjXx.l.0.A.Z.x.8.0.4.z.b.c.oXwX.X3XeXBXNX7XJXNX7Xe.5.5.&.^ ^ P ^ I ^ +.y.K.#XrXCXbXJXJXMXMXkXCXPXHXcXc.9.x.=X*X;X*XV.*X*X:X:X9.V.V.PXIXvX/ ) W 2.A.V.:X:XHXcXjXjXD.8.v v 3.x.V.zX&XIXzXcXHXHXIXPX:XC ~ H P I I U &.U D D Y I Y P G G H M M S M N 9 8 8 % 6 t Y P ",
"= 0.6.kXwX-XDXHX3.2.cX%XAXc.V.( Q [.wXwX-X:XV %.) 6X=XM.oX*XZ.z.C.l.p.^ Q 4.) b.C.z.OX XlXkX6X7XbXbXBX1Xm.I.e.e.O.^ *.&.O.O.G G n b ....e.XX!.eXmXK.&.6.i S n S S H N M ! G 5.+.4.C.Q.kXJX4X6X6XHX-XPXLXwXVX:XV.c.4.: : 0.c.PXLXVXPXLXjX-XP.v :   + ( HXcXHXiX:XgXvX>X>XE Z _ }.}.vXlX:XN t o % @ % & 5 5 & & 4 & & 6 9 y y y y y n G S i y i M S 8 G u u * D D 1 r a L D 6 r r 5 4 u 5 & o X o . 0.6.HXHXHXoXoXC 7.2.*X|.cXxX%X3.2.|.:XA.V ( b.C.eXrXuXuX0XuX/./.=.i.L U =.tXtX.XOXM ! S L.L.L.5.5.5.6.L.tX3XH.m.+Xa.!.1XXXI.!.v.W.1X!.XX1X+X1XXX1XJXBX3X3XeXlX-XnX#X#X1X~.X.D A 6 n e.5.1X.XL.& & v.XX~.T.~.U D 6  .*.L.+XH.5.y.XX3XXX X3XH.m.n.H.L.U.U.v. XH.OX Xm.m.H.m.U.XX3Xn.I.L.mXBX Xm.n.m.m.n.H ^ X - 5X~.1XG ..I I S X.U Y Y r.mXKX.X4XVX4.7.b.x.PXvXzXx.Z.iXiXHXV.V.l.c.l.MX4XKXkX0.6.o 9 i ! U 6 r 5 r 7 } D f g s r 7 $ a g Y U U s s ; ; & b p b p D U U F L U { L D p y - @ X .   + v xXPXsXjXPX*X}.3.7.8.A.oX[.[.jX}.vX>X*X}.V.:XHXPX|.|.= > 8.Z.A.*X:XHXPXHXxXcX( : : ) 3.C.C.Q.W.V.kXKX#XCXCXKXBXKX!.Y.w.r.@.O.^ ........! ..! I G S ^ I O.*.K.#XnXkXPXbXMX4XMXPXxXPXkX6X-Xt.8.V 9.l.PXPXPXPXPXxXjXA.+ = . . 9.l.xXDXHXjXHXPX*X:X9.8.2.9.8.W _ c.8.N.zXiXiX;XPXB H % % & ; 5 s g Y U U Y Y Y ^ ^ ~ P H P N y 8 ; ; & n G ! P ",
"% t.0.wXkXjXDXMX4.( vX>XHXc.S./ / Q.wX=X-X:XC 2.4.-X*XM.C.{.P.z.P.b.0.&.P 4.&.z.b.C.{.=X7XkX7X8XBXtXNX1XI.H.w.r.O...*...O.I ! G b S ~ ..a.!.!.8X5XI.e.&.I 8 b H M P H M P H 5.&.y.z.{.bXMXJX}.kXxXMXLXlXlXMXoXC.P.2.: > 0.b.PXKXPXMXKX=X-XZ.y :     2.LXAXcXHX;X>XcXgX,XC C Q ;X}.lXjX=XZ i % % @ & & u u & & & & & & 9 t 6 y y y p M N n n n i m n p p i & D g r 5 a f g f r r 1 1 5 5 # @ % o # 4.t.PXMX6X6X}.W / 3.%X*X*XIX,X9.3.-X,XV.) E V.x.lXtXrXuXmX~././.=.;.D L X.yXtX XXXm ~ ^ y.m.XXe.6.O.6.I.3X1XH.U.I.U.!.XX8Xm.!.J.~.W.!.~.+X1X+X<XOXBXmX3XkXOXwXwX4X4X4X$X~.X.D p u u 5.5.tXU.I.- & v.<X~.J.!. .i A O.O.<Xv.L.e.5.8XXX1XL.3XL.U.H.U.U.n.!.n.m.!.XXU.m.m.n.U.!.!.OXy.L.Y.eXKXI.M.n.I.v.m.S ~ @ & $X$XH...U S ! S  .U J D J.rX5X5X4XeX4.7.x.[.:XHX>X).N.iX*XHXZ.V.c.0.x.jXwXkXPX5.6.o u A Y L 5 7 r 7 f F F D g a Y * & n i ! Y ! s p ; & r u y a r D L L L U [ L { D D & 6 X # o .   B PXHX6XjXPX;X}.0.3.B.Z.Z.*X[.*X*XjXjX:XZ.[.vXHXPX*X[.> = 3.).].[.>XPXHXPXjXlX&.0 : +.0.m.m.m.Q.@XrXeXnXnXmXKXNXNX+XY.u.e.*.....! O. .O.! ..! U G S U .. .5.K.OXeXPXbXKXkX4XKXPXKXJXkX6X@Xx.l.v x.l.PXHXPXPXPX:XcXx.> O   O 9.9.HXcXIX>XvXPX|.>X9.9.2.8.2.W <.9.0.).%X%XsXzXxXE Q # ; # 6 5 p p Y U G U ..U ! X.! I P M N : y ; ; & N p Y  .",
"% p.t.kXjX6XMXcXl.l.vX>XiXQ `     _ wXVX-XlX=X-X;X@XwXM.C.v W 3.4.3.t.x.b.@X{.4XkXeXeXeXdX7X7X3X+XG.v.*. ...U ..I S S n S I *.5.L.XXNX8XBXtXNX7X8XmX8XtX8X7XH.~ P P H i n m ~ Q Q Q ~ +.4.m.C.MX=X=XsX;X-XlXxXHXHXMXC.b.t.2.b.B.{.{.kXP.C.P.3.b.( 2.sXIXjXV.x.Z V A.zXDX3.4.) [.|.cXxX-Xb t = % 6 s u D D 5 u 6 & & @ @ % & y t p n N N n M n t G G H y - @ u 5 D D r g g F L F < < r u & & % X X H E -X=XkXKXPX) 2.4.DXPX|.c.+ O = ,XxX[.D.0.q.8.wXrXtXyXZX0X2X/.i.F.} X.U J.J.KXKX5.p.m.XXW.m.I 5.y.m.XXm.a.eXOXm.M.^ y.O.O.O.G I G S S G ....H G G I ~ K.{.PXbXK.P P Y ! U D Y U G a.e.tX XXXi 9 XXtX8X!.G.!  .Y A 9 n 5 n S ..mXBX1Xy.&.S S ^ O.&...&.I b b b m H H H ~ O.&.^ OXH.U.n.5.8Xm.H.OX.XeX6.y.G H tX7Xv.I D u D S I Y I I L.mXmXKXKXeXb.M.xXHXHXHXLXIXPXIXiX*X8.8.4.3.M.cXMX-X=X; y . 5 5 f D f h f F L D F g u u O.4 - ; % N p G Y Y g s D Y L U L L L F g f 7 7 6 & 6 & 6 @ % # + . B PXHXvXvXHXZ V 0.9.PXHXKXPXPXHXcXjXW B   . / vXHXjXPXvXHXHXcX>Xq.2.( 8.9.4.3.0.K.{.OXC.OXnXVXCXCXCXnXeXrXtXH.a.a.5.w.@.*.@.X.*...O.*.*.U  .U  .O...! I n D +.+.O.p.m.eXnXbXkXCXMXJXMXPXPXLXHXZ.|.l.l.3.Z.V.x.l.l.*XV.[.V.l.HXPXcX8.9.B : 9.*X*X}.}.PXHXPX}.c.Z > / N.).HXIXLX) ( = - @ # * * * r 5 r D F Y Y ..^ ....^ ^ H y & & y *.*.X.U ",
"% z.t.kX6X-XcXcX9.l.*X>XzXW W     %.@X-XwXkXwX:XVX-XMXp.p.0 +.3.4.5.t.b.m.$X.X.XeXtXBXnXBX5X<X+X<Xv.v.e..... .U ..! G S n I ..5.a.m.8X5XKXtXZX X$XmXtX7X!.3XH.G ^ I ~ n S G ~ ^ Q Q ~ ) 4.b.{.KX{.{.kXlXkXkXkXKXMXJXP.{.7.7.z.b.4X{.=Xb.b.Q.0.9.^ ) |.sXPXx.V.Z : A.cXzX2.8.2.|.A.jXjX@Xt y - - y a s a s 5 u 5 & & @ @ % - y - 8 y t b M H S N C H H ; & # p i F F < f f [ { F < < r s 4 - - o # m H MXMXVXHXLX2.7.( cXHX].|., > ' *XqXE.3.9.q.&.-XrXnXmXyXyX<X0XF.d.U X.Y F.~.KXtXe.a.a.r.H.OXe.O.r.a.a.I.L.!.tXL.L...r.O.&.! H I H S n n ~ ..J ~ S P ^ =XQ.6XKX=XP ~ P S X.F J U p e.5.4X!.K.S m XX5X8XL.d. . .Y q 9 9 i 0 ..G 8XtXXX6...S G ! 6.&...~ I i 0 0 0 m H ~ 5.5.O.5.I.U.p.m.a.XXn.H. X!.3X6.&.^ I mXtXr.G G u A Y S D  .+.L.rXnXCXKX{.}.Z.cXlX*XxXjXAXLXiXcX}.9.9.+.3.V.jXVX-X@X8 5 * 6 1 g F g d d { L f D g u n +.8 - = % M G ^ Y Y p s g D D L L F D g g f 7 7 r 4 4 & % o # = . . Z HXHXHXHXLXV V x.h.PXKXHXPXPX:XgXPXW W     B xXPXPXcXjXPXHXHXcX3.2./ 9.2.4.4.z.4X-X.Xm.W.4X$XrXmXCXCXmXtXtXH.s.u.*.w.@.*.*. .*... .e.*.I G U G !  . . .G p I ! O.a.K.eXnXeXnXVXkXbX6XVXMXlXLXxXx.l.8.9.}.l.l.x.8.jX[.Z.[.x.HXHXcX8.8.v : l.|.}.>X:XPXxXjX`.[.x : ) N.c.GXHXzX) 4.8 4 # @ X * * 1 1 r F F X.P ! ! ^ ^ ~ ~ N y 6 6 s ! ! } } ",
"= z.t.6X6X6XMXcX( 2.A.|.HXN.A./ ( V.|.|.Q.Q.D.V.l.b.z.4.+.&.z.y.m.C.Q.W.$XnXCXZXNXnXeX1XY.v.e.*.O.I  . .G I  .G S ! ..r.a.XX1XmXKXKXbX7XXXe.e.a.U.H. XtXtX8XmXXX!.n.a.O.~ I b m m M M M C H H ~ P.{.6XkXkXdX=XdX4XMX=XKX7XJXFXkX0.Q H M 2.wXJXKXKXcXcX*X;XE V   + 0.gXAX9.l.4.[.|.HXLXkXV P M M 5 r 5 6 6 5 p u 5 u 6 6 y y 8 @ % % - ; y b m m t 8 8 # o o 6 8 i p $ f r F h f 7 1 r r & ; 6 % = = # K.=XlXMXKXZ.V.x.PXvXS.Z.c ` / @XqX:XE B W W }.eXmXnXrXyX2X2X^.^.*.-.L *.*.2XKXZX+XtXKX3XO.r.e.XX$Xm.!.e.5.....O.~ I I t 6 N I +.y.n.H.OX3XI.p.^ C - b.C.@Xm.W.y.n.6... .D D U J *. .L.v.L.r.6.<X<X1Xu.e. .p I ! ! G ~ ! H.K.eX1X!.O...! ~ u.XXL.m.n.!.n.u.S m S ~ +.5.5...~ H e.y.OXOXv.I.K.{.I.K.6.5.W.L.XXXX*.S I n S ! P I y.a.#XtXCXVXJXM.lXwXPXLXV.[.8.%X[.|.%X) B B V.V.*XzXkXb.b.t ; S Y a a 1 d F d F g f s p u n Q ; - # o 8 y N Y Y Y D Y L L g F f r 7 7 3 $ @ 5 5 p I S ; O + + + C DXMXLXLXHX9.l.jXMXcXPX8.t.x.}.*XPXx.V.V V [.Z.x.A.xXPXHX*X}.|./ W _ l.l.oXQ.Q.{. X8XmXKXCXmXyXyX5X~.G.e.*...X.*.*.w.@.X.X.U ..w.e.~.~.!.s.r.O.O. .I .. .I D G I ! P ^ 6.y.4X4XlXeXCXKXMXMX:XPXvXPXPXvXV.Z V W 2.jXcXvXPXHXcXPX*XV ) +   3.PXPXvXHX[.:X>XPXLX3.2.,.c.l.IXIXIX,.^ o @ & i D U L a r r * $ 6 D U Y ! ^ ^ ^ P ! ! ! U ! U  .*.",
"= z.0.-X6XzXLXMXv : 0.l.xXzXHXcXkXE.-XwXV Q v &.7.0.3.z.t.P.oXOXwXnXnXrXrXrX4X!.H.a.w.*.O.O.@.@.*.U U U S U 5.*.L.5XrXCXmXZX$X4Xn.H...O.b - b 7X8XO.M H e.5.OX7XNX9XBX1X!.L.e.y.Q Q H M H H H H m B ~ ^ 7.`.oX=X4XMXMXMX6X6XlXkXMX=X#Xb.z.{.Z.b.}.-XZ.z.A.x.|.2.1.>XGXGX3.4./ Z.Z.vXvX@XZ P N N - & & $ * 5 a f g D u 6 y p s % # # # # # = - : ; o # O = % t S y u * D r f 7 f d r f r & ; 8 - % .   0.4XnXkXlXcXl.9.@X:XvXHX|.qX,XUXUX-XE ` ) C S.wXnXtXrXmXuX0X0X2Xi.e.U U U <X2X5Xr.&.b Q 6.$XXXJ.v.L.s.G H.L.1XtXCX~.1Xa.a.6.y.a.H.H.y.w.5...5.{.oXC z.A.P.Q.eXmXrX~.J... .U p p i n r.O.O.7X8XOX!.!.!  .S ! D 9 n I.KXNXBX8XH.n.m.~ ! y.5.m 5.e.e.e.m.6.O.n.n.L.XXI.U.I.XX7Xr.i m O...H.I.m.M.p.^ ~ ~ $X5Xv.v.U n G S S ! G ! m.W.eXCXKXeXeX3.-XlX:X*X> O . 9.c.PXLX,.<.8.P.P.cXJXwX^ W : t s 6 1 L g h F L d f L 6 6 6 ; b = = o + % % y H G Y Y Y D g 5 < 1 7 d g g f f D a u n N b v v % = W HXxXcXxX:XA.[.LXPX*XjX> O + 9.x.cXvXxXcXPXPX>X:XW v Z E 3.x.A.V.Z.*X{.A.4XbXCXCXCXZXZX5XL.J.s.e.*.*.*.*.*.*.o.U U F U *.a.5X<XZXNXCXNXCXXXtX1X1Xu.I J ! O.G P ^ ! S M ! ^ H H 5.5.#X4XwXMXLXcXvXjXvXcXPXHXHXZ.A.A.*XE.V.x.9.8.xX:X*Xl.V.xXxXxX( 2.O W 2.LXPXB.9./ [.].SXgXgX) ( 8 8 A U { #.o.f { { & 5 u & 6 6 s p N ! ^ ^ ^ Y ! =.X.D p ",
"= z.9.-X6XzXLXDXx : 0.0.;XzXzXIXVX|.=XqXN C # 4.&.t.p.b.C.Z.@X@X-XnXVXeXmXeXmX1XL.G.r.5.O...#... .U G J D I 5.*.J.1X1XtXCXZX2XrXU.L...O.4 8 8 tX3X5.S H a.y.!.XXXXXX3X5X.XI.r.r.^ ^ H b H M H m C H W W 7.oX6XkX=XMXMXoX=X=XlXJXKXbX4Xm.z.P.Q.}.oXoXV.{.V.x.V.9.l.,XvXIX3.2.( |.}.HXVX-XZ P M N - * * $ * r a D a p 5 6 i n p & % # # o o # = : 0 + O o % % : b t 9 4 A 7 7 2 h d d g g 6 6 8 - ; o o 5.JXVX=X}.HXl.[.,X:XGX}.}.qX,XvXIX].2.3.v W D.wXrXrX5XyXyXuX0X/.i.i.} } { <X<XmXw.y.M H 6.K.!.L.~.v.r.I a.!.~.7XtXW.!.m.H.r.p.p.U.H.y.y.6.~ ..`.oXM 6.b.{.@X=XrXW.$X2XD U O.D G 5 S *.5.O.8X8X XG.L.G I  .Y U i 9 L.5XJXNXBXH.L.!.! G y.&.S y.a.e.y.n.e.&.v.n.H.I.U.m.U.I.I.H.n ~ ^ ^ OXH.W.K.m.b ^ ^ 1X5Xa.a.G n A D G ! P ! L.$X4XCXCXQ.#X4.MXPX*X;X> = O x.c.PXHX) 2.7.b.b.lXMX4XC C b 6 i u r g r h $.[ 7 r } - 6 ; - b % = o o O % i P P ! ! P S p < * 2 d g d 7 7 7 r r p n M t y : = = W LXxXcXzX-XZ.V.cXcX*X*X0 O = [.A.:XPX:XPXHXPX[.:XE B V V 9.).A.|.C.*XP.oXNX4XNXCXKXZXCX5X~.L.F.e.*.-.*.*.*.-.@.U U D X.r.!.mX5XZXKXNXNXKXyX1X1X5Xv.O. .U ! P G ^ ..^ P P S ~ P &.+..X=XwXPXVXjXHX>XvXjXHXPXPXA.A.9.A.[.9.x.8.9.:X|.>XV.A.xXPXxX( / O / 2.HXDXc.h.2.>X|.>XgXPX3.&.t 9 S U o.{ { f { J * 4 & r p y s y s Y ^ ^ X.Y =.=.=.g 5 ",
"O p.l.wX6XjXHXcX) / V.c.*X[.V.A.Q.qX@X@X8.8.V [.p.@X=XZ.=X4XMXwXeXnX=XQ.W.v.m.5.~ !  . . . .I G U X.@.s.Y.XXmXyXmXCXtX.X$Xp...! i 0 8 m 6 y.e.ZXCX X~ n H A G &.&.r.a.1X1X8X4X7X3X3XM.4.4.G E v H C H m m H H H +.C.=XoXLXJX6XkX6XnXbXeXCXMX.X{.b 0 _ *X-X;X6XHXHXjX,XZ.> l E [.[.UXlX|.; y 8 y s 6 r 5 r D g L 5 r 6 5 p p s % - # o o O % ; v z./ _ v v ; : v y 6 i 5 & 7 1 g d d F D 5 ; 8 - ; X   t 4X6XwXlXHXM.A.2.1.Z.S.vXvXqXE.|.c.].vX9.3.8.-X#XrXtX5XtXuX/././.T.} D f e.e.yXJ.H.o - .Xv.L.5X1Xi S p.5X1XH.!..XL.~.!.~.m.m.v.!. XH.I.oXt.6.K.P.) 0.z.{.Q.M.v.p.mXKXU w.*.G.<X5...I 4XNXL. X7XH.L...O.XX5X1XO.! <XL.L.w.n.n.I.W.&.O.I.!.r.XX1Xn.m.L.L.m.I.U.U.U.I.OXOXU.n. Xm.y.; i r.U.n.r.a.- &.6.tXnXr.r.J A n I I I 5.5.4XrXeXKXKXz.0.C zXVX}.zX3.9.( ;X%XzXvX3.9.9.&X|.MX;X}.b b M P s y 6 F g d d d r r } 6 y ; - P = % . o     % y y N b ; - % X @ 2 F F g F { { F A p % - % : : O # R HXHXLXcXjX8.8.xXHXPXPX9.Q V |.V.,XvX*XjX[.*X8.x.) 0.l.8.[.A.V.sX}.DXMXMXbXBXBXXX!.v.H.e.*.=.=.*.*.=.X.{ U U X.w.~.<XuX0XyXmXmX1X1X<X~.L.<XmXZXKXyXtX5XL.H.5.! I S P G ^ I ~ H H b ~ &.^ C.Z.|.cXVXPXPXjXvXxX>XPXPXjXjX3.9./ V jXPXPXUXPXxX}.}.2.2.: 9.9.PXPXB.B.4.x.S.vXPXvX4.8.^ I Y u q f f F { { { U Y p D s ; % o 6 s s Y Y U D g < < ",
". t.z.lX6X-XcXxXW ) 9.l.*XZ.).V.x.=XwX-X%.&.4.p.K.6XQ.Q.=XeX6XrXrXtX2XW.$Xm.m.O..... .! ! ! I J G ....r.~.1XyXtXyXZXnX!.2Xy.~ H i 4 S 9 # v.G.<X5X<X! ! G J n &.@.u.r.1X$X1XeXbX8X4Xm.+.+.H ~ m H B G C m M C / ~ U.=X&XJXJX=XMX=XnXbXnXKXbX{.#X0 : 2.}.}.;XjXHXPXjX>X|.> v / }.|.LXVX}.; y y y p 6 u u a g u D p p 6 5 a s y & ; # . . X # > v l.) ) v : : : v : ; S & * u 1 f f f F D 6 ; 8 ; - o o 8 eX-X-X6XcX|.[.( 1.].Z.vXqXPXx.V.A.,X,X9.9.&.@X}.eXCXrXmXZX^.^./.T.{ D L e.a.CXa.J.% -  XH.H.L.1XM i e.mX5Xm.v.+XL.1X!.!.m.m.M.W.I.n.L.OX6.e.C.m.7.8.3.oX#XU.y.p.KXmXD e.*.~.~.*.O.b mX7Xm.H.JXv.a...! CX1X1XJ ! <XH.Y.r.r.Y. Xv.@.O.H. Xa.1X8Xn.m.m.U.H.n.I. Xm.n. XOXm.H.XXz.H.0 m z.n.m.a.v.# 6.a.tXeX5.w.G S n ! ! D 6.6.6X4X6XKXKX0.t.C lX6XoX:X8.8.4.>XAX[.}.,.9.h.;XoXcX[.P.b b M M s N 5 f g d r 2 g f U 6 y % = P % % X % .   = Z b C b = # = o X r { F f g L { r a D & - O ; > % O V HXLXPXcX:X9.8.*XjXcXHXh./ / Z.[.:X*X|.:X}.|.V.l.) 2.x.t.[.}.`.sX`.6XPXKXBXNXmX<XXXG.G.e.*.@.*.-.-.@.#. .{  .X.*.T.XXyXyXCXZXKX~.~.5X1XJ.NXtXKXKXmXBX5XJ.H.5.^ ^ P I G ! I ~ ! H H M &.Q P.C.-XxXVXHXHXxXxXxXHXMXPX|.:X( 8.W Q ;XcXPXPXPXHX[.*X( 3.= 9.3.PXKXc.Z.9.c.].DXgXUX3.0.&.^ Y 5 6 r 7 #.F g =.F g s D s ; @ o ; p s Y U X.G p & & ",
"# t.z.;X;XzXzX-Xx.8.>X*XjXQ E .   k.}.jXZ.c.6.Q.{.eXeX3XbXbX3X#XQ..Xy.&.5... .O.....U G G *.*.!.!.7X8XtXKXyX1XtXv.&.P M M 6 b b 8 t - ; ! a.G.s.u.e.9XmXI A G i n 6 i G 5.5.v.L.tXtXBXbX#XXXI.t.Q I b m v H v m v v ~ +.t.n.oXOX6XJXeXMXeXbXKXKXx.5.l.HXKXvXjX[.Z.Z.l.p.V B W *X&XLXJX@X= % o o & 5 u q u D D a f A * & o p y % O > + . Q V vX%XPXcXgXiX>Xl.E V = = #   % # & b n a S n 5 ; 9 ; ; % -   n.b.lXlXlXPXqXv > S.].vXV.x.O O q.IXIX|.}.W Q.Q.VXrXmXtXuXuX/.2X/.-.[ } } U 2XyX+X5.4.C.K.$Xa.r.p 6 XXL.!.&.5.r.6.p.K.Q.Q.Q.p.t.y.W..X8Xy.y.K.Q.^ 6.z.Q.m.tXCXtXa.*.*.mXCXY.~.9XNXBXI. XbXBXOXn.U.3XKXz.3X3X8X<Xv.tXmXNXKXv.L.G.! *.Y.L.5.XXNX#X7X6.t.5. XH.m.y.m.a.y.z.u.n. XU.9 ; u.u.L.u.a...L.J.~.<XU U A J G ! ! ! C.b.6XjXjXMXVXl.c.HXcXjXHXHXPXcXPXHXIXN.V.8.h.c.jXcXMX2.) : ; b b ; Y 5 D s r 6 1 r r & D M y b - = > = = _ _ c.iX>X_ C : = = o X f F { 7 r r g F p s s y % % > = + Q HXDXcXcXvXE Q h.A.PXvXPXHXMXHXzX*X> > ) ,.9.[.A.}.Q.#X#X=XBXLXBXPXBX7XNXL.!.J.e.u.*.-.o.-.@.@.{ { U X.G.v.1XmXJXNXKXBXmXOX&.+.9 8 5.a.n...^ y.v.eXCXeXKXKXnXtXmX6.r.+.I P M P ! Q ^ ~ m M B W 6.0.{.[.6XPXLXMXxXHXxXAXPXHXzXjX}.P.P.0.x.9.{.[.6XkX}.jXcXLXlX<.( ,.[.).GXAXxX4.0.Q P 9 & * 7 r L L L g L g F D ! ^ o o = . o % = y t y O = ",
"# p.l.=X-XzXzX-X3.4.;X;XcX) W + + c.}.|.2.( 5.oXW.tXbX7XbX8XU.n.6.5.+.O...O.@.A ..*.s.L.<XmXtXKXmXKXmX+Xe.6.p S P &.r.r.y.5.&.^ H b I H G.@.5.J.Y.#.T.Y.v.!.I I J G Y U O.! H S I ~ u.7X3X7XBX7XXX+Xn.n.^ S x 0 M 0 b 8 0 0 H H 6.Z.K.eX6XlXKXPX0.c.;XLXcX3.( = = ) lXVXx.x./ *XoXJXVX@X= % O @ - 5 u i p A n u p p 6 i - 8 ; - y + ` _ ,X}.%X:X|.AXPXpXaXIXSXiXV.z.P : % # # t H b 8 6 9 p 9 & ; t b   ~ P -XKX*XPXPX8.8.:X|.jX2.0.O + W *XvX[.[.v &.3.wXrXJXrXmX<X~.uXyXd.[ } D D T.mXBXn.b.{.$XXX5.*.6 & J.5XmX~.L.Q.0 8 OX-Xb.Q.K.#X$XOXn.z.K.K.m.U.+.5.5.oX2XQ...O.6 5 e.0X8Xe.v.<X1Xn.3XC.O.~ y.n.U.OX Xn.7X7XXX+X- 5.s.!.5Xy.v.H.!  .L. Xm.v.6.y.n.7X.X'. XH.bX! ..U.y.7XNXL.I.n.- 0 5.I.H.m.H.a.9X<Xs.e.A D f U I I I ^ {.;XzX:XPX&XP.}.[.vX}.[.t.l.|.[.N.9.8.v V 2.Z.P.xXxXoX0 0 : 0 M N s s p 5 r 5 D a 6 6 X # X o X > 2.( gX,XIXIXSXSXIXpXIXB O O o @ D D F < * 7 5 Y D n n t 8 : : O . E cXMXMXcXjX2.) l.9.|.A.}.}.zXPXLXcX<.( A.V.Z.jX=XkX7XmXNXmXNXJX3X8XI.v.G.@.*.-.@.@.{ #.#.o.#.w.w.Y.Y.9XNXtXNXNX8Xv.u.<.@.H # ; I P KXNXeX^ ! H S b r.y.H.v.nXCXKXCXKXmX$X#Xy.6.^ ~ I ~ ~ ^ W C b v P B ( Z.`.6XxXPXzXcXHXIXMXJXlXMXkX0.5.V LX6XMXkXzXHXzX}.{.v x R }.|.HXzXAXQ R 8 n G U } L h L g h g g * @ N 6 M o = O O O . O 8.wXwXl.S.",
"% p.z.-X-XzXzX6Xl.t.iX}.;X( _ O O 8.Z.}.3.4.6.m.W.tXBXtXBX<Xn.r.y.6.+.O.....O.I *.5.G.L.1XZXCXZXKXBXNXK.6.y.n p U 5.y.6.6.6.O.5.t y G p J.e.5.G.G.i.<XY.Y.L.q G I ..I G I I S G ! ! r.tX<XbXBX7XOX Xn.n.~ b m v M 0 v 0 v m W / 6.Q.{.PXMXkXMXkXC.P.sXzXcXW ,.= O 8.PXVXl.c.) *X}.VXVX@X- - % & 6 5 u p p p a u A i 4 ; - 6 8 b : O Q ) ,XvXjX%XzXIXIX,X%XSXgX;X9.0.H : > X # - b b 8 ; y n i y ; y t o W W VXlX*XPXPX8.9.%X|.cX3.)   . ) jXDX].}.` 3.3.@XQ.VXCXmX<X2X0XyXT.{ } g D i.ZXKXW.W.W.rX.X*.*.9 9 e.yX1X~.XXr.b b kX@XE.Q.{.eXeX.Xp.a.U.K.a.n.+.&.+.4XrXW.&.w.A p *.yXmXa.a.~.OXm. X{.4.+.n.K.H.OXU.U.7XbX+X7Xi @.5.2X<XG.U.Y.! ! L. Xn.y.5.n.j.NX'.I.I.!.OX5.5.u.n.BXBX XH.L.i m 5.m.n.C.p.a.5XtXs.d.A A A X.U D S &.}.:X6X}.PXV.l.:X}.xX}.jX8.7.|.Z.N.2.4.B Q 9.*XP.cXLX*X: : P B v b P s S 6 u u g D & 6 o # . - # = 4./ gXgXGXPXhXGXIXIXIXT O = = & D p g & * f r D D p y y y 8 ; .   Q cXDXHXHXjXW Q x.x.&X:X|.-X[.PXLXsX8.3.A.[.A.;XoXeXbXZXCXKXbXbXOX<XI.v.G.*. .*.*.-.o.o.X.#.#.i.*.T.Y.mXZXKXCXKX7XU.n.5.+.m - # I n mX4X3X+.&.0 M N &.5.U.m.mXKXeXKXmXnX.X#X5.5.H ~ S H ~ Q ) P N b P C 2.A.V.sX;XPXsXxX:XxXMXKXjXLXMX0.7.B xXjXPXJXMXVX6X}.{.Z Z _ %X).AXSXxXV H 0 n I X.} L L [ f L L g @ 6 ! s b X = O O + : > l.}.*Xl.8.",
"% p.z.6X6XkXcXxXZ B f.c.zX|.;Xc.V.%Xc.9.B E 6..X XeXBXBXNX3XG.n.5.y.! O.e.*.w.yX<XXXmXtXtX1XXXr.n...+.9 G ..v.H.rXtX4XZXKXtXn.W.5.v.W.v.s.J.G.yX0X8Xw.w.J.J.r.5...G.J.L.L.+XG.H.r.e.! J G w.u.n.NXNXBXLX3XH.C.+.~ m v 0 : - - - - ~ +.4X6XkXKXVXA.C.}.PXPX/ ) = O x.=X:X9.3.3.|.}.VXMX@X; 8 y t i y u p A a i p 4 6 6 % - ; # o O W -X>X>X>XHXgXGX>XpXiXzXGXSXcXKXPXMXQ.*XP W 0 - t 8 t t 0 - 8 v m y . # # {.{.lX:XvX*X:Xf.8.HX>X6Xx.V.jXAXgX}.[.B E W @XW.JXeXtXtXZX/./.T.#.o.L { *.mXZX!.$XW.U..XJ.K.G i p e.r.v.J.6 &.6.P.M.}.$X.X#X$XW.U.W.r.a.e.n.! &.&.$XU.a.! G a p 6 yXmX8XXXL.!.#XM Q 8 b H j.n.U.OXOXNX1X....q 9 - H.v.Y.L.G.m S v.r.7X'. Xn.j.'.3X=XXX Xn.m.m.M ~ n.y.n.H Q # - L.U.n. Xm.I.3X1X.. .J D D X.U D D a.lX:XxX;XHX9.0.Z.*XxXE V     ) 3.IX9.q._ / 9.:X:XLXLXx.. . M v : y P N y y u u X @   o o b M 0.p.cXUXGXzXvXiXSXzXiXhXIXSXgX_ Q P b F 5 5 @ $ Y D Y g i u 8 ; % %     W DXHXPXHX:X}.`.HXzXZ.A.v v B oX*XjXx.l.9.t.sXJXMXCXZXtX7X8XL.H.y.e.w.*.5.O.e.*.U U { -.s.T.<XmXyXZXZXmXXX$Xa.y...m M M H 9 m S p.a.I.n.n.!.1XG ^ &.b b M b ! 6.5.XX$XnXnXCXKXPXOX7Xz.5.4.G B C C B B b v v v / ) b.&XzXjXcXLXPX6XKXPXA.{.7.PXJX6XoX0.z.b.-X-X+.2.3.%X).HXHXLXH C # @ & p f g h } L L F g ; @ o N M = > > O > 9.l.cXcXPXPXHX",
"# p.b.kX6XkXMXHXC V f.l.zX>X;XV.x.V.9.N.E E 6.=X.XeXBXmXmXXXu.r.*.e.! 5.e.O.@.<X<X<XmXmXZX5X1Xa.y...I b I S s.s.yXyX7XCXKXCXn.L.*.5.a.+Xe.Y.Y.9XmXmXw.w.s.v.!. ...v.J.L.v.L.s.v.5.a. .S  .r.j.+XBXBXBXBXXXK.U.~ ^ M 0 v 0 0 : ; 0 +.) kXkXlXVXlXoX*X[.PXLX/ Q = y M.}.wX9.2.3.}.@XVXMX@X; y b N s r 5 s p i i n % & 4 % ; : # = O ` cXcXgXcXjXPXPXgXzXzXiXvXjXjXvXvXjX[.:X/ / ; = - % y v t - b : y : o + # }.oXPXMXxX*X*X3.0.HXlX=Xl.9.,XcXSX>X[._ E W A.V.nXrXtXmXCX/././.*.=.[ }  .uX9X$XeX#X.X4X~.v.D D A e.*.J.r.8 y.p.p.Q.Q.-XwX.X.XQ.I.!.u.a.y.a.n 5.y.Q.#Xv.G b A G A ZXyXNXtXH.L.OX~ I b m G n.m.I. X7XNX9X@...A 9 & L.G.<X!.L.A G n.r.7X XI.y.n.n.NX8X6XI.I.U.H.~ I y.m.M.H N i 8 U.y.0.P.n.XX+X2X..X.F f A  . .U F L.MX:XMXcXMX) ) [.Z.PXB Z .   ) 2.AXq.3.,.) x.cXMXPXLX8.O o B b b : C b y y y i @ X o X @ ~ Q 0.S.PX>XPXiXcXiXiXIXSX>XGXHXPX2.W V ^ P 6 ; @ @ Y D U p 5 s i & @ %   . W HXDXHXHX;XV.V.zXKX[.>X: : : {.Z.xXB.Z.8.8.}.eXkXCXKXtXtXtXJ.s.5.*.*.@.5.e.*. .U { o.*.G.2X^.0XmXyXKXyX5X5Xr.6.^ m S S J b n H e.m.n.n.y.!.I.! ~ I i S n m S &.y.W.=XbXKXKXkXNXXX7Xz.+.4.H C C C C B C b y M Q ) 8.;X;XjX-XMXJXjXPXPX{.=Xx.PXPXoXcX3.x.3.4XkX0.0.2.[.`.LXAXHXC M # @ & g f g g } L L r s 1 u X H b = = O : : h.N.IXAXcXHXPX",
"# p.b.kX6XwXMXLXZ Z 3.8.>X>XzXiXLX;X8.8.x : _ P. X7XtXmXyXH.@.X.! ! &.5X1XNXKXmXmXtX<XL.r.~ H ; 8 m t a.4X5XmX5X5X2X<XH.m.L.6.y.a.5.a.J.H.1X+X! G *.U.G.u.G.+X5.e.s.v.v.u.G.!.<X!.9XY.e.5.S 4 S +.5.U.I.XX7XBXOX=Xz.+./ H H m m - Q H 4XwXlXKXJX0.V.8.oX}.b.*X}.A.qXPXUX3.) / ;X*XHXMXoX; y y s s 5 6 u a i i n ; - - = # o + Q %.,XvXqX>XvXHXcXc.E _ f.A.|.*XvXIXHXjXcXPXxXHXjXc.7.B v # O + 0 0 : : = + . ( / 6XvXPXHXHX8.0.x.A.=XcXqXHXcXiX].,XA.0.q.0.8.wXCXnX7XyX2XuX/.;.;.[ X.{ 2XXXtXnX4XL.~.XX1X!.J.S 5 6 ! S 6.m.b.C.}.{.wXlX.X.XK.I.L.H.m.e.e.8 y.m..X#Xv.n H u 6 *.L.!.r.v.H.v.G y.5.n.t.n.^ Q n.u.I.H.XXG.L.n A n Y.J.L.v.H.m 9 ~ ^ 6.m.n.U.K.U.7X X7XnX Xm. XH.m.~ M ; b I n.n.OXK.{.sXoX8Xn.G.J U D f D U { { F J.MXHXHXHX:Xv : [.l.PX8.l.3.) }.[.jXf.f.3.2.).cX-X:X;XH = = m b b b N ; y o o # t H 5.5.C.PXMXHXKXiXjXvXLXIX;XiXgXiX%XzXSX*XcXcXl.&.N b S N y G a s & & u p - & ;   . W HXMXcXxX*Xb.A.HXPXjXHXZ : v @X;XLX0.9.4.0.jXJXCXnXrXs.d.r.e.e.-.*.*.U J {  .*.J.2XyX2XyXCXZXyXyXs.s.O.^ I +.O.O...+.G G 0 O...y.6.a.m.H.y.u.H.n.m ~ S S G ! ^ ~ M H ..m.n.kXJXJXPXJX3X6X`.OXt.^ W b v b C B B B 0 E Z ) ) zXzXkXLXKX{.oXP.KXMX+.4.. E ^ PXJXP.Z.3.N.N.DXxXcXC H 6 p Y  .U g a L L } g g s s ; i y > v = l.f.HXHXIXzXzXSXcX",
"% t.z.wX6XjXxXMXB B q.8.}.}.iXGXjX*X0.8.Z B +.OXoX7XtXyX9Xs. . .U I *.yX<XZXCXXXtXmX+X+Xa.! H n - N t r.$XmXtXtXmX5XBXL.L.L.y.y.O.y.W.M.!.!.9XJ ! ! +XH.u.H.L.y.u.*.u.G.G.G.~.Y.<X<X+Xw.w.G J ~ +.+.'. X8X3X{. XOXn.4.4.H C v v - ~ H bXkXlXKXLX8.c.9.*X*XP.[.}.:XqXVXjX) W ) }.*XVXMX@X; 8 8 8 6 6 6 r i i 9 9 - - - - + +   / V cX>XvX:X:XPXHXV.V W c.[.}.>XcXIXAXjXcXjXcXHXHX3.2.V Z + = O = > = : =     W q.PX*X>XPXPX2.8.x.oX{.wXjXPXjX>X>X|.|.2.q.3.p.wXlXrXtX0X0XyX/.F.F.} o.U T.G.mXmX3X5X.X!.~.~.Y.! 5 6 p n m.I.m..XC.#X4XwXW..XU.W. XI.L.O.+.8 a.m.#X2Xm.i i 9 - s.G.!.u.L.+XL.b m.y.n.n.'.I G n.n.3XOX3X+X!.S 8 i +XXXY.L.Y.G A S G y.I.I.I.m.I. X3X8XNX Xn.L.I.I.b M 0 S Q n.n.m.C.x.[.OXbXn.G.U F f D F Y { X.U ~.KXPXPXPXV.B v V.|.:X0.4.) 2.{.*XHXc.q.,.) Z.xXvXjX;X: > > b C C B ; % - X   # G 0 +.6.=XLXKXPXPXiXHXxXHXPXsXIX%X|.>XAXzX%XPXIX3.l.v N C G N G A 5 & & r u 4 & ; X . W LXHXxXzX:Xx.V.PXPXHX:XE 0 v A.:XcX8.2.8.7.6XMXNXtX5Xr.u.d.e.e.e.e.*.U D  . .*.J.!.9XyXZXmXCX0XyXG.d.*.! S O.+...^ ..H ~ J ..5.H.u.u.5.v.5.O.v.v.J ! m ! ! O.G Q M H 5.K. X3XdXJXFXPXMXsXoXQ.6.Q Q v b b B C b m 0 m b 4.3.6X=XMXLXKX=X=X6XJXKX5.4.+ W / LXPXoX@X9.x.h.cXHXLX~ H - s D U } g s F D Y D D s 8 t b v : : > l.A.DXIX%XiXxXHXSX",
"= t.t.4X6XjXjXzX3.7.}.Z.|.f.3.f.9.>X*X&X) E 2.oXOX4X8XtX9XG.*.-...X.O.5X<X5X5XNX5.*.i i ; - 9 ~ +.U.OXXX1X!.J.2Xe.S I n S A 9 m n.v.a.n. Xy.a.9 9 H U.I.H.n.I.G.v.U U U J G *.#.G.G.8XL.<XY.<Xw.0 o 0 8 ^ 6.y.3XOXK.n.C.4.^ M b ; ..~ KXMXzXLXLX) W ) *XPXzXxXLXUXqX9.9.: : 3.`.}.MXMX#X: y ; ; ; ; 6 8 u u 8 ; = - # # O R _ cXvXHX:XqXHXHX9.V.( W 2.( W 3.9.3.}.[.cXxXAXjXzXjXHXPXzXHXZ.Z.W = =   + O + + : : oXjXPXcXcXc.t.: }.{.PXHXS.l B S.).vXV.A.+.4.}.kX5XKXNX0X2X/.^.T.} o.F s.r.ZXNX5X!.L.+X!.J.L.<XtXtXL.+Xp.W.P.=X@X@X.X@XW.4XI.!.XX X X! ~ t n.y..X.Xa.n 9 *.*.J.T.G.<XL.G G +.OXK.5.+.j.n.n.G G y.3XOXXX+XU.9 - L.L.L.L.L.G ! S n z.H.{.n.C.I.h.n.I.u.NXH.a.#X XOXI.7X!.I.I.H. XU.{.|.{.OX5.w.U J q D J D { -.-.ZX=X*XcXPXl.B.*XcXHX6XPXPXMXcXvX:X%X2.,.f.N.;XHXPXx.A.O > ; ; ; O #   = = H W p.4XzXPXMXPX*X=XMX;XLXHXIXx.|.3.8.v 3.9.|.>XIXcXzXjXjXZ : # % ; n Y G A g g a 4 $ @ O + / PXLXcXcXvXE E {.[.PXPXjX}.oX;X`.9._ W x.3.wXMXZXeX2Xe.i.d.o.X.} } =.*.d.uXuXmXCXyXCXNX2Xr.e.U ! I ..s.!.XX$XXX$XOX~.w.e.5. Xa.e.H.<X1XNX+X1XL.H.Y.w.w.!.G.OXH.8X=XH.u.+.~ H H 5.3.dXkXJXLXKXMX-X-Xb.b.4.C C M v b : ; v ; C.A.MXHXLXoXP.oXPXPX7.7.B {.C.PXPXb.z.3.Z.Z.PXLXkX) &.n D p u p D F U p r 6 y & 8 % = % O = x.PXHXzXAXxXPXIXpXpX",
"O z.z.=X;XzXjX6Xc.9.vX>X>XB C . + 8.*X|.0.9.<.oXoX6X8X<X0Xi.-.#.U  .*.mXmX5X8X!.1X5Xe.y.~ L.W.I.4Xm.I.1X5X5X*.X.p J G A G 4 9 m U.L.5.6.p.K.K.n M ! 7XXXM.U.&.J.G.G G X.G G 5 q n A 5.<X1Xu.j.<XU.I.I ~ # M b U.m.'.`.I.4.4.b 0 0 ~ Q #X:XkXLXPXc.x.V.cXcXoX}.9.9.9.}.qX3.2./ oXoXMXlXQ.y y y 8 s & s s 6 ; - 8 # =   + E IXIXiXjX:XPXPX3.3.3.3.*XPXPXIXcX:X9.3.Z v 2.|.).:XzXzXiXGXIXgXIXHXHX].`.4.7.= O . . . A.jXzXLXxXKXPXC kX6X:XwXB   + f.k.IXN.x.B B [.lXMXeXtXtXyX/.uX0X-.=.X. . .5X1XeXK.a.1XXX<X2X~.s.s.s.r.XXy.t.oXwXC.#XQ.y.z.5.m.U.8X1Xu.u.- U.K.OX1X&.n S ~.!.s.<X5XA n ..5.OX+.5.OXOXy.n.H.I.'.x y.n.9XtX!.v.e.y.w.tXXXXX0 n &...8Xz.n.K.K.^ K.m.I.I.K.KXCXn.n..X XK.W.K.M.m.M.^ +.P.K.I.! ! G U F A  . .{ F.Y.mXPXKX;XoXoXcX6XLX>XjX}.}.*XzXx.V._ ( / N.l.HXiXzXE W + . o     ; = 6.-X}.HXHXxXHXHX;X}.PXPXDXsXsXf.( 3.l.l.Z.A.l.,.9.f.9.).*XiXHXIXgXv v # . S p 5 D A & 4 5 & & O + / LXHXHXHXHXB W x.A.vX}.LXPXPXvXcXW 3.( 4.0.6XnXKX5X0Xe.e.*.*.X.^.^.mXyXZXZXyXyXY.J.w.r.q u y 5.5.1X~.T.5XrX+X1XW.H.!.5.a.5.L.L.+XL.5.O.5.XXOXv.G.H.H.H.n.v. X.X3X3XXX3XdX6XI.`.R Q v +.) {.P.4XJXJXbXMXeXz.z.) ) v t v 8 0 C.P.MXPXJXb.{.^ b.b.cXxX-XKXPXjXjX/ W / Q.V.jXwXVX+...p y p D D p Y D 6 s & % X . = o = Z.9.PX:X*XPXxXHX,./ ,.4.",
"O z.z.oXoX6XzXcXx.l.zX*X*XB Z     8.:X&X9.0.( ;XoX7X5X2X0Xi.-.o.{  .*.mXyX1X8X!.eXXXy.6...n. X4X=X{.m.1XCXtXU X.D J J K G 9 n S n.H.e.6.y.M.U.P M ..7X#XM.m.5.a.J.G J U J G q 5 n q ! 9X<Xv.r.Y.n.n.^ H ; M I z.n.U.P.I.+.+.b 0 0 ~ ~ =X6XwXHXIXD.c.A.cXPXA.oX<.&.l.=X=X2.3.2.>XoXMXMXQ.: : 8 y - - ; 8 b 6 & - ; X . . 7.*XiXzXxXxXHXHX3.8.9.2.xXHXPXPXlX:X8.3.v Z / Z.,XzX;XvXiX>XzXAXPXDXgX).}.9.4.: + +   . 9.zXxXLXHXMXcX&.wX6XlX:Xv . O c.A.AXf.c.C R Z.zXkXrXtXyXyX/.0X/.-.=.} {  .<XXXmXH.H.+X!.1X~.~.J.v.v.H.n.p.t.=X-XlXC.m.y.y.a.I.I.tX1Xa.a.; n.m..XXXv.5 i XX9XG.!.J.G G 5.w.I.5.5.'..Xt.n.m.U.H.0 u.r.1XmXY.r.e.a.r.~.<XCXb i 5.5.OXm.n.b.U.4.n.P.W.I.K.CXKXU.U.W.I.U. X Xm.m.6.+.~ oXXXH.I U A D f A U  . .!.!.5XJXKXjX;X|.HXPX>XHXP.:X*XxX;XA.V.v ,.<.B.c.AX:XjXR E + +   X   0 0 3.P.-XHXPXcXAXAX;XzXHXIXPXsX>X0.2._ x.x.[.[.l.( 2.8.c.;X*XjXIXGX,XE P o . b 6 i D F & & 5 & 5 o + ) PXLXLXHX:XV E 8.c.*XsXHXPXPXMXcX2./ _ 8.0.#XnXKX2X<X-.w.-.} U ~./.ZXZXZXyXmX0XT.L.e.O.i p 8 &.e.$X5X1X<X~.~.1X~.~.Y.w.5.5.L.H.+X!.*.@...!.+XH.H.U.!. Xv.a. X+XOXOX X8XMXBX XB.+.R B ~ / P.P.4XJXMXCXMX6Xm.b.+.) v t v t t C.P.MXPXKXC.P.Q P.b.;XjXHXPXPX=X-X^ / ) [.V.lXlXnX^ ! p p D g a F s g y y % ; o . . = O S.Q.cX:X;XLXPXiXq.2.,._ ",
"o b.M.=X*X6XcXLX4.4.*X*XAXq.4.: : b.|.A.8.0.) [.oX7X9X0X0Xi.;.o. .{ *.yXtXXX1XL.tX4X4XeXoXK.H.K.C.K.OX.X . .A o.U K K K G A ! ~ H.L.u.n.I.#X{.P P 0.bXMX.X XW.K.H. .@.U I G G G i S 9 r.e.BX3Xr.I.I.'.I.OXOX Xj.j.n.C.{.+.+.m 0 0 ^ ^ 3XwXwXVXVXS.E.*XcXLXQ ) .   4.KXPX9.3.) [.=XVXHXQ.; - : 8 N y y ; 8 % 8 -   o 4._ PXjXjXzX:XjX3.7.: B :XzXcXA.Z.Q.Z.jX|.*X+.3.8.x.D.8.3.S.zX>XgXzXGXgXvXGXzXxXzX>Xh.D.B v E HXLX;XzXLXMXt.[.Q.LXPXA.3._ |.%XzXf.f.: : 2.-XeXtXmXmXmX<X0X/.F.F.o.F Y v.H.CXn.e.H G r.a.T.T.J.L.I.+.z.y.6X=X{.P +.+.P ..6.w.XXY.r.n.i n.U.#XL.y.s.L.G.J.XXD J i i r.y.H.n.m.dXkXH.C.m.U. X..q S 5.5.bXXXL.!.XXa.a.tXH G y.5.I.OXOXK.K.4.v 0 {.C.b.{..Xz.p.z.n.p.C.K.5.4.t ~ +.bXBXn.G J p u U { U  .X.tXrXnXPXHXB.l.V.PXPX7.3.. B H |.Z.V.l.T c.c.}.[.IX}.|.. # O H P z.z.lXMXKXHXcXgXvXIXPXPXAXPX}.h.c.<.) R ).%XPXxXcXPXLXKX*Xx.8.B.).*XjXgXDXqXwXC v P n p i A & & u & 9 O O ) HXHXPXHX*Xl.A.DXHX*X&X0.B.V.jXLX;X3.3.c.4.eXmXZX<X/.*.-.o.i.e.ZXyXyXyX2Xa.a.X.n n 6 6 +.L.!.$XW.L.J.J.s.d... .U I Y O.5.!.!.L.<XL.n n 9 U.G.v.n.u.L.L.5.O...! ! O.e.H. XK.OXK.oX=Xt.m C = o b 5.6.K.K..X{.W.5.&.b 0 y 8 8 C.A.zXPXKXb.b.V KXMXPXlXcXoX=X4X{.W W / A.V.VXKXeXI ! D n D g p D y D y & X % . + = |.V.PXPX:XPXPX;XiX8.9.x.[.}.",
"o z.M.wX6XjXcXHX0.8.}.[.;X3.) > = 6.{.*X4.,.4.*XoX7XtX9XuXi.;.o.} { *.mXyXXXXXv.CXeXMXNXoXK.m.I.Q.Q.4X5X! O.J A @.U K K A S ..~ L.L.n.m.W.=XW.~ ^ b.eXnX.X.X6XK.!.*.O.I J  .G S n q - y.u.BX9Xr.'.I.+XI.OX3X7Xy.0.t.C.{.+.+.M v 0 ^ ^ 6XwXwXVXUXD.x.>XVXHXQ R     3.LXIX8.3.8.xX-XHXKX{.= % : : ; % : y y ; v . X   6.7.PXzXzXiXHXAX/ <.B : HXcXPXz.C.E.C.PX:X*XW ) 8.0.0.3.x.x.*X;XzX>X>XzXSXIXHXIXzX>Xf.0.v : _ HXLXoX6XLXJXz.V.Q.PXPXV.3.,.>XSXpXf.8.: v 2.PX4XnXnXmXmX0X0X/.T.R.o.F U r.a.KXa.r.9 S s.a.J.J.!.~.!.~ b.z.eX6X-XH H ^ ! O.u.v.+X!.u.v.G n.m.U.!.y.J.a.H.J.~.A G U G H.n.u.U.K.7X7XC.m.m.U. X5.- - u.5.<Xn.9X<X<XH.L.3XH Q y.p. XeX7Xb.t.b.M ; n.p.P.Q.W.M.b.p.m.M..X.X&.+.= 5.e.BXNXe.G G p p { ! D @.O.NXtXnXVXPXP.x.[.LXLX2.8.  Z C 6X>XA.x.C f.8.[.;XLX|.A.+ + > H H z.M.MXlXkXVXcXHXAXPXSXPXSXIX[.f.9.<.<.R ).;XKXPXPXPXlX*X*Xx.t.c.jXiX*XiXPXIX:XC b 8 9 n i 9 6 5 y 6 ; o O / xXxXPXKX-X9.c.jXxXV.*X2.b.l.PXHXsX/ ( 9.3.NXNXyX!./.-.-.[ =.=.yXyXuXmXyXv.s.! i i y 6 6.U.K.W.$XW.^.~.d.u.X.X.X. .J e.O.s.!.U.1XI.9 b - U.U.!.U.u.L.L.5.O.! I ! ..5.z. X.XK.7X6X6Xp.- C o - b +.+.K.I.OXeX#Xy.5.N t y 6 8 C.C.kXJXJXb.x._ LXlXKXMXPXkXoX=X;X+.( / V.S.KXKXrXI ! S p p f D y y N ; 8 - ; O + : |.[.PXHX:XPXAXcXIXl.l.V.|.A.",
"o p.x.6X6XzXzXcXC B 9.N.HXiXHXiXjXZ.8.0.l B 4.A.{.6X9X9X9Xi.;.o.{ { *.mXyXXX~.6.W.Q..X.Xp.K.K.4X-X-XQ.#X!.~.*.@.K K K #.@.r.I.U.L. X XI.C.{.oXp.0.@X6XwX{.P.4Xn.r.G.!.v.A S q ! n I G J S H.BXv.OXOXOXU.n.n. X5.+.t.C.{.+.+.M v 0 ^ ..7XkXjXVXUXS.x.:XHXvXh.3.E P M.jXcX8.2.2.[.=XMXLX{.# # 8 y y y y - : % % o 5.4.LXHX*X).jXLXcX8.Z C 0.0.PXjX}.b : - : Q.eXlXP.Z.JXPXKX}.Z.: W ) f.V.].>X|.,XiXSXzXiXAXPXcXHX`.sXsXMXlXzXlXC.3.0.-X*X,X;X>XPXIX%X).[.7.q._ C..XnXtXyXyX0X/./.T.^.i.{  .*.@.tX4X5XG n ..! s.~.!.~.!.&.W.P.4XkX5.N M U.$Xn.w.O.L. Xe.e.O.W.!.W.U.p.U.m.~.XX..u 4 D n G.n.n. X`. XOXU.I. XY.I.6.b 4 4 6 I.Y.G.!.XXtX7X.XO.6.5.6.OX{. Xb.t.=X6.2.C ~ {.W.{.P.U.b.z.n..X.X+...- L.G.XX<X..K D K F U U I J.v.CX4XbXPXxXV v V.DXHXc.0.Z 7.3.HXcXx.Z.3.].N.;XjX;Xx.l.) 2.}.cXMXJXkXMXVXVXjXPXcXAXpXf.8.T T f.%X;X:X;X;XzXDX}.HXb.t.C.PXPX{.V._ x.x.`.).zXHXKX=XOX^ P n n 6 n i - 8 - . O ) xXjXLXLX>XV.Z.PXPX-X;X: = : %X*XvX9.9.t.0.eXnXtXT.^.-.=.[ d.d.CXmX~.<X~.r.a...P ..r.e..XU.K.Q.2XG.d.e.J G f f w * * *.*.L.6.5.L.!.P ~ 0 K.H.!.H.e.a.a.+.O.! !  .I n S ..5.#X4Xp.p.4X@XP.4.Q H ~ ~ z.K.U.OX.X6.5.M b b y t C.C.MXKXPXP.[.c.KXPX{.z.m Q +.LXPXB.x.3.Z.V.JXVXeXP P N n n p A N s 8 o = % + : v V.PXcXvX*XHXUXvX8.W :XPXHXAXPX",
"= z.c.-X6XcXcXHXW E 9.f.*X[.>XzXzX}.M.b.> > q.;XoX6X5X9XuXi.o.o.[ U -.mXyX5X+X..r.M.#X6XC.=XI.4X=XZ.m.#XXXY.Y.0X{ @.@.u.u.v.v.y.L. X8X4XOX6X-XV.V.jX@XoX}.Q.#XM.U.G.d.J.*.r.i i ! G a.BX9XL.Y.OX X X'.+X Xm.n.b H y.K.K.+.+.v v 0 ^ ^ 7XzXlXHXUX( Q 8.|.oXkXxXLXVXVX-X[.V B ( }.oXjXJX{.O % y y X v ;   . X o 3.PXkXHXcXiXPXDX3.8.3.PXxX-XZ.}.JXoXH b t v }.VXkXp.4.b.=X=XVXPXp.l.f.Z.Z.f.9.q.[.).>XiX>XIXAXjXsXxX:X6XDXzXMXKX{.C v E ) >XPXGX].].0.iXzXsX>X3.C.C.bXeXmXyXyX0X0X/./.F.{ U U U ~.ZXKXr.e.e.*.s.G.G.L.~.r.OXoXOX4X5.+.^ OX5XH.H.Y.L.+XO.O.e.XX$X5XtX.XH.H.e.v.& A U w.*.8XOX XI.K.OX3X'. XOX+X Xm.n.r.! I n !.!.J.L.mXeXU.M.L.I S kXK.I.K.n.{.y.b.; v K.p.p.n.C.K.P.{.rX4X5.5.M BX0XJ.G.U K A D J U U ..1X$XCXeXKXZ.}.7.8.cXHXcXjXxX*XxX:XPXDX4.8.,.).`.LXLXHXHXPXLXjXLXwX6X=XlXVXnXKXQ.*Xq.N.k.q.g.E T >XPXPXcXDXAXHXPXb.l.    ^ kXJX=X6XW ) / N.V.,X-X-XJXPX#X4Xt 9 ; N t % y 0 . O <.HXcXHXMXoXx.x.HXPXcXHX2.<./ AXjX;Xl.3.4.4.4XZXZX^.J.} $.F -.e.mXCX<X8XtXtXCXrX1X.X2X!.4X$X$XL.U.*. .U F  .J { F q 7 i.-.G.y.n.tXbX&.+.! nXBXNXeXK.m.v.5.6...U I I S i 6 % ^ +.CX6Xp.|.Q.}.6X=XlX4XoXI.n.OX.X6.5.M b b t t b.V.VXKXPX{.oX&XHXKX/ 4.o 7.+.PXPX`.[.l.|.Z.VXeXlXb i n P G 9 6 ; y - # % = v *X[.PXjXgXPXPXjX: v x.x.PX*X*Xl.9.",
"= x.z.4XwXzXzXMXE E x.A.sX[.}.cXMXlXZ.x.v v q.%X&X6X5X0XuX;.$.$.[ J -.yX0XtX1X~ y.y.#XoXK.OX.XkX-Xb.K.2X5X<X0X/.A #.@.u.j.v.v.u.L.U.OX3X4XlX=Xz.V.qXZ.V.}.{.OXK.v.a.r.v.5.e.i i ..! I..XXXI.H.Y.8XOX'.+X3Xn.j.m v t.I.K.4.4.v m 9 ^ ..7XzXlXHXHX4._ 2.[.oXsXxXMXHXUXwX:XC v +.}.*XwXJX|.o # y y O y : .   O . 7.lXMXkX{.jXLXUX4.( t.cX:X}.*XjXMXP.H v M N C.CXCX5.6.5.MXOXPXJXp.c.D.A.V.8.9.4.).%XzXzX>XIXAXAXHXsXxXxXjX4XJXPX@XC N V E }.HXPX].%Xf.LX>XpX|.<.c.t.7X7XmXmXyX0XuX^.^.F.{ U U  .~.CXmXe.6...*.G.G.J.J.$Xy..X.X=X-X+.^ &.$X$XL.G.!.!.XX~ ! v.L.H.4X2X$Xp.s.J.v.4 ..! *.w.XX+X3Xm.K.3X8X'.I.I.U.I. Xn.Y.! H i 8XL.L.a.5XmXW.U.H.S Q =XOX{.C.m.C.6.C.M M .Xp.t.b.K.{.C.Q.=X@X5.5.P 3XNXu.u.K K A J D U I O.1X4X6X6XLXA.B.9.c.HXcXjXcXHXjXzXzX*X-X3.2.7.%X*XPXAXzXKXLXzXcXlXMXVXkXMXlXKXKXP.[.k.0.k.q.3._ 1.IXLXPX*XxX[.PXPXb.b..   P VXwX}.}./ Q <.B.l.[.cXkXJXMX4XeX! ; 6 t 0 0 ; 0 . O ( PXHXPXMX*X9.x.PXLXHX:X8.2.8.>XjX}.x.7.0.4.4XZXZX^.J.} $.F w.r.NXKX1X~.1XKXrX5XnXrX4XW.K.$X5XW.v.*.@.J K { F F f q q *.*.J.a.U.7X$X..~ ..rXbXrXrXW.m.n.6.6.*.U G I U G 9 # &.Q KXCX0.m.{.oX{.`.kXMXn.m.p.eX#Xy.5.M i b t t z.b.MXKXPXP.[.oXLXPX4.+.. 2.4.HXHXA.Z.0.`.Z.HXwXlXt y n P S 5 6 ; 8 % #   : Z *XzXIX;X*XDXPX|.Z : 9.9.PX[.cXp.x.",
"O p.z.-X6X6X;X6X3.8.>X;X*X2.E ) W }.oX*X) E 3.*X;X6X8X9XuX;.$.[ F F -.yX5XNX4XI H M n.n.H.U.I.4X4XCX4Xy.!.L.~.<XJ w.w.J.Y.<XXX3X1XXX7X=X{.4XwX@X|.VX[.Z.eXwX=X#X1X!.Y.H.r.5.n G r.r.8X!.n.m.a.7Xn.U..XI.C.H ~ ; ; n. XC.5.5.v M 0 ....7XzXzXHXHX8.3.0.VXPXHXLX=X:XV.D.p.= : 8.*X:XlXKX}.o o 8 ; v     O = x.b.MX4X-X:X-XPX) / ` W LXDXPXB.8.6XA.PXV.b.@XV.-XVXlX~ P o p.0.KXkX|.lXvXLXLXcXAX( v Z ,.3.f.|.%X%X;XvXxXzXxX6X-X6X6XoX}.V.x.PXjX).> = . ).).PXIX4.2.+.oX=XbXyXyX2X0X^././.-.X.U A *.tXnX X!.5.y.XX~.XX!.eX5.W.OXnXeXp.H I v.!.tXU.m.y.u.b Q W.I.U.KXKXr.XXL.S n G.Y.~.+X<XBX8XBXn.K.3X7X=XoX XK.K. X XU.n.m.H O.6.!.4X#X1XI.OX3X..&.+.OX7XK.{.t.m M S C 4Xm.m.K.C.C.Q.{.6X6Xz.b.6.bX9X@.w.f f D U F Y U 6.nXJXlXjXcX[.P.jX:XcX*X:XPXPXzXxX>X4.2.E E l.>X>XHXzXcXPXsX6XLXjXPXLX6XoXZ.z.Q v V ,X].PXgXSX].).IX|.}.B B ( PXPXZ.}.V ^ z.wX-XcXHXsX&X|.V.A.B.;XoX6X4XCXCXW.t t 8 t H # = O O ) HXHXPXLX:XE E Z.V.HXPXcXvXjX;X[.,.C E x.z.4XtXtXT.^.;.-.[ u.s.CXKX~.u.a.tXmXXXW.L.1XrX!.nX5XU.r.@.5.U  .X.a J -.J.T.~.s.!.#XOX6X6XP.C.m.kX#X.X4X@XQ.W.C.M.r.O.U G n S I ! ! 5.e.b.eXQ.{.kXJXI.C.K.+.p.y.6XOX6.5.n i n n M n.b.JXKXPXC.b.Z.DXMX}.Z.x.HXlXLXHXA.V.4.B.V.VXeXkXb b M N t 5 N & % X - v jX*XHXcX;XLXPXgX,X9.0.9.|.[.PXV.c.    ",
"O S.V.}.|.vXsX;X8.3.:XjX:XW W / W *X;X[.^ Q 4.;X&XkX7XNX9X;.[ [ [ F w.yX9XbXbX^ P n d.r.T.!.H.3X4XtX7XH.J.L.+X1XI *.e.L.H.<X1XXX4XQ.nX=XK.kX-X|.@X#X@XC.eX6X4X$X1XL.L.a.y.s.n S y.w.tXL.s.H.v.9XH.m.I..Xm.I G 8 0 b.P.I.5.+.m m 0 ..^ 6XkXkXHXVX3.8.9.DXPXMXLX;X;X*Xq.D.: = 8.>XvX>XHX-Xo % - y : O   O = l.l.HX-X-X*X6XPX2.V / ) sXIXLXf.c.|.}.zX[.Z.Z.}.@XVXLXH W o 3.l.zXKX[.HXxXPXHXvXAX2.Z c ,.3.l.|.|.iX;XHXvXvXvXjXjX:XcX|.|.A.V.cXjX;X, = . ).[.PXcXf./ ) &XoX7XmXmXuXyX~.^./.o.=.L D *.NX7XP.{.5.t.oX=X{.4X#Xr.XX<XtX5Xe.Y G H.L.tXU.m.r.5.H Q P.C.|.MXPXy.OX!.S G a.+XXX+X1XBXmX4XI.H.3X=X6X{.C.W.{.{.C.#XC.b.B 4.5.oX{.4X X3XOXI.5.4.^ 7XOXY.H.n.n G G G XXv.'.U.B.`.%X[.|.sXx.0.c.4XtX*.w.A A p Y U I P y.nXCXwXwXVXA.Z.xX>XPX*X;XHXHXHXjXjX<.<._ E t.:XxX:XcXLXMXjXxXvXcXPXPX6X[.V.V.E B v ,X|.PXiXzX[.>XIX%X*Xv B / PXHX}.Z.W W V.*XzXcXAXiX>X).V.A.x.&X*X6XwXJXlX.X: 8 v M C # - O O / HXHXPXPX>XE E [.[.HXHXHXxXcX[.sX) E V V.z.4XNXmXT.T.-.;.{ F.e.CXKX$Xp.p.nXCXW.+X~.1XXX$XnXtXG.a.w.5.I J X.A A e.a.L.L.J.U.jX*X-X:XA.x.{.6XkX{.6X=XQ.}.C.n.v.U O.n I i ! ! ..O.v.U.XX X=XeXbXI.K.K.5.&.C.6X-X4.5.G i n S n n.z.JXLXKX[.b.V.PXxXZ.A.b.JXkXVXPXc.c.4.A.Z.cXkXlXC N b N 8 t b = > . : : jXjXUX;XjXPXPX:X[.l.9.9.[.|.HXV.l.,   ",
"O B.[.xXvXHXjX*XA.x.jX;XjXv :     l.&X;Xt.7.3.[.}.:X-XBX9Xi.$.$.$.[ -.9X7XbXbX^ 4 6 < * a u.w.5XtX+X~.H.7X7XL.v.! a.a.~.~.tXBX1Xm..X4X-X.X#XkXlXeXwX{.C.eX4X#XrXtX9XmX~.u.e.i G a.e.5Xu.y.v.L.NXG. X6.6.H - : ; 0 B.{.`.5.+.m m 0 ^ ^ 4XeXjXVXVX9.V.-XDXDXz.0.: : q.vXGXf.q.) *X*XHXHXV.  % = y + O : x.l.xXcX:XcXVXHX:X0.> > x.N.LX|.B., = Z C HXHX>X|.A.UXIXlXt.0.= 7.t.PXPXV.) ) A.N.PXPX).l.V.:X,X9.( 1.( 8.x.,X*XIXcXHXcXxXLXLXxXxXHXcXjX/ E v |.[.cXjX8.Z B x.P.bXnXNXrXuX~./.0Xi.d.{ F X.XX8XBXJX4X-XoX9.c.z.y.^ XX~.<X<X~.O.S i b I H M H H P.[.&XDX>X6X=XOX6.5.5.5. X!. X XXXH.H.8XK. X{.bX Xn.n.K.I.y.OXM.}.=Xx.C V Q.C.=XOXoX{.{.I.6X5.S n ~ H S b 4 v.U.3X'.P./ 4.3.<.2.f.9.9.9.C.K.J.Y U a U I I I P ..W.tXnXVXJXW.V.x.PXcX[.> = W B V.|.Z.: v / 8.x.xXcXMXsXjXDXPXcXPXA.7.) A.|.[.[.N.).}.PXIXAXV.V.}.}.zX9.3.+ O / PXPX*XiXjXiX|.IXHXV.V.].PXIXvX:X8.A.c.oX*XMXKXPXkX.X: # - 8 -   . ( HXPXPXHX*X) ) [.P.6XHXjXKXzXHXxXc.V E 7.3.7XNXNXT.T.@.o.[ i.e.CXKX$X&.5.C.K.1X~.L.a.s.$XtXtX!.2XyXtXe.U J e.w.H.J.a.n.n..XxX;X*X;X}.}.>XjXjX[.{.{.P.P.Z.m.Y.w.e.! U ..L.<XNX9XY.G.OXXXK.Q.OXXXn.z.M v c.;XcX6.6.I n n A A U.U.BXJXMX0.4.W [.>XHXxXHX=XnXwX&XB C W [.[.MXKXbXv b N m ; % :     v vXHXIX}.vXPXPX*X[.l.8.cXHXPX:X}.PXjX}./ W ",
": x.b.&X*XjX:XjX( 3.}.|.KX2.V.W Z |.`.t.Q W 4.&X}.:X=XnXyXd.$.$.$.[ -.9XtXeXrX^ =. .*.w.& G.Y.<XXX5.w.w.yXmXa.w.i J.~.<XL.L.mXKXeXeXb.M.=X@X-Xb.M.@XQ.oXCXkX.XmXtX!.L.v.H.L.G A  ...BXJ.!.G.a.!.!. X8 0 0 m b t 0 n.oX`.4.<.m x 9 ! ~ 3X6XwXVXVXZ.x.jXxXxXH Z .   k.:X>X8.2.2.gX*XHXcXA.- =     O Z.x.jXcXlX>X>XPXLXt.0.V.jX*XZ.Z.PX`.`., = Z B ;XjXMXv B W LXPXPXVXMXA.}.;XHX8.  + V V IXGXiX*X[.HXPXHX}.[.B : _ l.8.V.x.}.>XvX|.>XMXPX*X-XzXsXMX}.HX:XDXHXA.W E 9.h.=X.XyXyXZX~././.J.T.X.{ { G.L.BXBXNXJXOX&.^ H b & a.s.2XyX9X!.~.O...^ 0.0.4X6XoX{.Z.9.7.{.K.mX&.&.U.n.L.r.a.m.H.~ ..3XH.XXNX6Xn.7X.Xm H t.4.t.eX}.C.N H m.b.K.K.n.Q.W.I.I.7Xm.z...O.O.L.+X+X1Xn.H.U.x v > > C c.h.-X4X7Xy.e.D F u  .! Y P &.y.nXeXrXVXJX4.) ( PXPXZ..   Z E jX:X6X( 3.9.8.>XKXcXPXHX*XA.b.3.3.B x.Z.LXvXPXPXgX).|.AXSXq.= > c.A.PX>XiX9.0.%XHXHXxX>X).}.cXcXiXB : l >XgXIXPXW Q C x.x.Z.Z.@XVXPXOXK.; % 0 # O 9.cXcXcXcX:X[.[.PXHX;X}.V ) 7.MXzX;X2.8.l.z.7XnXmXY.^.@.o.{ i.i.CXCX#XP ~ +.~  X+XtX1XrXZXQ.1Xu.s.Y.+X*.! ! ~.J.!.7XXX5XOX7X-X;X*X;XcXcX:X*X-XoXoXkXkX=X=X Xu.w.*.I U e.2X0Xs.T.u.u.5X7X.X=XI.n.H G - 0 P.-X=X4.+.N m i q n m.K.kXPXPXV.A.7.PXPXvXPXoXb.m.C.=X( 4.) P.{.MXMXMX; 0 C B =   X P Q ].HXxXvXHXPXvX>X: : V.V.PXvX*X2.2.>XcXHX*XjX",
"v l.V.:XjXvX*X*X) 8.:X*XPXx.V.E _ V.B.C./ ^ 7.&X*XsX=XnXyXd.$.$.[ [ -.yXBX4X#X^  .=.o.w.a J.G.1XXXO.*.&.mXNXa.a.S Y.J.~.XX!.ZXKX7X3Xm.b.{.-XVXV.C.UXQ.C.OX4XW.KXCXXXY.s.a.r.G n O.@.CXL.XXa.r.XX1X7X9 ; 0 M M v t z.oXP.<.4.m b 0 ^ ~ 3X6XwXVXVXx.9.zXPXPXQ m # O N.>X>X0.4.3.*X}.vXvXQ.= X + = = l.x.jX:XwXHX*XPXxX) 3.Q.*XcXV.c.zXA.).: = V v zXcXjXE V 2.lXlXPXJXlXx.t.JXHXc.+ O B B zXzXjXN.|.HXHXPXV.l.v B / 0.9.x.x.[.[.:XjX*XcXHXvXLXxXcXsX:XxXHXHXxXb.E ,.7.f.zX=XCXtXrX~.2X^.T.^.o.=.{ F.J.KXZXKXCXm.~ ~ N H 8 y.p.rXyXtX1X4X&.^ ! 6.z.Q.6Xb.}.[.3.4.=X.X1XO...n.H.L.n.u.!.!.n I !.L.U.1X7XK.OXK.m H C.6.y.Q.oXP.M m I. XI.I.m.#XOX Xn.I. XI.+.&.+.n. X3X3Xn.t.j.v x 0 : R x.t.=XeXeX6.*.F D p  .U G P 5.*.rX4XwXKXPX&.2.3.HXlXl.O = v B jX*X:X2.( 8.3.jXHXHXPXPXjX{.9.3.2.v 8.V.KXPXPXAXgX;XiXAXIX,., O V.c.PX|.%XN.0.sXLXPX[.x.Z.V.HXiXzXC Z l gXiXIXLX) E W V.A.{.Q.JXPXKXK..Xv o 0 . . l.cXHXHXxX-XZ.Z.DXHX>XjXB 4.R cXLX:X8.2.l.t.eXBXyXY.Y.o.o.{ i.u.ZXCXrXP ^ Q ~ OXtXtX~.K.tX$X!.u.s.Y.XX*. .U !.G.L.9X7XtX1X#X;XjX*X*XHXHX>X}.[.{.Q.kXlXoX4X.Xu.u.r.U ! e.5X+Xu.G.G.u.2XXX$XW.OXu.H C 0 y A.[.{.5.+.m n p q n L.P.bXKXLXx.B.9.PXPXHXVXoXp.z.P.P.<.9.( V.P.VXcXJXv b C H O X   v E >XHXHXvXPXcXHXvX: = A.V.PXjXcX) ) *XPXPX:X*X",
"x.}.[.}.*XxXLXPXV v ) ) |.HXPXzXzX).3.3.- - ) }.>XjX;XbXyXd.$.[ [ [ -.yXBX=X=X5.rXyXmXyX-.u.r.XX7X*.5...tXtXa.v.G u.&.*.&.n I G ! ^ n.m.Z.@X#XQ ^ |.K.P.wXeXy.e.w. ...U ! ! A n ..U XX5.e.G I H.u.H.G ~ n.n.y.H M z..XP.+.4.m x q ..^ 8X6XwXVXHX9.9.P.}.{.t.b.9.f.|.PXGX4.9.( >XcXvXjXP.O X ; : c.6XzXLXwX}.:XLX( 2.3.0.jXcXPXV.[.IX:X>X8.9.xXsX:XoX}.( / Q 0.3.6XwX6Xz.t.PXJXA._ W 8.9.cXIXzXW V ) E xXPXPXx.3.:X}.}.9.l.( W 9.Z.A.xXsXvXcXjXxXLXHX>XxXjX6XsX|.|.f.4.V.b.nXCXZX2XuXJ.^.^.;.;.} -.@.J.F./.yXZXKXKX3X4X&.^ ^ W.K.OX$XtXeXCXCX4X#XU.m.eX{.&.6.4.@X3X5X....I. XU.5.5..XOXS I a.4X XOXkXI.y.u.5.+.I.y.5.y.m.I.I S H.m.m.I.u.p.p.I.Q.I.n.I.4X6X#X.XC.U.U.U.^ ^ ) <.=XP.=XMX6X.XQ.y.D U g g p  . .Y G .Xm.CXwXwXwX:XC A.A.PXPXjXV.*XxX6XPXc.9./ ( V.A.vXsX;X3.3.0.>XjX>XjX[.cXjX:X:XA.A.x.%X}.HXLX4.= = [.V.LXZ.*XDXcXPX[.A.V V _ V PX}.[.l Z c gX>XzXAX[.x.A.x.t.A.Z.Z.lXVXlXPXP.% O + . c.xXHXHXHXvX&X}.KXPX*X[.O : C cXJX*X2./ 3.3.bXnXtXJ.T.#.$.[ s.u.ZXKXbX~ ^ H M n G ! L.XXKXrXmX9X9XmXtXw.O.U 2X2XmXmXtX X3XOXMXxX|.[.cXKXwXoX=XkX=XlXbX6XJXKXT./.2XX.U ! tX9XT.G.+XY.mX+X$X^ ~ 0 S b t : x.:X*Xb.p.H S S p p v.n.JXJXJX[.}.:XcXHXl.A.. W H PXPXc.x.t.*XZ.6XjXMXv ; O - . ^ W :XjXPX}.}.HXPX*X[.9.2.9.>X*XPX9.l.. + 8.PXPX>X*X",
"[.*X;X:XzXHXMXHXV v 3.8.|.PXcXxXzXA.3.0.- - +.&X&XiX;XbX9Xi.$.$.[ [ -.9XtX=X6Xp.tXY.yXyXu.*.s.~.1X5.&.I 7X5Xs.a.G 5.5.5.O.q J ! ..I n.n.b.@XeX^ ( Q.K.m.eXKXM.5.5.I ! J J G n i ....1Xu.r.J G H.<Xv.! H p.n.M.P ^ z.{.P.+.4.x 0 x ..^ 6XeXkXHXHX0.0.A.jX}.C.b.z.N.].IXIX) ) 9.jXxXcXVXA.X O C : S.HXlXZ.:XwX@XHX) V V.) :XPXPXt.c.zXxX}.c.x.jXjXjX[.*X6.0.H 6.0.OXoX6X6.z.HXHX;X/ ) q.x.;XAXjXv B / E HXPXxXl.9.cX-X*X8.9.V E 8.[.|.HXjXvXvX:XcXsXHXxXPXHX:XjX;X|.f.f.A.[.VXlX4XrXuX^.~.^.i.i.| ;.;.F.T././.uXKXmX$X2X6.P ^ Q.K.nXeX#X4X7XnX$XeXm.m..X.Xp.&.+.!.$XKXG I $XXXOX&.6.!.OXI H 5.8X$XBX3XC.r.a.+...7Xy.y.L.n.n.S G n.I.I. XH.y.y.K..Xn..X#XkXeXwXQ.P.I.n.K.I H <.<. X=XkXbXCX~.W.w.X.L a r D } X.U S K.Q.MXwXcXcXvX3.oX}.HXPXjX*X*XzXsXzXA.V.7.W 9.c.vX:XHX3.2.x.;X6X6X}.Z.jXvX*XHXx.Z.l.jX*XIXcX/ = > V.[.HXc.[.LXPXMX;X[.v v Q V DX*X).B Z l [.>XcX}.Z.[.;XV.V.V.A.oXlX6XPXKXQ.# # + + 9.xXMXLXHX-X[.[.PXPXxX[.= = v ;XsX*X3.3.3.6.bXmXtXJ.T.o.o.{ F.u.CXCX4X~ H b M 0 J ! W.K.ZXtXmX9X<X9X2X@.*.O.5X0XyXtXBX1X7XK.MX:X[.}.MXPX6XP.P.4X4X6XkXeXKXKX^.<X2XX.U U yXyXu.u.<X<XmX~.1XS ..0 b 0 v B b.*XoXt.t.H n S A i H.n.KXMXxXV.V.&XPXHX[.9.  C C KXLXh.b.8.[.Z.cXMXjXH C = %   / P wXHXHX[.>XPXPXV.[.8.3.l.*XxXPXl.l.    3.PXPX>X:X",
"jX:X*X[.}.6XvXxXE E x.c.Z.A.[.%X[.zX&XP.C M <.}.%X:X;XbX0Xi.$.$.[ [ -.yXmX=X3Xp.7X~.u.-.2Xa.w.tX1XG.r.! tX5X~.!.....J p n 6 n 9 S +.OXkX4Xb.C.t y 6.K.U.6X#Xy.! ..G ..J n q G I w.w.~.@.O.! ! XXO.5.XXXX1X X#X0.6.z.{.P.+.4.x b x ..^ 6XeXkXHXHX%.W 8.-X=X6XdXLXIXIXS.N.> O 3.|.[.xXLXZ.= 0 b.{.wX}.lXwXMXPXlX&.: : :XjXPX9.3.Z : B.HXxX}.oX[.[.[.A.0.OXC.wXZ.C.C.b.Q B C -XoXMXPXPXjX*XxX>X|.v = = = Z.PXPXx.l.[.PXPXDXxX2.) ( c.8.3.l.[.jX*XsXvXLXcXjXxX:XHXHXSX].].N.[.jXMXmXuXuX~.^.T.F.F.o.$.| ] $.o.=.i.T.~.8XmXrX1X.X.XQ.Q.4XkXkX4X#Xn.K..X.X6.r.M.G +.8XOXNX! I 6.y.5XI.!.H.m...H u.L.H..X4XK.H.m.O.&. X+Xv.Y.Y.w.q S !.I.n.n.U.a.a.p.r.r.$X.XM.p.M.M.}.#XOX#X X=XNXBXBX3XL.5.5.D Y p g L g g Y L ! *...4XrXVXVXxX[.).`.HXHXzXcX-XLXsXLXPX9.V V 3.0.*X}.PX[.A.V R ;XsXDXHXHXjXsX*XjX:X=   > *XxXLXHXA.*XoXPXPXsX/ Q +.2.c.t.C.}.P.+./ *XPXLXiX:XZ.PXPXzXLX[.HXHXsX:X8.3.x.MX=XlX6XPX{.{.O = 3.PXPXPXHX[.x.c.DXjXHXvXb.b.6.-XsXx.2.4.7.3.6XmXBXJ.T.;.;.$.s.u.CXCX.X&.^ +.+.H - 9 v.U.tXa.a.r.v.mXmX@.X.O.0X2X!.XXBXNXBXm.-XoXoX*X*X@X}.C.P.6XMX4X4X4X.X1Xe.d.d. .X.X.yX9X2X/.F.u.F.G.!.~ G S b m 8 H Z.|.}.+.+.S i i p i v.n.NXPXPX&X;X;XPXHXl.p.> z.0.PXPX{.oX7.V.Z.HXcXcX: = . O E *XlXcX*XHXPXPX|.V.}.}.cXjX>XjX>XvX[.A.V B V.HXPX,X>X",
"jXjXzX>XjXxX6X*XV.V.HXjX>XW Z O = A.&X{.+.+.7.oX%XsX;XbX9Xw.$.$.] [ -.yXCX#X{.5.&.e.J.J.Y. .O.<X1XXXH.! 1X~.XX<XS I ! p n ! L.XXCXbX.X=XkX0.t.# % ) Q.Q.rX4XbXBX7Xw...G J S S 9 y.a.XXO.O.*.*.5XO.! L.H.y.b.Q.0.p.z.{.Q.+.5.b m x ..^ 8X6XkXHXHX3.9.*XHXxXMXOXB.x.l.9.k.C E 8.:XjXxX>XjXP.{.VXkXjX:XlXcXjX7.0.x.A.V.}.*XVX) 3.    0.IXHXZ.x.C Z 4.0.0.Q.P.MXMXCX.X4X#X+.) ^ 2.b.[.}.l.9.jX;XHXl.B.9.9.-XxXsX) ( > V.x.MXPXV.:X*XDXPX}.|.) Q E l.l.}.:X*XcXxXDX;XIXhXIX>XjXvXlXnXNXyX/.^.T.^.^.i.;.>.[ :.o.$.{ {  .*.*.m.tXCX4XKXkXMXeXK.n.4.b 0 0 M L..XW.y.6. XXXI.3X.X~ n 5.e.y.n b S n 1XU.m.nXbXH.7X5X..I O.r.v.@.O.q *.5.Y.XXn.a.XXL.OX.X.XQ o - ^ ^ t.$XQ.3XNX.XfX3Xm.H...&.Y u A u D D F F L U } g Y d.m.CXlXwXPXjX9.f.PX*X}.( E E [.Z.*X}.E C C 9.l.vX-XHXV.A.8.2.PX[.[._ V <.jXjX:XxXB E ) DXcX&X-XV.PXcX}.|.l.C / 0.l.C.-X=XLXLXjXzXV.xXiXiXiX*XPXAXq.3.v }.*XDXPXh.x.B x.t.=XoXbXKXKXZ.h.V.LX:XHXPX:XV E |.|.LXLXLXDXMX6X;XB E E l.p.6XCXNXJ.T.;.;.{ i.w.CXKX#XM.M.eXBXNXw.w.~.!.nX*.w.O.w.mXNX..! O.r.e.I I G 5.e.^ =X@X=X{.6.7.C.oX{.4X4Xr.6.y.^ ..f { U F p G 2XyXF.u.q J w.<X!.....bXBXMXH C P.6XlX+.+.G n i n n H.K.dXKXPXl.h.( *XjXjXvX-XPXMXVXkX( ( _ A.`.LXKXLX= : B _ cXHXPXHXcXPXV.l.B ( >XjXPXjX>Xl.x.PX:XjXvXxXHXxXxXV.V.",
">XvXsX*X-XHX{.;Xl.A.cXvX:XV V + O }.;X}.<.4.4.;X*X:X6X7X9X-.$.$.] [ -.mXtX#X4X~ *.e.~.F.~.U *.Y.XX!.Y.! +X+X<X8Xi ..! G n U J.XX8XnX4X=XbXp.p.o # ~ .X$X4XW.KX7X5X&.*.I G G p 9 y.a.XXO. .*.e.XX! ! L.H.v.p.m.p.5.K.K.P.5.+.b b q ..+.6X7XzXJXHX8.9.}.DXLX=X6XB.c.S.c.f.E V 3.iXvX*XzX:X*X{.kXMX*XlXMXVXlX8.9.S.[.S.:X}.vX( )   . 8.cXPXl.S.C Z 2.0.p.K.K.kXMXKX7X.X{.&.^ ^ 3.z.{.}.6.0.cXjXjXB.9.b.h.[.PXMX_ / = {.Z.zXPXoX[.jXxXHX*X|.( E / c.x.[.jX;XcX:XzXcXSXGXSXaXgXvX:XJXNX5X~.^.^.^.T.F.;.;.:.| $.o.$.{ { =.*.L.7XeXCXeX4XeXkXm.U.O.9 9 M i !.$X!.5.r.+X!.OX3XI.H ~ ! u.e.S 9 P S XXn.U.7XKXn.mX3X~ J O.y.v.5...9 5.@.+XXXu.a.I.L..X3XW.P - % P ~ z.{.{.7XnX7X4XOXL.s.*.*.D A 5 F u F D g L L U F A v.a.bXNXxXjXDXq.h.PX|.:XW / V |.`.*X*XV V B 9.c.jX:XHXB.V.9.2.PXP.[.E W 4.:XjXsX*XV B 0.zXxX6X}.P.MXDXoX[.z.E Q 0.t.P.oX6XVXJXjX=XQ.vXsX;XjX*XPXPX4.q.v iX>XHXDXN.l.Z c.z.jX{.jXVXPXB.x.[.:XcXPXPX>XB H [.[.KXHXMXHXMX6X*XE V Q l.9.kXnXmXG.J.;.-.{ i.w.mXKX.XK.n.nXnXNXw.*.XX~.rX*.5.<.w.mXBX.. .O.d.e.J S ~ 5.O.O.=X4X{.OX6.t.n.OXOXrX.Xn.r.r.P O.D J U D Y D uX2XF.J.D u s.~.!...&.3XJX#X~ H t.VX6X4.&.H n n i n U.K.7XKXPXx.c.<.;XcX*XjXkXMXPXMXHX) 2.( A.[.PXHXxX: > C _ PX:XPXcXPXcXx.V.W B HXxXPX*XqXx.x.cXHXHX>XcXvXUXcXx.V.",
"-XHXjX*X*XjX[.*XA.b.vXvX*X: v , = A.}.}.3.4.3.}.*XsXsXeX9X-.$.$.] [ w.NXNX4X#XM n A e.e.Y. ...w.w.CXZX .L.s.mXZX5.I 9 i G r.tXmXL.!. X X4XK.#X~ Q b.eX6X3X XXX X<X1X1X! G G J G Y.!.L.A G ZX<XG.G G v.v.K.&.^ b ~ b.P.Q.&...b b 0 +.+.7XkXkXVXcXx.V.HXHXjXW v   O 3.vXIXl.3.8.:X>XPXLX*XKXMX6X6XHXPX*XW ( b.[.LX[.Q.@X}.cXx.[.0.9.jXcXjX4.9._ W p.Q.{.bXeXMXeX4XbXbXPXlXkX#X{.{.) W y > 9.0.xXHXPXJXjXoXcXjXZ C + 9.x.LXPXV.c.l.DXxXHXPX[.4.+.V.V.l.l.c.}.*XjX;X>XIXIXGXSXIXvXMXnXmXtX2X~.T.F.F.^.(.R.R.i.;.=.$.=.o.D U ..&.a.n.7XNXKXeXCX1Xr.y.O.! +XH.L.n ! v.XXU.7XmXL.I.b i S i H I.L.3Xm.H.5.e.m.!.L.1XtX..i - 9 K ! Y.Y.u.e.XXI.I n.n.m.r.&.^ &.K.Q.rXeXrX3XXXu.&... . .Y F f D D X.U =.=.=.} X.U } U rX4X#XlXLX&X).Z V ;X%XA.O O = P.oXjXHX( ( ) [.[.cXjXPXHXKXA.x.PX9.0.  + B cXHXsXcXZ.[.DXKXzXh.3.H 4.4.3.h.C.h.z.P.B.{.OX=XkXMXlXcXcX2./ C B HXcXLXZ B + N.A.zXLX*X;X2.t.4.x.b.6XVXMXHXzXcXDXHXPXLX}.l.l.xX:XHXzXA.oXoXPXPXx.) W 8.0.kXnXyXs.G.-.o.[ w.u.KXZX!.4XoX=X.XI.1X5X!.U.mX5.w.@.5.JXKX*. .U p n n A 6 m S U.P.#X#X3XQ H ^ M.H.y.m.v.! O.O...F L L a p F ZXZXi.w.D { 0Xe.p..XXXXXH.I.P.oXP.|.-X3.4.H n n i n H.K.bXKXPXl.9./ cXLXcXPXKXlXeX}.[.v B Q V.Z.LXHXjX2.9.DXxXPX>X&XcXPX}.E 2.l.x.HXHXcXE V = > *XPXHXZ.|.V.A.A.9.x.",
"V.HXjXjXjXjX{.}.A.x.xXMX:XZ Z . + 9.;X6X5.^ 8.=X&X:XsXeXyXw.$.$.[ { -.yXNXeX#Xi S p u.d.Y.X.! ..! CXtXe.a.e.KXmXO.S I I S w.7XmXm.H.7X7X#XC.K.~ Q P.kXeX4X#XH.OX+X<XH.S ..J J G Y.XXa...G 9X<Xa.n i v.a.!.+.~ N v p.Q.Q.+.) m b 0 +.+.7XkXjXcXlXQ.V.LXsX:XB M O   q.AXzX1.3.3.jX|.xXwX@XPXKX6X=XLXjXcX2.Q }.}.HXwXjX|.|.VXV.V.l.l.jX*X*X3.3.^ ^ z.I.I.bXkXeXNXnXkXeXKXbXbX4XQ.C.2.Q > : 3.t.jXKXLXsXHX;XLXDXZ Z # 9.P.PXKXc.}.0.HX;XPXHX}.3.2.Z.b.9.0.x.`.Z.jX:X|.IXGXGX>XvXzXxX=X7X7X8X~.J.J.T.R.R.R.R.F.;.=.} [ { L } @.*.e.r.XXtXNXCXKX9Xe.@.! ..L.~.<XG I L.L.$XBXtXI.L.S 0 i G G W..XH.!. XH.O.XX!.L.mXtXJ & 5 G 9  .Y.1X5.r.L.J.S !.y.n.m.+.+.5.m.W.1XeXCX7X<Xu.@.U Y U D L F F g D F } o.*.{ U s U ! yXnXNX=XDX[.`.T C PX%XZ.= = = P.:XcXzX) ( 2.|.}.cXzXHXPXPXV.Z.PXl.t.    Z vXxX}.sX;X&XPXJXKXh.0.m ^ 4.9.t.C.C.b.P.b.oX=X=X6X6XlXMXKX) 4.v : PXDXHXC Z + N.Z.GXPX;XzX2.3.9.x.Z.;XcX6XKXHXHXxXvXPXKXoX8.8.:XzXxXHX0.[.B.PXDXV./ ) 9.z.bXtXtXG.G.-.o.{ i.e.KXKX$X4X-XrX8XI.tX5X~.U.rX6.r.@...CXCXX.U  . .D n n % S m U..X=X#XkXH N ~ H.J.y.J.~.&.*.O.Y D U  .D u Y yXZXG.i.D f yX5.6.rXOXOXI.K.P.{.Z.6X-X3.5.H n n p A H.K.MXPXPXl.9.,.vXAXvXPXHXlXwX=X{.v V / [.[.HXHXvX9.2.cXHXLXzX}.PXPXZ.( ( 9.A.vXcXPXV W : = :XHXPXV.A.l.V.x.x.x.",
"V.MX*X:X:X:XjXcX|.`.:X:XvX}.jX9.l.A.x.0.H C 5.A.%X:XsXkXyXw.o.$.[ { -.0XBXeX4XN I U 0X/.~. .J U G a.r.7XO.5.tX+XL.U I n 9 a.mX9XH.n.3X#XK.OXbX.X#X=Xp.y.bXKXU.H.v.<X<X! J q @.e.!.L.J L.L.XX+XJ n i v.e.v.b b y : p.{.Q.+.+.M b q +.+.7XeXjXMXcXl.p.HXLXMXQ R > : [.PXPX4.8.( >XHX>XwXxXlXjXkX=XHXv B W Q HXLX:XQ ) V / HX:X*XV.x.*XA.V.+.2.t.b.#XkX=XMX7X X8X7XbX4XkX4X7XbXeXlX=XMXZ.P.3.4.3.C.V.3.t.b.HXPX[.=Xc.*XA.-XxXV.V.. V W jXjXcX|.[.cXPXsX8.2.W E l.x.S.gX>XSXpXGXLXPXFXMXBXBXtX0X<X/.T.T.^.T.^.T.F.i.;.;.} } { { X.*.@.w.e.v.Y.NX9XJXyXyX<X8Xw.9 & I H 8X1X1XU.!.5XL.I.tXI.I.K.a.!.U.! ! W.L.H.L.~.5XL.L.L.v.8Xr.u.5XXXI n # ..G H.~.XXtXNXKXmXL.5.5. ...U U { { } F F } *.-.*.=.} U L L =.-.J.J.mXrX4XJXPXQ W ,._ `.jXDXl.B.x.PXxX}.;X<.2.3.*X;XHXPXx.x.V.3.9.cXV.Z.( ( Z.PXPX|.|.9.6.P.t.n./ 5.^ b.5.z.7.n.oXoXMXNXNXMXMXMXkXJXMXJX:XcXV v [.DXPX*X%X2.AXzXPXIX[.|.cX*X}.8.0.t.-XzXzXvXxX6X:XPXPX*X[.[.PXLX[.V.+ : 0 -X:X;X9.9.8.3.bXeXyXJ.T.-.-.o.T.e.mXmXm.4.4.t.u.n.1XL.5.O.2Xv.w.u.r.9X2Xe.@.I F J S *.y.KX8XnX4X=XW.$X0 6 H m.L.5X5XmXKXmXs.r.#.F A g Y e.2XY.{ -.i.o.yX*.&.K. XXXH.m.p.p.t.*X-X6.6.H n n A S H.U.NXKXPXV.V.c.PXPX|.@X3.p.0.Q.jX( 3.3.|.[.HXHXHXzX>XPXDXxXPXPXx.x.[.PXPXgX>XxXxXPXE ( C v xXPXHX2.2.) x.V.[.A.",
"t.oX|.xXzXjXjX:XV.{.;XsX*X:X&Xq.7.l.c.0.0 0 8.*X%X:XsXeXyXi.$.$.] [ -.9XtX6X4XH G U 0X<X/. .G S G O.r.NX..O.1XKXL.! ! G n e.1XtXn.n.OX#Xm.3X4XQ.K.=XI.m.JXBXv.n.H.<XXXJ 9 A a.5.XXJ.! H.<XL.XXS 9 5 v.r.m.N b - 8 p.Q.Q.+.+.M b 0 ....4X6XkXHXHXA.A.xXPX;X_ M > : S.IXIX1.2.2.HXjX*X-XjX=X-XkXkXLXZ y / ) cXPX*X) ( E C PXMXcXp.V.@XZ.V.7.) 4.4..X7XbXKXNXOX8X5X3X3XnXNXnXCXkXMX#XlXM.z.W 5.8.A.A.8.9.}.PXPX;XoXb.oX}.MXxXx.b.. H W sX;X:XB.|.PXLXjX2.) W W x.l.E.%X,XvXgXcXcXDXHXkX6X7XeX4XXX~.s.F.F.F.J.T.R.F.;.=.} { [ {  .=.#.-.i.T.Y.NXmXKXNXmX1X9X@.K q q n 1XOX8X1X3XmXU.H.1X3XI.!. XXXH.O.r.a.v.J.+XL.7XH.H.a.U.tXv.y.XX~.G A i I O.~.H.1XmXKXKXKXY.5.@.X.o.{ U { L { F { o.*.*.=.X.! U U { } *.a.~.mXCXNXMXMX) _ 4.2.sXcX:X9.h.V.HXPX*XA.4.h.l.:XjXHXPX[.l.0.A.c.HX`.P.) ( *XvXPX[.}.3.z.I.n.y.+.+.) y.y.C.n.K.3X=X7XbXKXCXMXMXeXPXMXKXcX@XB _ x.PXxX%X>X9.>X,XzXPX|.>X>X%X*Xt.V.h.sXjXxXxXHXcXjXLXLX*X[.`.PXPX[.x.. O = &X:X>X3.3.0.z.bXtXyXJ.T.;.-.o.i.i.KXCXK.4.6.z.W.K.!.XX@.5.KX6.v.@.5.NXmXy.F U ! @.n *.6.nXCXBXtXbX1XXX8 - S v.v.ZX5X9XKXmXs.a.#.D A D F d.<X<X-.{ @.-.<XO.&.Q.OX8XU.K.p.0.b.-X-X0.7.H m n A S L.C.NXKXLX`.}.&XIXPX[.:XW z.0.kXjXp.x.2.A.Z.AXAXAXHXIXPXAXAXzXHXZ.V.[.HXHXvXxXjX:XxX) %.W W >XHXxX( W E 8.9.}.|.",
"3.8.9.*X*XjX:XoXHXHXHXLXsXjXcXLXIX*Xt.4.- 0 3.A.%X:XsXeXyXw.$.$.h [ w.NXBX#X#XG *.*.J.F./.O...S G S I s.ZXtXJ.5.L...O.v.Y.~.J.a.NX8XH.y.&.OX4X=X6XOX5.^ n.H.+X3XXX8XCX!.*.5.L.L.@.w.XXXXL...I 9 9 6 s.s.!.6.5.b b z.Q.K.+.+.S m 0 ....4X6XkXLXPX) ) 3.-XoXoX6XxXiXIXzX,XV B ( :X}.PXLXlXVXJX6XMX2.9.p.7.9.jXVX-X  O > = oX}.jX2.) ) / / 6.b.6XkXMXbXnXOXU.5.&.&.M.K.=XbXeXnX3XkXbXMXMXMXHXcX{.0.<.C v / C.{.JXPXjX}.A.PXPX&XZ.0 Q W cXPXcXW W Z.Z.PX[.[.x.8.[.V.l.3.9.8.k.|.iXDXxXxXMXJXCXtXtXmX1X2X<X/.^.^.^.R.T.R.R.F.i.;.{ { #.#.#.J J w.u.G.0X<XJXLXBXXXY.y.O.y.H. X3X7XXX!.1X X1XI.I.!.m.v.H.a.*.v.L.5X~.m.!.$XW.v.a.XX.X+.O.O.e.+X1XNXmXBXL.H.r.@.*. .J  .F Y F U } } =.o.=.} { D Y U *.e.i.G.^.uXyXmX7X4XNXPXkXh.c.IXHXDXLXPXPXPXPX;X`.) / ( V.Z.vXxXMXHX= . = 9.x.LX*X*XcX*XPX6X*X_ / B H 4.6.y.m.j.C. X'.3X6XkXKXKXNXKXK.n.z.z.z.bX-XMXJXPXMX-Xl.}.:XPXzX,XPXIX}.*XW Q :XLXHXN.l.V l.B.}.*XxXMXxXHXHX*XA.b.KXPX>X*XE W H *XsX}.0.3.7.3.kXtXyXG.G.@.o.{ i.i.CXKXU.: : ~ S H.n.v.G P rXrX5X#. .9XtXv.p  .i U ! tX8X5X3XW.mXNX4X4Xw.6.r.XX+XZXtXyX<X<X~.!. .D U X.I s.J.~. .o.0XyXu.p b v.u.H.+.+.v v l.*X-X6.5.S b n A A Y.m.NXMXJX[.&X:XPXPX2.)   C ~ wXlXV.Z.2.V.V.cXcXLXzXsXzXLXLXA.h.x.V.cXPXPX[.[.>X>XPX:XvX>X:XcXjX:Xl.l.D.V.V.>XjX",
"[./ Q 8.0.*XDXHX>X;XDXxX6X8.2.l.N.*X&XoXv m 3.&X*XsXkXeXyX;.$.$.h [ e.ZXBX.X$XQ L.G.u.e.2X*.*.S i S n 9 e.5.a.v.v.+X5XtX5XJ.J.<X&.5.m n ~ #X3X XQ.rXn.5.H m n.9XyXv.v.1XyX5Xu.e.J.e.G.! G 9 9 A S p v.s.v.p.p.b N p.K.U.+.+.M m 0 ....4XeXlXKXKX/ / +.;X=XkXxXFXcX,X9.9.v v 8.}.|.PXlX-X@XQ.4.2.oXPXPXc.|.HXjX@X/ &.9.9.MX@X{.Z B E 8.p.oX6XwX=X6XU.U.+...! I ~ S H ^ 6.y.P.P.4XbXlXJXwX=X=XMXKXPX6X*XZ.B.t.l.8.7.7.h.DXJX-XsXoXoXZ.LXPXx.    V E KX}.[.c.l.PXPXIXS.c.v v / q.9.Z.[.=XlXkX4XrXZXZXZXyX5X/./.^.T.T.R.R.R.R.T.F.F.i.;.i.o.#.o.#.{ @.#.G.u.<XfXNXNXNX XXXW.H.H.m. XU.5.&.5.&.a.n.L.H.v.v.v.5.O.&.e.v.y.r.m.U.!.mX$X5XtX1XCXY.G.*.r.5.@. .K { G J { #.o.o.-.;.o.o.} [ L =.=.s.s.$XrXyXyXyXmXmXNXtXnXKXMXt.*X&XIXzX[.W ) [.V.|./ ( : v ( }.*XHXLXKXPX|.x.l.HXzX;X3.( 2.) c.l.c.2.h.b.t.U.n.n.oX{.bXLXKXNXJX3XoX{.6.y.) ~ P ~ W {.P.lXMXwXHXMXjXc.8./ q.).SXIX3.4.    ,.cXPXjX*XB ( <.c.x.oXxXxXDXHX:X8.4.vXzXcXPX:X}.*X-X[.) W ) l.p.eXnXmXG.G.@.o.[ i.w.NXKX#X- - 5.y.KXu.w.! D ^ XX9XY.Y.u.a.KXe. .G D ! tX8XH.n.m.$X$XL.W.7XNX4XXXJ.J.J.2Xs.J.9X9Xe.f A *.e.5Xe.o.J.T.9X<XG i 8 y.U.U.H H - y }.-X-X6.&.m 9 p n n Y.m.JXMXFX[.|.*XjXHX[.}.^ }.P.PXPXE.Z.2.A.Z.xXcXiXvXIXIXAXc.B Z |.].HX[.x.: : 8.8.xX*X*X[.|.[.9.l.9.x.[.jXjXPXPX",
"*XQ W l.l.jXcXvX*X}.DX*XLX9.3.x.h.;X=X6XZ C 3.;X;XjXeXtXyX;.$.$.[ [ -.NXtX X=X..L.J.e.r.yX*.O.5 i n i S O.*.J.a.w.mXtXXX1X!.!.L.e.y.0 9 ~ 8X4X{.W.NXn.n.9 0 v.bX8XJ.v.~.tXNX5.e.r.G.v.U G A S 9 n n L.K.a.p.n.b N p.U.U.+...m m 0 ..+.7XkXlXLXLX/ W ( =X6XMXFXkXHX>Xl.f.l = 9.|.:X>XjXPX;XQ.0.) -XVXPXS.A.-XwXHX) ( 8.V.jX*X{.v v P x.l.oXwXlXnXnXm.H.I ! O.J I ! ! ! &.5.m.m.3XCXMXJXPX=X-X=XHXJX=XMXB.9.t.t.9.<.4.8.6XMXHX6X*X[.{.HXKXh.  . B v PXoX[.b.x.KXLXPXA.E.> : ) 0.9.Z.Z.}.jXMXkXwXlXVXVXnXrX2X2X/.^.T.F.R.F.R.T.F.R.i.-.;.{ { #.@. .#.@.u.u.<XJX8XJXCX3XJ.L.n.r.!.K.L.e.O.6.O.u.m.n.a.H.L.O.e.w.&.e.p.a.p.m.1XK.4X2X1XtX8XNXs.J.e.*.*.X.X.J  .J  .{ #.o.o.-.-.o.o.{ { L =.*.v.a.$XnXyXyXZX5XmXtXbXCXCXPXt.jX`.IXIXk.<._ `.b.:X/ ) = > &.;X*XjXxXDXKXx.x.l.:XHX|.4.3.) ( h.N.c.c.9.8.y.C.j.C.3X3XBXJXJX7XJX8XOX1Xe.y.~ I P P I {.Q.CXkXlXHXKXHX8.0.) ( %XPXPX) 1.  . 3.IXvX*X;XC ,./ c.x.oXcXxXxXxX;Xt.3.xX>XxXcXHX|.;X{.}.) / _ l.p.7XNXCXG.J.-.o.{ -.F.KXZXW.: y 5.6.7Xr.a.I Y I 5X2XY.8Xu.w.KX*.O.J n O.5X1XH.n.XXK..XK.m.mXKX1XL.W.J.v.0X^.G.<X0X-.p G r.e.XX*.X.U.Y.2X2XA i & U.y.L.~ +.= = oX@X=X3.+.t 0 i p i L.M.JXFXJX[.`.|.HXcX[.A.&.}.{.PXKXx.l.( ].[.zXcXIXHXgXIXIXf.T T ).P.LXV.A.v = ( 2.HX*X*X[.|.}.8.l.l.9.[.lXHXJXJX",
":XW / : : D.[.|.xXPXjX>XxXB E O - A.{.|.v B 0.|.`.-XeXtX9X;.o.$.{ F i.yXyXU..X5.y.r.u.r.7X+X.X+.^ I ~ 9 ..I !.I.tXL.<X1X~.KX .! % 6 - % H.1XXX3XOX<X+XBXb S q ! ..3X+Xn.<XXX7XNX7XbX! q 0 b n q 5.&.4X4Xp.M.p.&.6.M.m.K.+...N i 0 ..+.dXlXlXHXVX3.0.|.zXMX{.P.4.7.3.[.*X) 2.3.:X>XxXcXjXV V }.oXcX@X6X&.( c.8.JXZ.V.[.b.PX2.3.3.3.b.wXoXCXCX4X2XK.5.6.D G I  .U I ! S G G ! G &.n.b.OX.XKXKXlX6X@XMXlXPXcXPX}.}.4.B B 4.8.cXjX:XoXoXMXLX).B T _ ) DX`.}.) H p.$XwXwXPXp.c.cX|.>Xf.8.E N.c.|.zX>XvX-XPXVXnXnXKXrXyX2X2XT.F.T.F.F.R.R.F.F.d.;.-.@.F { J { o.@.w.G.G.yXCXCX7X7X1XO.5.Q ^ - : +.K.b.Q.U.OX5.p.. o N ^ ...X!.mX1XXX~.~.G.s.=. .X.{ X.} { { { #.@.-.-.o.o.} { U U o.-.*.+XtX1XeXMXbXkXbX=XlXMXkXkXVXPX:X*X/ HXDXDXvX> + . c.8.HX) 3.H Q S.UXHXqXjXHXcXPXHXcXjXxX3.B V 7.8.x.c.x.c.9.|.'.7XJXKXJXNX7X<X1XL.+X*.I  .*.*.*.S I S G ! S OXeXkXkXzX:X>X*Xv : }.PXPXV.[./ / |.cXjXsXsX;X%X&Xh.h.V.}.}.KXHX6X}.>X[.|.jX{.PXLXPX-XiXE _ E 8.l.kXnXmXF.F.i.;.F i.G.CXBXI.Q H K.I.7Xn.n.H Y n ..#.yX8XG.G.Y.v.v.*.6.L.!.a.CXCX7Xm G z.m.bXeXnXy.n.&.O.1XmXmX2X$X!.v.v. XW.5.L.L.5X8XG  .n S n r.r.5X&.e.y v Q.@X@X4.4.S n n n A m.K.kXPXPXl.l.2.%XvXjXMXMXKXCXrXvXB B _ }.|.HXxXjXPXPXx.N.V.*XjXsX&XPXV.`.O + 9.8.AX%X;XR V ( x.x.V.x.jXJXnX4XCX",
"}.W V V V 3.V.}.cXHX:XvXjX) E O o C.[.:XV B k.A.|.6XeX5X0X;.o.o.[ F i.yXmXQ.OX6.z.r.r.n.7X3X$X+.O.Q P b ^ ! ~. X1XXX1X~.1X8X..O.9 & & & r.XX8XY.XXOX3XOXn H # O.+.U.XX'.L.+XNXBXBX7X5.8 9 b m b +.5.4XbXp.z.b.t.4.b.m.K.+.^ N i 0 +.+.7XkXkXVXcXq.7.*XjXJXn.P.0.2.9.).Z.2.9.2.}.*XxXHX>XE V [.}.VX}.6X+.) x.8.KXb.V.}.;XjX9.9.4.4.z.#XOXtXCXtXrXH.O.*.! U F U X.I ! G D P ! I O.n.M.=X=XKXMX6X4XwXlXeXwXMXkX=X{.) B C 2.8.jXvXlXoX=XPXxXA./ R Q R LXxX6XP ^ 6..X-XVXeXV.9.LXZ.V.3.8._ N.N.).|.zXzX:XHXcXcXbXKXnXuX~.<X~.^.T.d.F.R.F.F.d.i.;.-.-.[ [ { { o.-.i.G.G.5XmXZXnX7XXX5.5.P ^ 8 b ^ b.C.K.{.oX6.4.% # t O.&.U.W.tX1X1X<X~.J.s.*.X.@.} #.} } { [ { o.@.-.o. .{ U U U O.w.6.K.7XJXJXMXMXDXPXcX6XzXvXjXHXPX:X>X%.vXHXHX:Xv # + 9.t.JX3.4.V V b.jXvXvXHXzXPXHXPXHXjX>X8.C B 4.7.b.B.C.B.h.C.n.3XNXNXJXKXmX+X+XH.Y.*.U U @.w.X.J J A S G ...XrX4XlXVX-X>XA.v V 9.PXPXV.x.3.) [.zXLX;X;X:X;X[.7.8.l.6X:XHXjXxX*X;X[.|.*X*XcXPXPXDX*XW / ( 9.p.bXnXyXu.F.;.;.{ u.u.JXKXL.b S OX X=Xu.a.H ! G .. .CXyXG.u.Y.L.e.5.r.U.v.v.nXKX4XH Q z.b.3X6XbXm.r...O.1XKXmX~.~.W.n.H.XX8Xy.L.Y.8XXXO.G n 9 A r.r.XXw.r.8 t V.-X=X3.5.H m n A A I.K.kXLXLXl.9.) jX*XjX}.PXMXPX4X=XB B W |.|.HXvXHXHXHXZ.l.A.>X;X|.|.PX`.x.= = q.8.jX,X;X/ R ) 9.q.A.V.-XkXKXrXrX",
">Xl.8.Z.x.l.l.x.}.}.:XHXxX}.Z.3.+.=X{.}.B B 9.*X*XkXtX0X2X;.o.o.] F i.yXmXQ..X4.v.H.6.y.!.1X2X$X$XI.OX4X7XXXtX1XXX9X9XL.5Xs...@.- q 5.r.L.L.+X5.5.<X7X5Xr.j.S 6.5.5.y.L.#X'. XH.8X3X3Xn.L.n.j.U.eXtXbXCXz.p.t.~ ) b.C.K.+.) N b 0 +.+.7XkXkXVXcX%.2.cXHXFXC x   + 9.PXcX8.8.2.vXjXvXxXvXV.V.HXcXjX0.4.+ . P _ HX=X}._ Q _ 4.2.t.t.Q.CXKXeXrXJ.a.5.D U U D U *.e.=.*.! S H S G G ~ I ) ^ 6.z.Q.MXlXCX4X#XkXwXPXPXPXwX*X[.l.l.3./ H ) =XsXHXLXsX|.).LX&XoXo   % 4X$XCXKX8.l.;XPXPXAX%X_ Q Q q.q.N.).[.>X:XHXjXeXrXnXtXZXyX0X/.~.0XT.R.T.T.R.R.R.T.d.i.w.*.#.{ { J F *.w.a.J.~.tXZXCX#X#Xt.y.4.y.b.6X$Xy.I H O.v.4XmXyX5X2X~.d.w.O.X.X.X.{ U { F D  .o.-.-.o.#.{ { X.o.-.u.s.J.XXrXbXeX7XbX6XjX6X*XV.A.x.;XzXcXPXPX9.9.` 0.c.Z.V._ T E *XwXlX3.&.) ^ |.UXHXvX[.l = v W ) 4.p.b.l.b.b.b.P.P.`.6XMXJXJXKXCX8XXXY.a.*.w.O.w.@.X. . .J @.*.*...! S S M 4X$XCXKXnXPXPX-X[.l.wXLXLXVXjX[.cXcXPXt.9.&XPXDX;XZ.2.h.l.*X>XPXHXHXxXxX*X*X2.b.b.PXHXl.( ( 4.4.bXBXtXu.s.-.;.{ G.v.JXJXU...+.I. XOXK.L.~ ..n q q A K +X<X5.w.~.CXyXmX4XCXK.y.b v H P.oXkXbX8XK. XP P ^ p.a.5XtX5XbXnX7X1Xm.a.a.b H S H G H I v.!.1XH.L.~ ~ b.-X-X6.5.H n n A A U.C.kXJXPXB.c.2.HXPXPXPXCXkX3X4XjX) ) / [.[.HXxXcX8.9.[.[.HXPXPXLX}.LXiXcXZ.[.gXgXDX[.V.) W h.[.}.PXMXKX4XtXv.s.",
">XZ.[.HX:X*X8.3.q.8.,X>X*XcXPXcXJXkXM.c.: v / ;X;XkXtX5X2X-.$.$.[ F i.mXmXL.Q.^ <XBXy.O.n.L.v.tX#XL.!.4XXX!.1X+X~.v.v.! @.G J U Y.H.1XXX1Xv.y.8 9 OX1XBX7X7XI.y.n.y.+.^ 3X+X3XfX6.r.OXJXKXOXXXJXXXOXp.m.5.n.M.P Q b.U.K.+.) m m q +.+.7XkXkXHXcXc.0.}.[.}.~ <.Q v A.HX:X2.2.2.*XxXvXvXcXxX:XHX*XPXA.V.v v 0.8.KXZ.P.% % ( [.0.eX4XnXNXNXr.a.&.O.I n A U U J.yXyXCXNXXXe.5.! ! S b b H H Q H P 4.&.Q.K.MX6X#X6X-X=X@XcXLXLXHXxX*X+.( 7.7.`.xXdXB.|.xX|.cX3.6.^ .X=XCXKXC W v |.[.PXPXA.[.%XPXGX|./ ( / ,.Z.Z.;XMXkXnXCXmX8X8X9XNX2X<X/./.T.F.F.F.F.s.G.G.u.u.i.o.U X.U J J J *.!.W.1XZXKXKX4XU.H.m.!.XX5XnXKXnXL.G.J.w.u.*. .U F U U U { X.*.*.*. .X. .{ { @.w.i.G.T.<XyXyXtXtXtXNXNXJXPXDXLX`.) 8.`.Z.HXPXxXcX>X9.l.[.cXvXIXPXvXPXHXPXHXp.Q W p.8.qXKX:X3.1.: V ( l.l.V.Z.=X{.oX=X=XMXMXkXNXNX3X3Xv.w.w.e.5.5.e.r.O...I ! U O.@.r.e.w.......^ b S P .X$XwXeXlXVXPX*Xt.7.S.p.{.:XcXA.B..   / DXPXjX*X/ ) <.[.A.Z.DXcXMXDX{.|.= B Z HXLX[.4.q.8.0.6XeXmXG.G.;.;.[ F.v.KXNXH.n.n.H.m.I.7XBXa.a.O.G S O.G w.u.!.mX1XXX+XeX!.K.% ; 8 4.4.3X3XXX7X3XtXKX..&.S N P ~.K.Q.3XOXeXeXnXn.a.! ^ G ! I r.r.CXNX5X$X$X5.4.b.wX6X0.5.H n n A n n.b.MXPXPXZ.V.f.PXPXA.V.v +.5.MXLXl.l.( A.[.HXHXcX( 2.HXIXHXx.0.= : }.PXPX:XgX,X|.A.9.8.l.t.oX4X;XMXkXCXm.v.O.*.",
"cXV.[.HX:XxX2.2.2.( >X*X:XHXPXLXJXMX9.t.: v 2.}.*XkXtX0X2X-.$.$.F F i.mXZXW.L.I <X1Xu.r.u.L.a.Q.OXU.L.OXI.!.~.$XNXw.v.! U I  .U +X!.+XL.1Xa.r.S n !.7X7X+X!.+X5.O.5.r.H  X!.NXbXH.L.U.JXCX+X<XmX3XbXn.n.6.z.b.b C z.K.K.+...m m q +.+.7XkXlXHXHXZ.x.[.oXZ.<.) v B l.HXPX2.) 8.:X*X:XcXPXHXxXHXxXHXV.c.v b l.t.-XP.V.- # / b.5.7X1XmXmXKXn.u.O...O.D 6 S U Y.mXCXtXeX~.r.w.^ ..b b b I ^ ^ ~ H +.&.U.C.nXnX6XlXwXkXMXJXKXLXVXjX|.+.+.W 4.`.;XLX`.N.DXsX;X6.5.6.$XW.VXVXW / Z }.|.PXPX).iX].pXSXS.,.q._ / A.A.&XsXjXMXMXkXxXFXJXBXtX0X0X2X~.J.s.s.J.J.T.J.d.i.-.{ o. .U U  .U ..a.v.8X1XKXtXmXL.H.J.J.~.1XyXCXmX!.s.J.-.i.X.{ U U J J D J { X.*.*.*.*.X.U U X.*.w.J.W.XXrXyXnXCXKXNXDXMXPXjXAX).4./ P.`.PXPXHXHXxX3.2.>XcX:XGXPXPXDXHXIXPX8.( ` 8.9.@XPXIX( ) B T 4.t.c.{.{.@XP.Q.OX4XBXCXmXCXKX1X5XG.e.r.r.*.@.5.5.O...I  .U 5.a.M.e.u.I Q ..^ H S H 1X.XKXnXnXKXPXwX/ 4.l.x.jX@X:Xx.B.. . W AXcXPXxX( / ) V.Z.[.PXHXLXHXoX;X= v V PXDXN.( q.9.p.7XtXNXT.T.;.@.[ i.u.KXKXv.y.r.U.C.K.bX7Xu.e...G G ! K 5.e.L.yX5XL.XXZXrX$X% % 8 ^ O.8XBX X#X XNXrX*.&.; N ! ~..X2X#X.XrXnX4Xr.y.O.^ S G I v.m.KXKX~.!.U.&.4.z.MX6X6.5.H n n p i m.m.JXKXKXA.A.V.IXHX[.P.C &.4.eXcXV.A.2.A.[.HXPX*X9.9.PXPXPX3.D.l v *XPXIX].gXgXvXE.9.( 9.0.oX7XkXNXmXtXd.s.*.e.",
"2.= v Z.[.cX3.x.v v l.l.}.jX>X}.oXPX+.2.O O x.*X=XnXyX0X2X-.} { g g i.mXZX~.!.! Y.v.<X1X*.n.!.U.W.U.W.XX3X7X1XtXe.& q 6 u e.~.<Xa.!.XX!.!.! G 9 ; H 1X<XXX7XBXbXKXr.y.4 S S L.Y.7XBXn.Y.H.H.H.e.u.n.5.5.p.m.M.b b b.K.m.+.+.b m q +.+.7XkXlXLXLXV P / Z.[.xXFXxXPXcX*X|.V B 2.}.vXxXxXPX*X*X}.|.jX>XjXS.Z.KXjX6XH Q +.0.m.oXOXNXeXtXH.J...O...@.S J I ~.2XmX2X<XZXKXNXZXnXXX1Xa.+.~ H m b H M ..P P H P z.p.4X=X6XMX6XkXjXcXHXlXJXPX;X;X}.4.3.: C c.zXPXPXlX#X@XwXVXlXy Z   9.c.PXAXf.%X).gXPXIX).).q.2.).B.).B.B.*XsXsX;X;XxXkXeX5XrXtX0X<X~.Y.J.G.G.J.F.J.J.F.G.*. . .@.X.Y U J *. .a.r.5XtXyXKXmXyX~.T.s.s.-.o.@.{ o.U { {  . .o.o.-.*.X.X. .U  .5.a.Y.5XyXyXmXtXeX5X4X4XlXVXKX:Xl.0.T E _ 0.f.jX;XKXcXjX*X*X|.x.HXqX}.Z.Z.].>X:XA.A.v W ) @X{.@XjXUXl.Z.|.V.*X}.oXkXkXMXMXKXKXKXtXXXH.a.a.*.*.*.*.w.e.w.O.! ! ! ! 5.!.I.OXXXNX3XkX6.O.~ ~ ..b 9 &.^ +X5XrXtXwXPX:X=X: # 9.x.PX|.|.: : 2.LXLX6X6XB.[.Z.x.B.V.[.{.xXPXPXPX8.c.3.PXPXf.W ( 9.l.bXBXmXG.F.-.;.{ F.G.KXKXu.y.e.u.y.y.6XeX8XtX1X1X<X9XyXKXtX9X5X1XKX4XH.5.a.I I I BX3XfX#XO.5.u.nXnXtX$X&.Q.M.&.^ W.nXKXW.#X#XKXKXnX6XeX#XCXnXlXeXmXa.r.p.0.p.M.-X6X6.4.H m n p i U.m.KXJXMXZ.[.*XPXPXt.0.  H E MXlXZ.[.3.[.[.cXHXUXjX}.*XjXDX/ ) , + 9.GXPXx.8.B V _ l.x.=X{.bXCXNXZXZXJ.X.*.X. .",
"3.> : |.[.HX9.l.Z B 3.9.[.vX:XzX&XLX2.2.+ + 8.-X4XnXmXtX0X-.$.} F F i.yXZX~.~.! J.v.0XXX@.n. XU.I.U.U.v.8XNX7XCXe.9 & 6 6 w.~.8XJ.H.J.J.L.I I 9 n n XXY.8X8XXX3X<XO.5.S S G n.Y.mXNX!.G.n.L.L.5.n.y.0.t.W.b.p.b v b.K.b.+.+.b m 9 ....7XkXlXKXLX_ _ ( *XoXkXxXxXjXxX*X|.V v ( cXjXjX:XPX,XxX*X:XlXHXvXS.b.cXCXOX/ W t.y.y.{.7X7XmXtXa.v.w.*.....p  .U ~.<XyX2XyXmXZX5XKXnX4X4XM.^ ^ I H S ~ H ^ ! H Q Q m.n..X{.kXPXkXJXkXMXMXcXPXKX;X}.Z.4.7.B l h.PXMXKXPXwX-X4XwXwXv V . 8.l.LXLX).).|.LX>XAX`.).,._ c.N.}.N.c.`.%XxXSX;XIXPXMXeXrXtXrX1X~.L.T.J.s.s.F.F.F.T.F.o. .{ X.*.U A D  .X.d.s.~.mXuX9X9XyX/.T.s.i.-.o.{ { { J { L }  .@.@.w.w. . .U ..*.w.r.v.~.5XtXeXeXkXnXMXMXVXLXcXsXN.f.T T E f.c.jX-XLXHXPX*X>X9.S.IX*XvXA.l.,X:XvXV.S.> W / Q.Q.wXwX:Xp.t.*X@XjXoXoXoX3X7XNXmXtXmX8X<X^.F.s.w.*.*.*.*.*.*.O. .U ~ I +. X#XbX6XCX6XoX6.5.N H O.i n I I !.CXmXmXVXVX:X}.; 0 t.b.PX}.B.v l / cXPXvX>XZ.|.[.t.Z.x.|.*XHXMXPXHXb.l.l.xXPX3._ / l.V.lXbXmXG.F.@.;.$.G.Y.KXmXy.y.5.y.n.7.I.I.7XtXXX1X9X2X5X9X<X5XXXmX8X3X.Xr.&.^ P ^ 8X8X8X7X<.<.n.KX5X4XQ.5.M.M.~ &.K.CXCX4XW..XKXKXrXeXkX6XKXCXPXnX5Xr.e.r.0.t.m.@X6X6.4.S m n p i H.b.KXJXLX[.[.%XHXPX0.9.  W E VXVX[.[.3.[.[.vXcX*X>X:X*XxXPX) V O , S.GXPXk.8.` V _ x.z.{.{.bXZXCX8XyXu.@.w.@.X.",
"B O   0.8.HX*XZ.2.3.8.9.9.[.[.HXHXsX|.*XW E +.MX6XNXmXuX0X-.o.$.$.{ u.yXmX~.L.J O.@.w.5.H.tX.XW.I.!..Xm.BX1X5.*.9 i p v.s.!.H.e.1X5XCXZXH.9 G i 9 n 5.5.3X<X3XL.H.BXNX! 9 b n S 5X<X8Xn.v.H.Y.m.y.5.p.y.b.P Q y t b.U.b.+.+.b m 0 ^ ) 6XkXlXKXLX3.2.D.PXMXxXjXxX>X*X8.q.E V ( vXjXvX:XvXV B = : Q.cXjXV.9.V.b.P 5.6.z.t..XKXBX1X1XL.I U ! ! I U U !.T.KXyX9Xu.y.~..XH.NXbXNXKXbX3X4XW.n.5.&.S H I H S M H Q I +.&.Q.C.kX-XMXlXcXMXkXxXzXPXDXxXB.).<.x.z.}.oX6.#X@XVXlX*X|.x.A.N.LXPXf.+ O 8.4.IX>XxX&X;XPXIXzX0.3.Q B 0.|.).%X|.xXwXwXbXCXCXtXrXtX5X~.^.^.F.F.^.T.d.J.s.e.d.*.{ X.J D D f A u.e.^.T.i.@.o.*.#.{ o.J { J { -.o.-.@.@.{  . .U w.y.L.XXeXtXeXrXrXrX4XwXMXJXlX}.V.l.f.).l.c.3.f.q.A.B.jX:XHXcXHX9.8.:XHXvXQ `     E cXjX0.9.' D.D.-X-XKX@X.X[.M.jX;XcX6XMXkXJXnXmX1XH.T.-.@.*.o.-.-.e.o. .! ! U O.e.u.1XBXBXPX7XJXJXdXlX4X6XJX+...~ ^ &.S n O.2X<XyXbXkXVXKX;XoX0.2.cXxXPXjXiX}.PXxX*X:XjXcXPX-XjX7.V.Z.-X*XHXHXPXDXPXHXLXW W W 0.3.wX7XmXG.F.o.@.{ F.s.mXKXe.I ~  X=X0.y.5.I.XXL.<X<X5X9XL.L.CX+XL.I I ^ *.O.a.a.1X8X8XU.Y.n q .. XrX!.tXmXW.$Xp.M.&.&.~ KXCXnX.XW.lXKXkXVXwXwXeX@X$Xv.v.6.H H z.KX6X6.&.S n n n p m.n.PXPXKXP.x.x.AXzX;X>Xl.6XP.KXMXV.x./ Z.|.cXHXPXcXPXcXxXPXA.,XS.c.GXgXGX1.8.) 3.D.}.{.eXnXCXmXyXu.G.=.X.{ U U ",
"[.) W >X*XcX:X[.PXvX:X>Xl.l.9.Z.).zXAX;XHXLX3.{. XnXyXyX0X-.-.-.7 F F.yX0X2X~.U J U w.e.e.v.y.$XOX5.y.M. X!.n M 9 e.r.~.!.G Y.<XJ.J.L.XX5X*.*.i 6  .+X~.5.u.7XH.n...+.BXO...@ @ S S ZXm.!.u.Y.U.OX X5.5.) 8 ; y : z.K.b.+.^ 0 0 0 4.+.-XwXlXHXHXA.x.>XcXcX/ W + = ) vXcX3.2.8.x.[.cX:XPX) ) : : Z.PXIXP E > : 3.m.z.4X4X8XtXtXH.J.O.X. .J i G U Y.mXmXBXmX .9X8X4X X^ ^ ^ y.y.4XKXKXNXnXCXKXXXy.5...I ! t ; ^ P ~ H H ~ ^ z.b.6XlXVXcXLXLX:XjXPXPXsX&X;X4.h.v C v jXjXHXcXIX|.%XPXPXf.O + C V cXMXwX+.4.|.*XcXwXjXl.f.c.x.S.8.f.A.*X@X@X=X@XnXCX1XrXyXmXuX/.^.~.~.Y.J.J.T.T.G.s.d.o.=.-.X.F L U -.-.o.{ { } { { #.o.o.o.-.} o.#.{ @.@.G.~.!.9XNXmX7X#XnXwXPXPXKXVXjXZ.8.2.v v Z.Z.HXzXIX%X%XN.).}.HXLXcXjXxXV V l.9.jXQ ) : > c.IXHXV.x.) x.p.VXlXlXlXwXwXkXMXJXJXbXMX=XXXy.5.*.w.@.*.e.e.} *.D D J -.*.J.H.yXNXZXBXnXeXP.m.m.b.oXlXMXMXCXOXOX&.~ G  ...p  .I 1XeXeXeX-XKXPX=XMXc.cXHX|.|.vXcX:Xv v B *XoXMXPXW W B A.V.-X:XvXjXcXjXHX= q.%.D.8.MXtXtXG.F.o.o.F s.G.CXCXv.M ~ m.U.m.5.6.u.n. XH.L.<X1XmXZX+Xn n i M I 5X1Xa.L.L.L.Y. .I ~ n A O.+.CXKXW.4X4XeX=XM S b ..&.$XKXKXK.m.wXwX[.3.8.6.5.#XL.U.8 8 }.oX X6.y.P n S A n n.a.nXJXKXZ.l.E zX:XPXxXPXPXHX6XsXW V W [.E.xX:XcX[.x.l.[.cXDXIX>XSXIXS.S.k.D.c.V.Q.wX#XCXCXtXe.e.*.o.X.D A T.T.",
"Z.W ( :XvXxX[.vXHXHXqX|.l.V.l.Z.A.HXzXiXxXjXz.{..X7XNX<X<Xd.*.-.q K F.mXyX0X2X .J #.u.w.*.v.z.Q..X6.+.L.U. Xn 8 9 e.*.XXXXD Y.XXJ.J.XXXX1X*.5.9 n ..n.L.r.G.L.G.v.+.+.KX! O.o - H G NXv.v.n.L.L.m.OXz.5.+.: b y : p.U.m.+.^ 0 i 0 2.&.6XkXcXVXVX0.x.HXcXPX) ( = . 2.jX>X2.2.8.,XA.xXcXPX2.W > : [.jXUX( ) : - &.6.n.#X3XKX+X8Xv.u.*...#.G p U I ~.8XmX9XtX*.5XeX XI.+.^ ^ y.r.3XKXCXmXtXKXZX~.6.r.! ! S b N ! ! H H M ) +.0.b..XVXkXMXMXxXMXLXLXLXFXjX=X4.7.v v / wXjXHXAXzX).|.PXPX0..   B Q cXkXVX4.t.}.Q.VX-XVXD.q.x.Z.|.0.0.l.*X}.wX-X-XeXeXrXrXtXuX0X<X~.~.T.J.T.T.T.G.s.u.d.o.o.*. .L { } -.-.o.} { } { { { { o.-.w.-.#.U { #.X.u.XX8XBXtXtXMXeX6XcXPXcXHXVXLXA./ 2.B v A.A.LX>XzX%X,Xk.[.`.zXHXPX:X*XB Z l.9.E.) ) > : 0.IXHXx.9.) b.p.kXnXnXeXwX4X6XeXbXPXMXeX XI.e.5.@.! X.*.w.i.o.{ F D J *.*.G.H.tXKXKXtXCX4Xn.n.Q.t.oXeXCXPXKX7XOX&.~ I  .G p K X.yX#XKXkXwXPXPX6XoXV.cX*XjX,XvXPXjXB v v *X}.xXPX2.H W [.A.}.[.jXPXUXvXvX: / _ 9.p.lXnXmXs.i.o.@.[ F.s.mXNXG.H ~ m.m. X5.+.H.m.L.Y.G.+X~.NXZXG.p G i & O.XXNXJ.a.~.Y.Y.I J G S n  ...CX4X#XVXrX$X#X^ y b ^ ^ 4XKXVX@XQ.wXwX[.9.p.8.y.#Xm.p.b 8 P.P.OX6.e.G m S S n v.v.mXMXCX{.Z._ ;XsXHXPXPXPXzXvX>X/ W ) Z.V.cXcXHXl.[.x.8.vXcXPXGXpXIXS.S.D.3.A.c.{.lXrXZXKXuXe.i.-.#.Y L L ^.T.",
":X|.vXHXHXA.> = Z.Z.xXPXx.v : 9.9.iX>XjXcXjX6XbXtXtXKX~.~.F.o.o.K g F.yXuX~.~.D @.-.~.Y.w.+.+.y.6.n.m.tXH G i H O.8XmX! ! XX!.H.9 A e.s.2Xs.L.S n v.mXtXw.&.O.7XKX....v.!.L...n 9 & v.BXtXa.e.XXOX Xn.b. Xb C y C b.K.C.+.~ 0 y 8 &.+.6XlXMXMXkXb.x.HXvXvX= > + O Z.IXvX9.8.( >XjXxX*XPXxXPXcXHXcX>X[.v E 4.2.C.kXNX8XXXKXa.G.O.*.X.D A A ! J.~.NXmXyX..I ..v.a.eX6Xn.) I C b H ~ 5.W.!.5X1XCXKXZXL.5Xn.u.6.m b m H m ^ W C H B 5.&.K.}.oXPXPXsXxXDXzXDXxXPX=XB.) 0.8.c.A.f.2.,.zXLXDXB.x.&XA.PXK.M.    = t wXKXwXz.E.IXPXHXx.x.B 8.2.S.C.{.bXMX4XrXrXrXyXmXyXyX0X<X~.!.T.G.G.T./.F.s.F.u.-.-.-.-.=.#.{ } o.-.-.@.o.#.{ F =.=.G.T.5X9XmXNX7X3XOXNXPXPX=XzX}.3.q.( 2.[.[.%X[.|.].k.;Xq.8.0.l.f.zXcXcX*XcXc.Z.x.[.jXjXIXPXPX}.:XPX*X}.8.2.( Q.Q.CXwXtXmXCXCXmX7X3Xn.e.5.5.y.5.*.*.@.*.U D U X.X.F.s.<XCXKXKXNXtX$X1Xn.H.~ & 8 y.6.OXK.C.#XOXbXCXOX@.O.I J ..G n ! ! 6XKXMXMXwXPXKX-Xy v W 2.PXE.jXZ v > -X:XPXPXZ.A.l.l.9.[.{.:XvXIXPXPXq.1./ %.&.kXCXmXu.w.o.;.{ F.F.mXZXG.b 0 ~ R 5.z.m. XI.7XH.L.XXL.XX1X! & 9 r.a.tXO.5.G.!.tX1X<X#.O.J J n O.&.H.n.5XH.U.m.p.4XU ..N % p.ZXKXoXQ.-X-X@XQ.Q.p.y.p.M b t v OX=X3Xy.6.H b n S M v.H.CXCXKXjX4X8.PXIX*X}.8.V.l.*XjX3.3.2.A.x.cXHXHX> > = > HXPXcX4.q.` k.D.S.S.|.Q.eXZXmX1X2Xs.U { { { X.G.J.ZXuX",
"|.xXcX>XHXA.: > V.Z.HXvX[.V V 0.8.%XiXjXjX6XeXeXmXNXKX<X/.d.o.o.F f F.yXyX2X0X{ w.@.T.~.u.O.+.6.+.e.y.5XI P S - I 1XyX..! !.L.Y.q n e.e.XXJ.Y.i i v.5X7Xr.e.~ mX<Xr.r.e.Y.Y. .G 9 9 ..5X1Xa.a.I.!.H.n.U.4X8 H C P M.K.m.+.^ t 0 8 +.+.6XzXlXMXwXl.c.xXPXHXv > = = V.jXcXl.l.2.vX:XvXjXHXcXHXvXcXIX[.V.B Q l.5.t.bXeX1X<XyXr.a.@. .U A A  . .J.H.mX1X5Xn b a.K.p.eX#Xz.H H M H H +.&.K.K.7X.XmXZXCXXXXXr.5.e.b H n H M ~ ~ H H m +.) C.P.=XPXJXMXcXJX;X6XDXDX=X9.x.8.0.c.A.3.,.2.LXIXAXA.l.B.V.PXC.Q.X O ; ' lXVXPXb.c.wXPXPXZ.Z.v 3.3.Z.{.{.kX4XeXeXrXrXrXnXyXrXtX<X!.L.G.s.G.T.T.F.s.F.s.e.*.=.o.o.} } } o.=.-.o.X.*.X.U w.-.!.J.5XyXtXtX7X7X7XKXMXPX6XHX}.q.q.3.) }.>X[.}.iXl.V.Z.1.2.f.4.c.SXjXzX6XPXl.9.l.9.PX:XqXvXIXgXHXHX|.).3./ &.{.P.4XCXmXnXnXBX9X3X1Xv.w.@.O.*.*.w.w.*.@.U D A X.{ d.L.mXNXtX7XKXCX5X4Xv.m.I 8 ; &.&.#XM.m.7X8XKXCX1X..*.G J ! n n ! O.=XPXCXKXlXKXMXwXZ B W %.UXvXvXv Z = }.*XHXcX*XA.A.9.0.V.A.>XPXcXUXgXc.W ( %.8.kXnXNXd.i.@.;.{ T.G.mXmXv.n b +.^ 5.m.K.'.I.BXn.u.XXXXH.XXG i i *.G.XXe.r.L.XXCXOX<X@.5.n S i 5.5.5.v.eXW.!.z.y.ZX&...% ; y.KXmX@XQ.@X-X>XqX*Xz.M.v.N 6 8 - I.eX6Xy.5.H b n n n v.H.KXKXPXwXjXx.PXPXjXiX4.9.0.:XvXl.l.2.V.V.HXxXvX= = > = cXPXHX1.0.` E.l.A.x.A.-XnXtXKX1X1Xs.w.=.{ D L T.~.mXyX",
"q.>X*XcXPXW     8.8.cX>X*XV E 2.1.l.*X:XzXlX3X4X5XmXyX0X2X-.*.-.J K d.yXyX2X/.{ d.i.F.u.w.a.p.&.y.I.!.I.i i L.!.mXL.r.O.r.9X.. .5 5 U ! ~.2XtXO.&.1X8X+X*.&.- *.w.1X7XO.<X1X8XBXO.*.! KXNXv.L.K.XX Xn.y.OX~ ) b t p.Q.U.^ ^ m t 0 &.&.4XkXcXVXlX0.l.x.l.x.l.[.>X}.xX*X}.Q / ) vX:XjXjXxX:X:X*X}.x./ 3.3.3.z.p.kX3X1XCXCXv... .U X.Y Y F G.s.ZXCX5X*.5.8 b H.Q.#X{.oXeX{.=XC.t.^ ..P ! n ^ ..J.<X1XmXNXKXZXKXG.L.&.! Q M M H G ^ m v C Z &.b.t.4X;XLXzXxXPXDXPXcXGX}.>X|.V.E Z B 3.h.jXIXDX{.b.cX{.=Xy Z V C MXzX6X&.4.x.:XlX-XVXx.*X[.P.C.3.p.3.M.C.Q..X#XeXeXrXNXtXtXmXyX5X~.~.Y.J.J.T.T.F.d.d.-.-.-.-.=.X.{ U X.U e.r.~.mXuXZXNXNXBX8XNXPXPXKXMXP.`.z.h.,.Q E HXcXPXHXIXHXHXcX;X_ +   : : ).PXPXHXjXPXl.B.HXPXxX:XHXjXDXcXvX}./ / R H 0.kXnXKXyX1XXX~.Y.v.e.5.5.5.w.r.w.@.I G G G *.G.J.mXZXKXeXCXeX5XW.!.*.M S ; 6 8 *.y.~.XXXX6.&.y.u.7X9XbXOX8X5.5.! H A J 9 ^ .XoXeXeXkXMXPXZ.|.B Z gXPXjX|.}.9.LXxXcX:X*XDXPX:XoXA.l.x.*X:XHXPXPXE.Z.3.4.MXbXyXG.F.-.@.{ F.G.ZXCXH.n i +.+.z.4.O.I.U.U.r.n.8XtX..5.6  .! tXCX5.L.G.L.G.r.NXKXL.G.G G I +X+XXXOXu.BX8X&.r.H.~.uXS i ; a.z.nXwX4X-X,XwX*Xp.p.6.; ; H M  X8X8X6.5.H n n n p H.v.NXKXJX}.;XV.IXIXc.f.O V W xX>XV.[.3.x.V.PXcXPX8.9.[.l.HX*X|.B v S.9.x.Q.E.JXrXCXrXtXd.d.} F o.} o.J.KXKXmXnX",
"( xX>XUXvXW O + 2.2.UXPX>XE E 3.4.q.).}.HXJXkXmX1XyX0XyX9X*.-.-.J [ i.uXuX0X/.o.F.F.F.G.w.n.p.0...n.I.a.~ H XXL.NXa.L.5.*.tXS  .u 5 D Y J.5XXX@.O.~.1X+X! ! 9 *.*.tXNXI 1XL.KXmXw.5.i CXCXa.G.v..X Xb.z.Q.&.~ N M b.OXQ.~ Q m m 0 4.4.wXlXMXJXHX0.9.9.V.V.].|.*XjX*X[.}./ / 2.>XcXvX:X:XZ.*X*X[.l.2.2.0.4.M.C.kX4X XBXmXe.*.X.@.O.J { Y J.J.tXCX5X&.^ ; 8 m.W.=X.X{..Xm.K.M.n.5.! P ! n I ! v.1X<XZX9XZX7X7XJ.L.5.~ ^ m M H H ~ B C b v +.0.0.JX*XPXMXxXDXsXDXIXPX>X>X|.).,.Z : f.x.sXHXHXC.z.cXvX>XV B B R xXHXKX3.8.t.jXkXzXMX[.&X{.[.`.t.6.4.M.Z..X4XwXrXlXnXyXtXtXyXtX5X~.T.L.Y.G.s.F.d.w.e.-.*.=.o.o.{ {  .O. .r.r.<XtXmXZX5XrXbXeXCXPXCXKXkXP.Z.A.9./ ) W HXPXPXPXHXIX:X>XgXC     v v ;XAXMXLXKXMXV.V.cXvX:XxXUXjXqXIXUX,XT R E Q b.kXtXnXCX7X~.!.L.s.e.w...@.5.e.*.@.! I U I 5.H.K.tXZXyXKXnX#XbXXXm...G n 6 6 i e.e.s.L.J.5.5.5.u.tX9XKX<X X..5.J ! S m H ^ 4X#XkX4XkXPXPX|.cX' ' }.PXPX[.}.Z.cXcX>XvXjXHXHX:X*Xx.l.c.>XjXDXvXIXZ.Z.8.3.VXtXyXJ.T.-.@.{ F.J.ZXZXv.i 9 +.+.C.7.5.n.n.U.H.u.XXNX..! 8 O. .KXCXJ L.L.L.!.u.BXmX+XG.S S ! 8X8XY.5Xe.KXtXw.@.J.2X~.u S 5 r.m.KXlX6X-XQ.>X*XV.b.6.- ; H H .X3X3X5.5.H n n i i J.s.mXKXKX}.wX}.LXPXl.V.. Q V *XxX|.>X9.x.l.HXcXvXl.( x.[.HXjX:XB Z x.8.D.Z.Q.eXwXZX2X<Xe.s.*.} L L U J.mXKXCXKX",
"C [.|.HXcXV.E v *X>XHXxX[.xXDX*X%XA.9.l.;X}.=X5XeXtXyX0XyXs.*.*.{  .o././.ZXZX0X{ o.J  .p ~ ^ 3.r.#XXXy.5.*.mXtX*.n i Y.~.<X..U a p D U J.tX<XJ.~.<X+XXXI G n S i 1XL.J.! G G n L.1X! L.!.1XyX+X&.y.5.5.^ P P t.p.K.m.z.H H b m : &.4.wXlXMXJXLX) E 3.}.:XgXcXPXHX,Xx.3.v v ) jX*XHXPX}.: = : > Q 4.4.c.z.lX6XOXKX3XL.v.*. .{ F a U s.T.mXZX<X1X..M n ; ; p.C.t.z.z.Q..X4X7X7X.X!.K.H.v.L.s.&.G I *.u.L.yXKXKXKXBX1XOXn.y.^ S 0 H H b v C m m &.5.;XxXjXxXxXzXAXHXgXvXgXPXIX%X).h.9.9.2.3.Q +.}.IXLXpX;X|.).zXsX=X: # # C.6XLXxXsXkXkXPXJX6X^ H W ^ 6.M.Z.C.{.eX4XtXmXtXtXtXtX2X<X0X<X^.T.s.w.-.o.X. .X.O.*.e.s.<X5XmXmXnXrX4X4XCXCXKXnX4XP.0.t.3.A.P.sX;X}.pX&X[.A.3.( 2.}.:XPXPXV.v : W W ;XxX6XHXKX`.A.[.PXPXl.l.: V Z l.S.9.B H / +.oXNXNXNXmXL.5...X.@.w.e.*.@.J J S X.w.v.L.+XeXCXKXZXZX3XoXz.) ~ P ^ O.e.n.v.!.~.<X!.~.<X5Xa.e.i A *.e.5XKXJX3XY...H I ~ H m ^ &.W.-XKXnX-XVXVXwX,Xl.vXUX|.oXcXHXcX3.8.( jXcXHXjX( ) / A.x.|.>XPXGXUX,X[.VXnXNXG.G.-.;.{ /.T.mX9Xa.H O.XX3XBXn.n.e.n.XX7X8XH.a.I G &.XX9Xa.5.5.ZXtX..! I 7X5X3XOX5.*.w.BXJXn.n.n O.r.JXBX*.!.mX~.J...S H 4X-X=X-XZ.-X>X}.4XVX5.^ 0 - n.3X8X5.&.H N n i i G.s.NXKXPX*X-XA.PXPXN.V.Z N.N.PXPXV.V.3.V.x.cXxXcXIXPXPXPXjXx.8.3.h.t.;X*XlXKXnXnX$XM.s. . .L } o.s.J.ZXuXmXM.n.",
"V.A.9.>XHXPXE.:X:X>X*XvX( [.|.*XgXA.C V l.8.oX5XtX1XyX<XmX/.w.*.-.*.L i.;./.0X0X/./.J A 6 y.0.8.5.oXP.5.5.w.eXtX!.J U XXH.Y.q 9 Y Y p S e.~.~.tX5X!.L.+XS i n i q r.w.XXO. .v.r.1X~...v.v.J.a.a.O.^ ; % 8 m.m.-XrXm.^ ..b S i b ; &.4.eXkXlXVXJX3.8.;XHXcX}.V.3.8.x.A.N.4.( 3.:XjXDXcXx.. = B B 3.Q.C.lX@XCXMXnX5.y.! I ..A U D  .F.ZXZXrXtX&.&.&.n 8 b y y.Q.{.K.P.OX3X=X3X4XOXbXeXXX!.!.+X+X~.!.e.5.n O.*.v.G.7XNXNXNXKX8XtXI.+.+.W P M ; 8 v x {.PXPXdXzX;XxXjXIXPXjXgXGXzXPXcXDXsXB.x.W C +.|.%XiXiX%X%XsXxXIX<.8.W =XoXJXJX<.) ~ oX}.PXz.{.wX6XwX6XA.4.+.6.0.U.1X5XtXmXmX5X2XNXmXtX0X^.r.e.*.*.d.J.~.2XtXmXyXyXXXeXrXCXCXCXeX{.K.b.b.z.) +.8.PXjXPXLXxXHXIXcXHXZ   + W E &XA.:Xl.x.`.V.xXLXHXKXcX( 2.3.}.|.3.8.  ) 4.IXDX[.<.2.t.t.7XbX1XXXL.u.*.-.w.*.X. . .*.w.J.Y.yXmXCXNXKXrXU.K.&.+.P P 0.P.OX4XtX4XW.L.v.J.J.d.L.yXyX~.G.J.n n S i 5.1XOXNXNXI.y.<.H P M N t ^ &.#XoXKXkXqXKXPXA._ ` 3.8.6X6X:Xv v = xX*XcXPX[.oX3.l.D.Z.[.:XcXHXGXUXcXCXZXs.s.;.i.o.J.J.CXCX~.! ..v.H.dX..5. X8Xm.OX X+.O.a.a.5X!.v.&.&.8Xv.u.A S 9 I.K.3XtXI.m.n.7X+XL.u.m H b L.+X<Xa.e.s.J.~.! ^ K.{.#XwXP.*X*X}.K.W.P +.G ~ XX8X3X5.+.S n n i i a.s.ZXKXKX[.V._ ;XgXAXHXAXPXHXIXHX( W W A.V.cXxXxX*X}.8.2.x.V.P.C.z.4XkXCXnXCXrXrX6.I *.! G  .J.J.mXyXKXv.v.M t ",
"Q.c.c.cXcXcX}.&XzX;X:XzXq.|.).iX,X%XZ Q 8.8.6X4XbXrXeXtX5X1X5.*.=.o.[ -.i.0X^.yX0XT.F J 0 0.6.9.9.A.}.h.4.5.bX9XL.! J J.1X!.8 9 S ..i S a.~.1X$XXX~.XXL.H m M b m 5.n.7XI ! y.n.7XL.O.a.n.n.v.H.5.O.# o N r.K.rX4Xm.O.G I G 9 n - O.+.1XnXnXkXKX6.p.oXHXLXc.].8.9.0.N.V.q.1.3.jXgXvXHXl.= + v P y.U.v.4X4XZXKXtXy.w.I I *.A D Y D ~.tXCX7XeX&.O.5.M b 0 8 0.K.#XC.C.=X=XbX4X#X.XtXtX!.1XJ.!.8X!.Y.5.w.i @.*.v.m.8XJXNXCXKXmX7XH.+.5.S ^ M 0 v 0 M b.PXLXcXdXMX&X:XPXUXDXzXcXAXPXHXzXzXV.l.V / ) [.|.;X;X*X|.:XLXjX8.3.V {.:XHXcX0.H V :X}.PXZ.V.6XjX>X>X|.+.) 0.t.K.OX4XnXCXCX4X4XnXnXtX1X4X6.y.5.6.a.Q.#X4XeXnXbXeX#X4XKXMXKXMXMX{.b.A.b.x.+.) z.sXLXPXsXzXDXcXHXjXv     / ( A.|.|.V.l.[.A.*XPXHXPXzX/ 4.3.[.*X4.3.. ) ( cXPX|.( 3.0.6.tXtX5X~.<Xw.*.u. .@.o.J  .*.*.~.G.yXmXmXmXKXrXm.W.6.Q W Q 5.Q..X7X4XrX!.L.n.J.!.u.G.yXuX2Xs.G.D G 5 9 &.$X5XKXNXOX5.5.M M ) 8 m ^ +.OXoXKX4XeXKXJX-X) H 0.) xX:XjX: Z = jXsXKXHX|.*Xl.8.0.`.[.%XDXPXIXvXVXVXZXr.u.-.i.o.J.J.yXZX/. .*.s.L.5X! 5.3X8XI.I.H.5.O.y.n.tXH.L.5.O.8XG.u.K K q !.U.eX$XK.n.!.<X5Xa.e.S b G U.~.~.e.d.G.v.~.^ ^ W.K.6X=X`.&X}.&XOXz.@.! ! ~ I.XXtXO.O.S m H b t n.p.CXCXMX[.C.W *XzXiXLXPXIXPXHXIX( _ _ [.V.iXIXcX>X*X9.4.l.x.A.t.n.#XtXmXtXKX5X5Xe.X.X. .Y U W.XXyXCXmXv.n.H m ",
"JX-X}.t.B.c.*X[.HXxXZ.N.O : Z zXSXGX,.W V v 8.}.oX4X4XeXtXnXL.Y.=.=.[ [ F ;.i.yX0XmXY.T.9 P ) [.%Xx.h.Z.Q S ~ S L.J.+Xv.y.5Xn M G H 9 m I.5XeXOXXXCXn.n.9 9 ! 9 b n.r.H.XX7Xn.r...6.~ m.!. XH.u.P P i H K.4X2XU.!.@.u 6 a p q S i r.a.nXmXnX4X-XZ.S.>XvXvXB l     0.IXzX8.( ( gXvX:XqXV./ ( p.0.m.5XrXmX4X~.L.d.U ..U X.Y F X.r.G.ZX7X!...w.J.4XZXL.P.b M B b.n.6X6X3XOXOX XW.n.m.a.y.n.U.L.+XL.L.CXNX! S S n S ..u.G.!.<X9XmXCX7X7Xy.y.G b m x : y.MXFXMXdXFXA.x.9.l.jX*XjXPXcXvX:XHXHXPX:XjX*XV.x.3.) : v 3.HXPXUXHX[.gX*XHXPXV   . 9.9.HX*X*XxXvX*X:XcX8.7.4.Q 6.z.n.y.m.#XMXeXkXbXkXCXKXeXKX#X#X$XbXbXCXnXCXKXKXKXbXoX5.0.Q Q 7.4.&XcXLXDXPX`.C.B.C Q Q 6XDXjXLXb.( ( ;XZ.9.9.l.2.8.jX>XPXDX;X;XxX9.*X|.xXjXHXPXV.PXxXzX*X0.2.3.p.p.nXtX5XT.s.-.i.i.#.o.i.G.T.yX9XZXyXZX1X$Xs.v.^ b y H 4.-X4XKXKXnXeXrX4XeXZXXX!.1X~.!.<X^.J.r.r.u D S u I a.a.OX6XJXK.I.&.^ ~ M M v N +.+.eX4XwX6X4XnXQ.=Xv C ;XcXPXV.{.9.jX*XHXcX}.sXHX*XoX0.2.V.[.}.vXPX*X-XnXU.T.i.i.o.-.i.0XyXZX~.G.U A G A J H.L.H.<X7X@...XX#X3X^ ! ....~.#. .K  .G 6.6.eXnXeX1X1X8X+X5.5.G A n y.w.0X=.} Y G J.s.a.6.6.lXPXoX4._ B m m ..@.+XXXmXL.v.U O.D 9 n t b p.t.CXPXPXoXZ./ PXPXLXHXLX|.>X).A.B T _ >X%XzXjXLXB Z : V A.l.l.rX#XnXZXKX~.^.*.*.@. .U X...v.mX4XKXKXn.m m 8 8 ",
"lXMX@XZ.A.x.}.[.cXHXV.V.O v l IXSXpX_ V B V 8.;XK.kX6XCXmX5XL.J.*.-.} } [ @.i.uX/./.J.Y.I ~ +.{.Z.c.9.xXH H A S XX!.~.w.5.tXn b ..S n i m.XXXXI.n.BXm.K.i t I S b 6.y.u.XX1Xa.H.&.&.I L.W.m.n.M.! S S n H.!.mXL.+X..9 p J S p 9 5 e.a.5XrXnXeX6XC.V.zXvXjXv : O   c.AXiX3.2.1.GXvXjXvXQ.&.&.t.6.a.!.<X5XmX2X!.a.U ! I  .5 U X.J.G.yX+X+X..@.1X5XCXI.W.0 C - 0.m.4XbXOX3X3X3X1Xr.y.e.n.a.!.H.L. XXX8X9Xv.n A n m O.r.a.!.<XBX1XCX7X7Xu.r.H M M b 0 y.MXFXJXMXPXC.Z.2.) *XHXPXHXPXxX:XvXcXHXcXvX*X9.9.( 2.: v 2.PXcXPXPX*X:X|.HXxXB   + l.c.KX|.[.*X*X*X*XLX8.8.W ^ 6.t.K.b.OX@XkX6X4XlX6XMXkX4XbX4X4X6XKXCXKXeX6XJXKXKXKXkXz.8.v m 9.<.=XLXLXMXxXoXC.x.Z Z B &XsXHXvXV.) ( [.}.3.2.`.9.3.*X[.PX&XPX}.|.3.}.[.-X;XPXPX6X;XvX:XxX8.( &.b.K.ZXyXtXJ.J.-.i.-.*.@.-.i.~.mXtX0XZXyX~.2Xv.v.P D t +.5.{.=XCXeXnX7XBX1XCX5X1X+X9X<Xs.G.J.G.a.r.i 5 G i H r.M.bXnXKXK.m.^ &.H &.^ 8 b P +.#XbXwXlXMXPX@X@Xv W >XPXPXV.V.Z.cXsXKXPX}.|.PX}.=X_ ( Z.>X>XIXPXcXwXnXW.T.-.-.o.#.-.yXuXZXT.F. .O.q J S H.H.m.OX8X....tX5X1X~ H ..@.8X..#.F  .G &.&.4XrXbXtXOX8X8XO.O.G n i 5.*.uX=.X.! U K.K.p.z.y.kXFXZ.<.<.: 0 S w.O.1XtX5Xr.a.! ! G i n 8 8 y.t.bXPXPXoXP.2.HXcXxXPXPXzX,XA.V.E _ Q Z.[.vX;XPX: v E W A.c.0.$XW.rXuXKXXX~.e.*.*.U F  .U ~.rXmXKXKXv.M 8 y 0 ",
"kXlXPXoX}.v 3.9.LXPXZ.x.> ( W >XzXgXS.).*X|.0.3.z.=X{.eXeX4X5XtXG.F.-.} { } { @.yXyXCXZXy.b b +.7.Z.C.MXH ~ 9 q S <XNXr.w.5XK.p.S H &.5.L.1XXX1XtX1X7X3X&...i ....tXtXL. Xn.; 0 % # ~ H.L.n.u.5.H ~ m.U.nXW..X&...i 9 n S i S q *.~.~.eXrXVXMXMX0.c.>XjX;XE V Z Q [.*XgXq.3.( >X>XvXKX=X8.6.m.K.ZXmXmX~.1Xa.e...*...Y G Y s.G.uXZX5X..O.S n v.u.e.mXKXS ; t.=X7XbXCX XXXW. XW.! H n H t S G O..XY.L.Y.<X@.O.I G 9 9 - 9 i *.@.<XBXBXI.L.~ M b 8 b ~ =X&XkXMXFX}.*X+ O E V }.:X*XHXHXPXPXvXxXvX:XHXHX:XxXx.9.4.l.x.A.[.x.*X|.PXxX*X3.2.[.V.cXt.t.: v l.V.PX}.vXoX=XlX=XP.W / ^ z.C.{.@X@XwXMXcXMXkXwXkXkXVXMXCXVXP.9.0.5.t.A.6X}.A.6X|.;X;X;XDXcXLX`.&X: B . 0.2.xX;XHXHXKXPXPXl.c.> 8.8.PXPX;XPXMXA.[.*XPXPXjX6X;X6XMX:XjXl.l.P p.9.#X4XnX~.!.*.*.F =.-.0XuXuXyXCXmXyX~.1Xe.U U p D p *.e.XXL..X1X~.v.v.5.O.P P ..&.O.v.eX5XrX1X!.G G ..^ r.n.nXn.m.K.C.#XMXKXeX.X^ C H N ~ b 8 &.4X-XPXeX6XnXPX-XV.Z.xXPXMX*X>XHXcX[.[.3.2.HXxXLX8.4.W 9.l.*X,XlXlXeX~.~.s.F.i.o.{ *.w.0XZXNX~.L.A 4 4 v.L.m.OX X5.6.n.a.XX$X X....<X@.w.K J J 5.5.4XOX4X8X!.1XXX! ! J S q &.O.5Xe.J.~.~.~.p.5.y.p.=XdXP.) <.: - +.<XY.mXtXa.! Y p p n t S H H K.K.lXKXJXoX*Xx.PXPXZ.[.l W 2.SXHXZ.[.q.A.).IXLXcX3.9.}.V.[.jX.XKXCXCX~.~.e.d.X.*.! U  .J.J.ZXZXtXz.p.L.W.I.y.~ ",
"JXMX{.PXPXoX3.2.A.*XPXPXV.cX;XHXiX>X].[.AXHX|.0.^ 0.p.6X6X1X4X1XCXmXG.#.o.o.{ F w.-.0XNXKXn.t.5.) B.B.dXm.U.S q 9 e.e.L.XXO.~.1XW.!.1X!.a.!.I.1XtXa.I.L.1XBXm.7XXXG ~ I...O.9 - 9 0 I.y.5.n.H.~ m.Q.rX2XU.+...9 n S I n 9 4 O.&.1XnXrXnXnXVXCXKXW / 2.V.%X;XvXAXIXIX[.).v Z 2.cXqXjXVXwXQ.@XnXnX1X2XtXr.w.G U U p n Y Y ~.ZXtXmX5X*.. @ i i w.y.a.n.a.5.&.KX5.+.1X1Xv.H.I.8XCXy.H ~ &.O.P n - H G 8X3XH.Y.n.J G 9 S I ..G @...U.XXOX3X3X6.^ ~ H b 0 K.C.kXJXMXKXPXV W ) 4.cXW ) B E x.*X*XcXHXHXvXvXvXHXPXHX*XA.Z.x.l.B Q V :X:XHXvX*X*X|.PX8.l.+ + 3.3.xX}.oXV.x.*XHXPXA.C.3.M.0.z.9.0.9.oXcXcXVXlXPX6X6Xx.p.4.Z Z Z.}.zXLXxXLXPXzXxX4.O + V R jXDXHX&XV.h.&X|.V.9.x.b.x.8.l.H B v *X[.MXcXzXvXjXx.x.HX:X{.v > v v h.;X[.x v W S.z.VXVXrXv.s.X.*.{ F.F.ZXZXyXZXtXr.5.I U p s p s G *.a.G.~.5XrX~.*...! G n G 9 9 r.m.K.K.v.1XtXnXa.5.S b KXKXy.4XOX&.&.6.PXMX4XbXQ.+.+.P H m H ; 4.~ 6XMXkXCXwXKXPX;X9.4.x.A.jXPXHXE V + O x.PXLXZ.V.V l.0.A.l.=XKXKXNXyX<X/.d.*.e.o.U *.ZXCXyXCXL.S n 5.5.y.3X1Xa.y.; - G .X!.v.a.<Xr.r.J J J *.6.4X#XbXeX X<X9XO. .H n n p.v.yX^.^.*.*.S 9 M 6X3X6XMXC.x R 0.y.8XKXtXL.J.P A a S G H n S 5.z.MXlXVXPXKX;XkXoXPXPX( 8.  _ / GXSX`.%Xq.x.N.zXcXLX*X}.*X}.-XVX6XtXtX<X*.*.U *.{ U J G.~.CXKX5Xw.r.p.M.mX#X1X.X#X",
"@XlXKXPXKXP.+./ 6X[.DXcXA.;XiXzXHX|.].).PXIX;X/ 5.&.t.kX7XrXrX$XuXuXT.o.-.#.o.J @.-.yX2XNXe.r.+.t.B.h.P.XXv.9 9 6 u.r.1X+X! BXtX1XOXI.U.5.1X8X8X X1XU.n.7X3X3XU.XX! ! tX5.G - 9 i 0 XXu.y.n.n...H.Q.#XeXU.*.O.G i S M 9 b i w.5.1X4X4XeXeXnXJXKXP E / V.x.:XAXHXsXjX[.[.v v 4.|.qXlXUXwX$X4XnXrXZXXX5Xe.*.I ..U Y G  .p ~.5XmX5XtX..@ X A n *.a.L.n.a.5...rX5.*.3X1X$X~.XX1XeX&.~ ~ G ~ S H b I G 8X<Xu.Y.u.J b 9 b n S S 5.e.a. XI.NXtXy.S M b M ; z.z.FXJXkXPXPXv / ) V HX/ E V E [.cXcXHXvXqXxXxXxXjXHXHXjX[.x.8.9.B V E *XvXvXLXHX*X[.HX2.3..   ) <.MXzXsXl.`.>XLXMXA.V.4.8.h.x.l.3.0.Z.PXLXMXlXPX:X:Xx.t.1.v v B.|.HXPXzXPXJXsXPX9.+ + R V zXcXDXA.|.h.;X&XV.A.x.V.l.8.8.H _ v [.*XPXPXcX6XjXc.9.PX*X;X: : Z : x.>X[.: v &.x.z.nXVXrXs.s.*.{ U J.F.yXyX0XmXyXy.5.D n p D Y s A e.s.J.s.<X~.<X*.*.! I D I 9 i v.H.M.m.K.nX7XmXp.y.~ H NXNXp.{..X+.5.&.PXeXKXnX@XP ^ ^ Q H H - +.&.CX6X6XMXbXLXxX}.3.9.x.x.cXLXPXH E O O 8.PXPXA.c.B 8.3.l.Z.}.KXKXKXZX0X<Xd.-.*.J U *.ZX9XZXNX~.6 S @.w.n. X Xz.m.4 i H 4XXXH.Y.H.r.r.U J A r.z..XW.tX5X1X1XXX5.O.A H H a.H.~.uXyX*.&.p 6 8 W.=X6XMXC.C B t.y.OX5XZXH.v.D n i N b i H H p.m.KXCXnXPXPX@X-X{.PXPXf.3.. T ,.IXPX).Z.3.Z.[.HXLXPXkXlXP..XJX3X4XKXCX!.*.*.o.@.U U X.~.v.8XKXtX5.O.p.r.4XOXnXOX!.",
"kXCX=X6X=XPXP.oXA.t.|.;X;XxX>XiX*XV : l V.|.HX3.8.0 v 4.5.Q.lXCX7XmXyXJ.T.o.o.{ { J w.w.mXZXKXm.n.t.y.K.8X X5.u.n 9 4 H.5Xv.1X+XI.!.I.+Xn.XXL.! ! BXa.a. XL.BXy.y.n.I.n.X - I 0 OXv.L.v.a.5.e.L.1X.XW.K.*.t t t M M 9 b y.r.7X XnXVXKXlX6XnXVXMXB P V.PXvXDXjX%X;X}.8.3.v B 0.-X@XkXVXkX4XeXZXCX2X*.*.U X...X.A G ! J.H.KXtX1XI I 4  .O.s.r.a.r.v.n I 5XmXW.I I 5.w.1X+X4X~.XX..I I H Q H N b 4 4 G ~ y.L.Y.Y.n.v.n.v.L.XXNX3XO.y.5.NXBXK.H Q H M 0 +.+.MX7X6XJXPXl.l.9.x.PXC V = O 9.[.}.|.}.}.cXHXvXxXjXHXvXjXHXjXPXjXZ.x.x.3.A.l.V.9.9.PX:XHXZ.x.oX`.HXV.9., + / LXPXiXgX;XPXLXvXzX0.2.v 4.) Z.x.8.4.8.Z.;XjXHX;XiX%X>Xl.3.N.|.zXLX`.= > R Z h.6X;XLXDXHX:XxX( 3.v / / ) ) 2.2.*XHXxX*X[.PX9.9.R W LX[.|.O O v Z }.*X-X) W ) }.Q.JXnX4Xe.5. .=.X.~.^.yXyX~.~..X.XeXK.K.Q.r.e.*.=.^.2X0XT.T.*.*.O.X. ...U G n G 5XbXQ.6.&.OXOX#X4X6X&.^ bXbX Xm.b.H M % 6.y.KXKXKXm.m.~ M H ~ M 8 ; +.&.nXrXwXJXcXPX}.V.B Z |.jXPX9.B./ / *XPXPX|.*X}.}.A.3.8.V.-X#XnXNXtXyX~.d.d.u.u. .5.*.ZXmXKX+XY.G n v.bX7XOX3XG I 9 5...Y.1Xa.0XyXG.G.a.!.!.n.a.1X#X5XOX XL.XXm.!.m.W.v.W.~.L.9 i i *.y.eXMXkX=X6.0.t.6XbXmXL.J.! U S p S D N S z.z.PXCXbXMX-XPXKX{.[.b.jXiX).|.l.cX>XPXPXl.8.W x.V.zXcXjXoXbX=XeXPXbXCXXX!.*.X.o.o. .U  .J.KXCXZXKXH.& # ^ &.J.!.+X!.$X",
"MXkXkXoXlXPXC.{.x.A.|.Z.[.sX|.zXiXZ : v Z.A.PX8.9.= 0 6.0.#XMXCX1X9X5XY./.X.@.o.F  .e.e.<XZXZXm.U.y.u.U. XXXe.e.b 6 S H.L.7X!.H.OXXXL.L.n. XXXI ~ CXr.a.L.W.tXe.5. XL.y.4 # b H H.<Xe.H.I.e.5.W.~.!..XQ.6.8 i G S S 0 b y.y.bXbXkXCXPX6X@XMXKXMXP v l.PXHXHXHX*X;X[.1.( ` v 2.-X-XlXVXeXeXmXZXmX0X*.-.X.U X.@.D ! Y G.L.yX1XmXn S # e.*.5.r.v.a.U.I S tXtXa...I *.5.ZX1X5XU.W.^ G G P H S 9 H 0 4 ! G y.L.H.a.H.u.a.a.G.!.NXCX&.5.O.KXCX.Xm S b M M H ~ NX6XJXLXHXx.9.x.l.cXV B = O V.>X>XA.[.|.HXHX>XHX*XHXvXPXPXvXxXjX9.V.9.l.|.3.x.h.3.PXjX:XV.[.P.|.HXc.x.O O ) PXPXiX;X*XIXPX>XAXq.q., q.3.V.x.1.0.q.%X}.>XiXAX;X;XiX2.8.%XZ.PXJX&X# = C C h.;X;XsXPXcXsXMX9.8.= ) ) / E 9.0.Z.vXHX:X6XPX8.l.V W MX[.[.O O B v :X|.*XR _ 7.@XQ.nXrX4Xy.e.X.} } 2X2XuXuXL.W.m.wXnXp.M.~.e.d.-.=.J.2X~.J.F.} U e.....O...A ! ! 4X3XU.5.4.=X.XoXbX7X+.5.=X{.4XK.p.H H ; +.5.KXKXwXC.Q.P P P M P - b Q P PX4XlXMXjXPXA.[.V C [.DXLXc.l.Q / vXHXLXA.[.HXA.}.3.3.Z.=XoXCXCX5XyX2Xa.d.u.=.! e.e.yXNXyX<X!.n S Y. XXXOX$XI I b 5.&.9X1XO.tXyXu.d.H.OXOXr.r.4X1XBX.X1XOXXXy.I.U.!.m.!.s.J.D S 9 &.&.3X#XMXJX5.5.0.7X3X9XL.v.I S G p y n N M m.p.PXPXMXMX=XPXPX}.Q.x.xXcX}.|.9.zXiXPXPX9.0.) A.A.6XkXMX6X#XZXNX7XCX7X<X~.*.w.@.X.J  .X.T.yXKXNXyXH.# - I ^ a.5X!.L.$X",
"4.nXeXMXMX6XJXKXcX;XB W E HXHX|.*X: + O }.;XcXZ.`.8.3.( 4.8.;X{.mX4XtX5X0XJ.G.w.X.o.5 p a.NXtXtXNXn.L.y.U.H.KX7Xy.O.O.4 6 ..!.~. XXXL. X3Xe.r.i 8 !.KXtX1X8Xm.8XOXy...H ..! !.I.XX!.n.y.e.H.u.eXL.W.! y.i t m n M b 5.t.oX6XbXJX-X@X@XlXkXVX-XzXl.p.jX:X:X3.9.: : x.*X:XW ) 3.wXcX-XeXCX8XBX1X<Xe.X.X.X.X.A 5 ..~.Y.KXZX1X! ~ &.5.G.J.!.J.J.J.a.- e.e.XXmXe. .! e.G.tXs.r.I 9 O.*.*.6.+.+.+.N t b u.K.!.L.!.W.OXU.y.6.n.H.L.n.! S G OX.X3X+.5.S M b v 0 P.{.JXJXHXjX*Xl.x.vX*X*X2.2.A.[.[.E E : 9.3.cXvXcX:XvX:XvXHXxXjX}.>XcXvXb.2.) V Q x.*XjXPXHX*X[.MX[.x.= = T iXzXIXAX1.A.V.PXHXiXSXB k.x.0.x.8.:XGXLXGXIX>XSXPXHXf.    Z B cXLXcX;X:X*XjXvXf.x.3.2.2.3.2.) <.l.l.x.A.Z.}.oX:XPXjXjXzXDX2./ A.x.A.xXjX{.}.oX&XPXV.`.2./ t.lXrXrXnXp.5.*.Y F e.mXmXtXmXb y p.PXCX=X$Xp.uX2XJ.J.J.uXyX~.s.U U U X.U ......n M U.U.4XP..XQ.4X+.u.y.bX8X~ 5.OXK.z.p.b.^ t b ^ 6.kXlXbX{.C.P ^ H M 8 b N ~ eXMXLXKX:XPXMX|.;X9.DXPXPXHX*XZ.HXjXjXl.l.xXHXPXx.x.W P.Z.6X#XKXmXmX^.5Xw.e.*.Y I *.w.XXKXKXL.H.r.G.U.PXCX6.y.9 n i !.H.L.a.r.tXKX<Xr.r.1XOXn.n.K.n.r.H.L.ZX3X1Xy.6.yX....i 9 *..X$X.X3XP.C.6.kXbXCXKXL.I n P i D n S I N M.-X-XHXMXkXMXJXKXPXA.b.v iX&XPXIXPXzXDX;X}.C v V {.}.KXbXCXNXCXZXZXmX~.XX*.-.*.X.J J  .0X0XyX9XmX5.O.n ..^ a.6.+XNX7X6.*.",
": n.K.eXbXeXJXJXjXKX{.Z.B ;XcXHXPXZ.c.0.AX;XjX|.}.jXPX*XZ.&.l.c.I..XnX4XrXyXmXJ. .X.w.*.J *.s.tXmX5XmXv.*.! H.I.CX3X7XtX5Xv.5...n.n.XX8XtX5.O.& 9 &.1XBXOXtX!.~ ! 6.m.XX3X!.L.n.e.u.~ L.!.tX XH...&.i M 9 G ~ M M 5.6XkXCXkX6X3XZ.Z.P.MXHXHXcXPXV.b.PXjX|.> v + + x.:XcX8.8.3.wXlXnX#X2XtX8Xw.r.{ o.=.F D X.@.T.CXyXL.+XI 5.5.u.r.L.1X~.e.5.S n i ~.~.~.Y.O.e.u.mXXXe.A S U I r.a.a.Q..X#X4XM.r.a.U.M.a.1X8XU.n.!.NXmXy.O.I.U.I - 6 L.XXKXa.u.M H b v 0 y.y.bXwXcXPXPX8.3.|.PXPXPXHXjXjXvXPXcXx.v v 9.x.:XvXHXHX*XxXHXPXvXUXcXcXPXxXLX*X[.P.l.7.0.0.E Q ;XDXPX).N.k.PXPX|.).> > = cXIX%X;XN.PXPXjXjX*XvXgXN.9.q.PXjXiXzXiXW _ f.f.&X`.|.cXPXcXcX)._ V Z W 3.A.A.x.V.*X*XjXHXPXHXxX:XvXDXPXcXzXA.[.PXHXKXPXPXHXHXHX6X{.V E / 3.}.VXnXtXtXy.=.O.F U ^.KXZXK.Q.y b ^ .X.X$X2Xa.~.$XuX~.J.J.J.J.!.G.a.w.G.G.v.a.a.! ! n 8 n.KXCXoXW.&.+.~ OXBXe...M m.C.I.K.a.p.y.*.P U.VXCXrXnXW.Q.H ~ Q b ; 8 4.^ jXzX-XHXLXLXPXZ.9.9.c.A.MXcXcXl.p.O . / HXPXjX|.: +.3.Z.M.#X$XyXZXKX~.XXd.*.*.! ! w.8XtXmXCX!.v.r.W.1XnXCXe.S S i 6 w.L.<XL.~.!.v.U.tXXX! G y.nXNX5XI.3X$XtXXX!.O.n ^ 5.5.$X$XXXI.K.M.U.{.KXeXU.a.I 9 n Y G Y N P a.m.KXPXcXcXLX@X-XJXJXLXP.P./ PXPXcX;Xc.|.V.A.*X2.4.2.P.V.lX7XeXrXtXnXmX~.5.w.X.*. .J  .2X2XyXNXCXu.u.! O.W.W.+XNXmX!.I I a.W.",
"; m.K.nXbX6XeX6XPXMXoX[.H *X;XHXAX[.3.3.jXPXHXZ.|.PXLX;X*X3.4.8.OX#XMX4X$XrXyXG.*.U X.X.U w.e.yX0XmXyXG.O.*.v.XXBX5XI.tX7Xv... .L.U.BX7X7X....i 4 y.tXtX X!.OX..~ a.m.!. X3Xa.n.H.n.5.m.n.!.8XL.+...G n t N n y t p.6X4XlX6XMXjXl.A.A.HXPXcXHXHXA.x.PXxXcXv >   . x.*X&X3.7.3.lXlXCX5X5X5XXX5.e.@.{ { { D {  .<XmXKX7XXXm *.m.a.s.L.7XL.*.5.A I 4 ~.5X2XXX=.s.e.ZXuX*.D u *.*.p.e.y.!.4X=XOXm.b.m.H.!.n.3X1Xm.L.!.KXCX6.I u.n.~ & 9 L.L.mXy.a.I H t v v ..+.JXMX6XPXPX9.x.V.PXPX*XHXxX}.*XPXHXA.V E 3.9.xXvXjXjXHXcXjXPXcXPXvXxXPXPXPX}.|.V.l.l.8.x.E _ jXPXjX|.;Xc.vXPXN.]., , c GXvX%X%XA.LXPX*X}.xXvXAX8.8.4.AXiXLXiX[.T Q l.h.Z.;X*XHXHX;X}.V.,.E Q ) 3.V.c.c.V.|.{.jXcXPXcXHXvX>XvXPXcX|.}.|.PXPXHXvXLXPXPXHXDXZ.V V 3.8.Z.nXnX5X5X5... .U D ~.yXZXm.K.S M ^ #X.XL.!.XX~.yXXX~.rX~.T.s.s.d.J.w.G.J.v.a.v.+...n M 6.CXKXCXU.r.I ..CXtXO.O.P v.L..XK.K.v.y.^ &.0.eXeXnXeXW.z.~ H P 8 : b &.+.-XjXHXHXHXPXPX}.3.x.x.x.MXjXcXt.3.+ O 3.IXzXzXcXv H +.z.b..X.XtXyXtX5XrXe.*.w.A I O.5X1XKXCXY.5.y..X4XnXI.n.A 9 & n a.+XrX1X~.!.L. X8X1XG n &.KXCX3XW..XXX5X4XXX~ I I 6.6.5XL.1XI.m.m.n.#XMXCXL.L. .S S u a n Y P n.m.wXPXPXwXcX{.}.PXDXcXZ.[.0.LXPXHX:Xl.V.D.|.[.2.3.) M.b.bX6XKXCXmXtXmX~.*.e.X.X.U o.@.2X0XyXNX9Xv.u.~ ~ W..X!.1XNXJ.....L.s.",
"- n.b.7X6X6XeXkXlXwXJXPXP.Z.b.6XxXHX;X;XcXHXS.V B V.A.jXLXA.B v h.6.Q.bXrXrXmX2X~.^.*.U U J a F.u.9X9XmXJ.G...~ ~ n.y.~.~.!.w.w.1Xa.O.O.3X..~ - - e. XL.u.y.OX..&.m.n.5.5.y.m m n m 1X1X4XI.L.O.p i H P M n M 6.6.eX6X=XMXlXJXxX8.[.Z.HXcXjXHXcX) 2.|.A.}.2.l.l.8.MXHX*X/ Q ) :X4X$XyXtXu.u.r.e. .U F L { ~.Y.ZXyX~.9 9 G +X$X! ..a.XX!.O...5 u U ^.G.e.w.{ 2XmX-.r.D { U ~.XXXXXX!.$X.Xz.p.P.6X1Xn.a.r.XX XI S n m.3XBXnXBX8X*.i - +.O.mX+X.XQ ^ M N M C H bXlXVXHXPX[.[.V 9.8.*X:XvXl.A.*XxXHXl.9.( ) }.>XxXPXPXZ.x.[.vXPXHXHX>XcXPX>XcX*X*X;Xl.b.B V x.jXsXzXzX[.AXPXSXIXv W Z [.*XcXzX) Q _ [.V.cX|.[.: > O 9.9.iXzXPXGXSXLXAXzXjXQ v V 3.9.9.l.l.).[.Z.jX>XjXxXPXHXPX6XcX&XjXLXjX;XKXHXV.*X>XcXvX9.W W B.l.`.[.+.v v 9.l.@XtXmXXXXX=.U U o.w.ZXuXmX*.6.M b M 4X5XW.W.rXe.*.r.y.2X!.L.v.J.+XXXa.s.n.H.v.J.p.L.! ! H O.! 1XKXa.I ! J.H.L.!.9 n S &.e.L.n.H.L.{.4.y.p.CXVXVXMXC.) +.H P b t ; ( 8.*XsX;XHXHXcXx.9.x : `.*XPXp.c.: = x.HXAX&X}.&XA.b.S.M.W.W.#XKXKXKXKXH.r.v.O.....a.*.5X9XKX8X1Xr.5.!.1XKX1X9Xv.5.J &.! &.&.5XY.Y.L.!.H n Q eXnX4X7X3XK.a.a.e.H. X X7XOX8X6.e.v.m.4X#XCXK.p.M I n J I D N G a.a.KXCXlXcXcX8.c.[.`.PXMXcX{.}.A.HXPX3.V.+ E B PXIX).Z.3.b.M.JXbXnXtX5XT.~.d. .*.o.{ =.~.Y.0X9XCXNX@.n.H.K.Q.I.6XmXtXXXI G D +XtX",
"; z.p.4X3XeXkXbXCXKXVXJX6Xt.b.:X;X;XgX;X;XHXV.E C |.A.HXzXZ.: l 3.&.m.KXCXrX2X$XG.1X*.X. .D D e.i.9X0XmXL.G...+.G n.n.~.L.~.*.! +XOX&.&.8X~ G - 0 5.$X1X&.&.mX&.5.v.U...O.O.n i ~ S 1XI.1Xm.H. .n n G I t i y p.0.#X{.;XJXHXDXcX2.[.[.xXiXjXPXAX2.8.[.*X}.l.8.8.l.}.jXlX&.Q 3.-X6X=XZXtX*.*.w.w.#.J f { o././.0X1X5Xp n ..!.m.5.&.L..X+XO.! a p A J.Y.s.u.*.0XyXd.u.f U U <X<X$X~.!. XI.z.t.Z.#X4Xm.a.W..X4XI S b .X X5XtX4XeX! i ; I ! tXtX1X! ..b v m t v =XVXPXHXPXjX*X: 2.8.>X*X*X8.V.>X*XPXV.A.) ) *X*XvXPXPXA.|.[.PXPXHX*X:XLXPXxXHX*XoX*XZ.x.W / 3.*XxXHXHX).HXcXIX;XC V W [.:X:XjX/ R W [.x.PX}.Z.> =   3.l.AXxXDXIXxXzXAX*X>XQ V T ,./ 9.V.V.}.).V.*X*X*X>XDXPXPX*X:XMXoXLXHXjXMXLXx.xX:XjXPX8.E B Z.x.A.Z.E Z v t.l.wXmXZXL.Y.X.F F -.X.yX0XZXO.O.P P H 3XOXH.K.mXr.e.y.w.1X$XW.n.n.{.!.m.a.y.W.H.H.W.W.! ..i O.5.yX9Xu.U X.G.u.~.<X9 Y G 5.r.1Xs.H.Q.m.6.4.y.KXCXwX4XP.^ ) N ~ b : - ( 2.:XKXcXMXvXPXb.l.= : Z.[.PXl.c.v : l.sXPX;X;X*XP.z.7.p.b.}.eXCXCXCXnX~.p.e.O.@.O.*.5.yX<XCXL.XX0.y.m.XXNX8X8Xs.r...6...*.&.#XXX2XL.L.9 t H rXnX$X4X#XM.y.u.y.n. X7XbXeXI.&.+.m.M.!.!.tXM.p.G S F I S S i p m.M.ZXKXJXHXPX2.3.[.Z.PXLXLX*X-X}.PXPXl.8.O v C vXHX|.oX3.0.7.kXnXZXZXZX!.~.u.X.X.{ U X.G.Y.CXKXyXmX#.I.H.C.K.b.eX5XL.J.U ! D XX7X",
"b Q.m.MXrXbX6X6X#XkX=X6XPX-X}.0.c./ Z.%XLXPXq.+   / ) gXjXjX( 3.2.3.9.Q.oXrXtXmXyXrXs.J.*.X.@.F J w.F.yXNXmXL.I.m ; - I ..s.O.*.!..XO.&.7Xy.&.t n a.H.n.&.+..Xn.L. X Xm ; % n n U.L..X!.m...&.i i n i n H p.t.=X4XPXKXPXMX;X`.[.3.].[.jX;XcXLXAXE v W A.>XUXvXPXPX}.x.8.> > 4.kX4XmXmX1Xr.w. .@.{ { #./.0XyXyX9Xp ! q i H.m.n.r.e.XXH.J.G G A G F ~.~.-.w.T./.^.X.o.D U U e.d.1X1X4XW..X6X@XoX.XOXXXXX1X~ I - 9 ; I.L.4XeX!.1X! t n ! I J.$X1Xr.5.b t v t t m.JXcXvXHXHXHX3.E.[.>X[./ .   ) ( >XV.|.W / [.Z.}.vXvX3.3.= V / A.|.:XMXvXxXxXvXHXPXDXjX*XjX[.*X}.V.Z.E B.`.cXLXHX}.V.zXLXDXHXR +   / W -X}.>X3.8.2.l.l.x.A.).DXsX|.x.2.q.W 3.3.N.x.V.[.[.iXjXHXHXHXPXHX&Xl.4.V B B.>XvXDXHX*X}.( cXPX*X[.: + + x.A.jXjX3.3.( A.x.6XtXyXu.s. .U U G.J.CXXX2X! H b 9 P Y.XX3XXXW.S p 6 i y.kXbX=XoXdX6X#XOX.XNX7X4XrX5X$X7XG 5 A s.u.ZX} L J.~.0X<Xp 9 9 I I +Xa.a.5.5.p.H v 0.z.=XnXbXC.m.P ~ b v y > > 3.6XDXDXxXPXPXPXc.3.8.3.PXPXxXA.}.vXPXLX|.;X:XPXPX=X}.4.0.p.4X2X4XrXCX4XL.a.r.@.U U r.e.yXKXnX4X4X5.&.w.XX8X1XtX9Xe.*.&.6.U.L.+XY.L.9 i Q 4X$Xp.n..XU.K.!.!.7X XI.e.6.+.y.y.4XeXeX4XK.^ I 8 A A n u X.X.a.ZXrXKXwXkX}.*XC : [.Z.DXLXKX[.}.x.HXPX8.9.> c.D.PXMXV.V.3.A.m.KXKXmX2X5Xd.d.o.X. .o.w.<XCXKXmX<X..J @.I.K.t.9.-XkX$XU ..S  ...KXyX",
"0 v.y.eX6XCX7X4X#X6XlXlXwXKXKX}.x.l ).].IXPXV.C T f.3.%X>XAX%XiX;X;Xx.0.9.Q.W.$XtXuXrXZXu.@.w.X.#.K D i.9XNXBXNX X8 0 w.a.!.*.*.a.n.U.H.!.8XmX#XH.tXO...I.!.L.OXL.I.OX~ t b I.!.$X1XH.5...8 H n n G 9 9 6.nXbXeX.XkXHXcX[.`.N.Z.c.A.].gXvXHXcXcXE E Z.PXvX>X[.}.[.c.0.0.C B 3.6X$X4X5XY.5.@.J { F J.^.uX0XyX2XD 6 6 S - U...y.r.n.tXmXZXw.*.i a U ~.T.*.w.0Xs.e.D L X.U A & & *.KXCXb.t.OX=X-X4XoXW.W..XH S M S H.KXBX7X1XL.XXv.n p 6 9 r.CXCXL.W.^ M t b 8 ^ -XlX>X>XPXPXA.V.x.PXPXV.> O 3.( xXA.A.> > 2.9.*XPXxXA.Z.> O . = O W 7.9.6X:XcXDXzXcXjXcXLX:XjX;X|.*XQ ( +.A.{.MXb.{.;X*XzXKX9.v B 4.4.zXVXKXkXHXzXxXKX;X`.Z v B / 9.0.l.9.Z.x.,X%XAXAXzXAXzXcXZ.V.C B =   + : B PXDX>XcXHXl.h.C :X>X*XjXx.4.3.cXxXxXzX3.4.3.}.*XPX1X2X@.e. .#.o.0XyXyXe.5.n P ~ ! I a.a.!.<X1Xa.n.9 9 ~ 7XkX=X|.sX=XQ.6X7XeX1X4XL.U.! ! Y U D A a /.F.d.d.-.~./.A A n  .G 7X!.L.5.y.4X+.P b M 0.t.lX-XnXb.b.~ P C : : 3.jXHXjX:XcX*XsXHXHXZ.l.V.>XHX|.,X>XjX&X: > 3.6XHXcXkXV V W n.m..X$XKXKXyX+X~.e.w.*.U J *.tXKX=XeXXX1XG G S ! ! a.r.p.^ &.U.e.e.s.H.8 8 P Q.@X6.6.#XK.L.H.m...b m 0 N ^ 1X4XCXCXU.a.H 8 P ~ S a U  .J.s.yXZXmXKXVXVX&.%.B ` `.[.MXPXPXc.b.+.V.[.|.|.[.PXPXIXHX7.2./ C.b.4XXXZXG.J.w.e. .*.-.uX<XmXyX1XU X.J I OX X XK.C.MX3.a.S ..G  . .ZXmX",
"i H.y.eX4XCX6X=XoXP.JXPX=XPXLX{.[.> %X[.LXIXV.V C 3.f.*XiXiX;XiXjXvXc.0.p.{.Q.rX4XrXrXyXG.w.o.w.-.f K i.CXNXNXNX8X# 8 r.n.~.*.*.L.6..XJ.y.NXNX!.XX8X..O.n.U.m.XX4X.X X! ; 9 XXL.5XL.+X! *.p i G n n 6 ; m.KXKX.X4XMXPXHX`.&XN.N.V.c.V.vXHXPXxXHXE E [.vXjXcXwXZ.P.A.3.( H P 3.eXnX$XmX8X .#.#.J D F.J.uXyX0X2Xf 6 & i m u.5.5.r.y.~.BXyX5.e.9 p J ^.~.e.w.<Xo.u.{ D X.F Y * @ 5.mXKXm.z.rXeX=X=X=XK.I.P.M b ~ S H.NXCX$X$X1XI.n.S S 6 8 *.mXtXK.L.I v 0 H b Q lXjX>X6XPXPXZ.x.[.PXHX[.> : 2.) xXx.S.> : 3.D.*XcXzX|.}.: . . O O R 2.7.xX-XLXHXjX-X:XHXLXVXxX*X&X`.+.R Q }.*XjXx.x.DXDXLXjXc.v v 4.2.;XcXcXHXKXLXxXHXZ.}.v v T q.2.x.x.f.V.V.*X[.HXHXHXcX:XxXx.V.V E : . + Z x PXPX:XHXHX3.t.R jXjX:X&XA.4.9.;X;X:XvX7.3.9.-X*XbX1X<X .-. .o.@.yX5X5Xa.d.P H G G ..G.v.H.L. XH.p.0 0 C MXDXsX|.;XjXZ.MXJX=X$XtXa.v.O...U f A u D /.F.d.d.i./.^.a p q I S 7XL.!.u.5.#X) &.8 8 p.z.PX-X6XM.P.H E ~ = : 3.zXcX*X6XDXjX|.PXPXl.x.0.PXlX}.Z.xX>XHXO = 2.:XjXMXPXN V ^ b.C.eX4XnXCXKX#X1X&.5.*.Y X.X.KXmXtXZX$X3XG G i I ..w.w.5.e.6.s.u.e.J.Y.6 & I #X.X5.5.4Xm.K.H.W...8 0 0 b +.tX4XKXKXn.m.P N S H U u U  .s.a.KXtXVXnXqXUX_ _ E W Z.|.cXPXPXl.x.) V.A.}.:X@XPXPXPXLX3.2.) A.z.wXeXZXe.s.d.s.X.*.*.0X<XCXyXyXJ X.J ~ bX{.C.z.A.PXp.6.^ I i 5.*.9XZX",
"9 n.U.bXeXrXQ.Z.[.Q.>XwX*XMXwXPXPXA.x.7.:XMXHX[.&X*X-XvX*X9.x.Z.xXjX[.) V 8.8.[.wXCX=X5XtXJ.T.X.o.*. .n G.u.7XtXmXH.v.&.&.6.G P *.e.5X1X! XX~.mXmXw...5.XX+Xn e.6.~ ^ +.4X4XK.XXL.T.X.6 a D f a q n r.y.nX#XbXkXMXcX4.,.3.8.AXjXl.E.[.:X:X>XPXvX3.2.cX>XvXE B O + c.iXjX8.) 4.oX#XnXZX~...X.U { L F.T.yXZXe.*.9 r.6.5.5.~ U.1X5.6.L. X1X8X3X*.O.J v.J.L.G.uXX.O.U U D A p p u 9 W.4Xn.r.eX6XK.6X=X}.;Xz.P.b.kXKXCXW.L.4X.X5XeXa.H.1XI m I tXOX7X3X&.H m b v 0 oXOXwXwXVXVXLX9.b.VXHXcXHXjXcXcXHX:X>X) 1./ Q Z.IXIXvXgXZ = = = 0 O + + Z ; 3.@X=XlXVXkXwXwXqXcXjXxXIX[.}.l.c.0.t 0 t.7.JXPXMX=XsXLXJX`.t.8.C.C.c.c.B._ W ( l.N.V.).B.A.dXHXzXJXPXJX=XlX3.z.v + , + O , . + ).).AXHXiXKXKXx.b.MXFXDXDXPXAXLXPXAXIXf.9.) x.Z.MX=XBXJ.G.#.w.G L.a.BXnX#X! ..S S <XG.a.e.j.7X7X#XK.}.}.{./ x.x.IXxX;X}.cXjXLXP.P.KX+. .O.X.U X.J 1 f ;././.F.J.~./.u G J O.@.tXBX<Xr.t.K.y.t.- : - ; +.7XoXK.P.) b b 0 8 ^ KXPXMXlXzXcXUX:X:XPXPXx.0 > l.t.cX:X*XO O v PXKXvXMXx.|.0.x.b.c.P.oXJXJXVXCX#Xy.a.O.5.X.*.o.CXNXZXKX1Xn n ^ +.!.r.v.w.e.~.e.*.NX0Xs.d.J.1X!.*.&.$XW.#X4XeX5.- - u.y.NX7X7Xv.m.G G i D D A i O.r.a.nXmXVXCXKXkXvXV.S.|.S.l.Z.A.xXPXPX|.[.O *X>XPXPXvXPXIXV.Q.C B ` A.V.VXZXuXd.d.} X.@.mX0XmXZXyXo.*.f q 5.&.#X#X=X-X=X6XP.I.S n G w.e.<X<X",
"q n.n.eXeXkX@X@X[.M.:X>XxXcXzXPXcX6X3.7.HXwXcX-X-X@X;X:XLX8.V.Z.jXHX|.V T 3.8.*XjXcXkXbXtXL.J.O.@. .O.! u.e.mXBXmXL.K.O.6.&.I P 6.e.XXuX! W.H.ZXNXO.@...L.1XG e.6.4.^ +.W.rX!.!.L.T.U r f r D F I i e.M.4X.XOXPXPXcX8.3.9.3.>XiX9.V.x.vXjXxXHX:Xp.8.xXvX>XE v O O N.*X*X3.4.t.-X#XtXmX~.X.X.U { L T.T.mXmXO.O.S 6.5.y.y.+.U..X6.u.L.!.!.8X#X6.&.! n.H.J.J.rX....U  .G  .G 6 9 ; BXI.y.p.JX6XOX=X:X6X-X9.c.P.MXCXnXC.H.XX$XtX7Xv.!.v.H H M 3X#XBXkX5.M v v v v .XK.VXJXKXMXVX9.S.HXlXPXjXvXjXHXvX*XwX2.2.E ` }.PXGXGXjXC + O > ; + + % : 0 &.#X$XCXrXCXkXcX,XqXUXHXPX|.A.0.t.7.8 v +.0.KXLXFXxXxXxXPX[.t.t.A.z.C.z.c.( ) 2.f.l.Z.c.).A.&XDXKXlXKXVX.X=X6.t.B + + O O     + Z.].AXgXzXHXDXB.B.MXkX6XMXPXPXPXLXxXLX9.8.( c.z.6XeXCXY.G. .#.G L.H.KXNX#X^ G G G J.Y.e.5.r.7XBX X=X@XV.Z.2.l.c.AXAXiXcXiXvXcXoX=XkX5.*.X.X.{ L [ d r d.2X<XF.F.T.!.n n G @.5.8X1X+Xu.6.I.y.5.0 0 O - ^ 4X=X{.I.^ b m 0 0 +.JXKXMXVXlXxXHXxXHXPXHXA.= : 3.8.PX|.*XO O R :XLXPXcX}.A.0.A.A.V.Z.}.xXMXlXMX4Xz.n.O.*. .X.*.yX9XZXmX~.n n ..+.H.r.v.e.e.2Xs.e.mXNXi.d.T.J.<X..O.4X XW.#X6X^ 8 - y.y.bX8XtXa.r.Y D D D D A D I a.m.rXlXlXVXPX:X:XA.S.].c.D.).A.HXPXHXZ.A.v :X}.HXPXPXHXPX@XZ.H V V x.V.VXmXyXd.i.}  .X.NXtXmXZX0X-.e.J q J I eX#X-XcXoX6X{.P.H P n y.5.0X2X",
"b p.a.7XkXnX-XwXv y 9.l.wX-XjXVXHXcXHX6XQ.l.l.}.}.VXcXc.x.O v v ).;XiX8.f.V v l.}.{.6X3X4X1XtXY.Y.X.@.U D A s.r.5XtXCXa.v.N y y y a XX2Xa.....e.5.I tX!.&.O.& 9 0 m M K.bXrXa.a. .@.u F U 7 a u 5.e.CXeX4XCX4XJXxXc.Z T S.V.vXGX1.8.3.xXjXHXvX>X3.3.vX:X*XB Z > > `.jX-X4.&.7.Q.#XeXnX!.@.@. .{ F T.^.ZXZXX.*.*.OXOXm.m.+.U.Q.K.I. XOX XCXKX4X$Xm.$X$XU.L.!.! G S U ! a.L.v.H.! ~ I =XI.oXm.n.JXsX*X>XxXLXcX4XoXkX5.&.a.a.5.&.v. X.X3X XS n.m.BX7X6.H Q H M : 5.4.kXlXkXwXVXl.c.( ( }.[.,X>XjX[.-XKX*XjXD.2.S.A.%XIXPX8.+ O B B b b v o o o M y O.+.Q.Q.VXwXjXcX*XcX:XDXcXHXxXc.c.) Q t.7.|.;X&Xb.A.C + + > : / l.l.l.V.Z.}.|.zXdXPXLXzXDXJXb.K.^ 8 %   O = = : : x O : x zXzXcXAXHX}.}.oX=XKX{.[.t.7.B.iXiXh.q.: Z 2.*X=XCXnX1X*.w. .@.O.OX XCXkXp.Q ! ~.L.XX~.Y.r.u.BXtX5.b.9.PXPX[.[.Z.;XzXzXjX}.LXHX=X=Xz.+... .@.*.J } g 7 o.G.T.d.u.e.e.5 a.s.3X8XBXI.H.6.7.K.4.+.y.7.v m H OX=XoX{.^ b M 0 m 5.NXNXMXJXlXcXcX:XcXxXPXPX0.8.H / vXPXPXx.9.}.HXjXcX:XxXHXLX;X`.l.9.V.:XLXPXKXkXm.H.r.v.5.@.U i.e.0XtXKXJ. X+.&.n.H.J.@. .<X@.-.i.s.9XZX<Xw...r.L.K.y.r.z.z.^ 6.j.JXBX7Xm.n.! I p a D A F G I p.CXKXeX4XKXKXlX2.3.qXGXgXk.c.Z.A.PXPXHXA.A.2.PXPX*X*X2.2.3.*XVXz.9.( S.S.VXrXyXe.;.{ { { yXtXZXmXe.A K  .@.@.I #X4.&.M.b.6XeXeX5.5.b 6.O.0X<X",
"b u.u.7XnXMXwXlX> ' l.x.:X>XwXlXVXMX*XvXx.8.Q.*XA.PXLXV.l.  Z C sX}.}.4.8.v v 8.[.Z.JXnXnXmX7X!.!.*.@.U G  .H.a.9XKXmXs.s.i b S A G U.1Xs.O.^ 5.O.! 1XXXG O.S b t ~ H #XOX$Xn.J... .u A A 7 r A r.r.NXKXnXeX=XJXPXV.V V A.].>X>X) 2.2.jXvXvXxXvX9.8.HX>X}.v Z : : A.:XjX7.2.t.-X#XrXtX!.*.*. . .g T.^.mXCX@.*.5.H..Xn. X&..Xm.#X XI.oXK.eXnXbXbX.X2X$Xv.m.s.! G I I 5.H.Y.m.a.H H ^  XI.OX=XoXMXHX;X%XPXPXcXoX4X#X5.r.r.r.X...<X~.J.OXL.H n.n.tXJXm.G Q m m 8 +.&.JXlXkXzXKXS.t.3.&.*X@X[.,X:X*XPXMX-X}.1.q.c.>XiXPXPXl.    v C v t 9 @ - @ y 5 *.6..XK.wXPXwX,X;XzXgXIXDX:X;XZ.x.Q Q 3.8.;X;X&X[.A.V O . = : / c.l.V.V.).*X}.iXiXDXLXDXsXKXb.m.! 8 % o o = = % x v . l v vXHXjX:XPX*X|.6X&XJXP.oX9.7.}.zX%Xq.f.= : 4.;X4XCXKX1X@.-.{  .O.XXtXKXPX5.! ! 1X<XY.J.<Xw.w.9XOXy.m.b.lX-X[.[.[.[.;XcXzX%XKXLXlXeXp.5.&.w.w.@.f L g F w.^.^.G.r.*.O.i e.r.1XtX7XU.H.t.6.z.+.^ b.6.8 = m  X=XoX{.) m M 0 b 5.JXNXlXMXlXHXvXcXDXvX:XxX0.9.V W HXcXcXl.A.>XPX6X>XzX:XcXPX6X&Xc.V.Z.cXzXwXJXCX#XW.a.v.*.U o.-.e.9XtXKXL.a...&.r.L.L...U 9Xi.i.s.s.mXCXmX! ..H.K.u.H.r.&.5.H z.z.7XBX3XH.U.G P n A D A D U N .XZXCXrX4XKXVXLX2.W vX>X>X4.c.].A.PXPXHXA.V.x.PXPXvX*X3.W 3.cX=Xp.x.) l.x.LXmXyX;.;.} #.{ 9XtXmXZX*.J K w.w.G ! m.7.6.P.P.4XkX=X6.0.m 5.@.7XtX",
"b z.n.eXnXnX-XwX/ W 9.c.@XHX:X-X>X>XPXHXlXjXB 4.b.HX6X*X[.: W &.DXvXDXV.|.).Z.8.c.9.oXQ.#XeX1X~.<X!.J.*.U U U D s.yX2XmXZXa.D - i - e.X.uXX.5.S I a.v.v.q 9 6 H Q Q.U.7Xa.m.O.G S A p u 4 D F w.7X7XeX.XNXKXKXC.V.|.}.*XHX;XgX*X3.8.l.xXHX>XHXPXE E V.*X:Xl.Z.Z.`.xX%X[.E B +.oX=XrXtX!.*.*.X.X.D /.~.yXmX@...S  XI.r.6.H 6.6..X3XOXkXOXkX7X4X4X4XeXbX#XeXrX!.W.e.O.8X8X1X3X7XJXI.3X4.j.'.{.OX&X;XjX*X;X[.-X@X6X#X!.1XO.I A 5 A +XXXKX7XO...^ bXNX X^ ^ b M v E C =X#XkXlXKX=X{.y : E.|.Z.E Z = oXC.PXPXc.V.,.*X%XcXjX*X: ; ; - n n u n G 5 9 i @ # y i P Q.Q.jXiXIXIXAXSXzXAXcXIXsXsX&Xc.8.B B . = Z 3.8.A.Z.Z.[.[.}.}.>XHXIXAXPX&X&Xz.H H - - 6 % ; y ; y 8 ; O , + ,.4.HXHXiXcX;X/ ( xXxXoXH v     ,.iXzXf.c.Q T x.6X4XeXNXL.@.@.U U r.7XNXeX5X^ v.v.5XyX9XmXw.K K w.@.!.{.#X*X*XwX:XxXHXIXIXAX;X;X*X;X4XQ.v.J.yXyX2XT.i.f 7 X.e.r.r.r.v.T.U.mX7XKXKX7XK.U.n.m.C.{.I.kX6Xm.n.M {.oX X{.+.M M b b @.KXJX6XkXcXc.l.>XqXPXPXLXLXPXl.l.9.PXLXPXjX}.HXLX2.9.2.2.sXPXMX9.8.W V.A.=X|.nXCXtX!.L.r.*.{ L F *.w.tXKXKXL.H.O.S S 9 n J./.0XJ D <XY.*.!  .XX7XG 6 t ! H n.bX=XeXnXm...G n S y n y U U y.K.nX2X-XKXPXP.P W ) 3.PXA.gXE ` [.Z.PXIXPXZ.A.A.PXPX( 8.O / ` >XPX@X*X8.x.x.VXnXmXi.i.=.*.X.tXtXrXmXe.~.T.yX9XH.r.z.@XwXwX6X=XeXKXwX=Xt.n.r. XL.",
"b n.m.kXeXnX-X-X8.V.>X|.( 4.0.VXlXHXvXcXzXjXl.7./ jXxXVXcXQ.jXwXsXjXvX}.[.gXAX)./ W 3.6..XnXNXNX8XmXmXH.*.@.{  .L s.u.mXCXmXv.e.F u 4 i G.~.~.w.e.1Xi q n G ! XXK.nX#XU.! ! G n & 5 Y J p e.a.mXNXrXeXKXkXQ 4.{.[.PXHXvXV.f.}.}.l.l.V.cXHX*XPXPXV E 2.:X:XPXHXPXPXsX7.+.: t 3.MX4XeXtX!.*.*.X.X.F 2X/.yXmX*...; 4 0 6.5.v.p.p.m.b.b.#X=XkXbX7XeXrXeXeXrXnXrX4X3Xy.5.7XO...n.U.OX7XBX X{.h.t.4.sX*X%X[.iX:XkXoX.X.XI.L.U Y F D A w.5.3XBX!.I M OX=X7X6.y.M M t : % p.b.kX6XlXVXJX8.+.KXxXHXB V = 3.+.4X6X( 2.l A.N.iXjXPX4.) # o 6 6 4 U U A 5 p p 8 & %   o O V Z 9.%X}.zXSXAX>XiXxXLXIXLXDX`.*XA.l.x.,XV.}.>X,XDXPXPXIXUX*X|.3.3.x v - . # y p N y y s ; : y 8 O . > %X>XGXzXAXHX}.W Q -XdXdXt.Z.,./ iXPXIXf.f._ W {.CXCXeX5Xw.#. .J U <XKXCXv.m.^ 4X2X~.T.d.s.{ A q q 9 XXW.W.wXMXHX|.|.cXzX*XiX:X:X;XZ.b.{.$X5XtX<XY.yXZX/.2X~.uX0X2XXX5X5XtXeX#X3X3X#XoX3X4X6X{.3XoXoX=Xn.z.M {.oX{.{.+.M M m 0 +.KXKX6XwXUXW E x.x.:XjX;XPX*XPXHXl./ ) ( 9.HXzXHX  . O , cXLXPX}.[.2.x.c.[.Z.-XMXKXKXKX+Xe.e.=.*.@.U r.5XtXZXKXH.H G G S G mXyXu.G.D D @.5X5X....n 6 9 a.r.3XJX7XM.y.I S G n H i G P v.L.ZXnXCXKXrXlXKXb.wX[.>X|.PXV.}.v l [.[.HXPXPX}.}.V.vXcX9.8.E 9.V.PXlXV.A.4.c.l.VXVXyXi.d.-.-.o.yXtXKXuX*./.Y.<X~.!.1Xp.oX-XwXKX4X7X@XlXCXCXMXCXBX7X",
"9 H.L.kXrXnX-X=Xl.9.V.,X9.9.0.HXPXxXVXcXlXPX[._ 3.jXVXcXwX@XlX*X*XxX%X;X|.HXzX;X/ ) 2.5.6XCXeX4X8XtXyXL.-.-.{ #.L d.s.yX0XuXs.d.D S - q s.~.<Xs.r.v.n n G i ! !..X.X$XH.O.G i i 5 5 i D p e.v.tXnXbX=XbXkX6.+.P.Z.PXcXPXS.l.>X[.x.x.x.cXcX:XHXHXB V 3.qXjXPXcXvXxX;X9.3.: y &.#X4XnXnXW.@.*.X.o.U /.<XyXmXw.*.; 9 0 y.5.z.a.p.a.m.C.OXkXkXJXbXMXkXbXeXCXMXeX#XOX6.u.7X..+.U.I.I.bXOX=X{.t.t.5.;XzX[.A.;XzXwX=XeX#XH.s.!  .p D f *.5.NXmX.Xi G OXW.CXn.t.v M M : t y.t.VXkX6XKXKX4.7.>XvXDXV B O 7.6.{.;X4.8.Z V.V.AX:XDX4.4.. # n a 5 L F r 5 u 5 6 & 6 X . . v C 0.>X>XIXGXzX>XiXzXAXIXPXPX*X}.D.D.x.:X,X>X}.,X:XvXvXPXLX[.}.&.2.v 0 # # # t s s ; 6 y s 6 y : %   l ).[.%X;XPXIXN.V C =XsXdXA.h.( W [.HXPXc.8.) ) oXkXNX1X4Xe.o.#.J J 2XKXKXa.p.O.XX~.~.<Xu.F.J J A K S +X X.XkXlXkX[.E.cXvXvXjX}.sXjXC.p.Q.tXyX<X<XJ.yXuX/./.!.uXuXuX7XmX4XnXrXrX#X$X=X=X#X4X7X X=XOX3XkXt.y.H oXoX{.{.^ m M x 0 +.NXMXwXcXVXP P Z.E.vXvXcXxXcXPXPXh.W / 3.t.cX:XsXO = > : sXxXxX{.b.8.l.x.V.[.@X6XbXPXKX X5.d. .X.U U *.tXKXKXNXn.b A n ~ I 2X2XJ.T.A A O.~.8X..O.i 9 t s.6.8XtXCXU.5.G M S i b t N ! L.W.4XnXeXKXPXPXJXz.A.}.Q.A.vXjX}.v l A.|.HXPXPX|.}.3.vXUXl.9.E l.V.HXPXA.x.3.S.c.kXrXuXi.i.o.@.o.BXtXnXrX*.G.G.<X~.~.L.a.{.#XVXPX4X=XoXMXMXKXFXJX6X=X",
"9 U.I.eX4XnXwX-XM.Z.IXLX/ + . 3.&.cX*X;XMXlXPX}.[.l.c.:XLX|.;XlXHXxXZ > l %X;XjXq.( v ; 7.K.OX4XtX1X5XtXJ.^.-.*.L } L i.d.uX9XZXe.v.6 A A s.Y.yXBXI 6 n ..&.1XXX1XK.K.P i i n 9 S S S a.J.mX5X5XW.kXMXlX0.v y lXzXHX8.(   + 2.3.l.x.9.HXxXHXcXxX( 3.>XvXvXx.l.) <.B.Z.}./ E 0.-X4XnXnXW.O.*.X.@.{ /.<XyXtX*.@.; 5.5.U.I.v.2X.XrX4X.X{. Xn.K.t.p.b.m.m.4XeXbX3XOX5.6.7XI.+Xn.U.BXm.m.b H v 0 U.9.c.}.gX>X|.oX4XeXr.v.L.*.*.J { a i t n.K.tX&.5.+.5.7XK.P.H Q H ; 8 W Q 6XkXkXPXPXV.oX[.PXPX;XzX*X6X7XoX=X9.h.Z 2.2.;X&XKX`.6X# % p 7 4 a a r F L r y 6 8 ; % ; : : : Z B q.8.).GXAXzXcXzXiX;XsX:X|.}.[.qXgXgX>XIXvXqXS.M.9.Z ) ; v > - o i ; M s D 6 & & y - 8 8 . . ,.AXHXIXHXLXHX*X|.P.PX6XkXkXjXPXLXLXA.c.Q ( 3.7.kXMXCX~.!.O.U o.*.*.yXyXtXO...&.XX~.2X2XX.o.J J K #.*.u.a.v.#X}.-XlXqXlX*XHXcX8.8.z.p.p.U.5XtXU.2XT.2X~.0X/.~.uX4X1X1XmX4XZXCXKXnX4X4X.Xm.b.b.C.I.C.z.6.; 0 H oX=X XI./ b m 0 x +.kXkXlXJXVX8.2.E.S.V.[.PXiX:XMXxXPX8.9.B v MXPXzXB.[.l.V.HXLXMXHXjXPXjX@Xl.t.Q.wXkXMXnXBX5X<X*.e.*.*.U *. .ZXZXCX XH.H S n w.*.NX9X ...<Xe.w.A n n L.m.1X1XmXv.u.P H H H n N M ! ^ m.CXmXVXeXPX@X-X0.6.MXPXPXcXqX[.cX>X4.4.[.*XHXPXcXx.x.Z A.Z.*XjXPXPXPXxX-X( ) W S.S.VXVXyXe.i.#.o.o.NXnXmXyXO.D K u.u.w.w.W.#XQ.{.oX.XeXkXJXMXlXMXJXMXMX",
"q I.I.eXeXVX6XqXx.E.HXPX/   O 3.4.cX-X}.HXPXPX}.-X9.c.HXlX}.:X:XcXMXZ v = *XiXvX8.3.> : 6.K..XeXeX1X5XyXJ.^.o.-.[ L } -.-.0XyXZXi.e.f a a !.J.tXBXG i - 5.5.L.5X7XH.H.P S 9 i 8 S t S m.n.NXmXOX$X-XlXJX9.B v kXjXPX) 0.+   3.2.x.l.x.vXjXcXHXjX2.2.:XxXPXl.l.) ( c.|.|.Q W 3.-X4XtXnXW.O.*.X.o.U /.<XyX9X*.5.- 5.e.!.n.K.4X!.#XeX!. XL.m.M.p.n.b.W.M.7XbX7X#X X6.y.8XU.8XU.m.dXn.K.x b H M z.t.c.[.jX*X[.oX=XKXr.v.s.*.*.U D A u 9 n. X3X..5.O.+.NXI.I.Q Q M 0 0 G / MX4XeXPXPX{.A.`.PXKX-X;X&X7X=XdX=Xx.0.v 4.4.jX}.PXoXoX# - p 6 7 a f f D L r r 5 u ; % : ; y = V E ( k.N.IXgXGXzXzXxX;X6X6X,X[.[.vXgXgXGXGXgXgXx.x.D.P M y t 0 = # 8 s y p N ; & y 6 6 6 ; . + ) zXLXAXcXPXLXV.*X*X:XLXMXMXMXLXAXLXB.B.) W 3.3.eXeXKX!.Y.*.{ L w.*.yXuXKX~ ~ e.!.T.2X0X#.@.{ F J @.@.s.v.a..X@X4XjXkX-X-XHXHX7.t.0.t.C.b.mXtX1XJ.J.<X2X2X/.+X5XtXrX.XtX5XnXCXKXwX.XrXm.K.n.m.b.I.P.6.z.8 0 H =X=XK.=X^ v M 0 0 +.kXbXlXMXcX3.q.V.E.V.}.cXAXjXcXPXHX9.t.B v HXHXDXx.P.V.V.HXxXLXxX=XPX}.*Xx.c.Q.wX6XJXJXKXW.2X*.*.w.*.U X.O.CXtXKXG.L.A J i @.*.NXmX .@.L.e.e.J 9 S Y.s.1X5XKXr.a.D G S n n b N ~ ^ n.KXCXeX6XPX=X-X0.0.MXPXPXvX:X[.xXxX2.( [.E.PXPXPXx.x.v V.A.:X>XPXPXPXxXjX_ W E V.A.lXnXyXu.d.{ o.@.yXbXtXtX&.A G s.e.e.r.K.$X$X$Xm.eX8XMXlXJXkXKXNXMXMX",
"q I.I.kXbXCX6XwX3.3.@XjX[.W B E C V.PXHX;XQ.zXPXlXwX-XP v 3.jX:X6X[.: = = [.,XpXZ.}.8.0.0.3.9.{.4XtXtXtX0XuXF.d.=.{ } [ o.d.9XyXCXCXr.e.5 o.J u.5.q ! O.L..X5XH.r.....M i t b S S M v.rXbX4XeXnXPXjXV.9.M.-X|.-X:XcX2.7.. . 8.3.V.x.x.jXjXcXHXxXl.l.PXvX*XB : .   c.jX;X0.8.6.eX4XtXtXL.O.*.X.X.J /./.mXNX....G <XH.a.r.4X.Xv.p.6.P P b i H & ; & 8 b r.M.U.! ~ m x 5.5.~ H +.#Xm.t.0 0 ^ 5.K.C.l.).}.Z.oX4XK.U.!.~.!.e.-.D A D 6 0 e.e.XXa.z.M M =X=XkX4.4.C m m v 0 K.K.eXMXkXjXjXl.V.P.cXHXxXPXJXKXzXPXLX9./ W A.V.MXcXMXH H q f f f a a g f D D p p y y s - ; : E C v c l B _ 9.N.*XjXxXJXlXqXjXvXGXGXpX>XS.B ` : v C y i - ; b N N i s 6 6 g 6 6 6 ; ; & % O > Z.zXzXPXHXjX;X}.PXPX=X=Xn.xX=XzX`.h.v Z R <.B.b.CX5XtXu.d.X.U L G.J.KXW..XS S m.$X<XY.J.{ #.#.K J e.F.~.8X1XnX#XlX-X=X6XkXlXJXC.O - ; b eX.X2X1X5X5X2X<X~.~.J.W.K.!.W.a.m.v.a.W.oX$XlXKXCXPXMXlXK.m.y.z.b 0 M =X3XK.oX~ v M 0 x +.BXNXkXMXlX@X:XPXDX[.[.9.}.;XxXjXHXPXHX[.B.Z.6XPXcXvX[.[.KX&XP.+./ MXPXHXl.c.) x.b.;X=XJXKXtX!.L.d.w. .X. .X.r.9XyXKXG.v.G G p s.L.9XCXH.G i J A r.1XtX5XmXe.D I S S H N N ^ ^ W..XnX#XwXeXKX}.^ Q 3.t.cXcX:X/ W W Z.[.8.V.Z.A.HXHXPXA.A./ PXHXPX:XjX*X*X*XjX2.2._ V.).cXlXyXd.F.#.o.@.9XtXmXeX..G i X.w.!.~.$X=X$X4X4XnXeXMXbXNXbXCXkXJXMX",
"q I.I.kXnXCXwXwX` C x.A.UX:XjX:XcXc.A.[.jXjXzX:XcXPXHX{.A.V cXHXjXMX|.x.f.zXAXIX|.iXzXPX*X0.4.6.5.W.Q.1XyXmX2X/.d.-.-.F F a G.s.~.2XyXmXG.D q q p I 1XtXOXXXL.! O.p 9 p n H b n m.U.CX=XkXkXCXMXW q.:XjXHXcX:X[.Q.HXcXPX9.0.cX}.x.V.x.:X>XvXcXxX3.2.>X,X*X2.9.2.3.;XcXjX+.^ 3.}.4XeXtXL.O.@.X.X.F /.~.mXCXI I &. XI.v.a.K.O.&.y.a.v.G ! G I e.r.v.6.5.!.U. XI ..- O - H J OX3X8XXX7XoX X.XU.C.Q.oX^ H b.PXPXI.XXu.y.s.O.*.p F  .9 t 5...!.!.I.0 b I.lXJXt.z.M B H ; # 5.y.MXMXlXPXPX2.Z H Z.A.x.Q ~ 3.5.LXPX>X) ,.c.l.*XPXPXz.t.- A q 6 5 7 F F F L D p p S n % # B B v , O > , O , , > 0 ^ m.C.VXUX[.1.%.T B = , =   + y N M - # t N S & 6 ; r D s p 6 8 - .   B V IXzX*XPXGXV.).}.xXxXh.3.O / <.|.|.B.B Z ,.8.oXOXKX$X~.*.*.U o.X.2X5XKX*.&.t M $X1XyXs.i. .#.@.F J *.e.a.Y.!.rX$XKX.Xm.m.C. XoXoXc.0.b v $XrX4Xs.y.! p D a i y.r.e.m.m.H I t H t : y 8 M N M.n.MXbXbX=XP.4.5.M =X7XP.{.~ b M m b O.KXJXkXzXlXZ.Z.:XHXcXHX) 9.l.LXHXjXHX:XPXPX`.l.3.9.Z.vXDXPXm v . + Z.PXPXZ.|.E l.t.Z.b.&XKXKXKXZX2X!.r.5.*.D J @.NXKX9XmXY.i q O.G !.XXU p G v.d.tXuXmXs.s.U p a G n P P I Q.m.CX4XVXnXPXPXLXp.A.|.|.[.PXA.[.= = B |.[.0.8.[.|.cXPXPX*X*Xx.cXPXA.|.= W W PXHXc.B.2.A.).cXwXmXs.J.o.@.@.9XtXKXCX! r.u.<XY.Y.L.rXnX4XK.v.6.e.+.^ ~ I Q ~ Z.P.",
"q U.K.7XeXVX6X:XZ B V.x.:X-XjXwXzXV.A.[.VXlXHXVXjXPX6X|.|.V vXVX6X;X|.9.c.zXGXiX%X].AXjX*X7.9.2.2.6X.XnXmXuX/.2XF.=.-.{ #.J G.e.mX2XNX2XY.q K 6 9 5.5XtXv.L.m.O. .p u n S S n b C.K.4XVX6X6XHXjX3.( |.*XPXwXjXS.c.xXUXqXp.x.:X*Xl.x.x.:X:XxXcXcX3.3.|.*X}.q.8.( 7.`.:XcX/ C 8.kX4XtXtXL.O.@. .X.J /./.yXNX! ! w.H.H.m.v.5.&.5.d.e.L.I O.U Y r.a.w.e.r.OX+X!. ...o # - H ! 8XOX XOX7XOXOX4X.XL.W.P.^ &.Q.KXnX!.L.r.e.v.*.*.p A p n i 6.&.!.I. Xn H z.7XbXb.I.M C H ; - ^ ^ MXlXMXLXPX3.C V {.`.b.Q W 3.3.PXcXAX4.( 9.f.:XKXJXp.0.- A 5 5 5 6 D D D F D D g p s @ % ^ M v , , c , , , = > ; +. XW.wXjXE./ 1.T V > > >     ; G D & & 6 y Y & r u g g p N - 8 ; X + W V xXzXiXPXPXN.V.jXcXcXh.t.  E W &X>Xc.B Z 7.3.=X=XZX!.T.o.=.{ X.U 2X5XKX^ &.^ H 4X7XmXu.s. .#.{ J  .e.w.s.L.~.5XXXKXL. XI.u.oX@X@Xp.9.H t m.4X2Xr.a.O.S U p u 6.6.5.n.a.G G b M b b b t b H C. XlXJXNX3X{.6.2.H 6XlXI.I.~ M M b b O.JXKXkXlXlXV.Z.vXHXxXvX8.x.9.zXzX;XxXjXPXPX[.9.9.l.x.HX:XsXm C = , Z.cXPX].V./ l.x.V.`.6XJXbXnXeXtX5Xr.X.w.U U X.yXmXCXmX1XS S S S XX<XU I n v.G.2XyXmXG.s.Y Y p D 9 b ^ P K.U.wXPXlXlXKXPXPXc.[.[.x.[.PXZ.|.= O v x.|.V.x.[.,XxXPXPX|.[.A.PXPXV.|.= E E HXLX`.&Xq.N.V.cXkXmXs.J.o.o.@.fXBXeXZXP r.r.2X2XL.J.5X.X#XW.L.w.....+...^ H H Q.Q.",
"b L.U.4XrXVX6XwX&./ V.V.Z.l.9.8.0.A.0.7.Z.A.wXjX:XVXPXcXHX}.l.x.jXcXHX*X;XIXSXN.> c %X%XcX9.l.C x l.4.4XeX5X~.0XmXd.w.#.o. . .A *.i./.yX9Xu.u.X...!.1X9XL.v.! 9 u u Y A Y I v.!.CXMX4XMXwXcXcXV W 3.PXjX@X/ 2.v P *XlX*XE.Z.x.V.3.x.V.jXxXHXHXHXv Z 2.|.*X>XjXjXzXPXl.3.W ^ 4.oX4XtXnXW.O.@. .X.U <X0X9X5X*.e.5.v.K.1X1XI K.Q.$X2X^.0X0X5XmXs.H.v.+X!.XX<XL.Y.L.U.'. XBX3X3XI.NX3X7XK..XnXeXnXmXmXI H P ! O.H.W.a.5.5.G I G ..I i i e.y.W.W. XH M +.6XeXI.OXH H M 0 0 H M 3X3X3XPXKXA.3.4.KXPX[.+ O : : [.A.>XE T / ) *XxXPX@X4X8 b b I Y 5 4 < g D D L D r 5 * o ~ M C > > l + , , , O . % S y ^ / ` > Z > c > = > .   - P D & - & ; ! p g 5 r s u i # 8 ; = > A.h.AXDXcXjXzXC Z Z.6X6X9.z.- h.3.DXIXN.E E Z.x.-X6XtXJ.J.*.o.U s.r.NXyX7XS M H Q OXmXmXe.s.J { #.#.{ *. .J.2XtX5XrX7X....~ ~ BXkXkX-XeXVXrX4XtXZX#XnXH... .D G a.r.y.a.y.n.M.Q.y.y.I b 6.m.n.+.+.+.7XkX3X6XC.z.Q 3XkXI.K.~ M M b b +.JXKXlXMXVXV _ A.*XxXvX;XA.h.c.Z.zXHXPXHXxXPXc.3.v 0 }.>XPXB.z.Q E jXPXPX}.gX,X[.}.9.x.`.}.bXJXnXKXCXJ.@.e.@.*. .X.U yX9X0Xv.v.I G J S S e.u.ZXyX2Xs.d.D p u G G D G X.!.U.CXKXVXkXwXVX@X3.8.xXPXPX;X;XjXPXLX( 7.A.}.{.3.2.[.*XcXPXPX[.[.[.HXvX2.9.. V W HXLX[.;X8.N.S.HXCXmXs.F.#.X.@.bXmXKXKX^ L.v.9XmX!.XX5Xr.p.5.+.! q n S S n 0 8 p.b.",
"m I.K.4XeXCXwXwXW _ l.Q.[.0.p.p.8.*X8.3.S.[.lXjXVX:XjXLXPX:X8.l.6XHXxX:X%XgXzXc.v l |.A.AXN.B.v C 8.( =XnXtX2X2X0Xd.d.*.o.#.G U i.G.9X0X0XF.u. .O.+X!.7X~.v.G b A a D 5 S A v.I.CXkX6X6XHXcXIXE _ / jXVXvXE / v y *XVXlX@X|.D.x.) l.x.:XcXHXHXPXV V 2.[.|.>XvXxX>XcXl.9.V Z 3.kX4XnXnXW.O.@. . .U <X9X2X2Xr.v.e.v.W.$XXX5 !.~.rXyXG.uXuX0XuXG.L.s.8X0X5X9XJ.+XH.m.'.U. X#X<XI.BX4X7XQ..XtX5XtXZXCXJ G  .O...s.v.s.6.&.P I ! ~ b i n y.n.H.3XOXH H G kXlX3XOX) M M 0 0 v b .X7X=XPXPX;X9.7.PXPXA.+ + > > ).gXIX_ ( ( / ,X:XcX:XwXB - ; G G u 4 < D D D L g 5 5 & % G M Q : ' > O . + + + o - G D ^ W C : c = c : = = O X 6 Y D r 6 * * Y D D r u u u n ; 0 # = , B.`.sXAXIXcXzXT E }.xX;Xt.t.0 3.h.zXIXc._ Q V.c.MXbX5Xs.s.o.} J e.u.NXNXOXI C +.~  XJXmXe.i.J  .{ #.X.*.=.T.XXL.L.yX5X5.O.! G 1X=X-XVX#XwXCX$XnXKXrXtXm.O...Y D e.r.y.y.5.U.n.L.y.5.S M n.K.Q.&.4.) NXMXbX6Xm.n./ =X3XK.K.Q M M b b +.MXNXlXVXVXW W S.|.PXPXPXZ.}.9.l.jXMXHXcXHXHXl.7.: : [.*XLXA.h.) ( -XjXPX*X:XcX|.jX9.c.A.jX=XJXMXBXBXXXw.*.@.*.*.X.X.yX2XKXL.n.S ! n n I 5.e.tXtX0X*.r.Y  .D U D y u U Q.m.nXnXnXoXJX-X*X9.f.HX:XPX}.cX:XPXHX( 4.A.[.[.3.8.}.*XIXPXPX[.*X[.PXPX3.0.. Q W HXPX|.%X8.N.N.cXCXyXd.F.{ X.@.bXBXCXnX~ I.L.2X9X!.eX!.6.6.&.+.! 5 4 q n A m b 0.p.",
"m I.K.7XkXCX-X-XM.|.PXIX*Xv :   . 9.*X@X&.( S.VX:XLXjXLXLXHXjX{.p.t.) *XzXPXzX1.    q.c.cX|.Z.W W 1.( 0.W.~.uXuXyXuX0X/.G.@.J #.q A e.-.0X0XyX<X~.tXG.a.! G S G A 5 p  .G.W.CXNXeX#XMXLX:X8.8.A.[.x.DXPXUXv : O O A.lXVX9.) : ; ( V.A.jXcXcXvXcXB E A.HXPX:X:X|.&X`.3.0.: : 0.-X4XtXnXW.O.@.{  .J 0X9X<X5Xw.e.n.1XL...*.8 W.v.W.T.} =.=.*.U *.*.-.e.e.e.s.G.Y.<XNXLXBX3XY.bX7X3X6...! ..v.!.v.~.L.d.s.p 6 i O...a...n S ~ n.OXOX..O.n.L.p.4X1X^ +.v oXOXkX3Xt.m M v b 0 v z.kXkXMXNXMXz.b.cXLX6Xx.9.p.3.[.%X).Z Z l B A.UXVXLXlX3.# o - ; a u f g g a f f f D 5 D I ~ ^ : ' + = O > : v t i D n b Z B ` V c c = O , O % y D p r p s r g D F p D y y t 8 0 . x : dXxXDXIXHX;X[.8.0.%XjXDXLXPX=XJXIXiX&Xq.4.<.[.}.KXNX+X5.*. .{ { ~.XXKXZXn.b 0 5.5.OX7X9XG.F.u.i.Y.i.-.D Y -.yXCX+XG.S & n s.G.5X4XVX-XVX#XK.CX$X=X4XtXtXyXmX5X+XOX7X7XBXtX7XOXU.W.8XNXKX4X6.y.#XeXy.t.y.JXJXoXI.4.OXOXP.P.~ C M 0 b O.bXbXMXJXlXE / V.x.[.*X:XiX:X}.x.Z.xXvXPXcXKXHXPXZ.l.P.>XMXcXkX6X;XPX:XcXS.l.gXHXPXN.f.<.A.|.xXkXJXCXNX~.~.u.*.L D F *.*.yXKXJXOXL.I I r.9XyXZXyXH.U U u p p g p U  .L.CXKXeXwXKXPXHXB E V.A.LXiXLXQ ) Z.LXPXV.{.{.oXP.4.) [.A.HXIXHXx.V.2.|.x.V.l.[.*XxXHXPXc.c.2.A.S.zXMXmXu.s.{ X.@.9XbXbXnXe. Xv.Y.9X1X!.5.m.$XeXCX9XJ.Y.+XtX9XtX$X4X4X",
"i L.K.eXnXCX=X@X[.@XVX:XjXZ Q % > 0.zXcXW W 4.*XjX>XcXjXjXKXlXPX|.V.V }.|.vXIXA._ _ >XgXzX%X;X*X}.|.|.3.p.6.4X4X~.0X<XyXCXu.@. .#.{ K J w.0XY.~.T.G...X.n A G p A p F J.tX5X5X!.MXPX*X2.2.AX|.PX>X}.jX*XHXV.|.3.2.cXcX-XZ V W ) 0.}.,XcXHXcXjXxX9.9.cX>X|.V C > = `.*X;X3.) 0.@X-XeXtXL...o.U { J yX9X+X9XO. .H.5X1XG ! y 6.e.2X<XD d.s./.2X<X~.s.r.s.Y.~.2Xu.v.5...b +.@.8X9X!.; i a.v.!.!.6.!.!.L.J.G J p J U n t H m.!.bX=XI.K.H. X3Xe..XOXy.6.- t.z.lXMX.XH H b N 0 ; ~  X7X6XMXPX[.}.Z.{.PXHXjXPXPXPXGXIX>X|.( E q.,X}.PXUX@X; # o o p a p g g r r f { o.g A i I ^ y v   : : B Z C H b S G b N v C Z C ` : O O = ; n D p p s Y D s p s 6 6 6 & o o % + 4.7.PXxXAXLXDX|.V.DXAXHXxXjXMX=X{.}.|./ W T f.x.;X4XNXbXL...X.{ X.=.yXtXKXBX4.; 8 C.n.7XI.<X!.!.mX2X2X^.uXe.*.G s.G.e.e.J G S Y.Y.Y..X0.CX6X^ ) p.eX4XZXtX1X$X5XmXKX3XBX7XJXKX3X7Xn.m.n.M.U.y.5.O.#X.X6.Q Q JXeXoXOX0.=XoX{.{.^ H H 0 m 5.bXbXMXHXwXV.A.HXjXxX}.V V B 6XjXc.A.0.LXcXxXcXHXHXPX:X;Xx.oX&X-X*X:X9.2.O , 0.PXPX}.A./ h.9.x.B.bXNXNX0XZX^.^.d.-.*.D p @.7X7XKXNX1X8X1XtXtXs.s.A A n U F D Y ! J.J.ZXnXnXrXPX*X[.A.8.l.,X|.PXN.9..   / PXKX{.*XQ C H / 2.[.V.PXPXPXx.l.v [.*XPXcXPXPXcXjX-XW W E S.A.cXVXmXu.d.} o.@.7X7XwXeXa.OX1XmX!.! ! ~ KXnXr.w.u.0X<XJ.s.@.e.a.K.OX",
"b I.n.nXNXkX=X@X|.|.cXjX>XV B = : l.sXMX_ E ) lX*XlXwXkXVXwXPXKX|.A.B ].>XPX>XZ.E ) ;X%XGX|.;X%X%X[.%X9.f.0.gX}.@XqXnXCXtX~. . .U J D J *.<X<X/.2Xs.X.U D 6 J f f D F ~.2XyXXX=XHXPX;X4.q.,X%XIXiX].zXzXcX[.).3.8.cXzX:XH C ) ) 9.*X:XHXlXcXHXsX9.9.xX>X*XE B : > }.oX}.<.4.4.-X4XeXeXL.O.X.U U U 0X9X<X8XO.*.a.3X1XI I 4 r.J.~.<XF a.v.!.0X~.<Xs.e.u.8XL.XXa.a.&.&.b +.O.8X7XXX9 6 m.L.I.W.y.L.W.G.a.X.A A A U A n i m..XbX4X.XJ.L.$X!.v.W..Xa.p.- p.y.kX7XI.H G 8 S 6 i M 7XOXeXbXVXZ.{.Z.`.PXDXvXPXGXIXGXGXpX,XW W ( |.jXIXUX@X; % o o N u p A A u < L U L D D 9 ....; p   9 9 b M H H B Z E Z Z v v C H m 8 X # % ; P i p p p g D p r s s r 6 % % o o . 8.8.LXzXAXPXHX).Z.cXzXlXxXVXkXwX=XZ.|._ E _ 9.9.6X4XbXZXv.*. .{ F *.ZXkXkXPX+.> x B.B.6X XXXI.$X5XyX$X1X5X*.*.G J.H.u.5.J A S ~.Y.Y.L.n.nXnX^ +.5.lX=XtXZXQ.1XyXZXKX8XNX8XJXNXBX<XU.m.n.H.m.r.O.&.XX.X+.~ Q eXNX{.3Xp..XoXW. X^ M G 0 0 5.bXJXMXMXwXA.E.cXxX*XvXv R B sXsXA.l.l.xXcXHXHXUXPXHXwXwXx.*X[.>X;XcX8.3.+ O l.DXLX|.A.) 9.0.B.c.MXNXNXCXyX/.Y.w.*.X.A S O.mXOXKXBX3X5X3XtXmXv.a.G G p S n p } ! v.v.tXmXVXlXPX*X>Xc.k.c.%XiXHXV.c.    3.DXLX|.&XV Q R ) ( A.*X:XPXPXx.l.v *X[.HXPXHXPXHX>X>XW E W A.S.cXnXmXd.F.X.X.@.BXtXlX4Xv.+X9X<X<X .I ..CXCXe.d.r.0X<XJ.r.5.y.e.!.$X",
"0 U.m.MXJXVXMXVX&.( ].|.PX[.:XZ.h.P.h.t.> v ) qXvXqX*XcXMXoXwXlXPXPX|.S.0.*XcXPX[.Z.iX>XIX,.W Z.=XcXAXl.E B q.0.pXvX*X-XnXmXG.J.*.*.{ D D -.d.J.i.F r r D D D D U G.J.mXrX5XeXKX*X[.v q.S.PXGXpXZ T 9.c.AX>XcXgXjX6Xt.l.) 4.t.4.}.lX:X6X}.jXcXcX2.4.xXiX*X: > : : }.-X6X3.2.4.=X4XeXeXL.X.X.U { U 0X9X1XtXr.a.H.L.I.I ! S s.s.s.G.r.2X1X*.X.q 5 i A F !.L.u.p 6 8 b 9 n.G.ZX5X5.9 - y.y.H..X.X=XU.O.I G J U F A A s.H.CX4XI.K.p.v.a.H.~.U.v.K.!.#X0 M P oX=XOX+.5.D I 6 ; 8 XX5XbX6XMXMXjX^ B p.,X%X%X].c.x.,XgXvXc.x.3.A.S.>XqXlXP C ; = P t y o @ ; 5 L D g r D Y u u $ < r f A F M M E W ` B y : t M N y b G S n & # i i N s u s s s r r y & p ; ; o O - &X:XDXDXAXc.c.&X;XcXPX}.; = Z W [.S.l.l > W P.P.KXNXrX7Xr.*.X.{ U s.JXPX`.b.x Q <.`.[.oXP.OXeXCX4X!.5.#XmXeX1X! ! I G I G q 4 e.s.yXNX X$X.XP ^ ^ $XrXeX2X&..... .O.v.8XOX8X+Xu.v.!.1X4X5XmXK.v.y.2X.XI N m 3XnX#X6Xy..X#X.XOX^ b m 0 0 6.nXFXkXzXwXA.|.IXPXjXjX= > x &X;X}.7.q.Z.E.cXcXqXHXLXLXlXl.v V Z.*XPXl.x.: l V.HXPXcXDXA.B.A.c.7.Z.P.#XtXmXyXyXY.e.e.*.O.! I  .9XtXNXtX1X!.v.S n y P P P n ..J.~.KXmXmXKXCX=XwXc.l.AXPXGXIX>XLXsXxXV B Z.PXPX[.`.v _ 4.V.V.jXvXvXHXcXV.[.3.PXPXPXHXx.V.V.*X-X2.2.( A.S.VXVXyXu.F.#.#.@.mXBXCXeXm.1X9XY.T.J G n $XyXa.s.{ *.e.G.Y.0XXX<XtX1X",
"8 U.U.bXlXlXzXVX2./ E.V.PX*XiXV.}.}.3.0.= : &.:XqX*X>XcXVXwXkXMXPXHX>X0.l.jXHXcXZ.].zXvXjXW E ;XA.HXHX|._ Q 1.3.,XPXjXkXnX5Xv.u.{ X.U Y D *.e.F.T. .f 6 7 f 5 U A ~.~.yXeXrXeXKX}.}.Z c.q.GXIX>XZ E 0.q.PX:XiX}.-X}.l.p.4.( z.z.wXcXcXjX;XHXcXHX9.l.cX;X%X: : v v V.|.;X( ) 8.wX6XeXtXY.O.o.U { U yX9XXX9Xr.u.n.!.L.G S J J.J.s.s.~.J.~.O.*.n 9 4 J S ~.XXe.5 5 M i & a.v.mXCX5.9 8 y.u. X.X=Xp.L.! G U U U D p p r.G.KXKXz.b.p.U.s.a.J.L.v.v..X3X~ - b oX4X3X&.O.i S y t 9 U.OXeXkXlXJXcX_ C 9.%X>XS.,X9.D.,XPXUXS.x.W E.[.UXUXlXQ Q % % P ; - o @ 5 s F g F f 5 F a a * @ D L F F S M ~ W B v : : t N N t b G n n % & 8 N S N s g p s g s ; & y ; :   . : *X>XzXzXPXc.A.&X).HX-X@X= : / B oXp.9.: > ) {.Z.MXKXmX7Xe.=. .F J G.KXKXA.C.0 R ) `.{.P.oX#XnXCXnXeXa.5XXXeX8X&.~ O...! J p n w.*.9X8X!.W.$X~ &.I wX.XwX=X*...O.*.*.n.7X#X<X3X5.y.I.7X4X4X5X~.K.n.#X.XS b v OX3X7XeXr.OX#XOXOX^ t t 8 0 e.MXMX4X6XwX*X*XPXPX:X:X: : x `.}.;X<.4.V.V.vXcXjXcXHXKXcXV.: V [.*XPXN.B.: : l.zXHX:XjX*XZ.A.0.c.[.Q.bXNXmXNXmXY...*.+.5.! O.@.1X<XKXZX7XH.H.S i S P G N 6 ! L.~.mXZXrXCXKXkX;X[.q.AXPXIX>XcXPX:X[.V V Z.PXPXV.x.v 4.3.V.V.cXcXcXcXvXV.V.l.PXPXvXHX8.A.l.sX}.8.9.1.x.c.cXnXyXd.s.} #.@.mXmXnXrXv.7X0XJ.G.G G 9 W.5Xs.G.{ -.w.J.<XtXL.1XZXtX",
"x I.I.7X4XwX=XwXZ v 0.0.>XvXHXxXzXsXt.V.: : 3.*X,XkXVX:X:XlXkXoXPXHXPXqX:Xx.S.8.}.[.PXIX4.  . _ 4.jXcX>X_ W T B 8.-X|.-X4XtXmXZXu.i.X. .J U F A F A f D D F U G.~.KX1X+XrXCX#X6X&.l.3.}.[.HXIXq.+ O B B zXjXiX3.2.) ^ 4.z.x.@XoX6X:XlXjX-XLX-XvX( 3.B.B.%Xl.N.Z.Z.zX;X}.E V 3.-X6XkXtXL.O.O.U { U 9X0XXX<XO.*.r.H.H.G D X.~.T.e.*.XXO.*.9 S S I i d.w.NXtXe.i G i y - +XY.mXNX! - 4 +.+.I.{.JXM.a.S D ! S A D J s.mXXXe.a.U.oXm.tXrXL.m.1X4XW.W.n.OX5.5.K.m.=Xp.a.n n n S 6 ^ ^ MXJXwXMXHX3.3.[.PXPXq.3.. + / vXIX:X*X` 0.3.|.-XPX9.0.> > &.M N y y D p a r g 7 r $ 1 7 g r r g D D G ^ ^ m : v > : y v M P H i n G 9 a & % % % 6 N s u g s % % & - 8   + E HXDXSX>XIX( / 2.<.PXHX|.    / Q HX[.*X( W 9.-X{.VXKXW.L.*.X. .X.-.uXtXMXC.B.8.FXsX`.{.K.7X=X4X.X#X4X4X2X!.tX7XI.O.@.J ! O.G n J A 8XXXOX.X4XP P : W.-XnXrX6.P D n i 5.8XXXI.XX~ H ! b m 6.r.tX.XW.H.W.C H M .XI.eXbXn.#X#XQ.{.^ b m 8 0 6.nXBX=X6XjX8.3.}.,XcXPXc.B.h.sX=X|.C C 3.8.cXHXGXcXjXjXlXwXl.8.x.9.cXvXPXA.}.PXPXHXV.V.zXcXIXA.B.4./ P.3X4XZXCXKXXX~.O.&.! i 9 O.*.1X1Xa.S ! 9 i P S P ....W.tX4XmXCXVX.X@Xb v [.Z.HX;XsX2.) |.PXPX*X}.sXcXcX2.2.W [.x.*X:XPXPXPXPXPX[.Z.[.PXHX) ( . W / MXxX`.}.9.V.S.PXKXmXu.d.} #.@.NXBXeXrXs.tX8XG.s.A S i $X$Xw.u.i.yX2X!.H.e.S I r.w.",
"b I.I.4X6XMX-XwXy v q.D.[.vXPXPXPXLXc.V.: v 3.|.|.VXPX}.@XwXPXwXVXlXHXwXwX0.[.D.*XZ.PXPX0.  . ( _ :XcX>X_ E V ` D.>X@XkX4X5XyXyXs.e.U U J Y J D n J A F A 5  .J.v.4XnX4X4XbXK.=X4.3.x.V.[.UXHXl.. . B V :XcXzXW _ / ( ( b.C.=X}.JXkXkXwX-XHXsXHX9.9.f.V.).).V.V.Z.}.`.[.Q R 8.-X6XkXeXL.O.O.{ { U 2X0X8X<X! +.n.!.L.I G ..~.!.e.u.9XI  .A n G G # e.u.mXtXw.p n 9 y ; XXL.5XBXO.6 9 O.+.I.{.KXm.v.n p Y D D F F d.2X5X5.e.W.K.W.rXnXQ.a.XXrXW.U.n..X~ ^ P. XbXn.n.p t i D i Q ~ JXbX6XPXPX9.0.A.gXGXf.q.    W DXIXvXqX` 8.8.-XvXGXN.c.= > W v b ; y Y D D F L 7 2 X 1 3 f h d F D F Y ! U t : b > : : : b P H i i n 5 A & @ * 6 & p p s N s & - & % =     <.DXIX>XcXPX/ E 8.3.:X:Xx..   E W jX}.|.2.E 8.@X=XrX1X~.<Xw.#.#.o.-.0X1XlX=XU.z.=X=XP.'.B.&X4XMXeXrX$XZXL.XX4XW.8X5.+.J ~ ! S S D a 1X8XeX$XOXH H 8 #XW.2X2Xy.P G A n ~ 7X7X X XG S m I G 5.5.7X7X1XL.I.H H M .XK.nXNXn.3XOXK.I.^ M S 0 0 5.bXMX6XkXlXl.q.qX[.PXvXV.c.h.`.oXB.V B 8.3.cXDXIXHXjX-XwXPX9.0.9.x.xXPXPX}.|.MXcXPXZ.x.lXLXzXV.).<./ oXMXmXKXNXNXXXU.~ +.^ G S O.*.2X<Xa.D G n D G 9 i ! X.#XrXrXCXKXPXm.Z.C b }.oXPX[.*X/ 2.>XPXcX[.:XjXDXcXq.3.4.*XA.}.*XPXHXPXHXPX,X*XjXPXPX8.3.  V E zXPX;X:Xk.V.S.LXCXmXi.d.} #.@.NXNXnXnXa.tX<Xs.u.q p n #X~.*.e.G.ZXZXJ.s...F n r.e.",
"m I.I.3X6XJX=X*X0.D.:X>XZ.2.,.4.t.;X}.*XB V 8.*X*XlXcXA.Q.8.kXeX=XwXjXLXPX@XQ.v V.|.zX*X).v : 0.9.vXzX%Xl.N.).|.3.3.0.oX#XbXtX<X8X<Xr.r...S G D G G p n ! I Y.NXKXlXVXkX6XeXz.3.=X-XPXHX}.HXwXxX8.4.}.A.xX|.Z.B y &.Z.M.{.}.VXPXwX-X-XlXlXPXHXPXZ Z 2.&XiXsXjXAXcX*X9.( > : 3.6X4XkXeXL.O.O.U { U 2X9XtX8XJ ~ a.mX3X..! I ~.<Xu.e.+Xi G I S G q w.XX!.~.L. .i 9 n P D rX<X7X1Xe. .O.n.z.4X X3Xn.a.G Y *.e.s.T.!.2Xr.e.! P +.^ 4XW..Xm.n..X$XW.#X3XnXU.M.W.z.OXI.!...! S n ; 8 8  X.XkXKXPXoX}.A.PXPX).N.v Z 8.gX[.x.k.: / 3.|.|.IX,X,XV V E y y N S U p g s r $ * 7 h r r r [ L D U Y p n N t y v : : ' : : 8 b ! G n G u & & @ & s N s N t ; 8 t : 0 : : `.HXDXAXIX}.R E B.Z.cX:XcX}.[.HX-X:Xx.9.q.3.V.kXVXKXyXG.T.-.o.-.i.F.yXKX#XP.OXbXMXkX=X`.K.K..X.X.XmX2XW.X.p.5.&.1XtXNXu.5.~ H ! I A G.H.H.n.v.H ~ b .X.X$X$Xa.G G A S ~ OX.X4XeXn.a.! I H 9 i &.5XyXZX5X+.H M #XOXMXeXy.OX#XW.{.^ M S b 0 5.bXNXwXkXlXC v V.c.HXIXLXLXPXLX;X3.: l 8.x.jXvXUXcXVXcX6XKXPXLX:X;X[.|.{.*X>XHXx.x.> = 9.xXPX>X[.Q Z 3.m.C.oX3XJXJXJX XK.+.....U S ....I p i n S P ^ *.J.W.nXnXVXkXwX@X8.t.^ 4.}.{.cX^ m . . 8.PXPX:X:X3.3.q.( 3.l.qXxXHXxXHXxXvXcXUX[.[.x.PXHXx.l.Z l.x.PXLXV.N.2.N.c.lXeXyXi.d.#.#.@.NXNXeXnX5.5XXXG.v.p n I $X$Xs.G.J.u.w.F U i I D U.U.",
"m I. X=X3XJX{.Q.S.V.PXHX*X: = + O x.LXPX) ) 7.:XwXlXwXp.0.# 6.0.4XwX6X6X-XHXPX|.9.Z.xX}.LXA.x.:X*XHXjXA.|.|.zXzXZ.Q C 3.0.XXrX4XtXmX~.<Xe.G J I G p ! ..J.G.tX5X.XwXJX{.B B Q.6XPXjXz.+.^ }.{.PXA.V.xX:XjX9.3._ ) b.6X6XCXMX6X6X0.b.C.lXcXVXxXxX8.3.*XLXxXV.N.q.3.l.f.c.) W 0.&X-XeXeXL.O.X.U { { 2XyXtX7XI H O.8X8Xr.a.X.0X<X*.5.tX....p 5 I ! XXL.L.a.G.5.a.v.m.m.! J.v.XX8XNXn.r.u.e.OXOX7XbXmX+XXX~.J.J.G.T.*.I ! I ~ n.p.4X+.+.^ O.y.e.6.a.6.O.&.6. X X3Xm.r.I ! H S i 0 8 6.z.MXkXlXPXPX*XAXzXAXLXHXcXxXqXvXUXPX%.` V p.V.hXhXSX1.( B : ; o @ & * r 6 s r r L d f h F X.7 g U G y y b b t v v v y ; % - 8 i u n D Y D D & % ; y 8 ; ; - % % + = B Z AXzXsXIXIX).|.%XHXDXHXKXLXjX:XPXHXA.V E 2.9.|.wXwXnXmX~./.i.;.;.;.;./.mXKXKX7XC.'.I.m..X7XI.m.! ~ K.L.mXU.L.&.O.O.m.U.CXKXeXI.v.O.5.7X$X#X7X7Xe.y.! W..XXX1X.X*.*.*.5.H 6.4..X4XW.Q.P P ~ n S ..8X<X1XBXr.~ P 3X3XeX3X5. X3X X.X) N n 0 0 5.MXJX6XwXwX9.3.*XA.}.|.`.{.|.FXFX&X( ) 0.9.>XvXHX:XzXHX6XMXLXHXKXJXb.H C t.b.HXl.c.+   7.PXHX%XiXB.x.c.t.0.K.{.3XkXJXKXJXU.O.*.X. . . .F G F D S  .L.L.yXmXMXVXPXqXlXA.cXHXlXPXMXlXPXt.z.) W *XPXcXD.9.Z 2.3.l.V.:XcXPXUXjXHXHXcXPXPXZ.A./ |.|.*XcXqXPXPXHXMX3.4.,.).A.VXnXyXu.F.o.o.@.NXmX4XeX+.XX~.Y.!.S D &.$X$X!.~.T.J U D F i U ! ~.~.",
"m L.XX3X=XHX[.Z.Z.x.PXxXxX= > + + x.KXHX/ ( 2.@X@XlXMXb.z.o 0.5.bX6XbXVX=XPXKX-Xb.8.jXxXPXc.A.&X@XMXHXA.,XV.iXjX;XV V 8.0.#XeXtXtXmX!.$Xe.H G I ~ 8 O.^ L.+XtX$X6XHXcX}.Z v jX|.VXKXP.W +.{.oXJX}.}.vXvXcX4.) 0.4.M.@X6XJXJX6XkX3.x.S.VXHXcXcXvX4.( sXjXcXZ.%X<.2.f.9.9.) Q 0.*X-XeXeXL.O.X.U { U 2X0X9XtX..G ~ 3X5Xr.v.U 2X2Xw.*.mX....9 i U ..5Xv.XXH.H.@.a.H.v.W.&.L.L.<X!.CXv.y.y.e.#X=XoXMXtX1X2X!.T.T.s.s.*.Y G *.^ y.y.6X&.+.^ +.y.n.y.e.r...y.6. XeX7Xe.a.! ! n n n 0 ; 6.4.lXJXzXVXHX|.cXzXPXAXHXcXHXjXvXvXIXq.P Q p.l.gXGXGXg.q.v > : % @ % & s * * r a g a g D D ! D N Y P N i y t C > v v : : 0 8 - b M G p A A U & ; 8 y 8 - - = # 0 # O R Z LX;XiXHXKXc.*X&XLXPXHXMXPXHXcXxXlXA.E W 2.8.@XVXVXnXmX!.T.-.;.i.;.o./.mXCXtXNXH.I.W.7X{.NX XI.I G W.!.rX~.G.O.r.! J.U.CXKX8X XI.5.e.L. XOXnXrXy.6.^ L.!.!.1X5Xe.w.*.5.I 3.5.kX#XK.W.P m H S n @.XX5X1X.Xn.^ ^ 4X3X4X3X&.W.3X X X^ m N 0 0 5.CXJX4X-X:X4.3.,X*X|.*X[.*X&XPXLX&XW ) 2.9.*XHXPX}.oXbX4XlXPXlXPXPXA.: v P.Z.PX9.l.. + 3.LXPX%X%XA.Z.9.7.0.P.}.4XKXKXKXMXC...*.U  .U { D U G n i U 2X!.tXnXVXPXPX*XUX3.PXHXPXKX=XMXkXb.K.H / @XPXHX0.2.> 4.q.l.l.qX-XlXvXLXHXcXjXPXPXA.A.B }.[.xXjXjXPXPXxXHX2.) ( |.).cXrXyXd.F.o.o.@.mXmXeXnX^ !.Y.!.+XS n 6..X!.H.J.~.A f J I S U &.Q.~.",
"9  X XbXeXVXkXcXl.l.DXIXPX( ) V Z `.}.oX_ / 2.@X{.PXPXz.6.. = # 5.z.6X4X=XMXPXVXcX-XZ.Z.|.B.b.zXMXoX-Xy B v ,X%XsX8.3.v B y.$XW.4XtXNXtX$X! ..n m ..OX$XmXnXeXCXLX,X%X) ) W jXqXVXLXQ . X 0.4.KX:XxX8.9.( 2.4.b.C.lXMXCXNXCX+.^ . 0.0.wXMXzXjX>Xt.9.xXHXLXv v     N.jXiX,.2.,.sX;XwXeXL.O.O.U  .F uXyX5X<X! ! i H.XX+X1XO.T.Y.0X5XL.XX Xa.a.L.W.w.eXeXL.L.~.L..X!.L...XXL.v.H.+Xw.5.u.5.kX6X{.kX4XXX!.s.*.e.e.w.*.!.v.7X1X.XOXI M H : : - 8 m - ; 5.I.I.tXZXG.G S S 9 H n 9 0 H K.z.KXMXPXKXHXA.<.3.zXiXsX*XxX}.-X:XVX:X8.3.2.) aXIXhX].%X: > > o o @ @ @ g s p y s G G Y Y p N p ; ; ; ' b P P 3./ C v t y y 8 % - n i n J S G P y : o O = o + O + O B.f.IXPXjXHXcXl.jXHXcXcX3.3.) *XjXsXDX: W _ S.b.UX@XnXtXyX~.~.d.-.;.{ o.;.<XmXmXmX$Xa.e.^ +.I n G 9 6 S i W.ZXrXW..X6.&.+.+...I.a.m.r.5.4X3XbXXXOX5.5.G ~.L.+X5XZXtXtX5X1XK.0.p..X#X4XeXM.H H i 9 s.1X1XL.m.U.m.z.eXNXn.r.H OX6X X.X^ m b 8 0 w.NX7XlXlX:XwX*XPXPX*X*X= v > FXsXsX3.W 8.8.6XPXKX3.6.+.Q PX6XeXMXlXPX0.b.c.z.lXcXlX{.Z.[.PXPXiX|.;XiXIXc.V.0.8.[.xX6XlXMXJXs.G.Y U X.{ G A p 5...$XZX5XNXeXHX:X:X` E DXxXUX*X[.Z.Z.6XCXCX{.}.IXHXlX_ Q x.D.l.lXqXHXVXcXq.9.|.|.PXcXHXl.x./ vXjXPXHXcXHXcX*X=XQ V W A.S.VXCXmXi.d.o.#.*.BXNXVXkX^ r.y.<XBXn M 6.K.K.y.d.u.U U I I S XXL.mXZX",
"0  XXXnXkXVX6XwXl.l.UXcXcX9.2.C B x.Z.:X2.( 4.|.oXLXVXz.y.X # X y.5.6X6X3XJXkXMX&X;XV.Z.P.{.A.jXjXoX}.: v V }.Z.>X3.2.B C 5.K..X4X3XnX4X.X+...M M ^ OX.XPXKX#XKXjXgX;X2./ ) jXxXlXHXE     3.z.PX;XjX8.9.4.3.4.b.b.kXeXKXkXkX&.~ X p.p.lXVXlXcXxX8.l.DXPXcXB x . + c.>X>X( ( ,.;X-XeXeXI.O.O.U { X.0X0XtX5XI I S  Xa.1XXXe.T.Y.~.1X.X!.L.y.H.L.U.L.1XXX~.+XU.H.4XL.v. .XXXXG.v.+X5.5.y.5.MX6XP.4X5XU.L.s.u.e.-.*.s.r.L.mX$X.XI.~ m P - b y ; o 8 ; &.L.OXeXNXv.I G S i n S b S N P.P.4X=XHXPXPXV.( ( iX>XsXAX6X[.oXcXjXwX3.7.2.2.].IXIX%X|.> % ; o @ & & & D s s N M P C H V t N b ; ; ; ; b P P &.^ P C b y : ; - - t 9 m I G I b i b = O O + O = .   B.).cXIXLXHXPXV.PXxXxXxX2.3.) }.;XjXzXZ T E E.[.|.MXeX5XtX2X<XF.@.@.{ o.o.yX5XNXKXJ.y.v.&.O.G H b 9 % n S ~.ZXyXXXW.6...~ 5...n.U.I.5.5.4X#XbX$X#X5.&...!.XX1X5XmX<XtXyXmXQ.y.0.{.4X4XrXK.P H 9 n s.$X~.K.U.y.n.I.KXNXy.r.I #X4XW. X^ N n 0 q 5.MXkXMXMX:XjX:XPXPX>X}.= > x sX=XsX<.<.0.9.cXPXPXt.7.H Q PX6X4XMXbXMXn.C.l.b.wXKXlXQ.A.|.PXPX|.%XxX;XLXV.Z.4.q.).xX:X6X6XPXs.s.U U U ! D U D 5...!.NXtXnXnXPX|.[.( W >XjXHX|.*X[.b.lXkXMX6X@XPX*X>X4.4.8.V.p.VXUXKX:XcX0.8.[.[.IXHXHXl.l.W >XjXIXPXHXPX:XjX6XW V T V.Z.LXnXmXi.i.o.X.*.mXNXwXwX~ y.v.NX5Xm N +.W.Q.r.v.s.K I G G O.K..XZXKX",
"b  X XkXkXVX6X-XB E V.Z.xXPXLXcXxXjXh.8.= : ) :X=XHXMXn.j.X - # # - 6.4XXXkX7XPXJXPX=XP.^ W 3.HXcX-XQ.: > B &XjXjXc.x.l.9.0.3.p.=X{.JX6X7Xb.r.5.6.m.MX#X=X6X4XMXcXV.0.|.HX>X:X:XPXPX9.V B [.=X-XZ.h.: 0 ) b.b.oX=XKX4XbX6.+.; # X l.z.lXMXlXHXHXl.8.V.[.x.,.<.( / A.|.;X3.q.q.iX:XkXkXQ.O.O.U  .U 2X9XNXBXI n 9 5.&.1XY.w.u.*.T.H.H.m.n.u.r.a.u.#XNXmXXX XI.n.w.I ! I !.<Xs.e.L.A S H M 4XwX{.CXmXa.J.s.!.~.~.2XL.!.a.! +.6.y.kX4XoX+.) - m t z.y.1XNXZXJ.s.! 9 n S H 9 ; b p.U.eXCXkXVXPXjX[.E R E ;XsXzXsXE O + 3.b.cX3.4.Q V ].SXIXhXSXR # # - 6 9 i u D p N P C C v Z Z : ' v : ; y y p H H P P P P H M i y : ; 6 ; 0 A n S b b C y = = # = . v v %X;XiXAXHX0.c.3.VXVX|.V.= + : `.&X>X}.3.0.4.l.D.l.wXlXCXZX2X0XY.i.d.;.;.o.X.*.<XmXNX9X1X! O.i A n a.a.!.<X*.d.J.~.yXKXZXCX3X3XbXW.C.z.p..X4XrXK.m.S S y.Y.H.L.L.Y.e.G.!..XbXMX4X6X4X6X4XW.Q.!.n.H.rXKXmXyXnXK.#X#X4X XI ~ ~ =X4XI.W.~ N M m x 5.bXkXJXMX:X[.Q.cXHXvXjX( _ _ 6XsXzX4.3.8.3.oXxXJX7.+.o # ^ KXbXKXKXNXNXNX=XoX*XlXwX*X@XwXcXvXV Q 3.2.IXgXvXB E q.[.oX;X}.KXmXyXJ.s. .! n &.+.L.W.tXJXNXkXJX>X( V Q q.PXPX:XO > # > =XMXDX@X@XQ.0.8.( 3.S.lXVXlX@X-X8./ O + x.V.vXPXPX}.*XV.PXPXA.Z.V 8.8.PXLXx.l.2.V.V.HXVXmXi.i.o.X.w.NXNXKXKXH ~ ..8XBX!.m.^ $X2XW.5X7XX. .U *.L.1X$XeX.X",
"b I.I.6X7XJX6X:XB C l.l.A.:X:XxXDXjXV.Z.v v +.:X;XLXJXn.u.X 0 M 9 4 @ u.z.3X7X#XbXMXLXPX6X8.4.-X:XlXPXQ.Z.V.jXjXiXV.[.:X*XV._ ) &.) .XQ.eX4X=X#XoX4XbXMXMXKXkX) 2.;XHXPX*X).x.x.cXxX*X,X|.cXPX>X_ 3./ 2.P.4X6XPXMXkX5.+.o # # ; . D.p.lXVXxXHXHX) Q 2.Z.).sX;X;XzX;XN.l.Z B ,.>X>XjXeXW.&.*.....U yX9X<X1X*.6.r.m.y.r.a.! s.d.<XXXH.n.a.3XL.OXXXOXH.!.3XXXO.n i 6 % S 5X9X! I 9XA S S N eXlX{.KXZX5.r.D U Y a p A 4 9 n I 4X4XP.@XoXQ.{.8 y.n.eXeXtXI.a.9 p A U n p n P ! a.eX$X=XMXJXlX=X0.x.[.LX;XDXsXsXDX3.0 : [.Z.HX&.) b : S.%XgXAXPXx.- - m n n n N Y G P V B Z v v v = > t 8 t M N p p s a n H Y P P C M y 8 ; - ; 0 0 0 M N M N b v : >   8.f.IXLXxXPXPX&.&.4.MXPX:XLX2.9.8.;X&XHXLXLXHXjXx.9.Z.z.P.1X1XCXZXuXT.T.;.;.$.X.X.-.X.yXZXKX<X+X....I mX5XXX~.ZX^.s.P ! ^ ^ ^ +.+...; 8 t.K.eXeX6Xa.6.- ; G.G.H.L.J.v.D Y I ! z.lX3X{.{.CXCX3XK.#XK.K.W.eX.XQ.m.t. XK.n.b.b b ^ 4X6XI.W.~ m n b q 5.MXbXJXMX:X&.2.[.*XPXPXAX*X&XxXsXB.H _ 0.9.cXJXPXh.y.o X o ~ ..JXKXbXbXJXKXJXC.) / 0.b.VX}.=X. + : v AXAXgXk.8.2.3.p.Z.Z.eXmXZXZXtXe.e...XX.XKXNXkXJXPX=X[.E.vXIXHX|.vXvXcX( Q 0 y HXPXxX( ) y 3.p.Z.x.MXMX6XVXVXW     o + @X}.cXPXPX|.*X[.HXPX8.8.+ E W PXPX*X;Xl.A.x.HXVXmXi.w.#.X.e.ZXNXwXMXm S S v.L.BXeXp.M.p.KXZX!.9X9X+X<XL.tXXXKXnX",
"m I.I.7XkXJX-X@XZ V E.,X*X}.}.DXMXHX}.*Xv x ) *X=XJXNXm.z.X x H 4 i X a.u.CX4X XKXCXPXPX[.Q 3.wXjXlXkXc.V.P.jXsXMXZ.A.-X@X[./ W 4.+.=X{.6X6X*X@X-X4XMXMXPXPXb.W / xXHXHXx.|.x.8.HXHXIXvX>X>XHX>X/ 3.4.2.Q.=X4XKXPX7X~ ~ o # ; 8 . 0.D.lXHXMXHXDX3.) ,.V.A.zXjXzXSX>XS.N.B B q.zX;XwXeXI.&.*. . . .yXyX~.XX*.y.I.L.n.5.r...s.~.~.OX!.r.a.W.!.4X1X7Xm.L.OX.X~ m S 4 4 @.<X+X!  .9XS G Q P CXVXP.kXeXr.v.D U U p u p 4 & ! ~ tXMXb.kX6X|.C.y n.K.$XmX4Xm.v.A n q A U p - I ! H.4X4X6XbXPX=X@Xp.9.Z.PXPXDXDXxX*X8.v v Z.x.6X5.4.H v S.>X>XHXsXP.- q H S n n S M D D C v v ' v v > : y y p D g f r r p p g D G P C M t y ; ; - - 0 x t y y Z C Z v : O q.4.cXPXjXHXPX( 2.7.PXPX*XjXl.l.f.|.*XHXDXSX;X>Xl.S.A.c.M.-X4XKXmXuX<XT.w.i.-.X.X.*.=.<XtXtX5X<X5.@. .NX9X~.!.yXJ.J.Y X.I +.&.^ H ~ 0 0 C.m.eXwX7Xy.y.; 4 L.u.G.L.L.L.A S S G y.kXOX{..XVXeX#XoXoXn.U.W.rX$X.X.Xm. XI.n.M.m 0 ~ 3X6XW. X~ m M 0 0 5.JXMXVXcXqX/ _ [.Z.PXHXPX:XDXxXxX9.C V 9.0.cXJXMX+.4.# = X ^ ~ JXJXKXbXMXMXPX|.P W 4.7.PX}.*X+ . > : vXGXgXN.l.9.1.D.Z.{.eXnXtXmX5Xe.y.^ I.3XMXJXKXJXPXkXjXE.vX:X>X:XHXjXcXW E B Z *XxXJX( ^ : 6.6.C.t.MXkXPXwXMXM . . ; = Q.Z.:XPXHX}.:X}.PXPX8.3.+ W E sXHX`.[.q.S.S.LXnXmXi.-.}  .e.CXNXPXVXt H H y.r.nXeX&.p.m.nXtX5X2X9XNX8XH.BX4XKXCX",
"b I. XMXMXJX@XQ.S.l.HXxXV.V v Q ) [.*XxX_ Q 3.-X=XMXkXn.n.@ 0 9 G S # 8 o 5.O.kXkXOXbXkXPXjX:X[.Q.VXPXP.{.oXcX6X( v x 8.l.}.4.2.= = 4.3.[.4XxXzX;X-XPX=X6XoXv t.8.PXHX>X: : = : ;X;XvXS.[.A.Z.2.2.+.0.t.JXPXKX4X=X+.= 0 - t 6 - . 0.D.lXLXHXHXMX) 2.B.DXcXjX>X[.|.l.,.,.Z B 3.*X;XwX6XK.O.O.I I  .2XtX0XtX..! v.a.L...I T.d.u.T.m.BXK.K.! &.y.r.XX!.U.+.+.S S S 6 9 a.!.!.w.5.H.n b H M 6XkX{.VXKXXXXXI A D A p 6  .J H.a.L.C.z.oX=Xp.p.z.nX3XNX7Xa.G G q S S I i S G ~.J.eX4X4XPXKX@X+.9.-XjXLX;XLXzXxXDXsXHX&X}.PXkXoXW W ^ &.A.gX*XPXJX8X9 i G S n D I N N s N y ' > : ' ; b p u a g f d k d g p a p N D M M b Z 0 0 > = : ; ; 8 8 Z N v v v = 0.8.HXDXxXcXVXPX-X3.-X[.HXLXLXHXHXcXjXZ.N.A.zXLXzX>XW V.c.K.n.eX5XyXmXyXF.F.e.=.*.} X. .mXCXtXJXY.e.w.yXtXL.G././.mXs.a.G G H m v C m M wX@XkXwXnX6.e.4 9 Y.J.v.s.G.!.D I I ^ b 6.y.Q.m.K..XCXnX-X.X$XW..X=XZXnXW.n. X#XbXp.n.I #X4XW. X^ M M 0 0 5.JXMXMXlXwXE E x.D.vX:XHXHXLXLXPXl.R B 0.7.xXPXKX+.5.- m 8 X . +.5.kX6XbXMXKXVXp.c.7.&.PXcXKX&.6.c.0.PX>X%X,X,XvXx.l.&.3.0.ZX5XZXmX4XnX3XPXNX6XMXPX=XA.3.4.PXPXDXqXHXcX:XHX*X;X*X[.LX:XsXE &.0.P.P.kX=XMXCXbXm H = : # # o *X,XHXPXPX[.[.9.[.>Xl.Z.8.HX:XPXPX[.].q.N.x.KXKXmXi.w.{  .e.JXNX=XwXQ b.n.a.y.I.W.6.M.m.mXCX!.w. .H.U.#XJXKX XQ.",
"b  X XnXMXVX@XQ.V.x.IXHX}.v Z Q V 6XPXHX) / 3.*X=XCXMXn.n.@ w 4 S n - % 8 5.+.nX#X=XMXkXJXwX>XS.Z.@XlXC.6X*XcXxX7.0 : 9.9.@X2.( - - ( 2.{.jXHXjXwX6XHXjXwXoXC 4.3.PXPX}.O : > = *X*XIXl.,XA.l.q.8.3.P.z.=XlXKXMXkX+.- - ; 0 ; 8 . 0.p.lXHXcXHXHX3.8.A.cXIX%XzX&X,X).q.) Z T q.iX:XjX6XK.O.O.I J @.0X9X1XtXO...I.H.H.G n <Xs.w.<X+X7XH.m.Q Q r.m.XXOXI.+.+.i M ~ n & u.~.XXw.w.H.H S ~ P 4XwX|.lXeX1X~.X.q u A D 6 A ! m.n.m.{.0.zXwX0.4.K.=X4X7X5Xu.G G J G q i A J D m.W.nX7X7XCXPX}.6.^ ;XjXxXDXFXDXsXLXxXJXxX=XFXPXoX+.Q 2.7.x.-X@XKXPX1XS A D D S Y ! p N t b ' : - : : : M p r r d d d j j d a s s p N H P V V v v x = > = % ; ; b B v B Z l 3.8.PXvXPXcXcXPXlXz.Q.[.PXLXPXDXHX;XDXc.c.8.LXcXzX>Xv h.z.P.C.4X5XCXCXZX~.^.;.*.-.X.o.U tXmXBXmX0Xr.G.<X5XJ.s.J.uX2XH.a.G b M m M : B B oX4X=X4XCX5.6.4 q G.Y.Y.s.s.<XI I S S H 5.e.#Xm.n.m.nX4X$X$X$X$X$XrX4XnXnXU.OXOX3Xr.n.Q =X6XW. X^ N M 0 0 5.JXbXlXlXwXP W D.x.*XxX;XPXAXPXLXx.B C t.c.;XLXKX<.5.8 0 m . # ..+.7X7XeXKXCXCXP.b.( &.wXVXeXz.8.3.q.IXgXIX|.Z.IXZ.V.Q 3.9.eX#XZXeXrXeX4XkXPX=X*XPX&X}.Z.9.PXcXPX>X-X:XcXcX|.jX%XiXPX%X|.2.^ t.n.t.oX3XPXeXeXQ Q # # = % # Z.E.HXPXPX[.|.3.*X[.x.x.l.vXxXPXLXB.V.q.V.c.VXKXmXd.i.}  .e.KXCX=X:X^ K.n.y.m.H.m.6.m.{..XtX8XO.e.H.m.7XJXNX=X#X",
"m  X X7XkXVX;X@XQ.Z.PXPX*X> , O # [.xX:XQ / 3.oX*XPXKXM.r.X 9 q - n 9 # 4 % ; e.MX3X=X6XlXLXPXHXlXp.4.&.lX*XxXxXW .   ( 4.@X9.p.V B 4.3.}.6XMX@XjXJXHXKXV.Z.-XC.Z.MXkXwXv : : v :X>XHX/ ( : v 3.l.p.MX4XKXkX{.5.+.- = - i 8 % :   0.p.lXxXjXHXPXx.l.`.jXjX( ( : : 2.].|.3._ q.iX:XjX6XI.&.&.U U X.yXyX/.8X! i I S G H.yXw.U *.<X5X~ - 8 I H OX5X&.8X7XI ~ H H 9 p I 8X*.*.J.<Xu.4 9 ^ +.MXlXQ.@X4XmXZXL. .F G J U 5XtXH.+X5.~ ) &.t.C.Q.lX4X4X5.y.~ 9 9 G S S  .! a.K.tX5X4XtXKX6X-Xb W _ PXPXcXQ m / ) &XsXzXsXDX[.{.7.+.2.A.M.>XPXVX4X!. .& 5 G G D Y ! y M b v y y y y y 6 D g d d h d k k d d f g f s a N D P P v V C l x > = % O 8 b v B y : = O }.}.cX>XHXcXMXlX4.7.l.x.P.P.>Xx.l.+ . O >X>XiXIX4./ / t.b.Z.K.XX1XtXtXmX~.*.=.=.o.*.U  .5X8XKX!.8Xv.v.e.e. .J.v.1XXXe.n 8 t H b 6X=XkX-XQ.W.ZX6.a.q i w.L.J.r.r.9X@.@.I G m H M n.m.OXW.$Xy.0.y.6.=XKXJX6.6.nX#XnX7X4Xr.5.^ 4X7XW.{.~ m N b 0 5.NXbXlXlXjXV.}.vXPX:X*XQ 7.7.DXDXsX/ ) 7.3.lXJXNXO.5.m q G 9 ; . . y.mXeXMXnXCXVXPX-X:X>X-XkXnXkXcXlXPX8.( / W vX>XgX` ` b p.m.VXeXbXwXCXJXMXLXKX&Xv B c.V.PX|.*XZ = ) HXPX}.AXA.`.;X2.3.8.6.C.KXMXPX3XCXP ^ X = ; ; 8 X o }.|.PXHXPXl.l.B }.}.PXPXHXDXzX*XoXW W _ ].].HXnXmXd.i.}  .e.KXKXVXVX5.7XtX X+X&.&.oX@XoX#X$X5XKXNXXX X7XMXOXkX4X",
"0 I.I.7XkXJX:X;X3.8.vX:X;XZ.P.t.p.*X[.}.V B ( ;X;XKXJXe.5.@ 9 q w 4 w q 6 % # & u.n.kX{.sXPXLXsX;X4X6XC 6XsXlXPX`./ E |.[.l.8.4.V.9.jX:XzXjXjXPXMX>Xh.3.xXcXHXC.b.6X6XwX-X@X@X=XUXHX>XV W 3.3.A.:X:XMXbXCXO.w.- - - 8 9 8 6 ; ; X t.z.lXzXvXHXVXA.x.wXvXcX0 Z = , S.%XA.2.1.1.jX:XwX7XI.&.*.{ { *.0XyXyX0XD U p G @.<X2X*.yX0X ...- n n a.s.8X5XJ.7XZXH.H. .I J G.Y.Y.X.@.i.w.Y.q 6 y.6.#X#XV.K.U.Q.v.yXrXmX!.~.5XNX1XJ.G.9 p # t.z.6XeX{.C.m.b H n A n A A D Y.!.5XZX#XeXKX4X6X^ 5.0.6XMX{.*X-X% = 0 > P.P.jX/ ) v Z x.V.l.xXvXvXqX@XH I X 4 6 F p S i ^ C C v v > v ; b n a g g d d j j d d j j g d d r r r p D M P C _ : x > - o o y y M H P b = > % + xXxXPX>X*XPXIXHXv : ) _ >X:X&X7.l.( ;X;XiXjXLXxX*X0.9.b.b.C.KXlX6XMXrX^.T.=.-.X.U U *.*.1XKXCX5XrXM S 0 r.r.XX~.7XXX$Xe.e.OX6XkX{.oX X1XmXe.e.a J U mXmX*.X.yXY.Y.A J n M 0 y.m.U.z.3Xr.n.H i H W.W..XW.e.tXrXv.K.G P ! 4X5XL.Q.! M M b b 6.bXMXlXMXoX*X>XHXPX[.*X  v : FXzXDX7.q.8.3.VXKXNX..@.q q F G A n S   6.n.4XMX6XJXcXPXPX|.9.9.9.l.jXPX:X: v . O x.gXjX( q.V ) &.-X{.HXPXwXPXcXPXwXl.P.V.*X-XKXx.V.+ O 2.vX;XxXHXR E / l.3.}.C.PX6XeXKXKXG @ @ I ..m - 0 # + oX=X6XPXPX,X:Xl.PXPX}.,X;X;X;Xb.Q.p.b.4.V.N.MXnXyXe.d.} } i.mXtXkX4X^ a.u.*.w.r.y.-X+.Q KXKX!.O.5.M H 8X3X3X{.C.",
"0 K.I.eXlXLXsX;X0.3.jXvXzX{.Z.p.0.}.[.&XC B 4.:X&XNXMXe.e.# q q 4 4 5 q q 4 & & r.p.7X6XsXxXxXLXFX=X|./ [.=XPXKXZ._ E Z.|.l.8.2.t.b.xXvX>XvXvXHXPXc.c.8.xXHXPXA.P.nX#XCX@X|.-X@XVXwX[./ 2.0.4.C.wXlXMX4XNXa.O.& 4 4 w 8 6 6 - - . t.z.lXjXlXIXHXV.x.qXcXzXC x + O c.*X|.4.( 2.vX:XwX7XI.@.*.{ { o.0XuX0X0XY U u  .! T.<XX.0XyXo.@.% u 5 r.T.<X5XH.1X8X~.s.X.G U F.F.<Xw.o.w.@.F.9 i 5.@.7X7XM.}.Q.H.W.ZX4XuX$X!.mX8X5X~.v.6 5 4 y.z.6XMXkXt.y.I i G S A S q  .H.L.eX4XeX#XKX4XVX4.3.z.lXlXoX:X[.% = y v A.Q.6X/ E P E 9.x.V.xX:XHX|.jXP p X & 6 f a F n ^ V ` v v > 0 - n A a g g d d j j j j d k k d d d d d f g N P C W : x > - @ % p s S S G 6 - - # # A.PXPX;X%XPXLXLXv B E ) A.-X:X3.8.2.-X&XcXcXPX>XjXt.x.[.B.[.6XjXMXwX$X^.T.;.-.X. . .X...!.KXKX5X.X^ H m 6.Y.+XY.1X$X1Xy.p.XX.XOX{.=X#X!.KXe.w.D D X.mXmX*.@.Y.^.G.L U n ; 9 n.y.M.K.L.m.p.M N ..m.v.!.~.6.tXtXv.H.G P I 1X8XK.W.^ M S M b e.bXMXlXMX*X[.*XPXPX|.Z.. : Z zXDXxXq.4.3.4.-XPXKXO.o.q f F A F p i # w.r.tX=XbXPXHXHXcX`.9.l.l.l.IXHXqX' :   O V.jXvX3.2.B / E jXlXHXPX:XPXPX:X[.Z.[.Q.}.|.VXC.x.+ + / ;XcXPXjXR R C p.z.Z.P.{.=XnXtXCXA 4 & D I n - w O % =X=XwXKXPX*X>XD.PXPXcX*X&X|.;XoXK.6.l.) x.V.LXKXyXe.i.} } i.yXtX$XlX..*.r.e.*.r.U.K.+.Q kXNXY.O.~ Q Q kX XoXC. X",
"t I.W.kXbXLX6X;X> : N.).xXHXJXMXMX-X9.9.= > / &X=XNXNXy.r.& i q w 6 4 6 7 5 4 & - % 5.b.cXiXiXxXLXMXJX`.t.8.sX}.}.t.9.Z.x.2.9.x.*X[.}.:XjXxXcXxX*Xv x.V.HXcXA.0 - +.&.KXwX:X6XZ.[.V.0./ 4.Z.Z.lX6XwXKXeXO.& & A w w w 6 6 6 - & o t.c.zXjXlXPXPX9.3.p.S.z.3.b.{.Z.%XS.V.,._ 1.jX:XeX7XL.@.@.{ { o.0XuX/.2XU J 5 v.d.<X~.X.ZXZXF  .6 *.*.ZXCX~.Y.5X<X~.2X<X~.Y.~./.F.u.U J o.*.yXA A L.H.M.C.Z.M.K.&.y.$X!.XXeX5XXXa.a.5.&.6 n !.bX6X6X Xn.0 8 i 9 G n i  . .XXCXeX4XeXCXPXQ.0.W wX@XwXPXHXHXPXwX*X[.Z.Q.HXzX*XV E 9.) l.HXHXcXHXjXE +.o % * @ X u 5 Y S ~ P W l c > : = M A r g f d d d d d d d k k d d d d f g p p H C Q : x > - % - M N P G P % - #   . x ).).PXPXvXcXPXvXzX4.<.xXxXPXPXHXKXHXPXjXjXZ.cXcXvX*XQ W l.V.{.VXMXKX5X0XJ.d.*.=.*.X. .*.~.4X1XKXnX6X~ 0 H I.8XK.1XrX1X1XeX1X3XOX Xr.p.J.!.5Xp u s.~.~.U U *.2X2XT.Y.v.XXW.mX3X$XI.XXI.I.I Q 8 H ! tXrXe.XX!.*.*.5 8 I $X1XL.W.! S S M b 6.bXMXMXVX>X9.l.cXHXHXPXf.V.h.LXLX&X/ ) 9.t.jXCXCX*.*.q q { 4 q i A - # X &.y.6XjXjXLXPXPXl.3.E E jXjXPX3.8.W / *X[.|.9.9.9.PX}.cXVXlXVXHX*X-Xc.V.KXHXHX*XZ.VXVXPXl.l.*XHXDX|.*XH H 7.=X{.kXbXKXZXCXO.U 6 5 5 u q q 4 w X # P.P.lXPXPX:XqXE.xXDX3.3., 3.7.MXKXoX}.8.A.V.MXkXmXi.d.}  .i.mXmXrXeXS u D U X.NXkX+.[.=X{.r.! ; 0 n.m.MX{.JXoXoX",
"b W.W.eXkXHX:X*X> v ).A.6XLXPXPXKX[.) 3., = ) cX6XJXJXr.u.& p u w w 4 < 6 5 5 4 & - y.y.xXoXsXLXDXkXLX&X4.3.=X6X*Xb.8.8.9.9.B.h.oX;XxXHXHX:XjX}.[.B A.[.HXKX[.: 0 4.+.CXwXVX}.|.S.b.9.7.6.}.{.eXCXrXtXKXU & & q q 7 w w 6 6 - & o l.c.vXjXvXPXPXx.9.D.A.p.b.z.Z.%X).9.S.1.2.8.:X:XeX7XL.@.@.{ { o.uX0X<X2XD A 5 s.v.J.s. .mXZX .U I  .U KXKXG.<X5XY.<XL.2XY.5X2X~.~.e.X.o.U J <Xq q OXOXy.n.4XQ.4X6.6.U.4XXX5X5X.Xv.v.w.e.9 @ 1X7X7X3X8Xp.M 0 m H S b 8 O.O.~.5XKXeX{.PXPXQ.6.4.lXVXPXPXPXPXcX*X{.|.[.:XxX:X,X) E 3.) V.HXIXvXPX:X/ +.# & & X X 5 6 F D P W / : l : = % M n a f d d d j j j d d k k d d d d g g s p M M P : 0 - ; ; ; D D Y G Y & % o   + : |.;XjXIXDXPXAXPX;XW W *XPXPXKXcXPXLXHXzXAX>XzXjXsXcXW ( 0.Z.A.kXwXKXrX0X~.J.i.*.=.{ L  .uX2X5XNXeXJX~ H ^  X Xn.NX1XrX5X1XXXOXXXOXn.v.a.XX2Xi u s.0X<X@.U  ./.0X2X2Xr.3X X8X7X8XI. XOXXXH O.4 H S BXmXe.L.L.*.*.4 ; I OX1XL.!.! A S b 0 6.bXNXMXHX:XV.l.jX>XcXvXZ.x.Z.zXPX%X( / 8.3.VXCXmX@.-.r f L 6 4 5 p 9 @ # y.6.KXkXjXHXLXPX2.9.V W xXHXPXl.3.Z W *X[.}.V.8.l.[.cXzXLXzXwXPX@XQ.S.V.PXjXPX[.Q.VXKX-X8.l.[.MXPX`.&XQ C t.{.b.kXtX4XmX2XU X.4 r f 5 4 q q q o X {.oXPXPXVX}.|.Z.PXHX9.2.O 3.7.DXkXK.[.8.Z.A.JXnXNXi.u.} #.d.mXNX#X$XD p f X.X.yXBX+.C.{.L.v.9 q 8 z.C.JX6X6XC.=X",
"b W.I.6X7XHX:X;XW ) ;X|.}.z.b.oX*XHXjXcXQ B <.;X6XJXJXy.y.* p f 6 7 7 5 7 5 5 6 ; X o # 5.6XsX;XxXdXPXLX;X&X7.+.W 9.b.x.9.x.*X*XHXjX>X{.HXHXDXl.A.x.|.&XxXxXt.. X H ~ -X=X6XV W C P &.V.m.#X=XnXtXrXU U 4 f J f f q w 6 6 6 4 - o z.x.vXjXjXPXPX( W / x.P.cX=X-X%X*Xc.1.> Z 4.:X6XeX7XL.O.@.U { o.0XuX9XyXA n A +X+Xs.H.r.0XyX/.0XG.mX<X@.O.mXBXY.Y.5Xv.v.5.s.e.L.0XG.~.Y.J.J.G.A #.3X7X3XOXP.z.b.p.y.6.Q.p.6.&.5.U.U.S Q  XL.8XbX3Xy.e.b M H H t 9 ..O.W.!.1XtX#XwXPXC.b.; t.m.PXPX[.W ( x.A.PXxXPXcXHX*X].|.c.x.A.}.IX>XjX:X@X7.^ ~ ; 5 $ X $ < < p n G ^ ) y v : = # b u p a r d f f d j d d f f f d d d f f g N N C M > : - - y y D D F p p X X # # % # : , xX[.cXHXjXHXPXPXcX8.l.V.`.oX}.|.%Xv Z   }.V.PXxX3.3.C l.p.}.[.-XeXrX1X2XT.;.;.o.o.[ } *.5XmXbXOX7X~ H n.U.n.a.5.~.W.s.J.v.H.XX!.XXO.5XyXG ! H.1X1Xs.w.*.v.G.G.H.u.w.r.5X8X8XtXXX1XKXXXXX! H S XX8Xw.G.!.a.u.i 9 ! <X1XL.'.! m M b 0 6.NXJXMXMX=XW W [.,XHXPXPXLXDXDXsX7.v C l.c.jXKXKX*.*.f f D r a F a p 5 & X . +.PXPXPXHXKXHXPXA.V.[.*XvXxX>XV.V.}.8.2.8.3.Z.HXPX*XwXLXHXQ.Q / A.}.LXZ.V.: > C.PXPXwXzX[.;X6X8.4.4.h.P.6XkXCXKXyXI  .a 4 F g D r 7 u w q # X b.C.JXPXPXwX:X}.PXPX4.f.= `.N.PXPX@X,X9.).V.cXnXNXi.d.} #.i.mXNXZXtXU 5 r /.~.^.H.5.CXeXb J q ! ~ MXNX=X4XKXMX=X",
"t K.K.4XeXHXsX:XzX}.PXcXA.= # b v [.;X*XQ ) 8.}.&XJXJXy.e.$ p A < 1 r f f r 6 < @ 6 @ # # 0.t.xXMXdXdXoXsXLXz.b.C 4.2.h.V.xXHX:X:XsXPXHX*Xc.&XPXjXLXZ.A.jXPXcX3.4.Q.Q.JX-X;Xy C 8.4.C.KXCXnXMXKXI e.. . < < < 7 d q 7 w w w 4 4 o c.x.zX6XjXPXPX0.l.[.HXcX;XU.c.c.0.) 3.V ` 4.jX6XkX7XL.O.@.U { o.0XuXyXmXA S  .tX5X*.*.w.~.T.J.J.r.....a.G.ZXtXL.Y.H.v.v.L.J.v. .I q  .! T.+Xb 1XXX7XI.z.n.C.m.6..XoXy.OX@XP.b.K.Q +.W.U.4X3X4X5.5.~ ..8 G G i P ^ .X#XnXrX4XnXnXwX.X4.5.p.wX=XkXlX8.+ = V W *X,X}.q.8.4.4.9.f.x.cXjXcXxXvX9.2.B ~ S S U u 7 r < < 5 u M ^ ) N Z : - - 8 6 p u a f g g d f d d g k f d d d f a D N N N v = > - % s s D D D 4 < 9 - - w 8 x x x : > [.jXKXxXxXMXPXHXV V 4._ [.HXcX,.W Z |.`.:X;XzXjX7.Q.z.x.z.[.KXlXCXZX0XF.F.=.=.F.h F @.I bXPXJXoX3X+.~ 4XL.J.+XU.6.H.L.L.L.r.5.v.mX1X!.s.I mX5X5X0X1X!.!.<X9X!.G.H.BX8Xv.H.1XG.v.G.L.9X8X9XNXNXv.s.v.v.v.n i ! <X3XY.+X! m m m 0 e.JXJXlXkX@X( 2.}.[.A.A.Z.;XxXPXDXB.T T f.8.6XkXKXa.u.6 < [ D a A 5 u A I 9 t X 5.+.;XDX;XPXPXPXPXx.9.3.9.) Z.Z.Z.9.9.[.*XPXVXzXPXHXHXVX8.l.c.HXcXvX3.4.. . Q kXVX-X[.R ) / 9.9.`.=XbXMXbXBX8X..7 f D f d F g f f u $ & # # kX-XKXPXPX@XV.%.Z.V.*X[.DXDXLXMX6X0.8./ N.x.VXKXmXe.i.{ { i.NXNXrX1XU } L yX0X-.e.n.eXNXr.d.X.ZXeXJXkX7X6XoX=XlX",
"t I.I.eXkXJX6X;XzX;XHXPX*X= # 0 b -XjX}.W <.0.*X=XFXNXy.y.% p a 3 < 7 f f 7 1 1 X & X - # 4.+.kX=XJXJXdXxXxXx.b.Z 3.3.A.c.*X>XxX-X*XHXPX}.Z.V.DXPXPXA.V.cXxX;X7.2.C.{.JXZ.Z.C Z 0.3.C.wXnXCXPX1X..U . . 7 < 2 d d d 7 7 w 4 4 ; o z.b.zX6X:XIXPX9.x.[.:X-Xb.oXQ.A.f.( 0.W E ,.jX6XkX7XL.O.@.U { o.uXuX0XyXA F O.mXtX5.*.5.<X~.d.a.w.....H.~.7X1XJ.J.u.a.L.Y.s.a.X.G i U U !.v.G +XL.7X7XI.C.b.y.y.Z.C.p.{.#XoX.Xz.) ~ #XP.3XMX8Xj.r.! G b n H H n +.Q.$X$X4XnXVXCX.X=X&.4.3.6XlXHXjX0.  + V W :X:X|._ _ 2.3.l.A.x.HXvXvX:X>X&.( t P S Y p & u A 4 5 5 5 n ~ ^ P H y ; ; - & D u a g g f f f f r f f d d d d a s D D N N t = - - * s p D g f & & & - 4 8 0 : 0 > ; C }.JXzX-X6XKX6XPXv Z ) E sXvXDX4./ v [.V.}.A.*X:X[.Q.S.l.c.}.qX-XnXZX0XT.T.;.o.:.f { #.! 7XkXPXoXoX4.6.L.v.!.~.W.w.J.T.~.L.*.e.v.5XXXv.L.*.5XtX5X5X2XY.Y.8X1XG.<XY.+XXXu.v.9XG.v.U.H.<X8XCXCXZXY.e.e.J.L.A A  .1X3XY.+X! m m m 0 e.JXKXlXlX*X2.3.*X:X[.}.N.xX&XPXLX`.Q E x.l.wX6XmXa.F.7 7 { w 6 f J D 9 i 9 6 o 5.4.MX=XHXPXcXPXPXP.V.2.2.+.Z.V.l.c.c.*X>XxXHX*XVXPXHXHXc.l.x.}.:XHX9.3.    ) PXPX-X[.v +._ 9.z.`.m.6XCXmXmXCXU 6 r F d F 7 h 7 r q $ & @ # 6X=XkXPXPX|.V.W V.Z.}.;XLXLXPXxXCX0.4.( ].V.cXCXmXe.i.{ { i.mXNXmX2XA { g /.0Xu.u.y.nXKXe.*.s.yXNXJXkXbXoX3XbX6X",
"i W. XbXbXHX;X}.[.*XvXDX*X: - % = {.xXxX,.W <.jX6XJXJXy.u.& q 7 < 3 1 r r 2 1 6 5 & # % - 8 ; 6.t.6XdXkXMXMX;XoX) x.9.cX>XPX*X:XPXPX}.l.W vX}.sX:X9.V E }.;XPXjXzXMX}.=XW &.3.&.Q.}.MXeXnXKXBX+.S a F f 7 2 h 3 d d r 7 w 4 4 - o z.b.lX:X:XHXIXA.A.[.:XzX) H . + 8.,X}._ _ 3.sX6XkX7XL.O.o.U U o.yXuX/.2XA G ..mXtXv.G...*.-.*.*.a.1XXX5X+XJ.L.J.XXtXL.L.G i i 6 i 5 4 4 J n L.8X1Xu.e. X Xt.C.b.&.) 0.z.4.^ ~ > P.b.=X=XJX=X6.q A q q ! i S ..+.Q.4XnX4XrXCX@XOX4.y.-XVXPXkXlXcXlX6X) 1.Z.V.LXD.N._ Q 1.2.A.PXPX:XPXHXv : Z y P - @ 8 u D F a u p 5 5 p P P P P t 8 8 & % G i p D D f a f f a d d d d d d a a D G s N y = ; ; - g p g p f < 6 a K S m m - S m = # > @X=XJX=XPXPX6XvXcXW ) vXHXDXxXHXxXIXHXvXHXLXHXPX}.*XC.8.D.E.[.lXtXuX0XuXR.T.o.;.-.U I +.^ OXPXPX=X3X&.e.6.+XtXG.s.=.*.a.*.y.e.a.L.L.mXr.5.5.G G A G J 5.! ..@.O. ...r.H.@.9XXXG.Y.u.!.U.v.u.5. .@.Y.+Xn p  .<X3XY.XX! m M m 0 6.CXKXMXMXqXZ.[.IXPX[.x.: C / xXDXiX2._ c.8.=XKXZX..w.#.[ f F J F f f 7 5 ; ; %     t.5.PXP.;XHXcXPXHX( = = [.A.h.|.oXHXHXvXPXPXwXVXS.Z.LXlXlX[.;XPX[.Q.B v c.PXkXl.c.Z A.b.B.z.KXNXbXCX7X..{ X { g d h [ F [ 7 7 f 4 w @ o  X=XkXPXLXV.V.W vXHXcXcXLXzXFX&X{.P P _ %X[.IXKXmXi.d.{ { d.ZXZX1XtXD X.} yXuXX...a.KXCXNXZXmXu.u.5.6.bXK.K. X=X",
"b  X XbXbXHX*X|.}.Z.HXHX}.b > - = }.HXcX) / 3.-X6XJXkXn.v.@ q q 1 * 2 7 g 1 2 1 & & % % - ; - 5.7.MXoXJXxXLX=X{.) B.l.:X6XLX;X*XPXPXA.A.W }.:XsX>Xl.H Q *X&XPXzXMXMXsXP.+./ 8.&.P.@XbXnXkXBXmX&.A A F f 2 e e 2 e e e 7 6 4 & & o b.b.lXjXwXUXUXA.,XA.cXcXW B O + 3.>X|.,.,.( jXsXkX7XL.O.o.{ { *.uXyX/.2XD G ..NXmXv.a.*.*.@.*.5.e.XX$X1X3Xa.L.H.1X1Xm.!.H n i q n 9 9 & n  .y.8XOXn.z. XI.z.n.b./ 2.y.0.8./ W > A.B.oXlXxXMX6.b q A n G H 9 O.O. XrXwXeXkXlX@XK.0.0.wXkXVXHXcXHXjX*X( 4.V.|.cXN.N.Q T 2.2.Z.PXPX:XVXlX0 C : b P o 8 ; & U f f r a 5 4 u G I U ^ t ; t % & y S S p p p p a r r r r r r d f a p D Y s b : - # y 6 D s F a r 6 6 f p J 9 m - m m - % : OX=XJXkXKXPXPXjXxXW Q xXPXAXxXDXcXHXPXxXjXLXcXPXzX@Xb.x.9.].].vXlXmX2X0XT.T.;.-.o. .! ~ ^ 7XMXKXBX XO.y.5.+X1X!.e.e.y.*.5.y.e.n.n.5X4Xm.5.5.S I A S I @...@.#.#.O.! u.u.5.tX5Xv.U.L.L.v.s.a.*.O...Y.Y.n K ! 8X<XY.+XI A m m 0 6.NXJXVXHXqXZ.E.PXHX[.*X+ _ / DXLXiX2.) 9.8.=XKXKX@.o.{ @.7 F D J U a 5 6 & 6 X o . 6.t.KXoX6XMXHXPXcX/ : = [.A.8.[.6XPXDX-XPXPXwXxXQ.A.KXjXjX|.[.PX}.*Xv v V.PXKXp.x.H A.c.z.C.JX7XNXmXtX .{ X h h d j | j [ 7 7 7 6 4 $ # .X}.wXPXLXV.l./ jXjXLXPXLXDXDX}.@XP V ` |.*XLXVXyXe.d.{ { d.ZXmXrX5XJ { o.uXuXo. .L.mXNXZXZXyXG.m.+.6.JXK.K.OXoX",
"9 K.I.eXkXHX;X*X2.3.xXPXPX}.@X}.{.oXl.x.: v <.*X&XNXbXn.a.X < * r 2 r 1 r 2 r 1 5 r 6 6 # @ . m : 9.7.6X6XkXoXsXV.6X*XsX-XxXjXKX[.sX) ( / :X*XPXPXE     x.B.xXP.b.) H / <.3.[.[.MX=XbXbXmXa.y.i < < 6 2 7 j d 2 2 2 2 1 w 4 4 - X b.b.lXjXjXUXHXA.V.:XZ.{.0 M v v c.|.Z./ / 4.xX6XkX7XL.O.@.{ { o.9XmX0X2XA I e.CXCX+X+XL.!.Y.!.L.r.v.a..X3XH.L.y.L.!.tXCX!.v.v.y.y.w.v.v.XXXX3X5.e.p.n.e.6.m.OXbX4X&XH + o 0 m z.DXkXMX6X8.<.b S A q i S O.+.$XW.KX@XwXKXVXQ.v B m.oXPXKX=X}.V.*X:XPXPXIXcXcXgX1.8.4.9.*X}.wXcX6XwXkX4.. % % - ^ ; 6 @ @ u 5 7 F D < * p D n I U p 6 t % - y M N p p n n p p p s r a f g g g A ^ Y t b ; % # p y D g F 7 7 r f a F  .4 4 % m m o ; X ; ; oX4XlX6XHXcXHXPX:X8.*XzXIXDXjXjX:Xl.l.B E |.zXcX0.( v k.k.E.Q.4X5XyX0XuXd.-.@.o.@. .! ~ 1XBXnXKXK.~ I ..! D ..y.v.J.W.W.5.!.L.n.m.8Xm.!.5.*.S 0 6 q - 4 ....8X5XY.<X@.w.G.8XXXtXu.G.u.r. .I  .XX1XH A ! 8X1X'.+XI A M x 0 e.JXJXMXMX:X|.}.PXPX*X*X= E R sXxX;X,.( 0.8.MXkXBXd.i.7 q 7 f f F F f 7 u 5 6 & & o # o y.JXMXcXcXHXPX*X+./ ) 3.cXPXPX-X;XPX@X}.E / lXLXVX[.Z.( / wX:XLX-XlXcX[.=X/ &.0.P.oXMX3XKXNX7X5.5.6 7 $ g h $.[ [ [ [ d f 7 < < $ # W.P.wXPXPX*X>XZ.PXPX[.].( Z.`.jXeXp.x.3.].A.cXPXmXr.d.{ { u.ZXCXrX5XY o.o.yXuXw.e.5.&.O.O. .@.w.y.CXNXI.n.n.K.C.",
"8 U.I.eXkXVX:X;XW ( vXjXxX-XeX}.6XA.8.V.: l 3.6X=XJXNXn.u.X * $ 2 2 7 1 r d f 7 < 6 5 6 @ @ o ; x 3.3.xXFXsXP.oXb.}.*X:XxXHXvXPXvX|./ +.W *X:XcXjXB +   9.9.LX*X&XW v / h.0.Q.{.kX6XPXeXmXO.O.J 4 < 3 1 f [ ] d d e 7 w 4 & % # X b.b.zXjXjXVXHXl.9.HXQ.Z.v 0 b C l.S.[.q.1.q.;X:XeX7XL.O.@.{ { -.9XyX9X2XS I e.mXNX XXX+X~.!.!.L.6.u.e.3X7X XI.n.U.m.CXBX3XH.m.v.n.r.n.H. X XW.5.6.U.I.5.@.I.NXOXoXOXv - # m ;  X3XeX=X#X4.+.^ 9 A A A i ..^ W..X-X6XeXKXPX7.y : @X-XMXPXA.[.[.jX[.*XPXIXjXIXiX8.3.3.8.|.=XVXwXCXCXeXM @ # & & Y a 5 $ $ 7 u f F f @ X f D u ! Y D y y ; ; ; M M b b N n i y u r r s a f f D D +.P y t - % # n p F D D * * f D a L { & * & n i @ - . ; b MX=XMXwXVXPXKXDXjXl.}.[.PXPXAXxXDXx.l.B C *XLXPX0.&.Z c.S.Z.E.4XrXuX0X0Xd.-.*.@.*.U J *.1XXXNXKX+Xb I I G n y.p.a.a.v.I...Q.I.z.n.MX Xm.5.O.S 0 4 9 4 - @...3XtXv.!.w.y.n.8XXXKXv.G.w.5.! ! @.1X1XH b J <X<XY.'.J m m q 0 r.JXJXlXMX-X[.[.PXHX[.[.: B Q ;XDXiX4.2.3.2.wXCXCXr.i.7 w q g f g F f 7 q 5 6 4 ; 0 o . +.PXMXKXHXjXLXMX4.+.4./ jXMXLXjXsXPX[.:X) Q VXVX:Xc.A.Q E VXPXcX-X@XPXZ.}.2.+.C.V.C.JX6XNXKXtX ...6 7 f d d $.[ j [ F f f 4 $ & & # #X{.JXLXHX*X>X}.PXPX*X}.4.B.B.6XwXl.V.1.S.A.cXJXmXe.i.L L e.ZXZXrX5XF -.=.uX0Xd.v.&.~ +.....*.G.r.JXbXy.B.t.n.n.",
"9 W..XbXlXMX;X*XB V *X*X6XlXKXlXzX6XA.x.O = ( *X6XJXJXu.e.X & & * 3 2 2 r d f 7 1 & & & @ - ; ; + - - 4.kXMXMXJXcXzX>XjXDXPX{.}.c.V.sXPX[.:XcXLXLX9./ V }.;XcX( 2.m B 4.[.A.6XwXkXMX4XO.O.9 n S A f 1 1 j h ] j j d 7 w 4 & # o o b.b.vXjXjXHXHXl.2.0.9.0.x.C.zX;XvXl.D.T V 3.:X-X7X7XL.O.X.U U -.0X0X9XmX5.w.r.H.m.5.O.! G n i n 8 I ~ L.!.XXXX! G H n.a.!.L. XXX+XY.I.H.K.I.W.n.4.^ H 8 q 5. X'.5.5.= S M m.'.bX=X3X5.4.H H N ~ n 6 q O.4X$XnXeXeXKXVX{.P.( p.t.6X-XjXjXv + . x.l.>XxXcXN.f.3.x.l.Z.Q.cXJXPXOXQ.5.O.9 9 6 i i u D p 5 r f D F D r @ @ a D A U G Y y y ; ; = N N b b b b i t y s s p p p A G I P M : ' % = - n n D Y A $ $ a f g D D & 6 u D q - - # #   t M =XkXMX;XcXcXPXHXE / ( 9.sXcX;X) V   . 2.}.lXZ.Z.0.0.k.0.l.[.kXeXnXCX<Xs.w.X.*.*.e.A F o.0X2XKXH.L.G P t p.n.#XtX$XH.4.y.5..XU. XOXmXOX3XI.n.m.H.U.BXBXXXI.L.r.e.I.+XH.@.@.u.L.5XmXNX9X1X!.tX3X@.5.G <X#X'.'.H m M b b y.NXJXlXMX*X8.q.jXxXHXPX*X:X&XPXjX7.C E f.x.=XKXKXO.@.w 7 f h f f g f r 7 6 u 4 & 6 % - b +.0.cXMXMXMXMXc.c.zX&XPXzXcXLXLXxX2.2.) 8.PXPXcXZ v . + Z.LXPX[.}.V ) 2.0.0.{.MX6X3XKXmXyXe.u U a 7 [ d e [ h d h h d f 4 $ & # # z.t.VXVXLXwXqX:XHXPXE _ . 7.7.KXKXV.A.1.].,XPXKXyXe.i.L L e.ZXZX4X1XJ s.d.ZXZX<XXXW.I..XI.XX~.0XbXoX{.b.b.K.PXPX",
"t  XOXMXbXVX=X&XD.0.cXjXoX9.t.0.l.wX}.{.V E 4.*X6XJXNXe.w.@ 4 4 < 1 2 7 7 2 1 1 f 5 ; & # ; 0 o # .   O z.B.xXsX*X-XoXMXcX*X( E >XxXDX-X*XA.x.xXHXxXjX*XcXPX:X) 2.4.h.`.jX-XHXjXPXMX5.X @ @ % q K J w 1 d d j d d 7 7 7 5 4 - # o b.b.vXjXjXVXHX( 2.3.lX6XJX6X@X[.].1.2.Z Z q.jX:XeX6XJ... .K F -.0X2X0XyXu.e.O.H G m n I I ! ! I N G n 5.+.6.e.I 8 8 H H ! O.5.r.n.H.n.p.6.5.4.~ P N N S i q J ..8 m m  Xm.BX7X7XM.m.C H H M m H G 5.5.!.5X2XrXVXPXp.|.Z.z.nXPXPXoX*XcXPX3.Z V Z.).AX( / Z B f.[.Q.zXeXlXkX.X&.e.9 9 A A p D F < L L D F g D D F a 6 4 5 D Y A D U s y y y % b v v v N M M M S N N A A A S I ! t v : : % 8 t p n S G p * $ a 7 D f a 7 f A A u 6 6 i 4 - ; o v : kXLXcXxXjXPX;XcXT B &XPXPX*XsX}.`.*XlX:XlXPXPXiXiXk.q.8.].[.-X4XeXtXtXJ.s.} } o.{ U @.J KXKXCX.Xm.N ~ ^ M.M.P ~ v - = y.y.y.XX3XOXbXdX8XfX8X7XL.5.*.n S G S I.1X3Xw.5.H H A ~ ~ ..e.y.H.n...O.I 8X8X.X+XQ S S n m e.MXJXVXVX@XW ` |.[.cXUXDXHXzXLXxX,.E V 9.8.eXNXtX . .$ @ F d 7 7 f F D a q u & @ o # % # # + 9.z.xXzXLXcXDXjXxXJXDXLXPXcXx.PXxX-XZ.}.}.LX) 2.E E jXPXPXW ) B A.l.Q.C.;XPXKXJXBX..@.A G D $ $ 7 d F $.$.[ h h 7 7 4 * # o # n.z.PXLXPX@X|.A.DXxXN.9.h.}.=XDXKXC.V.%.k.c.jXVXmXr.d.}  .a.KXCXeX5X! G.F.yX0X!.L.K.m.z.O.*.! @.y.C.4X7X5.5.B.6.",
"t W. XkXlXHX;X*Xl.l.jXHXzX2.3.z.c.PX:X}.W R ) jX=XMXJXe.e.& 5 5 7 2 3 2 1 2 1 r g r 6 - ; ; 8   + .   # B.U.JXMXP.zXxXPXLXA.2./ MX>XvXzX}.Z.x.xXPXzX`.sXjXPXZ.2.) 7.f.Z.-XDXLXwXPXkX&.o @ @ @ A K U 7 7 f 7 d d d 2 1 w 5 9 4 = o b.b.vXjXwXUXHX/ 2.8.:XcX6XMXP.|.Z.2.( : c ( *X6XeX4Xm.! { D D @.yX9X5X1Xr.y.O.Q ~ S n I G I G ~ H G S 5.5.y.r.I 8 b b S G ..+.u.u.m.n.C.t.y.5.Q Q t ; b 9 9 J ! 0 4 m  X X7XI.8X6.6.H H H b v I n &.O.!.tXZXCXrXKXQ.C.z.0.lXPXPXoXcXHXzXl.B v [.,XIXV E T B x.|.oXlXbXrXCXXXr.*.n n U a p F D 1 F F D D f a p f u f a 6 g L a g U p s y y - v v v v v N N b N N n n p n A H Q ; y : : = b N t i n S i 4 < f 7 f f f g g s r u 4 6 S 6 - # # b v {.PX6XzX:XiXDX>X_ ( `.cXHXvXjXB.[.@XVXwXKXHXLXqXgXk.9.1.].,XAXxXMX4X$XG.J.o.o.[ { [ o.X.9XCXNXU.m.P C P M.m.+.~ v 8 0 +.5.y.XXI. X8XBXfXNX7XBXU.e.&.H G N S n.3X1Xy.&.G S H ^ ..&.y.n.I.M...~ I 3X3X.XXXQ M M M m 6.bXJXJXJX@XW E *X*XHXcXvXLXLXLXxX_ E T l.x.lXnXtX .X.$ $ F e e 7 d F g f a a @ # $ 9 ; % # ; t.5.DX6XxXzX6XcXMXxXJXPXjX-X}.PXHX[.A.jXwXHX3.( ) 2.lXVXPXW ( C c.c.A.P.MXkXJXkXtXO.*.q A f 6 3 * f [ $.$.| g g < 7 6 & @ X # y.0.JXVXPX}.,XS.PXxX9.9.7.sXdXPXKXp.l.1.Z.A.VXPXyXr.d.} X.a.KXCX4X4X+.J.^.0X2XXXW.b.x.z.^ ..G w.&.oX=X=X^ 5.z.P.",
"t I.K.4XeXHXsXsX>X;XcXHX[.+ . > - Z.:XzX<.W ) ;X=XbXCX6.y.w p a 2 2 * 3 3 d d f 1 5 6 6 0 ; : . . + O B =X&XxX;XzXPXcX}.`.V 4.8.LX:XjX>X= : C sX;XzX{.}.2.2.E 8.h.Z.B.sXcXPXMXkXbXnXU.6 - X X w { #.6 7 F d j d d 7 < < 4 w - - o b.b.vXwXwXUXHXx.l.V.}.}.9.b.^ ) q.N.|.1.2.8.sXsXkX4Xv.! U D D o.2X0XyXyX+X8XXX.XXXW.L.1X~.1X+XI.I.L.I.3XXXOXOX8XI.OXI. X X X X<X+XOX X=X XoX{.OX=X#XXX XY.L.Y.L.<XY.L.8XOX7X7Xy.S H m M H m N ..&.4X1XrX2X4XnXCXp.&.+.lXPXVX{.6XwXwXwXjXHXxXHXcXvXgX/ 1.c.8.].jXMXKXKXW.K.I 6 u 5 5 6 6 7 D g r r r r g g q a 4 6 a f r a g g g Y D N s b : Z Z v y y y 8 8 8 t y i q q m m M ; : : : = N S i b S S 9 u 5 D r g g g L g r 6 5 Y 5 ; 6 9 ; - # # b jXDXLXPXHXPXPXAXjXN.*XjXcXxXKXPXlX*XZ.p.9.C.lXxXx.k.W k.N.).%XvXwXnX1X2X;.;.=.[ g F U *.!.BXKXPX#Xp.4.6.&.^ 5.+.~ ~ ~ ~ G 5.e.y.t.j.y.t.O.5.5.^ ~ S Q N G y.6.5.! ^ ..P H S H b 4 - b H m M H OXOX`.oXQ m b x 0 e.MXJXJXJX@Xx.x.PXIX*X,X8.[.}.DXPXB.4.2.0.0.wXKXKX .#.q 7 F f g d 7 g r 7 f A & - ; i ; X X   # + x.C.cXzXzXMXDXPXoXV.Q 3.zXMXPX}.Z.Q.Z.HXvXlX@XQ.HXZ.|.&.4.9.x.[.6XjXPX4XkX0 0 X & 4 {  .K F 3 h j F ] [ d f 7 7 4 $ o X o C.K.PXHXPXx.x._ A.[.AXDXPXPXLX&XwXP C ` |.,XHXJXyXe.i.L L e.ZXCXCXnX*.w.=.U F n H b B Q : b - ! ~ {.C.y.: ; # : ",
"m W.U.=X6XLXxXxX*XcXAXPX}.    - : }.cXjX/ ) 3.|.*XeXbX&.e.q A A 1 2 $ * * F D a & u i 9 9 # - .   .   W sXxXxX6X6XPXPX&X:Xv 8.3.jXHX{.:X: B > jX:XcX[.Z.( 2.E 9.8.B.c.LXHXLX-XkXkXrXI.& 4 @ # w o.o.< < F j h d f 2 * $ & 4 4 - O B.V.vXwX:XcXVXl.0.A.@X|.c.l.W E 2.V.]._ ( 3.jXsXeX3Xv.U U K F w.2X/.tXBXXX7X3X!. XI.U.1X!.<X!.!.$X XXX X!.OXtX1XW..XK.I..XU.U. XXX7XXX=XP..X.X.XW.#XOXU.Y.XXH.G.<XU.Y.1X1X8X3X5.H S m b G M b +.&.W.4XrXnXwXCXKXz.+.4.JXzXVX@XP.LX6XkXvXcXvXcXIXDX|.3._ S.c.A.lXJXKXKX.X.X! p 9 D p < A r f g F r 5 7 f D 5 5 < 5 r f g r r F g Y D D p N y b Z v y ' 0 : 8 8 8 8 9 q b m b v : - = : = b S n n H M 6 i 5 D r L F g g g f r 6 u a 9 q ; i 0 o o v kXHXxXDXDXLXPXAX;Xh.PXAXjXPXHXLXVX*X@X8.6.Q.HXcXx.k.T k.S.%X).vXxXJX1X0Xe.i.o.F L F D { 5X5XKXmX.Xy.6.4.+.5.+.5.~ ~ ~ ^ S y.y.y.y.y.w.u.@.w.@.S O.G ~ G b O.w.6.I ^ I I G I I S t 8 b S m m G OXoXI..XQ m b 8 0 y.NXJXKXHX@XM.Z.HXPX].>X( &X}.LXPX[.( 3.q.p.lXKXKX . .q 7 F f h f 7 d 7 7 D u 4 9 4 ; 6 o X # + . x.V.LX;XsXLX6XPXB.{.) 4.cXPXVXZ.}.[.}.PX-XvX}.-XPXV.p.9.&.Z.c.V.HXcXHXxX=Xv x # X & { o.K [ 3 F e F [ h f f r f 4 X o X o b.C.JXLXPXx.x.` x.[.vXLXDXLXPXDXlXC v E pX>XVXVXmXe.e.F F e.CXKXnXnX6.5.*.D G S M m B H - n - J I oX X6.# ; v : ",
"b I. X7XkXLX;X;X&X).PXHX6X+.&.H E [.;XxXV v 3.jXzXJXPXy.e.p q q q 7 < w w w q p 9 ; - # 0 o   + . _ / 6X-X-XHXHXjX;XoXB.A.cX[.;XjXHX>X|.Z O = ;XsXsX) ( B v 4.A.Z.cXjXHXjXkXMX-XKXnX7Xm.n.- w . ! K 7 q q f F 7 F 7 * $ $ & & % # b.z.jXjXwXcXVXS.P.*XVX:XN y   . 4.].Z.,.2.5.kXbXtX9XG.#.{ { { u.J.XX~.~.1X5X8XtXtX9XtXtX9X9X9XtXBXmXmXBXtX5X1X7XtXBXtX9X7X9XtX7XeXeXeXeXeXtXbXeXnXeXeXmX5X1XtXNXmXNXmX5X+Xv.u.G n A n G m t 5.$X$XeX!.eXnXKX}.}.# t.b.-XvXoXO # = v [.6X-XcXMXC.b.<.x.l.|.[.HXHXkX=XOXv H b b i n D A a r f F r r 4 F A & u 6 G n  .U & 4 6 D g D ^ U s y N t t y y y y ; 8 8 m b 0 0 0 0 0 ; ; 8 & & 5 u u D Y & 6 5 M n n A r g r F F s g a U A 5 a p 6 6 ; 6 X 8 t 4X*XHX;X*XHXHX>X9.8.0.x.|.;X-X3.3.  . Z Z.[.f.c./ Q _ f.c.A.zX*XcXKXkXnXe.=.-.} U a o. .yX0XyXuXtXyXyXKXNXNXmXtXmXNXNXmXBXmXmXmXmXNXNXNXtXyXyXyXyXyXyXtX5X1X~.~.<X<X~.~.L.L.L.W.L.H.H.K.I. X3XU..X^ M H q b p.rXeXKXPXwXlXwXPXKXZ.V.O Z C FXAXsX4.1.4.2.:XVXeXe.e.J f 7 3 < f f g 7 f D F u 4 p - # &     v : b.}.JXMXHXPXLX*XC C 9.6.PXjXvX= : : v vXjXjX9.A./ +._ B.Z.V.HXvXIXHXDX;X6X~ +.# $ X K J #.o.7 o.$.F [ F d f 1 < q - 6 # - .X}.MXLXPXS.S.l.KXLXPXvX:XZ.V.jX@X0.3.W E.[.VXeXZXr.e.X.{ s.mXZXrX#XL.v.v.v.v.v.n.p.r.r.a.a.r.e.a.K.I.p.5.4.5.5.",
"n  XOXbXkXJX*X*XW _ oX-XKXMXPXbXlXsX3.( + > 4.:X|.-XbX5.w.w < * < w q 7 4 & 4 q 9 4 8 = # o o V W *X>XcX-X-XPXvX*X3.h.jX*XHXP.9.vX-X>XLX>X*XA.vX>X*X+.( 2.9.*X:X*XHXlXcX*X-X}.C.eXbXJX7XBXe.y.9 9 q q q w 7 A r f 7 6 w w w 4 4 = Z.M.kXwX-XwXwX7.3.A.x.V.v W B v A.*X|./ W 4.7X5X5X9Xs.X.{ { {  .*.e.w.w.r.u.e.w.e.e.e.e.e.r.u.e.r.u.r.y.e.w.*.5.w.e.r.e.e.y.r.r.r.r.r.r.r.r.r.5.6.*.5.s.a.r.a.r.*.w.w.i.w.I S A S G S H ! &.OXCX-XwXnXKX-Xb.2.7.jXjXV.PXcX%Xx v v v ;X&X;Xv # ~ +.8.&X}.cX=XzXzX;Xv C = ; H 6 t q q 5 4 6 5 u 5 6 4 F p @ & @ G p n i X @ & a D Y =.^ g p D N N N p N b p b S n b 9 ; ; 8 4 - % & * & 5 s s D D @ & & b N n S @ & 1 f g r p a D D u A n 9 9 8 0 i #   B B MXLXPXHXcXPX:XvXW Z V.V.HXZ.}._ E x.}.iXzXIXiXA.V.c.8.9.;X;XcXHXsX-X<X*.*.=.-.L } L X.*.J./.2X<XY.~.<XXXXX~.XX<X<X<X<X<X<XXXXX~.~.~.0X0X0X0X0X0X0X0XmXmXyXyXmXyXyXyXmXZXCXCXZXmXNXCXNXBXNX X XQ 0 b i i a.rXwXVXKXlXQ.E.UXHX>XqXW 8.<.xXxX).) ) 9.c.xXPXNXa.i.F f f 3 3 r g F r a f A q 6 6 @ o @ 0 ; P.}.HX4XzXPXKX-XsXA.{.zX{.{.cXZ.}.> : v v cXPXKX) _ E V.C.{.c.xXPXcXAXzXDXMXPX=XdX! K X K K { [ < [ [ F [ { F F @ @ X 4 - - - Q.[.jXPXPXQ.|.{.PXPXl.c.= V H VXcX}.}.8.M.D.wXVXnXr.e.X.X.v.ZXZXmXZXNXmXmXNXNXmXKXCXCXCXKXCXCXNXnXKXKXKXNXKXKXKX",
"n  XOXbXkXJX&X*X( 2.&X}.xXJXJX4XMX*X3.q., : 4.|.:XlXnXe.e.4 $ @ < 7 f a w w 5 9 - - ; =   O o +.( [.6X*XjXcXPXLX[.8.8.LXjXcXA.l.*X*XLXxXZ.P.*X>XHX{.3./ 3.9.|.@X>XVXHXcX}.-XQ.Q.kXkXJX7XfXm.n.9 4 A 9 w 4 < w 7 w w q q w 4 & - # b.b.jXwX-XlXcX0.7.Q.b.c.P W E V A.A.[.( W 5.=X3X1X0Xs.X. .{ { @.-.e.-.-.i.i.-.-.-.-.-.-.-.w.e.i.i.i.e.e.i.e.-.o.*.-.w.w.w.w.e.e.e.i.u.i.r.i.e.w.w.*.w.u.r.e.e.s.w.-.-.w.-.U A n A n S n *.p.#X@X@XKX-XPX}.}.t.3.:X:XcXcX&X:Xx x B B }.}.sX: > / ( t.Z.b.cXcXLX*X-Xy v 0 = N - 8 n S p 4 & 5 A u 5 6 Y A * & @ U G i 6 @ & & n u D ! Y D p D D p p a p p n M G D n i 5 6 5 5 6 & & & & r s r a N @ @ # 0 b H G * & 6 g g s a a 5 a u a u 6 9 6 - ;   o C H wXHXHXvXPXPX*X*XV E Z.h.LX[.P.4.Q 9.`.|.iXiXjX[.[.3.N.q.*X%X;XzXAXcX7Xw.e.=.-.} L L =.-.T.~././.T.~.<X~.~.~.~.~.<X2X0X2X2X<X<X<X<X<X9X0X2X2X0X0X0X9XyXyXyXyXmXyXyXmXZXZXCXKXCXZXCXKXNXBXtXL.H.G 9 9 9 i n.nXeXkXUXlX}.}.PXlX>X}.2.( 0.=XLXA.<./ 9.9.jXHXNXr.e.f q f $ $ < 7 F f A A D q 4 ; ; %   ; m {.=XcXJXMXPX4XcXkXb.}.4Xt.oXJX*X}.> > v v >XHXMXW C W Z.A.[.b.sXcXPXPXPXPXLXPXdX=XH I @ q q { { f [ { { [ } F F @ X X 4 - - - =X*XcXPXKXZ.[.[.PXPX9.S.= H B jXJX{.[.3.M.x.nXCXNXd.e.o.o.s.yXyXtXNXCXZXNXmXNXmXCXZXZXZXCXCXCXmXtXmXNXmXNXKXKXNX",
"i L. XeXkXJX*X;XR W A.P.&XMXkX6X4X6Xx.Z.: v 0.jX>XzX7X6.5.& * $ $ * < < 4 w - $ . . X o # +./ -X-X-XzXxXKXcX*X|.v V.A.PXHX[.v v 3.8.PXHX>X{.*Xx.V.3.8.9.Z.c.*XcXxXPXPXUXb.C.3.z.z.n.oX3XbXdXNXy.# - X $ < 5 q f q 7 w 4 & @ @ @ # M.b.kX6X=XjXlXV C ) p.p.|.[.qX,X:X2.) y v 0.kXBXmXNXY.w.-.*.@.} o.$.{ { #.$.{ } #.o.} { } #.o.o.#.{ {  .o.o.#.{ { #.o.o.#. .} { { }  .#. .} { { X.o.} L F F { U F L F F F A F U U D *.*.<XXX2XwXwX#XKXp.^ ) wXHXHXjXcXxXAXDX*X}.vXxXHXLX{.R Q 8.0.;XjX;XPXHX-X= : ; ; t v M I n 9 6 9 p p 5 & 6 & & n p - 9 t b b % # o @ X 6 8 D ! Y Y D D G G D D G D G I U U Y D p a p p a 6 5 6 6 s p s s s # # o - 8 S H & ; 5 s r 5 5 u 5 p a p a q n t N - 0 - o o Z -XPXjXPX*XPXPX}.}.8.2.zXzXHXxX4XMXLXAXjX;X;XAXLXB.c.W V.V.Z.|.AXMXZX!.~.-.-.-.=.=.L L } L F U U o.X. . . . . .X.o.X.X.X.X.o.o.*.*.-.*.*.@.@.*.*.-.-.w.-.-.w.-.*.e.*.5.5.5.*.*.5.w.O...O...5.G H G 9 0 n.KXCXkXwXqX) 2.-X=XIXPXPXHXxXsXxX( B B l.V.>XcXMXy.e.q a K { F g 7 D a u 4 & ; ; % . X b 4X{.DXMXMXlX6X4XxXt.b.LXJXPX6X=XLXPXPX9.x.>X[.HX*X-X3.3.t.P.V.;XDXPXxXzX[.A.|.;XsXxXNXfXJX .$ $ F K g K f F g F r f 6 6 a 4 9 % - Q.Q.jXPXPX}.;X*XPXVX2.7.% ( 4.PXPXb.9.) A.E.KXCXmXs.i.o.o.d.0XuX0XyXyX0X<X2X0X5X8X2X2X0X0X0X0X5XmXmXBXBXmXmXtX5X",
"b U.I.7XkXLX;XsXB E V.oX;X{.oXlX-XMXP.[.v Z 8.>XlXLXbXy.5.@ $ $ & < < < 5 i 6 # . X #   . +.4.zXjX*X;XHXPXPX*X>X: oXZ.xXHX[.> v 2.( cXHXcX[.:XA.l.3.x.l.[.x.vXMXlXcXVXLXP.P.) 4.z.z.=XJXNXbXBXU.4 w X X @ & 4 a p q 4 & $ @ X X o c.c.jXjXwXMXHXZ C 2.x.x.wX|.-XjX:X%.( v b 6.4XBXyXNX!.e.w.-.-.#.$.{ [ { $.{ [ { $.$.{ { } $.$.$.} [ F [ } #.#.{ } $.#.} { { [ { { } } } } { { [ } o.{ F D F [ D g F g f g p Y D D u =.*.XX2XtX#XwXUXkXS./ 8.LXcXcXLXMXjXPXIXcXjXPXHXxXPXl.) E 9.8.}.*XvXPXPX>X: # b 0 0 M v N n 9 6 9 n A 9 & p - - i i ; y b b M % # % # o ; ; N Y G G S S D G F P P F Y Y U Y Y Y D D A g N u u r s s g g s y % # o % = m M ; ; 6 6 6 5 9 n 9 a 9 u i 9 b 0 t o v ;   o > PX*XDXHX*XPXHXxX}.2.t.MXPXcX6XxXHXxXcX|.;X|.PXPXc.x.V l.V.[.|.IXLXCXXX<Xe.e.i.} } L L { F F L J } } { { { { U {  .o.o.o.o.=.*.-.-.-.-.*.*.o.=.*.*.-.w.-.-.w.*.*.e.w.*.*.*.*.O.O.*.5.O.O. ...H A A b 0 n.KXKXnXwX=X%.2.-X,XcXPXHXHXLXcXDX<.V V f.l.jXJXKXe.w.5 q A D A f < u f A 4 6 4 & & X   H K.6X-XkXKXPXPXV.{.z.t.PX4XJX4X}.LXHXHXl.x.}.*XjXV.c.4.3.l.P.P.6XDXPXHXLX[.[.}.xX:XFXdXbX8XO.X & K { { J f F K F 6 u p K A & 6 # # C.A.zXPXPX}.-XQ.KXLX3.8.+ 3.3.HXPXx.D.%.S.M.KXZXuXs.d.-.-.d././.2X2X2X/.<X2X0X0X0X0X9XyXyXyXyXyXtX7X5XtXtXtX5X5X",
"G  X X7XkXJX;XjXV.V.xXMX}.V M W ) *X*X:XE E 3.[.*XcXwXy.5.X @ @ X X X X X X X . % X   X ^ 6X{.oXsXcXzX:X*X:X{.}.l.>X|.LXMXV.O   V Q xXcX|.V C C ( 3.x.l.{.*XPX}.*X|.Z.PX6XoXW H ) ) h.&X+X3XbX8X5.5.b 9 X X X % & # @ o X X X . o x.x.jXjXwXcXcXE ) |.|.}.[.V.x.8.D./ ) : t 3.rX5X5XtXT.w.w.*.*.o.o.o.$.$.o.o.} $.o.o.$.o.o.o.o.=.o.o.} } o.o.o.} #.o.o.o.#.} { o.o.=.=.=.o.o.o.o.o.o.#.{ } o.{ } L U L L L p p g *.d.uXuXyX2X$XnXPXM.8.b p.9.@X@X@XB : 0.9.|.xXzXjX[.[.[.8.9.8.[.|.HXHXHXE.8.v = O % = # # - % % ; 6 ; # @ & 6 .   . % ; y M H C C % # # o o - - i H S n b p a a p p p a p f p p g g D D p p p s s s s r s s & - = % O O O v v t ; 6 & & 6 6 n S S i n M b n t v - - : ; ; = V W vXjXPXcXjXxXvXxX}.l.b.=XLXcX&XjX}.Z Z : *XjX[.[.v / ) 9.9.}.oXCXtXZX0X<XJ.-.d.=.=.-.o.o.=.o.=.=.o.o.*.*.o.o.o.o.X.X.X.X.X.X.X.X.X. . .{ {  . .X.o.X. .X. .{ o.X. .! ! ! Y G G G n n S G S S S M t p.CXVXVXlX-X` Q A.[.@XvX}.DXDXPXDX7.R W c.N.xXJXKXO...$ * & D F F 7 u 9 6 @ @ @ # % 0 8 K.KXkXjXMXJXLXJX/ E b.A.PXoX{.v Z 2.cXPXxXcX}.}.[.l.c.x.c.*XxXDXHXMXzXxXiX9.c.8.;X>XLX6XNX7X7X5.U @ * $ $ @ 7 A F f a 4 q @ @ @ # # }.[.KXPXHXx.S./ l.S.V.[.x.cXlXVXxX( ) / x.c.VXmXyXJ.T.F.F.d.F.d.-.-.-.=.-.-.-.*.#. .#.X.o.o.o.o.O.....@.@.O...O.",
"+.1X.X7XkXKX;XsXiX;XDXHX}.O o # = [.jX>XE Q 9.jX*XHXVX{..XS I ! A A S S A m m H m Q t.6.;X;XjXHX:XPXKX}.{.|.jX6XPX}.P.6XjXvX8.4.oXA.HX:X}.E E 3.2.[.cXcXPXxXjXB Z v v ;XcXHXB.x.) / <.b.B.#X6XBXJXNXL.H.J G G U S A A A S A n M v *X[.cX6X}.[.Z.Z.[.xX[.A.l.x.8.3.V.}.lX0.6.z.wXnXyXmX~.a.a.d.d.d.d.i.i.i.i.i.;.;.i.i.w.i.d.i.-.-.e.i.;.-.-.-.-.w.i.i.i.i.w.-.-.-.-.-.-.-.-.-.-.w.*.-.*.o.o.=.} X.U { } =.=.! U d.2X1X1XXX1XyXKXC.S.l.x.>X}.[.;XjXE   , W W cXV.V.( W ) _ 3.}.vXvXvXvX:XjX0.D.) / +.Q ^ W H C S H M m b n M n i S b m m b B B v / ( v v v : : m b M ~ ~ M n S a p p p s u a f p r s g g p s s p p s s s r s 1 @ % % # O , O v 0 y % % o X # # - ; - # - - # # o X # . . .         ) W *XxXHXMXHXDXPX|.+.E 5.t.MX[.[.v V B cXjX[.[.O O . v v W / {.eXCXmXrXT.d.J.*.=.=.o.o.-.o.o.o. .#.o.o.#.} #.o.o.o.=.=.=.o.o.*.*.*.*.*.*.*.*.e.e.-.*.w.-.-.e.e.*.*.*.*.O.! U ! G G G G G S m m t t.bXMXVXVXqX,X}.IXUXA.x.v 2.0.LXLX;X8.3.0.3.vXJXMXI G X X X . X $ @ @ X X X X   & 0 7XeXKX7X6XPXPXcX4XoX[.=XP.oXLXA.l.  o E PXIX:X|.V W ) 9.t.C.B.xXHXMX6X=X;XPXPX;X;XW f.8.Z.`.NXfXJX7X9X@. .& * @ & < & & 9 @ # . X X # # P.A.PXcXVXl.x.Z *XZ.VX*XPXcXcXV.[.: ' E A.V.VXtXmX^./.R.F.i.;.;.;.;.-.=.*.-.-.=.;.;.;.;.;.e.i.i.w.*.@.*.5.*.&.*.",
"5.4X.X6XkXKX;XiXjX:XcXHX-XO O O + }.xX*XE W 0.;X;XMXkXK.{.n I ~ n b b S S n n H M M 5.6.KX*X6X-XzXPXPX`.&XV.jX>XDX*X:X:X:XjX0.0.}.|.HX:X}.V B 0.2.[.-XcXcX;X6XV C B v 6XxXjXV.P.^ ) <.b.U.dX&X6XNXBXL.I.~ I H S G G S S S S H G v *XP.cXjX&X|.P.A.[.}.{.V.A.x.3.0.x.Z.}.4.0.b.nXeXtXmX~.a.s.s.s.s.s.d.u.u.d.i.e.i.u.i.e.i.d.e.*.*.e.u.r.w.-.-.-.i.e.e.e.e.w.-.-.w.w.w.w.w.w.w.w.-.*.e.-.X.X.*.@.*...X.X.X.X.! ..*.rXtX1XtXrXNXNXC.V.l.9.|.`.[.jX:XH O . E R xXA.Z.Z W W ( 9.*X*XjXHXcXvXcX( 8.) ) +.V H &.&.v H C S H H M n m b M v b 0 0 B V B W ) Z V Z : x Z M M ~ ~ b b S 9 p p p r r a f f s s g D D p p N u y s s r s 6 o o # # , = , Z 0 y % # X X # O - ; - % ; - o o . X O .   . +     . ` E }.PXHXvXvXHXKX[.R B 0.4.LX|.|.v v B xXxX*X*XO + . V C W E {.CXnXrXtX5XJ.r.*.=.-.=.=.;.o.o.o.}  .o.*.o. .X. .X.o.=.*.=.*.*.*.*.*.*.*.*.*.*.e.w.*.*.-.*.-.e.e.*.*.*.*.O.! I ! G S I G J G n 0 0 t.MXVXKXHXqX}.}.IXPXZ.V.> 3.( PXcX>X<.2.8.9.xXJXNXH G X @ . X X # # #   . X X X 9 - 7XeXeXbXlXPXzXkXLXP.-XoX6X=XKXc.b.O o H PXHXvXvXB E / V.c.Z.x.DXPXDX4X=X&XPXPX:X;XZ 9.N.).`.dXbXJXbX8X..O.X @ @ & & & i - X . # X o X = [.Z.PXlXLXl.S.y oX[.HXVXlXjX:X|.Z.> ' _ [.A.UXtXyXT.T.F.F.i.;.;.i.i.;.=.=.-.;.;.;.;.-.-.-.;.;.e.w.O.X.*.w.5.*.*.",
"eX7X4X6XwXKX%X*XV.A.cXqXjXP.Q.6.9.[.x.x.v : 4.jX;XxXjX4X7XbXbXnX7XmXbX6X7XbX7X3X6XMXcX-XcX6X}.PXPX0.x.W cXDX*X-XZ.) <.}.6XsX|.6XjXxXA.V.9.3.3.A.l.PX>XsXLXPXoX3.4.t.9.LXsXsXP.&XcX6X`.<.) C.`.oX7XdX7XBXNXCXNXnXbXtXnXBX7XdXNXJXjXjX;X*XsX:X:X:X>X*X*X*X*XjXjX&X:X-X*X;X6XwXwXwX4X4XnXrXrXrXyX1XtXtX5XtXeXeXnX1XNXtXeX5X$XtXZXeXtXmXmXtX1X1XNXnXtXyXmXtXmXmXtXmXnXmXeXeXnXmXrXrXrX4X4XrXrX4X4XeXnX$X5XrXeXeXeXrXCX7X7XMX7XNXJXm.b.[.LXMXPXDXHXPXLX*X8.9.|.A.PX3.9.E B V.l.|.jXcXDXjXcXqXgXPXPXHXvXcXKXKXVXjXMXKXVXPXCX6XMXCXnXMXMXMXMXcXzXxXvXvXcX:XcX;XHXjXzXLXPX/ v ; : - X 6 & X $ 1 * f * $ @ * p y u @ X ; % % % ; o s p 5.6.c.B.c.h.N.B.x.t.p.p.a.z.p.h.x.y.5.p.4.p.&.0.6.0.4.2.8.0.3.3.8.8.2.2.*XHXPXjXjXHXjXKXb.A.`.A.MXcX>X*X>XjX:X:X:X*Xx.2.2.8.0.9.l.z.JXMXrXtXZXXX~.J.F.T.d.i.J.F.F.J.u.J.d.T.T.F.F.s.F.J.F.F.F.G.G.s.G.J.J.s.s.G.T.G.u.Y.^.Y.s.L.J.v.J.~.L.v.s.v.H.r.p.r.w.e.e.6.6...^ K.KXVXVXPXxXvXcXHXPX&X).+ x : PXDXjX( 2.9.0.6XPXKXn.n.O.*.5.O.*.+.! &.O.^ ..+.) =X{.KXCX6XKXKXkX*X;XoXJXKXPX6X4XKXzXlX2.+.*XPXPX[.V./ / V.[.Z.zXMXHX=XsXv Z H PXxXDXPX0.B B f.0.|.{.3XNXBXBXmX6.4 @ # # @ @ o o o X X X o = Z.Z.PXMXPXl.Q.|.PXLX-X}.V.[.[.*X*X8.3.%.Z.Z.lXKXtX<X^.T.F.i.;.i.i.d.i.-.-.i.i.=.*.-.w.-.-.;.-.*.*.*.O.*.w.e.w.*.",
"4X5X4X6XkXPX*X;XA.V.HXjXjXA.Z.t.8.A.l.x.Z v 8.zXjXDXMXjXlXbXbXNX3XkX7X3X6XkXkXdXlX-X;X-X-X-XjXPXPXl.t.W &XjX-XjX[.W / ;X*XDX:XvXvXjX[.A.h.9.7.A.}.cXoXjXPXHXzX) ( h.B.MXxXMX=XoXMXMX&XC ) oXP.;XFXMXMXbXkXbXbXnXCXbXbXbXkXkXMXDXsX>X;X:XsX:X;X*X;X-X:X>X*X*X*X*X|.*XxXHXzX-X-XwXeXwXeXeXrXeXrX-XkXeXlXMXlXkXzX-XkXkXMXMXkXlXcXkX4XrXbXbX6X4X6X4XkXlXMXCXMXbXkXeXkXlXkXeXMXnXeXwXeXwXkXkXwX4X6XwXlX4X4X6X6XkXbXlXMXkX&XMXPXFXPXz.Z.Z.jXHXPXPXLXPXPX&X9.3.Z.}.HX9.2.W V x.x.:XvXjX:X:XcXjXqXHXHXHXHXHXMXMXcXcXHXKXHXPXMXkXJXKXbXlXNXMXMXMXMXxXxXcXvX>XzX*XcXsXzXPXHX0.: ; ; = @ @ # @ $ < & r < * * & p 5 9 % @ % ; - # = o P M &.&.9.Z.B.B.c.N.h.t.z.p.p.p.t.8.0.t.t.z.0.0.&.5.7.8.3.4.3.4.4.3.9.3.3.8.|.vXPXxXjXHXcXzX[.}.C.A.-X-X*X}.*X:XvXwX*X}.x.8.8.8.0.8.8.V.xXJXMXnXrXXX2Xs.s.T.s.u.G.G.Y.J.s.s.s.T.T.s.d.F.s.s.s.J.^.T.s.s.s.J.J.J.J.G.J.s.s.J.J.L.L.L.v.G.G.H.H.m.m.v.v.r.r.r.u.r.y.6.5.+.+.A.cXMXHXPXlXHXcXHXHX}.A.> x v DXLXsX2.,.8.8.sXJXMXn.n.5.5.O.+.4.+.+.&.+.^ +.^ 7.=X=XKXlXPXKXPX=X{.sX*XPXPXHXoXoXLXJX4X0.3.Q.HXHXA.V.( ) l.A.Z.zXHXMX-X;Xv B E PXLXHXxX3.Z B 2.f.`.oX3XKXbX7X=X6.N - % @ o o o o X o o o o # Z.Z.VXzXHXV.[.|.KXHX*X*XQ.}.|.@XoX9.3.%.A.A.wXnXtX<XY.T.F.d.d.d.i.d.i.w.-.e.i.-.-.w.e.w.w.e.e.w.*.*.*.*.5.5.*.*.",
"#XZXCXkX4XcX%X;XB T Z.[.DXHXVXwXwX=X0.3.= = 2.*X&XsX:X&X=X#X#X4X=X6X6X&X=X6XjXjXsXsX*X*XjXPXPXx.c.( 8.A.PXxX*XzX:   O [.V.jXb.9./ _ ) ) 3.Z.{.LX>X*X*XcXcX:XPXb.B.6XsX6Xb.t.h.x.zXdXFX) +.H 0 `.}.6XMXMXdX4XbXKXbXeXkXMXMXdX6X:XsX;X;XxXjXsX;X>X;XjXsX;X;X*X;XcXAX>X|.|.&X;XwXlX-X-X-XlXnXlX4X=XcX:XsX>X*X:XxXHXjXxXAXxXcX:XgXcXHXcXcXxXxXcXPXPXHXlXjXwX;XjXcXcXHXcXvXqXvXwXwX:XxXUXHXcXvXvXxXlXjXlXcXMXMXDXxX;X;XLXFXLXxX0.h.v ).|.cXcXl.Q E x.[.iXPXHXMXcXQ.8.l.V.9.[.[.cXHXcXHXHXPXHXxXcX:X:XHXDXjXjXjXcXxXjXjXzX6XjXLXLXkX4XMXxXxXcXDXzXzXxXIXAXGXjXSXzXiXDXLX}.= = O # - o o & & p g g r 5 < & a 5 9 ; - O . +   o = z.A.VXcXlXAX>XzXzXLXLXkXlXMXCXKXPXPXPXJXLXMXKXLXPXKXPXPXKXKXKXKXPXLXLXxXcXxXIXvX:X*XsXsXzXzXLXPXsXcXHXlXLXPXVXvXcXcXvXcXHXLXLXHXHXPXPXxXxXDXMXMX4XrXmXmXyXyX<X~.5X7XmXZXKXmXmXtXtXtXyXtXCXKXmXyXmXmXtXCXtXtX1X4XmXrXmXKXKXeX1X5XZXmXmXZXmXyXtXtXnXmXCXCXeXeXNXnXnXNXMXbX6XlXHXHXHXHXvXV.V.zXAXIXLX`.x.l.*X[.2.R _ c.c.LXxXMXJXKXCXJXPXKXJXCXMXCXlXkXPXKXJXwX-XJXkXKXt.z.E ) HXlXMXV.C._ ( }.LX6X;XkXKX[.}.l.x.9.8.P.sXjXLXLXMXPXPX) ) W PXPXjXDXcX;XiX0.f.9.9.Z.kX6XCXCX6X XI.W.oX#XrX$XW.Q.}.oXoX{.{.;X-XLXLXPXlXVXVXlXMXjXcX-XvXjXMXKX-X@XE.jXkXKXKXmXtX2X/./././.2X<X<X<X~.~.~.~.~./.<X<X/.~.~.~.~.XX$X$X~.!.W.!.~.",
".XKXMX6X-XcX%X;XB E Z.A.HXPXPXVXVX*X2.( = : 9.zX&XsXsXsXjX6X6XlX6X6X6X;X&X:XxXsXsXxX}.[.:XPXPXV.V.4.W l.jXHXxXjXv . + V.B.HXZ.P.W Q 2.( 8.}.[.vXPX*X*XjXsXjXHXV.x.dXxXsXt.8.z.`.FXxXdXW +.H B A.sXxXLXcXxX;X6XwXlXwX-XjXcXjX;XiXiX*X;XAXsXjX:X;X:XjX:X;X;X&X;XHXzX&X|.&XsXjX-X*XwX:X@XvXlXlX*X>X;X,XzXvXgXvXiX>XzXvXjX>XvX*X>XGXgX:XzXcXHXHXjXDX:X:XjXHXzXAXzX:XIXvXvXgXgX>XvXgXGXIXDXzXjXAXGXvXvXHXzXPXPXJXsX;XsXxXxXLXPXP.0.x }.|.jXLXN._ W [.}.AXPXHXHXHXV.8.2.V.x.[.{.:XcXPXjX:XxXxXHXPXjXjXcXHXxXcXcXLXcXjXjXsX6XzXHXDXzXjXkX6XxXxXHXjXvXzXcXvXvXcXzXcXiXIXAX:X> =   . # X   - & r p 7 r r s 6 n 5 8 8 > . + = + + = B.A.vXlXkXvXzXIXPXPXDXVXMXVXMXkXzXDXDXPXPXMXPXKXPXKXKXKXLXHXLXPXPXPXcXPXHXHXPXvX*X>XLXjXzXzXLXKXsXsX:XjXcXHXlXjXvXcXcXcXLXPXPXHXLXPXPXLX;XsXjXMXwXCXnXnXrX5X#X3X7X7X7XnXKXnXKXtXeXnXnXeXKXKXKXnXnXmXmXKXtXCX5XeXCXrXnXKXKXrXrXeXKXnXmXnXVXZXmXnXeXVXKXMX4X6XMXMXbXMXMXlXkXwXwXcXPXLXcXA.V.IXHXLXDXsXB.c.Z.;X,.T Z 9.B.LXxXxXJXCXCXJXKXMXMXHXJXMXjXlXKXKXPXVXMXVXwXPXb.t.E W MXJXJX9.C.H B {.PXMX4XMX6XA.Z.8.9.l.9.V.>XHXKXLX-XPXMX4.4.7.JXPX;XjXzX}.).2.2.2.0.;X-X*XcXMXcXkX;X@XoXoX{.#X.X{.oX@XoX{.P.-X:XjXcXHXHXVXcX-XcXVXLXjXcXVXPXMX6X:X|.wXqXlXwXeX1X<X<X2X5XrXrX2X<X<X2X<X~.~.<X<X2X2X<X<X~.~.<X+X.X.XW.K.K.!..X",
"y.4X$X@XlXPX:X*Xq.3.|.Z.,Xx.C.@X@XjXA.V.B v 3.|.sXxXcXcXMXzX6XjXsX;XsXjX6XzXcXjX%XvXcXPXPX[.l.[.Z.cXMXjX{.*XHXLX( E V >X;XjX) ) B B 8.8.V.jX*X-X;X:XPXPX{.[.l.B.t.FXdX&XC x +   =X|.FX;XA.: x 7.}.Z.`.`.cXcXHXwXjXzX6XsXDXAXjXcXHXxX%X;X[.sXzXIX;X;X;XiXiX;X&X;XsXsX;X>X>XiXzXcXjXvX*XxXxXcX*XjXPXcXzX>X>XGXIXGX>X>XgX>XIXiX:XzXIXxXjX,X:XvX:XPXPXHX:XjX*XcXcXHXcXgXIXHXIXvXHXvXUXDXcXjXjXjX>X|.Z.,XA.vXDXDXzXMXLXzXsXB.h.<.0.B.%X>XAX;XB   . ,.) |.P.A.4.) +.0.h.*X;XLXPXxX6XcX;X:XxXjXcXjX*XxX;XjX-XvX*XjX>XsXcXcXDXcXiX:XjXxXkXdXDXjXMX>XzXvXzXzX>X;X[.>X}.IXcXvXW W % % O # - S p p p r F U p r D 5 6 6 ; o   o . O E sX;XxX:XjXqXAXzXIXAXSXHXcXJXVXjXxXDXDXAXjXjX;XjX;XjXjXxXcXzXjXzXDXHXHXvXjXvXvXHXHXLXPXLXMXDX6X;XxXjXjXMXwX:XjXUXUXUXVXlXkXqX:XwXlXwX*XAX>XcXMXHXlXKXkXMXMXVXKXPXLXPXJX-XMX=XJXkXkXlXwXkXkXwX6XkXVXVXlXeX6XKXCXKXKXeXlX-XnX6XKXKXKX4XlXwXeXnXVXnXlXeXwXKXMXVXKXJXMXlXkXlXMXHXVXHXPXcX*XW W ).|.sXDXPXDXKX*X&XW W _ h.c.sXDXHXzX6XKXPXMXwXjXMXHXMXwXjXcXKX=X;XkXHXcX-X7.b.}.{.MXMXJXB 0 + + P.PXPXC.x.W 8.9.8.x.}.}.xXPXsXcXLXsXPXLX=XxX;XJXKX}.;X%XHXPX>X%X) / 3.[.|.MXiXvXxXzXcXHXCXnXVXlXlXVXHXVXcXcXLXHXcXHXHXPXHXcXlXVXxXHXjXcXzXMXMXMXHXlXHXVXHXkXKXZXmXmXmXCXZXnXZXtXtXZXCXNXmXmXtXBXNXNXmXmXmXZXmXCXCXCXCXCXKXKX",
"M .X4XwXlXVX>X>XgX,XHXvXV.O O Z B Z.@X:X( W c.AXsXzXsXsX;XP.l.9.2.( 3.h.9.c.x.8.2.1.( %.8.3.l.PXPXxX>X|.}.[.xXvXcX;XZ.cXjX}.E Q 9.8.[.[.:XPXLXHXHX:X-XzXPXPX2.Z B sXLXcX) <.Q B &XsXsXP.*XsXDXc.9.9.A.c.V.3.2.W / 0.x.V.|.A.8.3./ h.c.|.).).4.,./ ( 8.x.x.x.9.) R 4.B.`.|.).q.T W 8.8.[.|.|.q.8.W 8.V.,X;X,XA._ ) ( l.x.>XN.9.1./ 8.,X:XHX:X8.3.( l.V.:X}.[.( _ D.8.|.,X,Xl.l.2.9.D.l.l.D.q./ C V 8.7.*XvXxXjXcXPXZ.V.Z.oXDXxXLXPXxXxXxX).f.h.sXjXxX) Q B E x.*X}.jXsXPXKXP.3.( 4.9.z.3.) H C 8.V.Z.x.x.+.2.4.l.9.l.c.q.Q E ( 2.t.t.b.4.7.2.9.9.f.f.2.4.E q.7.>XUXUXl.l.: : ; y 8 M G p p r D D s r D 5 9 t b 0 0 > # = 0.IXjXvXlXVXlX>X[.[.%XgX[.A.{.@X{.=XxXpX;X;XjX*X*X[.*XjX}.;X6X6X*X}.}.*X>XHXPXjX:X:XsX{.jXjXcX6X&XJXxX6XPXVXUXcXqX@X@XkXkXcXUXlXjXwXlXVXDXzXHXxX*X*XcXjXjXlX:X:X&X[.>XjXxXHXxXlX*X*XlXLXPXVXjXqXwX6XwXwXKXJXkX6X6XwXVXKXJXMX6XwXwXwXwXKXPXVXeXwXVXKXKXVXVXHXjX*X-X-X-XzXx.S.[.*XqXHXPXvXA.V.:X*X|.}.C.oX*XPXPXx.<.W 7.h.LXDXPXKXLXwXkXVXHXxXxXzX6XxXLXHXzXxXPXPX-XoX6XKX6XJX=XoX6XPX0.x.W B 4XlXMX6.9.Q l.x.].|.vX:XvXcXKXzXsXoX;X6X[.[.sXFX6XZ v Z >XpXGXPX/ ) l Z.B.*XcXAXDXDXHXHXVXVXVXlXcXVXJXHXHXLXHXVXcXMXVXHXHXHXPXPXlXLXLXPXLXMXbXVXKXLXPXIXKXVXVXCXNXnXMXVXVXUXKXNXMXKXPXKXCXCXNXCXJXKXCXnXnXCXnXnXCXCXCXnX4X=X",
"y #XbXkXwXjX;XjX,X>XcXPX*XO O v v @XjX>X( E 7.iXzXxXjXzXjX`.0.3./ Q 4.c.x.V.B.q.4.( 8.( 3.S.x.vXKX}.xX[.;XV.vXcXjX&X:XxXjXA.) W b.l.[.|.>XjXLXxXMXHXcXcXPXHXh.Z W &XdX;X<.<.) _ &XsXzX|.|.sXsXB.,.q.).N.V.) / V V l.[.|.>X[.0.2.<.).c.N.c.Z.2.3.W _ f.).A.).N.W Q 7.B.).%X&Xh.T B 8.l.;X;X>Xq.q.E l.A.:XjX*X}.W ( 1.A.Z.iXA.c./ E 0.-X:XHXxX0.3.&.V.V.>X*X[./ / 8.3.@X:X*X9.0._ 9.D.x.x.p.&.E B ' c.x.wXqXlXjXxXPXV.9.Z.B.sXFXPXSXzXLXsX`.c.c.|.*X*X2.( Q P x.;X=XxX6XMXxXC.9.4.3.9.t.<.~ C H c.A.`.x.x.W W W 9.c.A.Z.q.C V ( <.B.C.U.+.<.) c.c.9.l.<.3.T 0.h.IX>XvXZ.A.' : b y b i G p A D Y g s s D 1 6 6 8 b 8 = > = x.jXjXLXHXwXcX[.>XA.&X}.wXZ.A.Q.P.;XDXiXiX>X}.%X[.|.[.%XjX;X*XsXxXjX;X*XjXjXcX>XxXvXxX;XcXcX4XHXsXHXDX@XHXHXVXlX:X*X-XwXwXkXVXVXkX-XqXcXIXAXzXcX:XvXHXLXvXvX>XcXvX>XzXzXvXjXHXjXjXjXcXIXUXjXvXHXHX:X>X:XcXHX;XwXwX-XJXlXJXjXwX-X;X*XzXlXVXcXkXlXVXHXVXcXvXPXHX:XcXjX}.-Xx.c.}.lXjXVXPXxXZ.Z.;XzX&X;X7.;X}.PXHXh.( 4.h.c.sXsXHXKXPX6XwXPXHXzXAXcXzXPXPXxXPXLXPXcX;X;X6XPXPXlXkX6X4XHXt.C.C E 6XjXHXz.9._ 9.D.[.|.:XvXHXxXcX*X;X-X{.&X&X}.4XLXLXZ Z v IX>XIXPX/ ) > c.[.HXiXzXAXHXlXjXVXKXHXVXVXKXLXHXHXHXLXVXHXHXLXcXLXPXHXHXvXHXVXPXHXHXMXVXJXKXVXUXUXHXVXKXKXNXMXHXIXLXKXCXMXNXCXCXCXCXJXJXKXKXMXeXkXMXKXKXKXKXCXlXrX4X",
"H 4X#X@XcXPXvXiX*XjX>X:X|.> : y v >X>X}.2._ 3.%X;X:XsXHXPXjXZ.S.q.,.l.%X*X;X&Xc.V v D.x.N.*X|.PXPX|.Z., x _ sX*X*X9.l.2.2.+.h.l.[.P.6XcXMXoX;XC.M.-X6X6XzX6XPXV.B.`.`.DXxXsX&X|.DXFX;X3.7.sX;X%XxX>XzX&XHX}.`.9.8.>XzX*XiX;X).Z.Q |.[.*X*X*X( _ q.3.).*X).}.).W / A.zXzXzXcX[.3.8.}.).;X*XiXD.l.8.vX:XHXcX>XjX( x.l.>X*XxX|.[.3.8.Q.VX-XcXVXl.l.9.*XZ.:XjX=X2.6.8.3.*XwXjXx.S.4.x.S.Z.E.x.4./ / %.KXvXVX=XcXPXPXQ v B 6XcXPXsXh.c.A.AXzXLXDXDXIXDX[.+.2.8.9.*XDXDXPXFXxX=X`.=X;XPXKXlX{.P.z.z.xXcXLXxXPXA.V.V.xXsXHXPX|.3.8.Z.Z.sXkXkX7.8.0.&X*XzXcXA.B.R <.) `.[.GX:XjXQ B ) y N % ; o * a D f g g g * & o X % = - P V }.*X*XPXHXb.l.V N.f.jX>Xx.) Q ^ 2.C.sX%Xf.q.W f.N.jX%X&XZ.2.V _ t.A.Z.A.V.V v W Z.V.x.t.3.4.B 5.4.9.[.c.&.W V W D.Q.V.7.&.W Q 3.V.Z.b.l.Q V V 7.9.x.0.8.B V Q N.,X).N.3.( V 1.0.:XgXc./ _ ` _ c.}.).D.0.Z 4.0.-XjXV.c.W C W c.A.Q.c.8.V B ) p.M.c.q.( / E V.A.x.A.3.v : B E S.VXcXHXPX:X;X:XsXxXA.c.O / / HXPX|.7.0.h.c.&XLXPXZ.oXl.3.W B E 3.h.f.9.2.v : R ( 8.l.A.=XLXJXP.oXZ.V.LX:XiXjXjXPX}.P.l.x.z.}.|.cXqXzXVXPXMXLXLXPXMX+.R ^ +.PX4X;XV W , vXgXPXIX|.>X9.q.9.x.Z.|.*X*XA.x.A.@X-X@X}.@X*X|.P.A.>X@X-X}.}.V.Q.}.Q.*X-XwXQ.[.[.;X-X=X=X=X|.[.|.*X-X6X4XoX{.}.,X*XwX6X-X*XoX=X=X-X*XoX=X=X=XoX=XzX6X6X-X@X@X=XwXlX",
"_ }.=XcX>XHXjXvXjX[.vXzX[.: = v v :X:XsXE E h.Z.;XjX:XKXHXHXV.c.2.q.q.*XsX>XzXc.B B 9.h.`.&X%XDXLXZ.`., T E ;X*XzX0.8.2.3./ C.0.{.{.6XrXCX.X X{.b.MX4X6XMXdXLXB.B.).%X>XxXxX%X&XxXIX|.f.,.zXxX&XiX}.vXiX;X[.[.8.q.gXjXzX>XIXZ.Z.W [.}.P.|.jX4.V 4.8.).}.;XZ.A.2./ V.jXvXcXcXZ.3.3.Z.Z.cX}.:Xl.l.4.cX;XLXLX*XjX) S.l.wX-XMX[.|.4.4.*XjXxXHXHXx.p.9.}.*X:X:X*X2.3.8.9.*XlXcXl.0.8.V.x.A.[.x.9.B 2._ PXLXlX:XVXPXLXQ V v :XVXKXHXt.B.0.LXDXsXPXPXxXMXP.+.<.z.0.;XLXcXPXFXxXoXC.6XxXLXPXFX X`.h.z.FXxXKXMXzXz.x.C.4XMXLXPX}.2.3.A.Z.4XMXMX4.7.4.oX6XsXLXC.`.V +.<.P.|.xXcXjXP E W M M & - @ @ g g g f D D * 6 . o = = = C E >XZ.}.PXPX9.8.W V.9.:X*XA./ W ( ) |.|.*X0.0.B c.x.;XsXV.Z.<.Q C A.A.&Xb.x.B Z W P.P.c.x.0.4.B <.8.B.B.c.W 3.C V x.A.V.3.2.C 2.3.[.{.c.p.) B B 0.7.V.c.8.B V E [.[.Z.S.3./ B 9.q.>XgX)._ W ` E A.|.%X9.8.B 7.0.:X;Xb.`.E E H V.x.Z.9.c.B B ) x.x.9.9.) / Q V.c.Z.V.2.x : B H x.HXPXHXHXjX>X-X*XHXA.B.+ _ E PXHX[.3.9.x.9.&XcXKX|.&X8.4.W Z C l.4.b.2.7.v : Q ) 2.z.b.kXlXJXP.}.`.x.HXSXvXzXvXIX[.}.9.z.p.Q.|.wXlXlXVXPXVXMXKXPXlXH 3._ / PX*X6XV C = ;XAXLXLX}.|.l.8.0.A.x.}.jX*XV.c.A.}.-X-X:X*X}.@X|.V.:X:X}.}.@XV.Z.[.}.@X}.:X@X}.x.-X6X;XwX|.[.[.*X|.vX;X6X}.*X[.*X>XxX:X}.*X%X%X[.jX%X%X;X%XiX|.iX;XxX:X;X,X,XjXAX:X",
"2.}.[.jXsXPXjX*X9.V.HXvXPX:X:X}.Z.>X3.t.> : 8.cX}.xX>XLXHXxXLXPXsXDXsXzXxXsXzXxXiXzXFXDXdXsXsXPXDX[.Z.O v C zXPX*XV v Z C 3.P.=X6XeXnXKXn.P M 0 m 0.kX3X4XoXJXLXPXA.h.A.iXZ.`.|.PXIX3., + 4.h.%XiXiXAXPX;XV.A.iXiXHX%XAXvXiX).A.cX>XxXPXPX*Xx.}.cXcXLX:XvX*X>X*XwXvXjXvX:X*X}.wXxXUXvXvXjXcX:X|.MXzXVX-X*X:X*XwXPXVXVXzXlXjXlXjX>XPXjXvXcXjX:X>X>XxXPXHXIXIX>X>XPXPXPX:XcX>X>X>XvXHX[.V.l.9.A.HXPX>XvXHXLXPX) 8./ l.S.:X}.S.l.= o = C.[.xXB.b.7.<.t.h.z.&XoXLX=XcXsX;X6XsXxXLXMX`.P.C.;XxXcXdXxXjX4XlXkXjXxXJXMXkX4XMXzXkXkXKXJXJXPXxX`.&XzXKXKXMXsXLXJXoX3.3.b.A.*XLXDX2.5.C C b & 4 r s f a L D g r - y ; - ; O = _ _ xXPXKX[.|.9.l.*XcXHXHXxXPX}.*X*XZ.vXPXPXxXPX}.MXoXMXPXLXMXsX4X6X=X;XDXJXJX&X|.c.DXKXJXJX&XsXC.6XsXLXJXPX6X@X9.p.:XMXMXjXlXV.*X{.HXHXHXPX{.9.t.JXKXPXHXzXc.B.x.PXHXcXPXgXIXk.>X|.PXPXzX%X>X,X>XIXPXIX>X,X).}.vXLXHXHXxXP.x.A.MXPXHXjX;Xx.V.A.xXcXPXKX*X[.t.xXvXzXHXxXl.9.3.2.Z.HXMXcXHXvXHXHXPXPX*X}.B ) 2.PXPXA.( ) c.x.xXLXHXPXPXPXPX}.V.b.6X4XPX6XoX2.6.b.MXsX[.P.MXPXxX; O : T SXzXSXS.c.3.q.0.x.z.C.JXlXVXCXQ.#XP.kXJXlXdXPXcXsX7.t.:XPXHX%X`.A.DX*X*X:X|.;XHX|.x.V.[.jX*X*X2.3.3.V.x.}.@XQ./ E H W c.A.[.p.4.v P 0.l.V.A.x.P B E Z.x.Z.[.x.<.) ( ) x.Z.|.b.3.Z 3.c.V.).).9./ Z E l.c.[.N.c.B V _ l.f.V.%X9.Z v 1.D.",
"( }.|.jX>XHX6X>X0 B l.l.sXHXHXjXHXcX9.l.: : 3.}.*XLX:XsX*X+.[.{.sXsX|.( 3.0.7.DXDXzX4.3._ 4.f.;XLXiXiX2.>X%XcX;X|.B R c.t.kX{.oXbXnXQ.rXC - 0 0 ; b I.K.lX7X6XMXxXHXDX9.E E zXzXsXcX3., > l.x.PX[.}.E Z v V.).AXIX[.l v V E [.;XcX|.A.v : / |.[.DX:Xl.v B ) 8.;XcX[.W E y v 0.VX>XQ.Z.V Z B V.|.LX8.7.: > ) +.lXlX-X/ V v 3.p.zXvX}.E B E V Z.|.PX[.V.W / 8.qXcX:X*X7.B W 9.Z.jXl.V.B V x.V.xXjX*XHXHX*XV.9.A.Q.PXPXLXVXHX}.;X) +.( 6X}.FXQ ~ Q C 0.oX[.kXjXKX9.7.H H 3.z.xXMXxX0 > m `.=XLXcXh.; > 2.7.6X=XjX7.4.Q ( b.kXsX6X4XQ 2.<.oX;XJXb.9.Q C oX}.zX4.4.0.3.V.PXPXZ.P.> : t n i i p a g g L D 5 5 u i 8 ; = : >X&X:X;XxXP.A.|.}.PXP.|.x.[.jX*X:XjX-X[.|.x.DXJXoXP.C.P.Z.oX6X6X6XMX`.oX*XsX;XLXPX[.}.`.}.;XDXPX;X6XoXP.b.*XcXlX-X}.Z.*X*XVXLXZ.V.c.[.[.-XjXPX`.V.`.C.V.xXPXxXjXV.}.Z.Z.jXxXPXS.*XA.%X).iXPXLXiX%Xl.].|.IXPXxXoX*X[.[.cXHXPXx.Z.|.*X;XxXDXcXjX|.:X[.jXjXDXKXZ.|.[.V.|.cX[.&X3.3.Z.HXHXHXHX:Xt.c.zXzXPXPXHXxX[.jXjX) R V 9.l.>XHXcXcXoX}.DXLX;X6X{.MX=XPXJXHXjX{.KXHXoX{.lX6XFX0 Z _ E HXvXPX_ / _ l.l.[.{.lXnXnXrX#XH P : z.p.JXMX6XPXPXJXPX0.cXHX*X*X|.PXPX3.2.v v A.P.*XLXvXcXPXPXwX*XlXPXPXPXcXPXwXHXjXlXPXLXHX*XcXS.V.jXPXPXKXPX|.*X@XPXPXPXPXPX*X;X*X*XPXPXMXMXDXV.DXvXPXPXIXiXxX|.%XcXLXIXLXHX%X|.iXPXPXIXPX>XS.N.vXAX",
") [.{.jX>XDX-X>X0 v 9.l.vXDXLXPXjXxXl.l.> v 9.jX|.HXvX*XzXV ;XoXxXDXsXR ( 4.R DXFXFX4.h.Z 7.7.LXAX;X}.<.%X*XzXxX`.Q C 9.4.6X=XlXKXKXz.Q.M ; y : 8 0 K.m.JXkX7XkXxXLXLXZ.B B zXxXzXzX9.> : 0.8.zX;XiXv V B %XN.cXzX).: l C B *X).>XB.[.v : ) xX[.MXHX7.: : 9.8.cXjX*XV E > > S.VXPXZ.Z.: V C >X@XHX0.3.> > 3.8.cX6XcXC B y V.c.LXPX}.v B E Z :X*XPXl.V.W ) 8.UX>X:X:X) B V x.x.jXl.l.Z v x.x.cXxXwXPXlXHX8.V.Z.}.HXwX:XcXPX-X}.&.3.3.{.*XsXQ Q Q _ t.=X}.xX6XLX4.9.B B B.V.DXoX}.v : v oX`.JXPX9.> = 6.2.MX4XLX/ 2.H H {.KXJX{.*X<.4.R sXoXHX8.x.B m ;X}.MXx.t.3.t.@XHXvXZ.}.; ; - H 9 5 r 5 g f g D A 5 ; ; ; O : = ;XvX>X;XMXZ.[.:X}.jXA.>XA.B.}.MXsX}.xXc.`.[.xX6XzXA.6XC.V.sX=XLXDXDX[.}.C.jXxXMXxX6XP.oX[.P.DXHXsXoX-Xt.x.cXMX:X}.*X0.jX}.HXjX*X8.x.l.A.lX=XHXP.}.x.;X[.LXxXjXcX}.V.[.|.|.PXPX>XA.].}.}.xXLXPXiXzX1.[.N.PXHXHX*X*XZ.`.:X:XcXZ.*X[.[.:XPXHXjXxX}.Z.Z.HX*XPXHX-X9.V.V.[.LX:X>X2.( V.MXHXHXHX:Xh.l.HXjXPXHXPX*XLX:X:XW _ Q c.l.*XvXcX:XHXHX:XHXMXMXcX=XzXJXPXMXkX6XcXlX*XZ.JXKXxXB v E E HXzXSXT T 2.V.Q.Z.oXlXmXKX$X.XH P t M.p.KXLXkXPXHXPXPXV.*XDXjXjX>XMXPX2.3.v : A.>X;XxXLXLXVXPX*XjXjXPXPXPXHXPX-X>XwXHXPXPXLX>X-XZ.Z.PXcXLXPXPXZ.-X-XHXPXPXPXMX>X;XvXcXPXHXPXzX;XV.HXKXHXPXIXzXiX%XzXPXPXPXcXPX|.zX%XHXPXGXPXgX].A.IXIX",
"4.[.A.:XvXPX;X[.l.l.jX}.>XA.V.V.[.jX}.cX/ E 3.*XjXPXHXc.V.  9.9.LXDX&X, = > = oXsXLXx.b.. R B LXxXzXxXx.sXoX[.A.t.7.0.=X{.MXMX6XQ..XH S b 8 0 ; 8 % M b z.C.bXkXjXHXcXDX3.3.*XZ.sXjXjXZ.V.DXjXLX8.9.  + > iX}.IXHXN.+ . : l iX;XLX3.)     v xXLX>X6XB .   c.0.MXlX:X: v O . Z.vXVX9.0.O v v *X@XwX/ P   O 2.4.wX[.*X: > = Q.S.cXHXx.O = : : *X*XHX) E + = W PXPX|.|.> O , x.l.|.2.8.3.9.PX:XxX>XVXjXLX/ ( / PXLXlXjX>XjX*XPXPXlXPXHXjXcX9.) 3.h.l.}.cX6XMXzXcXW H # : *XoXPXV.b.+ + v ;X}.DXHX4.# = z.8.PXMXMXv : = % P.MXKXx.V.. = : PXJXxXv v O O C.C.lXx.9./ Z A.lXLXLXJXQ o   - % D U 1 r f r p F & - # =   ) H cX;X:XPXLXE B *XHXHXW B .   ) HXPX}.*X= + O oX}.PX8.8.. . V W xXsX=XR B # h.[.DXDX&X+ O > Z LXxXxXt.8.. O H KXPXcX*X+ : : oXQ.PXl.l.+ + E Q JXcXJX0 : + t.A.PXPXV.O = : : vXzXHX_ V   . f.PXPX[.[.+ E v sXjXcX8.( = = 2.9.KX;X&XB : v }.;XcXHXx.= = <.2.PX:XsXZ v O O 9.*X*X8.4.V.jXxXHXPXjXB B Z.[.xXjXPXcXPXcXPX3.<.E l.l.LXPXKX( 3.+.) PXJXDXE +.v 6X{.lXLXP.> > 2.4.jX4XMX{.{.xX;XIX%X}.9.2.9.}.6XwXVXCX!.W.I ~ i t ; t t M.A.kXMXzXLXHXKXl._ ( _ HX>XcX) 2.O O 9.PXHXcXcX7.p.4.-X[.KX*X}.8.7.x.wXxXPXPX@X}.8.p.S.xX*XLX[.V.x.l.x.LXPX6X:Xt.9.8.&X*XLXDX*X9.l.0.x.:XPXPXZ.[.c.iXjXPXcXiXzXl.*XV.jX*XHXxXcXV.V.).;XvXPXvX",
"3.}.[.vXjXHX*X{.8.7.|.jXcX9.x.{.V.LXjX-X/ ) 9.-X;XHXPXx.x.O 8.l.PXDX=X= O O : [.MXDXC.l.  R V xXxXjXxX9.}.[.oXQ.9.b.n.{.oX6XJXMX$XXXH 8 N 8 : - = # 8 C C.K.bXoX-XLXDXPXc.B.}.Z.HXsXjX*X[.vXDXsXc.c.O   , ;XcXzX;X3.. + v B }.;X:X8.) + . Q jXzXsX*Xv     c.V.HXcXQ.= : O . [.xX:XD.7.= ' v *XUXHXQ P   O 8.3.PX|.[.: = = P.}.VXHXx.> = > Z >XcX>X) V O = 2.HXPX[.[.> + = Z.V.Z.3.( 8.8.vXxXPXPXLXLXPX/ ( ) PXPXHX|.[.LX|.PXVXlXPXPXMXHX2.8.3.B.c.:XcXsXcXMX6XE H = : *X6XPXZ.V.  O B *XsXHX6X7.o - 0.x.PXHX}.: : - > oXMXPXb.l.+ # : MXDX=Xm v +   b.P.KXt.9.E / }.vXjXlX-X+.    % & S G 5 s r p p n # - o O   ) ( DX:XcXHXMXH / zX:XcXE / + + 2.LXLX|.;X: + = C.A.PXx.t.  . R H PXJXPXC C   z.b.MXDX;X. = 0 0 MX6XPXb.9.  + B PXzX*X>X% = = }.-XPX7.0.. = E Z LXLXLX> : = c.x.HXLX}.O O : > HXHXPXQ _ +   2.DXJX*X;X, B : ;XxXPX2.8.O O 3.( PXcXxX: v = xX-XPXPXA.O O R W PXLX:XV B . . 9.xX*X8.4.V.vXMXKXKX>XE E x.Z.}.;X:XPXHXPXPX8.( W h.h.HXLXPX( 9.2.) PXPXKX_ W : {.oXPXMXjX; > ) Q jXDXxXA.h.;XLXHX|.Z.2.3.9.6X@XVXnXnXW.L.Y I G N M ; t C.b.PX*XKXcXcXHXt.8.W _ HXPXHX( ) . + ( PXPXvX-X0.p.l.}.*XVX|.*X8.t.V.cX-XHXLX|.-X3.V.p.MXxXHXc.l.S.7.Z.PXPX>X*X8.l.9.}.V.HXPX}.3.9.9.8.jXxXPX[.[.9.iX[.IXPXcX%Xl.;X*X;XzXAXjX;XS.x.;XHXHXHXPX",
"3.*X}.cX:XcX;X:XcX*XjXHX}.= O = > [.:X*X( 7.8.|.*XcXHX;X}.2.l.x.oX&XLXB.b.9.z.P.xXsX6XxX8.[.P.6X6X6XcXQ C : W ^ h.K.K.4XbXMXI..XN G 8 t i % % ; 0 : ; - 0 0 b.CXHX-X}.LXxX;X}.jX[.}.:XKXKXLXHX[.<.3.l.Z.[.;XjXcXPX:Xh.9.[.P.jXHXvXZ.V.0.3.Z.zXLX*X*Xl.0.t.6XjXjXVX-XZ.Q.[.x.PXvX*XA.V.c.}.@XlX:XwXM.{.t.b.zXoXMX[.}.b.b.V.HXMX-XjX;XV.Z.A.[.cXMX:XZ.B.8.3.|.xXvX*X:Xx.l.l.|.x.9.x.Z.cXjXcX:XcXgXPXV 4.: A.[.jXPX0.O   E P |.-XjX@XZ.c.8./ 9.p.*X*XPXjXcXcXPXPX-XKX-X*XPXLX:X*X}.}.|.}.vXcXlXjXxX*XoXzXMXLXHXlX{.{.V.A.JX4X6XZ.b.Z.C.C.LXLX6Xt.h.9.4.sXxXxX9.4.v v 3.}.:XPXKX{.# % 8 6 u 5 r D r A i 9 % ; o + # [.x.;X>XHXx.l.Z v A.*XPXl.0.: 0 9.:XvX-XxX2.B v oXoXcX[.[.E H 3.7.;X6XMX0.x.C b.t.MXJXcXH C R E oX[.JXZ.B.V H +.kXjXLXPX( B V }.Z.lX-X}.> : E 2.-XLXPX+.W Z 8.l.LXHX>XB Z B R oX[.HXl.9.m : 0.HXHXsX}.: x x x.`.PXZ.x.v : ) / jXPXHXH E = A.V.sXcX[.v : v V ;XcXMX8.2.0 v 8.{.oX7.4.V.cXLXPXKX*XZ.[.:XxX[.*X2.|.Z.PXHXV.8.3.x.l.:XHXHX3.W v Q jXHXKX^ ) o 4.5.HXPX6X> O m B 6XMXxXZ.}.oX{.A.x.x.0.z.=XKXlXCXVX.XI ! p D 9 i S b 8 b v Q.PXPX:XxXPXkXMX4.3.c.LXPX;X-XZ.[.cXPXcX0.l.> y B lXcXVXW E + O / lXPXPXVXQ V O 4.S.PXPX[.> O > : }.PXHXx.l.# . B jXHXKX6XQ O O ) 9.PX6X*X+ O > [.6XPXHX( 8.+ v B PXPXsXB Z O . 3.cXPX}.|.",
"8.}.Z.jXvXPXzXjX[.:XcXHXjXE E : : [.:X:X) W ( HXxXMXjXPXPXPX:XsXP.B.xXxXPXJXPX{.;X=XMXDX=X;XPX6XxXP.A.: B E b.p.=X6XkXKXNX#X0 b b i t M % . o m 0 % = - ; # H p.b.jXLX6XMXPXHXzXZ.P.t.z.c.4.2.B b.V.cXDXHX:X>Xh.3.&XHXHXPXHX}.{.c.}.jXxX-XPX-X[.Z.A.>XcXPXjXxX`.x.S.HX-XcXjX-X2.9.V.*XHXLXcX-XwXl.lXMXHXHXHXLXV.V.Z.cXPXKXLXMXZ.Z.-XHXPXHXLX>X*XZ.:XDXPXjXLX}.A.}.Z.*X*X|.3.8.V.PXIXHXvXHXHXcXl.3.S.9.lX:X*XjX-XV.: : ) ) VXjXx.v : Z B V.qX}.HXHXvX8.8.( +.c.*X[.}.6X[.[.3.|.|.wXcXvX|.[.9.7.oXKXJXsXlXb.b.P.PXPXHXKXkXb.c.*XxXLXPXLXxXsX&X-XDX6XxXlXJXP.;X&X0.8.0.*X[.xXVXwXb t - - p u 6 g D u 5 & ; ; + + V :X:XcXxXLX3.b.z.b.Z.A.-XHXHX[.`.;XsXMXMXHX>XHXDX=XzXlXJXKXsX=XLXHX=XLXMXPXPXsXjXzXDXoXHXKXMX;XoXcXsXPXxXKXJXxXjXwX-XVXcXcXwX;XwXHX|.LXPX-XVX}.[.6XzXMXjXPXMXjX*X&X-XHX-XcX>X}.`.[.HXHXjXjX6X;X;X6XKXPX-X*X;X6X{.xXPXMXPXHX[.*XjXHXPX-XjX[.jX;XvXcXHX*XjX-X|.}.A.PX;XzX>XxXZ.h.Z.B.9.Z.jXcXPXPX>X[.jXHXPXZ.V.  v 0 xXPXvXl.3.0.8.cXcX:XxXsX[.[.}.MXLXkX6X=XP.P.kX4XKX=X6X=Xb.PXHXJX( _ = : 4.z.p.#XQ.nX4XCXrX#X..G A u D & i 9 y t M N ; Q.[.LXPXwXPXLXzXMX{.-X*XPXKXPXMXMXcXPXQ.Z.8.Z.{.lXcXPXQ.}.8.9.wXPXVXwXwX) 4.W wXjXVXPXV.V V 3.( HXHXcX{.[.Q E V.PXvXcXHX4.E Q cXoXDX}.[.Q E 2.xX-XHXPX8.8.Z h.l.HXKX&XW W B v }.PXPX9.l.",
"2.jX{.6XjXLXjXcX}.|.PXcX*X/ R v Z B.*XxX/ V t.jXxXxXxXHXPXLXjX:XP.C.;XKXLXKXJXoXxXoXDXMX;XDXMXsXcXV.P.= H _ z.p.OX4XnXKXPXOX0 M t b N i # @ @ t b % - % - ; 0 b.M.MX6X6XLXKXJXMXC.Q.9.z.c.7.4.Z V.x.cXxXHX6XjX8.0.}.PXHXHXLXoX`.h.6X*XcXjXHX[.*XV.V.xXcXDXxXcXB.P.C.jXKX-XwX=X3.3.oXoXVXMXKX}.6Xl.cXHXKXMXjXMX{.`.P.JXMXLXkXJXZ.x.cXPXHXPXHX;X;XZ.KXjXHXMXKXZ.{.*X}.*X}.E.8.x.9.PXPXvXHXcXcXPX3.9.3.p.PX[.:XjX*XV.: y ( 2.:X:XP.: > Q Z c.}.-XHXLXlX8.9.%.2.V.|.[.-X-XQ.[.7.@X[.wXVXwX}.E.0.9.*XMXHX6XMXb.C.P.JXKXMXKXjXz.b.=X*XMXPXPXxX6X&XjXsXsX6XDXzX}.[.;Xt.l.%.,X}.LXHX6Xb M % & n u 5 g D y 8 ; % 0 +   V ;XjXjXcXcXc.9.b.V.x.|.sXHXjXZ.`.;X6XxXPXjXcXcXxXxX6XsXKXPX6XxXMXJX6XxXcXPXJXJXMXDXzX4XJXxXJXsX=X=XDXxXLXzXMXMXcX-XwXLXcXHX:XjXwXvX@XPXPXLX:X-X|.cXvX:XPXHXHX>X:X;X&XLXcX6X;XjXZ.P.MXJXxXdXxX6X;X;XPXDX6X=XsX{.&XxXHXHXPXcX*X*X&XPXsXjXxX}.*XxX:X;XPX;XjX}.6X}.Z.DXcX:XxXcXA.9.`.x.c.V.LXPXHXPX}.*X}.PXPXZ.[.. v : LXHX:Xl.9.3.7.xXHXcXxX;X}.;X|.LXJXlX6X*X{.{.4X=XKX4X=XoX{.JXMXLX_ Q v > 0.t.z.Q.4X4XZXCXXX1X! A Y u i 5 u ; b t P t v Z.E.HXKXlXJXKXKX6XZ.@X=XVXPXJXPXJXMXJX}.A.l.A.[.HXVXVX}.Z.p.9.|.HXPXcX-X( 3.+.}.jXPXPXZ.Q P 4.&.VXlXVXP.[.E H A.MXvXxXPX2.W R >XvXjX[.6XV / ( sXzXHXLXt.3.Q 8.3.PXLX{.W W B B }.PXPXx.8.",
"/ >X*XcXcXHX|.`.( +.}.jXHXjXDXxXvXsX9.3.: v 0.*X*X>X6XxXcX}.l.8.B B +.z.z.x.t.) v B z.x.A.}.}.z.t.0 C W Z.z.P.#XkXKX7Xm.U.m N M P S 6 ; . - % N b % o o - ; = M > M.M.=X-X6XVXkXlXkXt.) W P Q - 3.7.}.[.{.0.4.v v / c.l.t.t.( / B 8.9.[.Z.[.4.4.V E 9.V.A.b.x./ H V &.p.t.c.4.: ; _ / 0.8.9.Q _ > ( 8.b.z.4.( 0 Z C t.h.x.2.) ; : <.t.t.h.4.H B : 3.8.A.x.8.: = B B V.8.3.E.}.PX[.*XHX>XjXPX( A.x.PXPXHXlXHXHXPXHXjXlXwXQ.HXHX8.V Q A.V.VXVXkXkXjX@X&.) C C &.8.9.x.p.4.4.V 9.0.Z.E.p.&./ C P 9.;X*Xb.t.B C ( oX=X[.P.0.M H l.C.;X=XC.W Q +.&XxXsXzX[.*Xc.6XMX-X-X8.S.9.>XcXLX5.4.0 8 G p u A p - ; 6 % - + O x.cXzXcXAX;X3.0.KXPXZ.V.7.MXxXHXjXZ.( ) V.B.:XDXsXl.b.W oX[.xXsX-X=Xt.8.8.sX;XkX{.P.3.5.oXxXxXsXDXb.B.6.&X&XDX6X-X4.4.b.x.HXVXVX[.Z.8.}.}.wXlX-X:X0.x.V.cX;XjXA.`.) ) P.zXJXjX6XC.z.z.=X4XLXDX=X3.+.P.oXPXLXJXB.C.8.}.*XHXHX*X|.7.Z.A.HXPXHXP.Z.3.3.*XxXPXjXxXx.h.}.:XxXLXHXx._ ( 8.3.l.cXHXxXPX}.Z.P.PXPXxXPX_ +.) PXMXA.3.3.9.l.cXjXzXPXHXPXcX9.b.A.6XlXLX*X{.A.b.kXMXLXMXlXMX[.*Xv m 5.5.C.m.$XZXmXmX2X1X! ^ G { F * @ & 5 ; ; & i y : P P b.Z.JXlXJXPXPXMX}.Q.{.P.=X6XC.) &.Q.cXLXLXKXjXwX*X-XHXHXPXPXHXjX;X*XLXPX6XPXPXjX-Xx.PXVXPXcXPXjXjX*XvXHXPXPXHXPX:XA.DXPXDXPXHXHX;XA.HXPXPXPXHX-XzX[.oXzXPXKXKXcXjXcXHXcXvXPXxXjX[.*X",
"/ &X&X6X6XHX&X[.4.+.|.:X6XcXHXxXcX*X3.8.v B 9.*X*X:XjXcXxX|.9.3.C C +.t.t.l.t.+.B H z.x.-XsX=X3.p.b b +.Z.C.{..X7XCXCXQ.Q.i I n P M % %   8 - b i - X X = ; = - v OXP.CXOXK.MXKX6X6X0.Q C H ~ 0 3.0.Z.C.P.3.( V B ) 9.0.0.6.( +.V 7.0.Z.Z.[.4.<.V E 0.A.[.V.t._ H E +.0.t.9.) : v ^ _ 5.4.3.H E M +.4.t.t.2.+.m W W t.t.t.2.+.m Z 4.l.l.h.4.E C C 7.0.A.x.3.0 : / V x.2.2.*XA.HX>X*XvXjXHXPXv V.S.LXLX-XPXLXcXzXHXVXwXlXvXzXHX8.C P Z.Q.wXlXlXlX-XoX6.3.^ Q 2.7.0.9.0.&.4.P 0.7.Z.P.z.8.4.Q Q 4.Z.P.z.t.E Q +.P.P.C.Z.t.R W t.x.[.&X[./ ) ( 6XMXKXPX[.b.z.;XcX;XwXD.c.c.IXHXVX0.y.- ; M p n D n - : i = O + . A.cXjXAXPX{.l.t.PXPX}.V.2.{.;XzXjX*XQ V x.b.jXPXHXz.A.C [.A.MXMX;X6X9.7.4.xX6XDX}.{.<.4.`.DXxXHXPXb.z.) oX&XLX6XjX2.&.x.l.PXPXPXQ.Z.7.*X*XHXPX:XjX8.l.l.HXxXPX[.A.) ) Z.HXPXxX&Xb.z.7.oX6XPXJXkX^ ( z.b.PXKXKXC.{.+.&X*XPXPXzXsX2.V.b.PXHXPXV.V.<.8.}.KXPX*XsXc.A.V.*XMXPXPXA.( / 9.9.A.PXPXxXHX}.Z.}.PXPXPXDX0._ 3.*XcXl.3.2.8.3.DX:XcXPXPXPXLX2.C.B.MXlXPX6XsXC.b.*XMXMXkXKXJX{.A.V C 4.5.U.W.W.KXZXZX~.2X! D P Y D & @ 4 6 a ; y b b b t M m.oXPXMXMXkXMXMXb.C.P.m.6XkXK./ ) JX;XPXPXPX*XjX*XPXHXKXPXLXcXwX*X}.PXPXHXPXPX*X;X@XHXHXPXPXLXQ.}.cX}.PXPXPXjXcX*XoXjXHXHXPXHXjXsX>XVXMXHXJXVX-X6X6X;XKXPXPXlXMXQ.zXcXjXMXPXcXlX-XQ.",
"3.*X*X*X*XHXjX:XE H Z.*X&XjXjX:XcXcXA.V.B Z 8.;X>XvXxXDXHXjX|.[.C.b.Z.{.{.{.}.Z.b.z.[.P.oX;XoXt.z.&.4.b.oX=XVX#XCXv.a.G b S t P ; - o # o N 8 i i 6 # o # # - 0 # t : n.KXkXCX#XPXPXCXeX6XkXCX4XQ.P.}.Q.6X[.Q.{.P.}.*XoXoX{.P.}.A.oX[.;X*X:X[.[.*XZ.[.*X*X*X*X|.oX*X[.b.x.A.{.}.Z.}.Z.{.[.}.V.Z.P.[.C.P.{.P.`.b.C.b.P.b.C.b.K.z.t.A.Z.A.Z.V.x.b.x.`.b.P.P.Z.0.x.8.q.9.Z.[.HXcXcX*XPXPXPX3./ B |.:XHXPX4.v : V.|.*X:XHXVX*X8.c.8.z.z.6X=X-X-XMXMXPXPXwXMXkX-XkXwXwXkXkX6XkX}.zX6XP.oX@X=X-X}.Q.@X{.{.P.-X{.oX{.=X=X}.=X=X[.{.oXZ.*X-X=X4.7.) sXJXP.}.> v = &X-XPXlXD.2.3.lXlXVXZ.oXv b b i n n i 6 8 y O = B ' >X;XvXIXPX2.P.b.MXKXV.A.O 2.W xXHX[.) W 0.2.8.9.8.7.t.^ 5.7.9.b.9.8./ / Q 9.3.9.4.3.Q Q ) 9.9.c.0./ / B 4.+.7.4.3.Q Q 2./ p.0.p.&.2.W 7.8.l.S.4.3.) ) W 9.9.V.4.) V C ) 0.9.7.4.) / E 4.4.t.0.0.C W / R 8.7.0./ 5.H 8.7.l.x.9.9.H 3.2.Z.l.A.( 7./ H 9.;XxX[.A.( / W 2.3.8.8./ Z v Q W 9.cXPXcXLXsXE ( [.}.MXHXKXvX:X:XjX) E W x.V.HXHXHXPX:X&XA.W Q Q l.x.V.0.3.v C ) P.*X[.[.0.Z C 2.x.{.p..XZXZXuXyX~.} U p ! ! 6 $ . . D D S   X # - M b b M y C.eXkX6XeXMX4XKX4.) Q m v : m M.Z.vXQ.[.3.7.Q 7.c.*XcX[.4./ ( 7.*X:X}.A.V./ ) ( wXwX:X*Xx./ / 0.V.&XV.`.3.+.B / ;X|.|.*X[.( 4.0.}.*XVXP.9.W ) b.Z.wX}.oX4.0.3.MXzXlXLXA.) W l.c.",
"b.jXcXjXvXPX:X}.x.l.DXDX}.l.8.3.8.oX|.jX0.2.c.*X*XsXjXvXMXcXjXzXcXwX6X6X=X4XwX6X-XMXMXVXOX=XkXKXPXoXoX4XnX$XnXnXK.P ^ M t ! X o . . @ % 6 S M b n 9 - % o   # 8 y - - C m.z.eXnXQ.OX-XeXeX=X4X=XlXwX=XoXVXwXwXJXlXMXwX6XkX6X6XjXxXcX:XsX;X:X-XcXDXsX:XcXxXjX;X*XQ.jXHXMXMXlX6XzXMXMX-X6X4XxX4XkX6X6X=X6XlXkXkX=XlXdXMXkXMXMXFXkXxXxX6X;XjXcXDXLXlXMX;XxXDXLXlXLX[.:X}.PXxXjXcX:XPXHX9.V.8.9.jXvX@X-XVXZ   + V.0.MXx.3.y Z ) 4.3.-X=XPXKXMXwXlXkX6X4X-XkXJXbXlX-X-XwXkXeXbX-XkX6X6XwXwX6XeXeXeXMXzX6X=XlXlXMXkXxXMX;X-XjXsXlXcX=XsXJXPXMXDXl.MXJXKXJX4.W 2.6XsX-XqXq.V Q [.,XHXjXkXH H 8 6 n a y i t -   o 3.1.HXiXAXHXHX> A.P.JXzXA.h.: ) 9.jXHXA.A.A.>X:XxXzXKXxXsXDX;XkX6XxXkXMXMXMXDXMXxXsXxXcXjXDXsXMXDXPXMXxXDXzXzXjX-XzX6XlXcXHXHXcXjXcXLXHXHXwXjXvXxXHXPXxXHXPXPXDXvXDXPXHXHXMXxX6XcXDXxXMXJXLXMXVXVXJXKXMXlXjXlXKXKXJXLXHXHXPXHXMXHXcXcXvXsXLXHXPXjXxX:XxXPXjXvX*X:XLXKXDXDXvX6XjX>X|.Z.8.9.[.PXPXcXxX;X9.8.A.A.&X}.DXPXPXLXPX0.+.) x.x.*XcXMXPXPXHXHXMXJXjXlXzX6XHXPXzXzXoX6X*XC.{.}.V.Z.x.l.-XeXCXZXuX~./.*.} Y !  .X X @ 5 6 ! D U ; & % X - N M b y M {.oXbXeXkXCXKX#XMX=X=XbX=XQ.P.V.>X|.*X}.}.b.}.[.}.}.A.V.Z.A.x.Q.*XoXV.[.l.b.V.Q.|.[.[.S.9.8.x.9.|.A.[.x.Z.8.8.x.V.Z.l.c.2.9.3.;XC.M.&.0.4.+.z.z.b.z.M.6.4.W 0.b.z.Q.3.W / z.0.",
"*XjXcXjXxXLX>XoX9.l.jXcX-X( 2.3.2.cX-X&X2.) 9.>X*XjXjX6XzXvXjXjXzXlXlXkXkXkXkXlX-XVX4XKX@X=X6XKXKX@X.XOXCXnXCXKXy.H P N H p & @ X X ; & t s b b N ; ; ; # X o % : = v 0 z.M.CX#X4X4X4XkX6XOX#XwXkXkX-X-XJXlX-XwX6XlX4XwXlXwXwX-XjX6X:XvX:X>X-XjXoX*X-XHXDXzX}.{.-XkX6X;XkXMXxXMXlXjX-X6X6XsX6XjX6X6XdXkXMXFXMX6X6X6XkXdXMXkXxXsXxX6X-XsXxXxXzXlXsXxX6XjXMXDXkXjX}.*XjXHXvXcXHXHXHXvXx.9.x.l.*X|.jXlXwXB     7.l.lXp.V.V v ( _ t.oXoXkXMXMXkXbXkXbX6X6X6XCXlXkX-XwXwXeXwXkXwXlXlXMXMXbXwX4X4X4X-XMXMXzXlX6XkXkXlXMX6X6XjX4X6XlXlXMXHXHXcXMXt.xXJXJXKX) 4.) MX;XwX,Xq.` ) Z.Z.cXvX6X^ ) # & M p n t b = + . l.0.>XLXAX|.jX: Z.{.MXMXV.V.> 3.2.jXvXx.{.Z.oX:XxX;XxXcXsXJXxXlXKXsXMXxXMXxXDX6XxX6XxXzXjXHXMXzX6XMXDXMXJXDXsXMXsXHX:XHXVXzXPXjXjX6XVXjXPX-XjXjX:XHXHXxXcXPXxXcX:XHXPXKXPXLXxX-XMXMXcXcXKXMXlXMXVXlXPXMXMXKXlXKXJXKXlXHXjXLXcXvXxX>XKXHXHXcXPXHXHXMXHXDXHX*XjX-X-XPXcXLXHXxXjXjXjX*X[.8.9.Z.vXHXDXcXzX8.( x.[.>XjX&XPXHXPXHXc.+.2.V.A.>XHXjXcXPXjX;XcXkX6XMXJXMXLXJX6XMX4X=X;X{.}.=X[.A.Z.V.=X#XrXmXKX0XT.D } L U ! X * o 6 - U Y Y & % @ o & G S b n N P.C.KXMXMXPXMXeXJX.XOX6X{..XK.C.@X*X@X@X[.A.|.Q.-X:X[.l.p.x.x.Z.|.}.V.A.S.b.x.[.}.[.Z.A.b.p.l.9.Z.A.P.c.V.9.h.V.[.Z.l.x.8.l.3.P.P.}.p.0.4.+.b.z.p.C.0.) W &.m.z.b.Z.+.C C 0.z.",
"cX:XjX*XjXHXsX6XjXjXPXMX;XO + O O }.zX6Xl.8.l.:X-XxXzX6XjXjXjXvXoX6XwXkXlXwX-X6XJXPX-XVXMXMXwX=X=XkXlXeXZXKXa.y.H y 9 y n o & % & & y y y 8 6 i b & 8 ; - ; # X . - 8 o : 8 Q.W.CXnXrX4X4X4X4XlX6XwX6XwXMXkX-X-X4XJXkXlXVXlXMXkXzX;X:XcXxX:X:X:XjXjX}.&X|.:X6XHXkXjXjXlXMXMXjX&X6X=X6XcXxXlXlXxX6X6X6X=X=XMXMXkXMXMX6X6XdXdXdXMXxXsXxXJXMXsX6X6XxXDXDXzXxXxXlXjXjX:XxX*X>XHXHXjX8.x.*X*XxXHXPXPXPXjX:X*X*XZ.:X*XVXP Q P / A.l.VXKXCXeXbXJXMXNXKXKXVXKXeXCXbXMXkXMXMXMXbXkXbXbXCX4X6XbXMXMXKXJXMXzXMXHXMXlXlXMXMXlXzXMXHXcXkXlXMX&XMXDXPXPXC.=X[.LXJX&X[.cXPXPX6XUXS./ %.9.D.xXHXPXM.C.# # S y n : : % : > *X}.gXPXHXx.Z./ }.{.wXcXMXHX[.[.&X*X:X8.9.t.P.|.vXjXcXcXxXsXxXsXMX;XsXxXxXxXxXsXxXzXMXcXjXzXHX4X;X6XxXMXMXxXcXHXzXMXjXJXcXjXzXjXjX:XwX-XHX:XVXHXVX:X>XxXjXjXjXUXcXxXjX-XzX-XzXlXKXJXPXzX6XkX6XjX:XkXjXcXcXVXkXwXwXlXwXxX:XxXcXvX6X:XHXvXxX-XjX>XjX:XHXcXvXDXPXDXzXxX*XxXjXvXxXjX:X-X*XvXjXxXcXcXHXcXxX*X`.HXHX|.Z.: ) 4.-XvX:Xl.9.l.8.jXHXjXcXKXHXHXHXMXxXxX6XsX;XkXlX6XMX-XcXHXMXMX}.%XcXcXMXnXmX~.J.F U L o.g @ $ @ * * ! D D D P Y U & % X % & n H ; H M b.Q.6XMXbXbXMXCXKXJXkXeXlXlXVXHXHXVXcXxXVXVXVXcXVXPXPXPXLXHXVXLXPXHXPXHXLXlXVXHXVXPXVXMXHXHXjXsXHXcXcXHXPXKXDXcXPXPXxXLXPXMXMXMXVXKXPXlXMXPX-XJXKXPXKXKX-XlXeXlXMXPXPXVX=X",
"HX-XjX-XcXHX-X;X*X;XHXHXHX. + O + :XxX}.t.9.9.*X>XzXjX=X-XwXkXMX@XeXlXlXMXwX=X4XVXPXwX6XMXbXbX@X.XrXwXmXmXKXy.v.n 9 9 n n @ # ; & ; y p 6 9 ; N b - b ; % 8 o   X - % - b 8 W.K.KXnXeX#X4XnXrXwXbXlXeX4X=X6X4X6X-XKXlXkXkX6XVXlXHX-X-XjXvX:XsX:X*XjX}.*X}.sX>XcXMXwXwX6X6XjXkX4X=XoX6XMXbXkXMXbX6XkXlX=X=XMXMXbXkXkX3X=X6X6X6XMXMXlXDXLXxX=X6XsXxXLXPXcXjXxXcXjX-XVXVX[.*XHXPX:X8.8.*XzXjXHXPXHXHXjXlXzXS.V.:X|.HXQ W / W x.t.VXNXNX#X4XCXCXnXCXKXMXKXeXNXbXNXMXnXnXNXnXkXnXeXbXbXbXNXbXeXNXKXnXMXMXMXkXlXMXVXMXMXlXcXHXJXMXMXHXsXLXlXPXJXP.6X[.JXLX=X&XsXJXPXjXjXS.%.3.8.q.jXcXDXC.P.X o M t S v ;   : > :X:X>XIXPXx.8.3.P.oXHXLXDXcXZ.}.&X;X:X0.3.l.oXP.-XcXMXMXVXlXMXMX-XcXxX6XxXJXxXxX4XlXlXlXxXjXMX&X6X6X6XMXMX6XKXMX6X6XlXVXcXlX*XwXwXlX:XjXlX:XlXHXPX*X>XgXvXjXcXjXcXjXjXDXcX;XMXMXJXxXLXLX@XHXwX:X|.HXwXlXlXcXHX:XjXzXcXjXxX:XxXvX;XcXMX-XlXzXcXzXjX6XHXHX-XPXLXzXcX6X6XxX6XzXzX-X;X6X6XMXxXvX;X:XHXHXHXZ.[.PXPXA.[.= +.) vX*X:X0.9.x.l.cXHXcXcX6XlXKX6X4X6XJX7XKXoX-X4X6XPX=X6XKXJXKX{.&XHXKXnXrXyX^./.U F D g F @ X * * @ ! Y D Y S P U @ & @ # # G H b t t m. XnXeXCXnX6XKXMX6XbXkXPXPXHXzXHXjXHXcXjXcXVXLXLXLXHXHXHXVXwXcXPXVXPXHXKX:XjXHXVXPXzXHXPXPXjXjXDXHXPXPXHXLXHXzXPXPXcXPXPXjXJXVXKXlXPXKXPXKX=XPXJXzXzXKXwXwXlXlXMXMXzXlXKX",
"oXjXkX=X-XPX6X;XV.V.zXxXlXc.x.h.f.|.|.A.2.) 9.6XwXkX#XrX2X#XrXrXW..X4X4X4X=X$X.XoXoX4X4XoX=XeX4XwX4X4XtXp.G.9 u p F D @ @ u 5 5 i y y 9 & t 9 i b ; - 8 t t 8 - % # @ y 8 t 8 b 5.5.y.n.M.n.m.K.z.b.m.m.m.m.C.C.C.C.M.b.x.x.A.Q.S.Q.Q.jX-XHX*X-X}.[.cX}.`.A.A.{.@X=XoX}.;XP.`.PXLXbXbXXXU. XQ.I.3XOXI..XOXW.!.I.I.I. XI.=X`.{.}.{.Q.=XoX}.}.{.;X:X;XxXA.|.&XAXHX-XlXcXVXHXcXPXH ) Q LXPXDXPX2._ / zX-X;XPXLXJXwXx.0.4.p.z.{.oXnXtXCX+X1Xw.y.r.r.r.u.G.H.n.v.H.H.J.J.H.H.H.L.L.L.L.L.L.H.J.L.L.H.K.W.#X#XK.m.P.{.Q.K.=X{.n.K.Q.{.MXJXzXHXMX=XW 4.0.x.HXzXHX%X%X%X>XcX>X*X2.0.[.xXxXxXsXv M = m v = : . 2.<.xXcX:XcXjX9.9.PX6X;XV.c.HXPXxXl.Z.Q W <.4.6.MX4XMXxXkXKXVXnXnXnXVXnXnXnXnXkXlXMXCXNXMXcXKXKXJXJXJXMXlXlXMXMXMXMXJXKXPXJXVXlXlXJXPXKXcXlXLXlXlXvX>XvXIXUXvXUXUXIX:XIXvXcX>XjXPXxXIXAXjX:XPX:XqXHXUXPXUXIXcXvXPXjX-XPXHXcXPXPXPXPXKXLXPXFXJXPXPXPXKXKXKXKXMXlXbXJXPXPXKXLXPXPXLXMXMXPXPXLXPXHXcXHXLXHX:X*X*XPXKX|.&XO V C PXMXcX3.9.7.8.MXDXMXKXKXPXKXKXnXMXMXCXJXKXKXPXPXVXbXCXCXnXnXKXPXkX4XKXKXW.O.{ L U L $ X < < r p D D p g y A u 6 G D X X X & & S t t t M a.nXnXCXMXlX6X=XkXVXzXFXDXcXMXcXMXMXcXHXUXlXkXlXvXkXjXLXVXcXLXHX:X;XLXDXcXHXMXxXxXVXcXMXLXLX:XxXjXDXLXxXPXDX6XsXMXMXxXHXHXcXMXlX:XcXHXMXjX6XjXHXHXDXlXMXwX6XMXLXDXzXsX",
"C.JXMX6X=XMX=X*XV.C.cXjX-Xx.c.l.c.}.}.Z.) W p.wX@XeX5XrXtX$X4XrXW.!..X$X$X#X2X4X$X.X$X$XW.=XnXrXVXeX4X2Xe.d.g D D D D & * 5 6 i 9 5 9 6 @ 5 y S S ; % - ; 8 8 - - & & 8 6 6 6 y 6.y.a.n.n.n.M.H.n.n.m.m.m.M.M.M.b.b.b.b.b.x.S.S.6.}.|.cX:XlX}.}.-X@XHXP.&Xl.V.cX[.:XM.}.oX4X=XJXBXNXNX+Xn.L..XOX3X X X1XXX~.~.J.L.L. XI.3X{.{.oXoXI.{.{.}.oX[.}.*XvXxX`.V.:XIXxXVXwX}.PXPXcX-XV R ( IXPXDXAX/ ,.Q KX-X6XMXJXwXKX0.6.5.z.M..X.X2XmXCX~.XXe.u.a.u.v.a.v.v.a.s.G.G.J.H.G.v.G.H.L.L.H.!.!.L.J.Y.!.L.L.Q..XoXK.U.Q.Q.oXQ.oXP.b.P.P.{.oXJXDXKXLXxXW ) A.c.iXzXIX`.).%X}.IX[.).4.9.Z.cXsXLXxXv B = H v > =   2.3.jXcXMXcX*Xt.8.HXjXxXx.B.xXsXLXC.A.Q W <.0.y.lX6XMXeXbXnXnXnXnXnXmXmXmXeXtXbXnXbXbXnXMXKXPXCXMXKXPXJXCXkXVXPXKXCXMXCXKXnXVXVXnXMXCXVXlXLXVXqXjXjXgXIXIXUXIXPXvXcXjXIXgXiXHXGXHXPXcXHXiX*XPXcXvXIXIXPXDX*XHXHXDXvXDXPXvXIXvXPXVXJXKXPXBXJXJXKXCXCXCXCXCXKXJXMXNXCXJXKXKXMXCXMXMXJXKXPXJXPXLXLXKXHXHXHX*X}.|.PXLX&X[.= v C jXHXxXl.l.8.3.jXcXCXMXCXZXCXKXmXBXNXCXCXCXVXVXKXCXCXCXZXmXZXKXJXBXBXKXCXL.=.} U U g $ @ * < 2 p p s u D p A ; 4 p p * @ o @ @ p p n y n a.tX1XCXCXMXeX4XbXJXlXcXDXFXcXxXxXVXHXvXvXkXvXlXlXlXlXHXHXcXMXDXjXsXIX*XxXPXHXHXcXlXwXjXLXPXVXDX:XzXzXAXDXDXsXdXMXMXMXMXwX-XJXPXkX-XcXlXcXMXMXcXcXMXHXwXkXMXMXJXLXFXFX",
"0 {.=X6XMXJXjX4Xb Q [.-XlXlXwXjXiX;Xc.3.v v 0.wXwXCXnXU.v.S p i N n b b b b N M N b b b i N S b N H S P n S u u 5 p Y D D p - 6 p u 9 6 # y p G G 8 % & - ; : ; 6 5 y 5 9 6 y t ; 6 9 t 9 8 0 y 0 8 0 8 8 8 8 8 : : ; ; : ; : ; > x.b.kXlXcXjXlXZ.A.xXl.l.=   : C :X[.*XE Q 7.6XdXBX7X+.- # # # i % - 9 ; 4 4 $ # % - - 0 ; ; ; ; = - % = = # % = = . = = 9.>XxXlXwXKXVX-XV.9.2.;X*X;X&X>X|.: = = x.x.wXA.Z.^ H &.y.b.{.-XKXZXtXL.Y.r.u. .O.O...O.#..... . .O.#...........O.O.O. .O...!  .O...I ^ I ~ ~ P P P H H H H b m m ; ; y.CXMXMXMXkX/ W +.7.PXPX`.> , T B AXjXHX8.4.c.PXxXDXDX7.0.+ : : > = > |.[.:X>XcXA.x.P.A.PX[.c.O O R ( IX%XZ.C C 5.P.K.MXbXbXoX#Xp.a.s.a.p.p.p.p.p.p.p.p.p.p.a.n.p.b.t.y.z.z.p.p.y.t.p.p.t.y.y.t.p.a.n.n.p.p.z.z.0.7.3.9.9.x.@X,XwXwXUX:XvXHXHXxXHXcXAXZ.%X,.4.x.Z.xXcXjXcXcXjX*XxX*X[.>XPXHXHXcXHXx.|.2.) 5.6.6.y.e.6.5.e.y.y.y.5.e.y.y.y.e.y.y.t.r.p.z.n.z.y.7.8.3.[.LXHXHXLX-Xx.l.HXHXLXPXV.[.B.zXcXc.( 2.l.l.xXMXKX{.!.r.a.a.n.n.n.m.U.U.m.M.b.m.Q.W.K.H.J.L.OXXX~.L.s.X.p s =.X.g d f f g L F a & $ a D U r r p g p & * * * - s Y N 6 D e.a.L.L.W.W.P..X#X{.&X;X;X*X}.|.@X-XqXwXwXwXwXwXlXVXcXVXMXlXDXzXcXPXAXPXcXjXMXPXVXVXjXjXcX:XDXAXPXPXLXcXPXPXPXPXBXbXKXKXMXbXKXKXMXKXVXJXJXJXHXMXHXJXVXPXPXMXkXFXFXFX",
"  P.{.dXMXMX=XoXl.z.wX@XoXwX6XvXzXzXN.c.V E t.|.@XVXZXv.U.n p N y 8 8 8 ; ; - - & - 8 y y 8 ; % % 8 8 p p u A a a D D g p u 6 9 A u 5 9 ; S n D G 9 ; 6 5 8 8 - 5 5 a 6 u 9 n i 6 5 9 i 9 5 4 4 6 8 8 8 ; ; ; ; ; > = = = = > = . C.b.kXcXwXwXwXp.9.jX[.*X7.9.6XZ.PX0.l.v E h.&X&XBXbX~ o . @ @ S # % 4 & 6 5 * & & 4 & i 6 8 0 0 0 b 0 8 ; = ; . + X 3.3.cXjX:XLX@XLX9.x.wX*XPXDXHXsXcXAXIXx.9.9.:XMXlX: v ~ ~ C.4XrXeXnXZXeXL.5.w.5.e...5.5.5.@.O.O.@.O.O.O. .....O.@.@.O.....@.*... .O.5.O.G ..~ ! ~ G H H N m M H H ~ Q 8 ; M =X=XkXKXPX{.[.A.x.LXPX%Xl : ( _ DX}.iX/ _ 2.[.sXcXLX&X;X+ # =     E HXsX>X*XHXR V c.x.MX}.|.= = V V jX).A.) +.6.=X=XNXNX#Xa.a.O.*.*.O.......O.O.^ ! ! ..O...! ~ +.+.^ ) ~ Q ~ &.^ Q ~ ^ ^ ^ ~ N S H G S H P P ^ P C C : y ( &.PXUXcXwXUXIXvXvX}.[.PXiXzXV.c.jX*XPXPXxXHXPXvX:X[.) ) V.qX*XcXHXcX9.x.O o - - - - % # & 6 5 9 q 9 p A i ; @ X . & - 9 8 - # X + + + 4.HXPXPXPX:XE V A.Z.:XDXHXLXPXcX6XW B E c.V.cXMXJXy.e.i n n i i i m M S M M N G P G S G Y I G J F D F L { =.L [ f L [ f g g 1 1 < 1 L U U < < & 6 Y a p p g L r s L F A D D A G ! ..^ ^ ..~ E Q Q E P H P P v B Z v y y v N cXcXHXxXcX%X;XHXcXcX2.Q W [.}.VXcXQ.A.l.}.&XFXdX6X4.+.~ Q @.@.6...&.O.I Q Q I 5.5.+.+.+.+.4.+.^ ) +.+.^ ) 4.0.9.",
"X =X{.=X6XlX;X=X9.9.@X}.-XwXjXvX*XGXV.x.C Q S.lX-XCXCXa.v.y t n t t y 8 6 ; - & # - ; 6 6 ; - ; - b t p i ; p 5 r D A u 5 6 4 6 a 5 p p 5 n s n n 9 5 y t i y ; ; 4 5 & u u p 9 6 9 p n p u 9 6 6 ; 6 ; ; ; ; ; ; - = = - ; ; ; o }.C.lXHXwXwX-Xc.0.:X}.V.9.x.[.P.PXx.Z.Q B x.6X6XLXKXI X . @ X I @ @ $ $ 5 r < < & < & 9 ; ; 6 8 4 i i i 0 % = X = + 3.2.wX:XjXVXPXVXV.9.;X;XPXPXPXHXPXjX:X`.9.x.@XPXkXv y &.+.b.#X3X8XBXtXtXL.*.5.5.5. .O.@.@.@.#.#...#.O.@.........O... .! ! O.O.......@...G ..! ~ ! G H H M S H H M Q G 8 ; H bX7XMXMXLX&X&X0.l.PXPX|.x : Q _ gX;XDXV E 9.xX}.DXJX}.*X= = ,   . 3.xX>X:XvXHXZ B [.P.cX[.Z.= = T E iXA.A.2.2.6.6X4XBXmX!.w.e.O.X.X. . . . . . .! U U ! ! ! ! I ! ! ~ ^ ! P I +.~ I I ! I I I P P P P G P P ~ H b b C 8 v +.&.*XVXVXqXjXHXcXHX}.*XHXcX|.).).A.%XHXHXHXPXPXjX*X*X) 8.A.|.*XPXcXPX[.x.  # # # 9 & * * < 5 5 7 5 6 r a 5 & @ X X - - 9 6 ; - X o     3.PXKXLXHX*XE E [.&XjXcXPXPXHXkXzX) W Q t.l.jXMXCX5.5.y n n A n n n S D H S P P D p p D J U U { J f g g L } L } L } } g D F * 1 7 r L U U 5 7 * < Y g D f g L r r L } L g g D G U ^ I I ! P P P P P P P V C C C C N y y b M VXjXHXHXAXN.Z.sXzXHX<.) E -X@XPXLXV.x.p.&X&XLXFXFX+.+.+...e.O.O.*.O.O.U I I G *.*.&.+.+.+.5.+.^ O.^ ~ ^ +.&.<.4.",
". OXP.6X6XJXjX6XA.Z.HXHXcX8.( B Q jX>XjX( W 0.@X4XVXmXa.s.p P I N b 9 ; - - % % # # o X X X o - - t 8 5 5 6 D p < f f A A u 5 4 r p Y U 6 5 6 p p 6 6 u y p y ; & & 6 < 5 u u 6 4 5 u i a q 6 - @ @ @ o o o o o o o # = - > - - + Q.b.wXVXlXlXwX: v {.HXxXHXHXxXIX;XC C : x b.6X&XMXNXG @ o 6 & U $ $ @ $ a r 7 7 5 5 < u 4 4 6 4 % - 4 q 9 # o # &.5.6X|.PXUXwXVXHXv V.[.PXPX{.x.l.Z.;XiXDXPXvXUXlXjXV.3.4.b.m.6XCXBX7X9XY.Y.e. .! @.@.@.u.v.G.G.r.e.e.w.r.v.s.u.e.w.w.w.5.5.e.@.5.e.w.*.@.*.5...^ ....! ! ^ Q ! Q H m S H M H ; C.C.bXMXFXMXMXA.x.xXcXPX|.|.;X,XPXHXPXW W ) x.`.xXsX&X;Xx + + O O x.;XsXLXLX6X) ) |.Z.cXjXPXB._.|._.hXl.l.4.3.b.bXtXBXNX~.s.F.e.e.-.*.*.O.X...X.*.w.*.O...@.5.5.O.! ^ 5.5.O.O.G I ..O...! ..*.U I P P P P P P I P P ^ P b v = 7.HXPXlX:XHXPXPX>X*XV.PXPXAXPXxXjX:X3./ 2.9.*XxXvXB B ) 9.x.*X|.PXvXDXb.C.- o I A A K F F f f g r f f r 7 6 5 q a & 4 & 4 8 X . # + 0.KXMXDXcXjXA.V.HXHX*X*X[.*XcXPXLX9.2.) l.c.kXJXKX6.r.A G U S A A A S D P Y G P Y U Y F D D F F J F L F h h g h f g g d g L f g d r g D } L U f f L F D a r r h L h f g L U L Y U U D G ! ! I H M N b v : > ; : : ; % % - ; lX-XLXPXPXc.B.iXsX>X_ ) 3.HXwXwXqX2.&.( B.x.FXPX3X- % X @ K q A f f u X X p i 4 - 9 i 9 - - 6 8 9 & # - - # .   ",
"O oX{.lX7XJX=X*XA.V.jXxXHX/ 4.W B IXjX:X) W p.lXeXnXtXa.e.y n N N b t 8 ; - % # # # X   . X X - ; i 8 6 & 5 u r 5 f 5 p p 4 5 u 5 r Y Y 6 6 < p p 5 y i i i 6 % * & 1 5 7 u 6 6 7 u a a a u 7 4 @ @ o o X X X X o o # = = - - - % Q.V.wXlXwX-X*Xv C }.:XDXcXAXzXzX&X_ ) Z Z x.=X6XNXNXH @ X 5 6 F * * $ * r 1 7 7 7 5 6 p 5 6 6 9 - 4 - 6 6 # o X 5.t.=X-XVXVXjXPXPXv A.V.:XPX}.9.x.*X}.jX>XLXHXHXUXkXM.p.6.b.W.rXmX7X9X9Xv.J.w.@. .@.@.*.u.e.e.r.w.w.w.w.e.u.r.e.5.*.5.5.*.*.e.*.*.w.e.5.O.O.5...! ..O.......~ ! I ! H m H H H t p.t.JXMXkXJXJX9.c.HXcXHX`.|.:X;XAXxX;X/ _ / }.Z.;X;XxXcXQ   . O + Z.}.jXPXKX{.) 2.|.|.HX:XjXZ.)._.%XpXN.x.q.7.{.NXtXyXyXJ.d.d.*.*.-.*.*.o.o.X.X.@.*.@.#. .X.@.*.O.!  .*.5.&.*.G I ..&.O.! ..*.I I Y U I P G G P P G ~ ! M b ; +.VXcXPXJXcXPXHXsX-XV.PXPXLXHXjX:XsX( ( 3.3.>XHXxXR Z V c.V.}.>XPXMX;XP.z.o - ! K K J F g 7 e f h h f d 7 2 6 6 D & & * 4 9 X X o . 8.HXcXHXcXDXA.A.xXPX|.jXV.jX{.PXLXV.3.2.x.V.zXPXNX6.e.S D F D D D S A A A D D D Y U U D D F f F F F [ h d d L L h r f F F { g g g g [ g [ F L L L F { F f f k L L k h } } L { U { U D A G Y ! P S b i y : > - > ; ; ; ; ; ; wX*XLXPXPXc.c.[.AX[.2./ l.cXLXwXHX) / ) C.j.FXLXOX# 4 & $ { q 7 w 7 f X X J K * & q A q 4 4 9 i ; & % # # o X . ",
"# {.{.dX=XPXzXMX-X*XLXHXjX= y O > jX|.|./ / t.wXeXtXtXH.p.N Y S 6 6 8 9 8 ; & # o # o o - - - t 6 i i i 6 p a f 5 a r U D $ X @ * * 6 p 6 a u D p s p n p y & X @ * & r 1 5 < 4 r a a u q u 7 4 - - - % # # # # # % = = = = - ; = V.C.kXkXlXwXwX9.9.HX*XMXA.B.A.N.&Xh.c.Z v h.sX4XMXNXG # $ D D g 3 1 3 < d 3 7 1 1 7 5 D u 5 5 6 - w & @ o . o M.PX6XlXVXjXjXlX7.9.( }.cXDXvXh.  . : B *X>X*XV.M.3.8.8.0.K.-X.XmXmX1X2X<XO.@.G J G 5.s.<XJXNXmXyX9XmXNXmXmXmX9XyX9XtXZXZXmXyXNXCX9X5XNXNX9X5XtXmXtXBXmXBXBXbX3XfX3X7XI.<.~ M 0 ; ) ^ lXlX6XPXPX{.9.x.9.&X=XcXHXLXjX|.>XjXjX4.x.x.xXjX:XsX9.O . C Z HXsX6XMXjXx.jX>XcX>XPXjXxXcXhX_._.k.,.2.2.h. XtX5X0X/.-.} { *.e.F.T.T.T.~./.~.T.J.J.Y.Y.Y.J.v.H.H.J.L.G.v.L.~.J.H.L.L.v.s.s.s.s.G.U.H.s.a.s.v.a...G S n I ..8 6.4.kXPX6XMXVXHXHX[.B B |.N.[.[.V.= O = = c.>X:X[.`.( x.c.l.x.`.PXPXMXFXz.y.@ q f K F r 1 7 j d d d j g g g f 7 $ * @ & 5 @ %   . 9.PXPXKXvXxX>X*XHXPXl.l.: V W VXxX*Xl.8.9.9.-XJXrX5.6.F D U D D D p 6 & & & & $ @ X X X & f F [ [ [ [ F h [ L h h < < f 7 r L f r 2 g r L L L } } g F 7 3 * 3 j ] h h h L } L F L D 5 & * * & % # o o o O O % % - ; ; = % % wX-XLXcXHX0.3.q.Z.[.IXjXPXHXPX-X@Xv v ) ;X`.LXJXfX& 4 $ $ { f f 2 $ F [ f F f 7 7 f K a q i A n A S p - # # = # ",
"# =XoXkXMXMXzX6Xb.V.lXHX;XA.[.x.x.:Xp.l.C Z 0.wXwXVXyXa.v.N N p & 6 @ p p i n p i 5 9 6 p 6 5 ; 8 ; ; 5 9 5 5 6 g 7 5 U D r . X 6 6 a 5 r L D a a u p p D p # @ @ 1 < r 1 6 6 1 f r 6 u 6 5 4 q 9 8 6 ; ; ; ; 6 8 8 % # % # = = = Q.Q.kX:XHX@X:XA.Z.HXV.l.  O Z R sXZ.|.Q ) A.-X=XkX7X~ 4 6 F F 7 f d 7 d d 7 e f 7 f 7 7 & r & 4 & X $ X # m.n.nXnX6XMXJXcXV.S.;X[.cXcXvXLXMX*XW B h.+.PXVXP.: y &.&.x.eX4XnXbXKXv.G...@. .#.q r.w.JXNX9XY.0X0XmX<XNX2X+X<X<X2X<X9X1XY.+X5X8X1XtXyX!.J.~.<X8XyX1X7X8X5XBXtX+XY.Y.bXBXNXU.y.M M m b v  XK.bXNXCX6XcXv 0 |.HXPX}.A.v h.B.jXHXV.3.3.[.}.xXjXjX: : 0.8.cXDXHX>X;XV.LXPX;X|.E 8.l.cXSX%XhXv _ Q A.z.7XNXyXG.J.} F g ;.e.yXmXmXyXyXyXmXyXZXmXNXZXyXNXyXZXCXtXmXmXCXmXmXmXmXmXyXyXyXmXZXCXmXtXZXKXmX5XyX8X<XXXO.! J H ~ 8 t +.6.bXOXkXPXMXPX8.7.Z v HX6XDXA.x.A.t.MXLXLXLXPXPX{.*X3.9.Z.&X;XLXkXbXKXe.& $ f < f h h e 2 ] d d h f g f g g r 6 5 5 4 4   + 0.KXDXxXHXHX}.sXPXPX|.[.= W E HXjX*X8.9.l.x.wXnXmX5.5.Y U 7 4 < D u a u 5 < 5 < * & * 1 g F F j j j h [ j d h [ o.$ $ @ $ @ r g r 2 [ [ L r d [ F 7 $ X $ @ h [ ] h h h F L F g L D L D f & & % @ o O % % ; ; O % ; - - - % wX-XPXLXHXV.9.*XPXDXIXxX}.[.{.V.V.Q V 8.C.U.LXNXOXw 4 J K @.w e $ $ F F [ f r { F F K f f G 6 A p a i & .   z.z.",
"= {.&X6XMXPX-X-Xx.b.cXMX*XA.Z.x.Z.:X9.D.B Z 9.4X-XnXtXa.v.p N p & - @ i p a b y p u 8 - ; ; 5 5 6 5 u 5 5 4 5 r g 6 7 F D p @ X & 1 f s r F D p p r u s D p % $ $ 7 1 r 1 6 7 7 f a 6 r 5 7 6 u 5 6 - - ; ; 8 8 8 8 # # % # = = = Q.Q.kX:XHX@X-XQ.V.xX9.V.+ + E Q ;XA.;X,./ c.&X;XbXeXI 6 4 D D 7 f f 7 e 7 2 7 7 1 g f p 5 5 @ % 4 # . @ @ y.v.eXCXbXPXkXKXV.c.-X:XxXjXjXjXHX*XW V 0.3.cXcXA.v y &.4.V.6X-XbXnXtXv.L.O.@. .#.U u.e.mXCX9X!.9X9X<X8XmXKX9X<X<X<XXX1X<X<X8X1X+XXXmXBX+X!.Y.XX8X9X7XmX1X7XtXOX8XOX+X7X7X7XU.n.H m m 0 v oX{.JXbXbX6X=Xv v oXPXKXV.`.x h.9.PXLX).0.2.V.A.cXxX;Xv l 9.h.HXPXPX&X|.A.PXPX|.oXH l.0.zXGXhXpX> W _ A.C.7XNXmXJ.J.#.F f i.e.yXyXmXyXyXyXyXmXZXmXmXNXNXmXKXCXCXmXZXZXCXCXyXmXmXyXyXmXZXyXZXKXZXmXZXCXmXmX1X9XXX<XO.O.G H I m N ~ 5.MXkX3XKXKXHXt.9.Z Q *X;XKXA.c.A.[.MXHXPXLXPXPX;XoX+.3.B.*X[.MXPXPXZXw.6 $ w 7 [ f [ 3 2 h j j j j F F r f r 7 5 4 4 9 o + 8.HXxXxXHXcXjXjXPXHX|.Z.: Q W :XjX|.9.0.l.9.wXVXmX*.*.Y L 7 * & A p A p a 5 & * @ * * 7 F L [ j d d d h h h h h | 1 1 @ @ 3 d f d r [ L L 7 7 [ [ d @ @ * * k [ ] j j h F h F F L L g g r < * @ X X % = - ; : O O = = - ; & VXjXPXHXcXx.0.*XPXPX;XjX`.:XA.c.l.V V 2.C.P.JXJX<Xw & K K o.e e $ $ [ h F h d F F F 7 a D F 5 p A ; 9 o # X e.p.",
"> P.oXoX6XPX{.oX_ ) *XwXlXvXVXHXIX:X_ _ : B p.#X$XtXtXp.s.p M N & & X y p i i 6 6 6 & # @ ; y i p i n & 6 & r 5 f 1 1 a g D * @ 5 r F D s p p p p y 5 5 p p & * & r 5 a 1 1 r p f r < 7 4 7 6 q - & % & - 6 8 6 ; 6 # # % # = = - Q.Q.kXwXHX@X=X|.[.PXx.P.= = l.8.cXB.B.C T B.cX*XVXMXG 6 4 A f 1 f g 7 7 e d f g 7 7 < < 4 u - ; @ X X !.W.CXkXMX3XKX-X6X^ C.P.xXPXDXDXHX:XMX:X-XLXLX:XPXjX0.( ) V.m.-XMXnXKXKXJ...@.J J A J u.NXBXJXCXG.I S i q i - 5 $ & S 5.5.O.!  .! G n G - i w.~.1Xe.w.! I ^ n I ! I a.n.m.U.I.OXI.{.+.Q G 4 % 5.5.bX6XMXKXPX5.^ P.PXPX8.9.  4.4.DXxXA.R ) x.c.>X;XcXf.l.>X}.cXHXcX2.3.l.PXDX[.[.+ : : gX%XpXaXZ f.9.{.K.ZXBX2X-.-.} o.o.~.T.yX2X/.~.T.Y.J.~.J.J.J.L.L.s.d.r.w.G.!.!.s.a.J.L.J.s.v.L.Y.G.G.U.U.U.v.v.s.v.Y.mX5XBXv.v. .J n Q ~ b 0 6.6XkXNXMX4XlXPXP.A.A.&XxXHXPXjXPXHXl.x.<.3.*XMXHX8.2.<.C.B.sX6X3XeXKXw.s.X * 7 F e d 2 d d j e e F f g F D A a 4 4 i o O 8.HXcXcXcX:X9.9.jXcXDXPX|.*X[.jX*X1.Q / c.V.eXCXmX*.*.Y L 7 $ * A D U Y D D Y F g L g a D f h 7 2 d d | h j h h [ f f X X r [ L F h } } } d 7 { { F X X < < F | [ d d F h h r r r a 1 f D L X.Y N n H P N v y O O = % - ; ; #X@XcXlXxXN.V.HXAXxX/ / : V.Z.HXPXf.8.3.*X=XNXNX1Xq q #.{ { f d j j $.h h F F [ [ L w f D f 5 p n . X @ r.m.KXbX",
"- P.oXoX4XJX{.oX_ ) ;X>XlX:XlXHXPXjX/ W : N z.$X$XtXtXp.s.p D D ; ; o y i 5 9 ; & 6 % @ o 8 i p S a p @ 6 1 f r f 7 7 7 r g < * r r F D 5 5 5 f g u 5 & 6 5 & 4 < a r r < < a g r 5 * 6 4 q 5 i & & # % - 6 8 6 ; ; # o # # = = - Q.Z.jXwXHX}.@XV.x.HXV.l.v : c.t.MXB.b.R E x.%X*XHXCXS ; & q q 7 f g e 7 d f f 7 7 7 4 6 5 6 & ; X o X Q.U.#XbXlXkX3XJXJX^ oXb.HXPXsXjXiXjX;XcXPXHX-XwXlXwX0.&.&.M.m.#XeXbXmXCXL.@.5. .U J G s.mXKX5XtXa.! J i n 9 9 9 6 4 S 5.5.@. .! ! S n G n i a.!.5X .e.G ..^ I I ~ Q n.Q. XC.K.3X XK.+.~ H 0 ; +.+.MX4XeXPXbX2.) A.PXKX0.8.  4.9.sXLXjXR Z l.V.;X%X;XN.l.>X;XDXPXPX2.<.x.PXxXoXA.+ > : ;XzXpX%XE f.f.oX{.CX9X<X-.*.[ o.{ T.^.mXtX0X5XT.T.!.L.u.H.L.!.!.J.s.G.u.H.J.~.G.!.J.J.G.s.s.H.J.J.J.L.W.+XH.m.v.G.H.mX5X<XL.H.! S ! Q G 0 b 5.bXMXkXkXMXPXKXA.[.`.V.cXKXLXPXPXjXZ.b.4.t.MXPXsX3.4.) h.b.kXMXCXbXKX5.n.- X f a 7 7 e d ] F d d F g F D A D A 6 4 9 o O 8.PXPXHXxX}.l.0.cXcXDXcXsX}.>X*X:X) W Q 9.0.kXVXmX*.*.L U 7 @ $ f D  .Y D Y D g s g g f F g g 7 3 f r $.h g h h L F F X @ L | L L F [ L } r r } } L X $ 1 7 [ [ h g f L g h f a f r 7 r f g D p p N P Q H b v O O = % - ; ; eXwXVXcXxXl.c.jXLXLXW V = x.S.VXPX0.8./ }.oXNXKX1XA K #.{ f F ] [ ] $.j d d f F F { 6 u u 5 5 u 9 o X % p.U.NXPX",
"o oXoXxXMXMX;X=X0.0.lXjXcXQ.|.>XA.vXZ.Z.P C p.wX4XZXnXd.a.p N N ; ; o i y 6 5 5 u p 6 4 & p a i i 5 u @ & & D g r 7 r 1 7 f 5 5 * * r p 5 5 5 g p u u 5 5 6 & 6 6 a r 5 < & p A 5 4 * 4 4 i u p 9 6 - ; 6 9 6 ; - ; @ o # # % - ; Q.Z.jXwXHX}.}.+.W }.*X*X*X`.sX6XbX+.) v V V.:X*XVXMXS # X 4 < q f q 7 7 7 e w < w 5 6 4 - # # . t z.M.JXwXkXLXVXJXPXh.h.0 =X{.jX;X/ = O 0.0.jX;X@X@XwX3.3.D.b.C.4X3XZXeX5X!.L...J J n I a.J.yX8XtX5.w.5.r.r.^ I ; O.5.+X+XJ.XX~.<X!.v.e...A q n G v.8XNXG.J.n 8 - ! ^ 5.y.K.=X=X6.6.OX6X X5.&.N t t H S 4XkXkXKXbXQ.OX{.MXJXMXdX8.jXxXLXPXA.: v / 2.[.|.jXiX:XjXjXMXzXjXW R 8.DXcXHX-Xt.[.V.>XiXc.k.1.l.l.kX3XeXL.J.o.#.L -.o.<X1X5Xv.a.+X!.1XL.y.~ ! i 6 - i G v.L.J.5.! ; & i p G O.5.5.r.H.! P S G 6 0 8 9 9 r.BX7XJX8X<X3XG S ! H n 9 5.t.JX6XMXeXHXPXVX[.[.t.}.oXoXB.z.: 0   . <.6XMXB.h.Q +.8.z.b.kXlX4XKXKXa.G.4 A q f e e h g 7 d K K f q w u A 5 & & . + 3.HXPXPXMX*XW E [.}.:XcXHXHXzX:XqX/ E W l.c.wXnXmX*.-.L { r @ $ u p U p u G A 5 @ * * 1 F L D 6 * 2 $ h h [ r g L [ [ * < L } F h g L L } f f } } F * < g g L f r F L { 2 r 7 7 L F { r r * $ * ; y y b b : y O O - - ; 6 : }.@XvXHXLXA.).HXzX&XB v B ;XjXPXPXc.x.2.`.U.7XJX9Xq a K f 7 [ | [ ] $.| | F g h a F < 6 5 5 - & o 6 & 6.PXKXMXOX",
". &X=XJXJXMXsX=X=X}.HX=XP.v v v _ qX-XwX3.^ z.rXrXZXZXa.a.s p p & - @ i u 6 9 u n n u u u S n i 5 u p * * $ r g r 7 f 1 7 a f A $ $ 5 a u a u a 5 u A p i 5 & 6 5 u 5 4 6 < p p 4 & $ & & u u p A n i i i 9 6 - - - o o # # - - ; Q.Z.wXwXHX|.{.V B |.cXjXHXjX*XkXI.v H C B 9.}.>XcXlX~ X X $ $ q w w e e q 7 4 f f 5 4 @ X . # > 9.VXwX6XVXVXlXMX`.z.A.P.PXMXcXHXIX9.= + A.l.;Xx.8.: : ( 0.p.-X3XmXBXCX!.H.O.! ! G U a.J.0X~.tXa.a.; 6 O.1XnXL.XXI L.m.NXtXv.e.r.L.Y.J.Y.~.L.G.H.!.s.XXL.8X!.q H M Q.I..X.XK.K.m.0 0 n.bXlXK.m.M m t ; - b.NXCX=XMXKXlXt.`.&XxXcXLX;X|.sXLX;XZ.Z.3.) N.Z.>X:XHX:X>XcX[.;Xx.V.DX*X}.LXHXjXA.A.|.[.1.q.c.`.`.PXNX5Xr.e.U L U F.F.KXZXW.~ G a.v..X$Xm.y.y.S n M n.e.5X1Xv.a.s.*.O.*.*.r.K.H.e.5.a.4X!.a.r.H ! ~ ^ +.O.5.@.BXfXBX3XL.J S ~ O.H m ; y.P.PX6XoXPXPXcXJX8.0 > oX6XjXt.9.) 4.oXPXPXJXPXPX[.[.b.0.c.Z.-XlXOXKXCXw.- 9 q e w d 7 7 f f K K f q u A 5 @ X   . 2.xXcXHXLXjXA.b.xX>X{.}.l.Z.|.HXPXA.q.2.9.0.wXnXmX*.-.U { a X X 6 r P i i  .=.G 6 & * < g g p @ X $ $ F L h 2 d h [ L 2 1 1 L h g g L L } F a U F r 6 r L L { f f #.} [ @ $ @ @ f a } a g 1 r u D G t b b > > + O ; ; ; 8 8 wXlXMXKXHX9.8.A.%X*XV.V.*XPXLX6X}.W W ( oXoXBXBXtX6 6 f g F $.[ k d h j [ d f f f D & 4 5 5 @ o ; M.p.nXMX=XDXPX",
"- 6X6XlXlXFX;X4X6X-XHXMX-X: v v v >X@X@X3.%.p.wXrXZXZXd.d.y p p & & o p p 6 6 6 p i i y p p n p i p p 6 & * 1 7 r 7 f 1 7 r g F 4 < u u u A a 5 q u A i i 9 - 9 u r 5 4 u 6 A u & - * & & u i n n p p i i 5 ; - - - o o # # - - : [.A.wXwXHX{.Q.C E :XcXHX:XHXzXOXQ.M B v v S.vX:XvXlX5.X X $ $ f < w f f 7 w < 7 a 5 9 # X . ; + D.cXwXwXxXVXMXMXP.A.P.;XcXoXdXPXxX8.> , 9.c.:Xl.S.v = 0.7.p.VX7XNXBXNXH.G.*.O...G p d.s.<XyXKXw.6.6 6 6.eXnX.XW.! .XW.#X.XH.r.a.L.L.G.L.~.~.!.H.L.e.!.L.!.L.n H P W.Q.#X.X.Xb.m.- = 6.=X6X{.P.S H H t b 5.nXeX7XbXNX7Xz.=X{.&X`.PXdXJXxX&X&X`.Z.( 2.x.A.zX>XjX*X;XPXV.[.[.Z.>XjX>XHXPXPXA.}.[.[.q.1.l.`.[.KXKX4Xw.r.*.#.{ F.s.yXmXU.P G U.m.K.L.n.m.p.m m ; 6.n.tX1Xr.v.a.O.P 5.5.a.L.K.a.r.n.!.Q.p.y.m Q ^ +.H ^ r.n.BXOX7XBXU.! ! I G S i m n.b.6X6X6XPXPXPXPX8.: v P.;XPXh.t.2.2.P.DXLXKXPXLXB.A.t.Q.x.l.-XcXKX4XnXn.9 6 9 w w d e f K q f K K f p p 6 @ X . + 3.xXvXHXLXvXV.Z.zXcX*XvX+.A.S.PXIX].1.4.l.b.wXVXmX*.-.L { f . X 4 y G y u =...G u u r r D a p X X $ * F L d d f g [ F r 7 $ g g f f U F U D f { F < f r U { { D D o.{ { X @ * $ r 7 D 7 f 5 r s G S 6 0 v : > + O ; ; - 6 8 @X-X6XLXIX9.7.c.).|.&X|.*XMXLXjXsX_ V 7.6X8XJX7XyX4 5 r 7 [ [ h ] h h d h f F g f p 6 4 & & # p ; p.p.#XkXlXxXDX",
"Q MXlX=X=XKX=XzX}.oXjXVXwX= : : > -X-X|.&._ 0.wX-XmXtXr.d.s N D 6 & o p p 6 & & S p n u p 6 i a n i 5 u u r 7 7 f 7 a < 7 7 f D a 6 5 6 5 D f u a u u 6 6 6 4 p u r 5 4 p 5 D u 4 6 & 6 4 p p S 6 5 9 9 5 6 - & - - o o # # - - ; Q.C.wXwXJX{.Q.[.A.HX[.*X/ ( E ^ .Xz.t.W W E.,X>XwXbXn.@ # & $ K w w K q < $ @ w w @ # X o 0 0.b.GXUX:XPXcXxXMX( }.;XJXPX3XFXxXxXsXsXiXzXjX;XHX/ Q ) 3.P.x.lXlXtXmX1X+XO.@.J U G u.v.NX2XKXtX*.6 M - ; &.m.v.a.a.^ m.n.&.6..X4XOX7X8X XL.G.r.e.n.u.v.8X8X!  .- 6.6..XK..XK.4Xz.C.0 0 6. X=XOX=X^ G M - 4 H 6XeXJX7XKXPX5.Q Q 6XMXxXP.}.) W sX;X;Xx.N.9.q.:X>X*XxXjXPX8.c.-XsXKXl.l.3.3.>XDXvXV T E Q f.;X=XMXnXOX..@. . .o.2XyXZXnX6.& ; n.U.{.@XP.4X.X+.+.0 5.&.4XZXH.W.v.v.H.W.K.K.H.a.6.&.&.z.U.K.Q.+.p.K.I.8X<.b m j.'.7XBX7Xu.a.@.~ ^ M S 0 v t.KXKX=X}.MXcXJXz.8.`.A.KXJXPXKXLXPXJX&X|.`.MXPXPX2.2.) %.[.*X:X-XJXJX@.r.@ $ $ w w K f $ * 4 q q 5 5 & @ X X # t.HXcXcXHX:X:XzXPXPX|.Z.+ Z B vXjX>X8.q.0.9.eXmXmX*.-.L { r X @ 5 r D & & ! ! D y u a p Y D L 5 a 6 @ 1 L [ F f d [ L F F < L } L F o.L { L L =.{ * F r L { J f f L D { $ < 1 < f g F f g f g p G S - ; t - ; o O ; - % ; : 4XkXzXPXKX0.4.8.IXDXPXPXHXlXoX8.7.x : 4.b.B.LXKXmX- < * X d h [ h [ [ d g d g 1 6 < & & o @ ; p.p.CXKXnXCXJX6X-X",
"( zX-XzXoXVX6XlX*X}.jXLXjX: : > v |.@X@X) &.6.4X4XtXtXe.r.p D A 6 & X p N 6 - & p p p s 9 9 u a n a u u u 5 6 & r r r 5 6 r p D u f 5 4 p p 5 p p p 5 u 5 & 9 u a 1 6 6 p 5 a a 4 6 6 4 6 a f p 6 5 6 6 a 6 % & % 9 X X # # ; - ; Q.m.eXkXJX{.[.[.|.jX[.:X( ) W H OXp.M.P E E.*X>XcX6Xz.- # & $ A < w K q $ w . 5 & & #   % % z.V.vX:XDXAXIXcXcX/ &X;XxXPXdXsXFXMXdX8XkXsX6XMXlXW C 3.4.A.A.wXnX9X9XmXY.*.@.J J S G.U.8X9XmXJXw.y ; 0 - 4.n. Xy.y.6.m.n...6.OX3X7X4X=XI.I.K.t.y.n.z.m.7X X~ ^ ; 6.n.{.m..XI.W.U.K.- ; ^ OXOX=X#X..m H 8 8 I 6X4XkXJXJXkXz.B Q 4XDX;XoX|._ 4.&XzX*XN.V.3.3.IX%X%XvX:XKX8.l.xX:XDXc.x.2.( xXMX:XT T _ Q 0.=X3XbXmX~.*.@.U o.{ 0XyXmXKX+.t : C.Q.Z.oX}.}.4X&.+.- *.+.ZX1XJ.K.L.a.a.$XH.a.!.m.5.&.5.b.V.}.b.t.6.m.Q..X6.i i v.v.KXeXtXp.n.&.~ G G S 0 m &.KXMX=XeXkXMXJX0.t.b.}.JXPXPXLXPXPX;XAX).`.cXPXPXq.0.` / |.qX,XHXPXbXy.e.@ $ @ w w A f $ < < F q 6 u 6 . o o . C.zXjXPXcXsX>X-XPXIX}.*X. v v GXGX|.c.q.9.8.lXeXZX-.w.L L f X X 5 a D * <  .U Y u p D p A Y { r a 1 < < F { F L r L h L g 1 [ [ [ L [ { [ L [ } [ 1 d F L L D F D F J f < 3 6 7 f f f f g F g p A G # & 9 - ; o # - % % ; ; -XlXkXKXPX7.) 0.JXzXPXHXPXwX@X8.9.: : +.b.{.NXJX7Xi 5 X X d [ F [ [ F d r h g 6 7 $ 5 - @ X 8 p.z.UXPXkXJXLX6X@X",
"|.jXwX-XLXHX[.x.9.V.:XMXPXA.*Xx.0.Q.7.8.b P p.rXrXmXmXd.d.p D D * * o D G 5 & @ s u y y u i i i i q q u p a 5 6 r u u 5 5 5 a g u u & @ 5 u 5 p p p 6 4 & * 5 p p 4 4 6 A a p a 5 5 5 < < 6 5 5 u u 5 5 a 6 % & & 8 @ o o o 8 ; ; Q.m.lXkXKX&X=X;X:XAXx.8.    Z ^ 4Xz.b.V E V.,XqX-X-X6X6.O.& $ q f q q q q n @ & & o o 8 p.M.kXvXgXPXPXAXAXW Q W IXLX;X}.W x x U.OXOX3XkX6X-Xt.6.4.Q.K.wX-XnXtXNXY.s.#.J  .! J v.yX9X9XfXG.w.m +.&.z.p.Q.p.p.&.5.p..XOXL. X8X8X.Xy.y.~ P G v m G ~ ..u.y.U.U.5.z.u.n.n.3XOXOX XOX~ G b z.H.7X7Xu.m M m b t n.K.NXMXMXKXoXQ ) PXPXzXv v     }.HXLXV.f.E E %X;XcXPXPX}.3.8.cXxXcXO = + = Z.:XjX( ,.3.<.x.wX7XtXyXr.O.*.X.o.w.uX0XtX5XS M M P.{.[.V.oXC.z.a.$XP I G v.U.!.m.m.5.&.e.a.r.1X!.H.L.K.+.) 0.z.M.3.y.m.m.v.; % 9 # s.a.KX XOXU.m.~ H M H M b y.p.3X7XMXkXPXJXFXoXU.C.*X&XsX&XZ.Z v , > 7.PXPXc.E.B ' q.S.Z.:X-XbXBXJX*.*.< A w q w $ $ < a 5 6 9 & X @ Q V 6XLXcXPXKXsX[.P.PXPX*X:XB / V AX>XiX1.2.l.x.VXlXtX=.*.U U f @ @ u p f @ @ f D D u p D A F U D 7 f g g f F F L L r L L L L g L L L L h L L g g L } r d g F [ F J L U { F g g 3 7 g L L g f f g g g D $ & q 6 4 o # ; - % ; ; 4XnXMXMXFXz.V.xXLXHX&XoX4.9.c.-X-X) / 9.oXoXMXMXNXI J & $ f f 7 d d 7 * * 7 r 4 5 * . X ; ; m.bXlXVXwXVXlX=Xp.8.",
"cXVX@XlXcXVXZ.|.c.Z.wX:X-X;X-Xc.l.V.4.z.H N m.4XrXmXmXs.a.p D D @ * * G G 5 & % a y 6 5 a n a 9 q 9 5 u p p u 5 5 u u u 5 5 r a p u & $ 5 u u f p p 4 & & * u A a 4 < 6 g p p u a 5 6 4 1 1 6 5 u u 5 5 u 6 & % & 6 % # X o 8 ; ; Q.K.lXeXJX&X;XjX;XzX0.3.+   V m #XC.Q.E Q x.UX@X*X=XkXI.v.@ @ $ q A q q q w # @ % % X ; 5.m.-XAX;XHXPXIXPX_ Q Q AXLX;X;XV = x '. X=XdXJXoX}.c.%.&.E.Q.wXtXVX4X9XY.J.@...J J K r.NXJX9X9Xu.@.G ^ +.z.b.U.5.6.6.5.v..X!..XOX1XXX.X&.5.! H M b n b H ..5.5.L.v.y.n.z.n.m.oXI. X8X X~ G 8 n.n.BXCXp.0 m S H m y.C.JXkX6XJX4XW W MXDXHXv B #   &XDXcXl.x.) ( Z.*X>XHXPXx.9.0.HXjX*X: =   O oXcX:X/ ) 3.3.A.lXCXnXNXr.*.o.J F F.yXmX9XtXS I P }.oXV.{.=XC.z.I.U.S G ..5.v.4Xm.K.5.5.5.r.6.L.W.5X1XU.3.4.7.0.Z.0.y.C.U.m.; - 6 ; v.L.mXeX.Xn.U.^ I ~ v N t 5.r.CX3XbX7XKXKX6XC.C.B.6X:XDX[.`.Z v O + c.PXLXA.S.c v / c.A.jX-XJXJXNXw.5.X i a q w & X w q i i 9 # @ o ^ W =XDXHXPXPX-X}.V.PXcX*X*X_ B _ >X>XGXD.3.9.4.VXnXtXX.*.U U r X @ r p f * * f p D a p D D F D D 7 r F g g f g } [ d h h L L F h g L L h L [ h f g L f h h L } g F J L L F g L 7 r g F h g g h F F p p @ # 6 4 8 o o ; ; % - - VX#XMXKXFXz.z.xX6XDX}.*Xp.C.z.}.}.,.( 7.*XoXFXJXfX5.O.X @ { D * f d 2 $ $ 7 q 5 & $ X . ; - U.6XwXwXwXPXlX-XS.9.",
">XjX*XPXPX[.9.7.A.A.wXHX-XLXcXcXVXA.= ; : y b.$X4XnXmXv.s.a D D * & * p p 6 6 6 p i 5 u n n i 9 u u a p p a u u 5 u p p u 5 5 r p p 6 4 u a u p p p 6 6 4 4 u u 5 4 < 6 a r r 5 u 5 6 5 5 5 r p u 5 6 5 u y 6 ; ; 6 - - o o 8 ; 6 W.Q.nXeXNX[.[.*X&XLX).&Xc.7.B.h.CXP.@X9.0.2.2.9.wXwX=X3XBX5.5.$ X X @ X $ & 9 b o - y b.CXeXwXgXPXzXAXA.l.c.Z.&XHXsX&X&Xx O > z.h.B.4.<.Q / 3.E.Q.wX#XrXVX4XL.a.@.*.K J G r.G.mXmX9Xe.w.@.r.u.#XQ..XW..Xb.n.n.n.K.5XXXI.!.1XL.!.^ ..P n i ~ P v.G.5X1X2XH.H.+XJXNXkX8X3XI.I. X#Xt.y.0 y.5.OX3XK.~ ~ m N m +.+.kXMXMXMXJXB.b.MXxXLX9.8.+./ sXPXPXV.A.( ,.f.;XjXPXLXl.4.2.jXcXLX( 2./ W :X}.}.l.q.k.9.{.bXnX.X~.*. .X.X.{ 2XyXtXd.H.S y.6.#X@XP.Z.C.P.#XNX4XL.tX1XW.m.L.*.6.H ! t i t S ! .X.X Xm.Z.b.0.C.z.z.C.6.y.+.5.&...a ; p.KXnXeXkXn.~ N 5.+.M N N 6.y.KXbXeX6XlXPXPXh.v : h.Z.HX<.R l : A.%X&XAXPXgXGXx.8.4.c.V.kXNXLXJXNXO.G K w w A q q 4 6 & @ # t 0 kX*XLXMXcX-XHXA./ 2.cXxXPXPXgX,XV.k.8.v _ ( [.Q.kXeXmX*.-.} L 7 $ * f D g 5 4 A D U D A U Y F a D f 7 F f f 7 r } [ g r d F F g r 2 g L g h [ h h r 2 2 L L g h r F F L L g f g f f g g f f g L D L a p & 4 9 6 9 X X ; ; = ; ; W.6XPXkXDXPXDX6XPXPXZ Z . V.S.VXqXl.9.q.}.`.xXkXNX3X1Xq & 6 X.o.F F r * $ & < $ 4 . i i M.{.6XlXwXPXPXA.C B t.[.",
"cXHXPX|.[.= &.2.HX:X|.[.) V.V.LXcXPX) W W M p.4X#XrXmXG.v.p A A < & & 5 y - y p u u u p p p i u q a A p u q u a 5 u p A p r 5 5 u p u 5 5 5 5 a a u & < 5 5 u 4 6 6 6 5 5 5 6 6 5 6 6 r p a a f 5 5 5 u u p i 9 6 ; ; 6 % % ; % y .XQ.nXeXVXZ.A.h.h.PXzXvXAXMXjX6XPX6XHXvXjXx.2.Q *XoXP.8XfXfXfXw.$ X X X @ @ o # - U.K.3XkX-XPXPXDX8.c.A.%XPXjXPXcXsXPXPX`.[.`.MXMXJX~ C 3.4.z.lXeXnXrX#XrXH.*.*.D J U s.G.9X0XmX*.@.r.v.r.u.u.1X.X$X.X5X#XOXK.U.v.NXnXI.L.8Xr.6.a 5 D P O.yXyX~.^.G.u.w.a F *.<X Xm.L.3XBX7X3XOXBXmXm M I #XXXOX5.&.i 0 t H b I.=XkX=XMXoX{.{.`.cXDXzXxXsXcXxXAX`.*Xl.c.9.%X}.:X:XjXZ.P.6X*XcXjXxX:XZ.*X9.8.3.9.x.x.;XMXCXJ.v.X.D D *.*.yXyXmX..^ P tX#XM.p.I.#XoX=X#X$X5XmXL.~.1X3XZXBXmXr.m.n M G 6 - r.y.bXp.C.Z.b..XM.a.n.K.L.a.v.r.U.a.U.N K.m.eXnXnXK.K.P H P M M 8 0 p.C.MXbXkXMXMXcXt.9.Z.x.LX;XHXxXsXsXLXPXPXgX,XPXGX9.4.4.7.K.U.I.BXKXBX*.*.b q 9 4 # X X . . I .X3XMXzXPXMXHXA.Z.2.>X&X*XA.vXcXcXcXPX,X>X> 0.8.f.0.wXtXCX-.-.{ L r 1 6 D L D F D { { X.Y F { { U a a F F } F g 1 7 F L g 7 d [ } h 2 r h L h L } L [ 2 3 r } | d r g L { } } F d r f f F L h f d f p F r A A D A n i @ o - - - 8 y eX.XMXbXMX}.`.sX:XcXx.4.3.@X-X-XcX[.V.8.V.N.&X=XPX7XNX3XtXi 9 4 5 r 5 4 4 w w w - & L.m.FXMX6XPXVXwXlX9.( 2.Z.0.",
"}.cXPX[.S.= 3.8.jXPX-X:X( Q.x.LXPXPXQ H ) ^ 0..X2X5XyXH.J.p p p 1 < 5 6 5 & 5 u 4 5 u p u u u i q p A p u 9 u p r r a A g r 5 6 a a u 5 4 4 5 a p 5 * & 5 u u & 1 5 r a 6 6 4 5 5 5 5 r p a u u 5 6 u u 5 u i 6 6 ; ; 6 ; ; - % t .XK.nXbXKX[.P.h.4.cXPXHXIXPXcXMXJXHXcXjX*Xx.( &.A.V.{.NXOXNXBX@.X $ X X & % X - t I.K.#XKXlXLXPX*X).x.A.|.jXjXLXLXDXPXDX;X6XB.MX6X*XE C p.4.m.lXnXCXCX5XmXv.*.e.D p U G.L.yX0XJXw.@.u.r.j.G.y.OX#X3X.X.XOX.Xm.L.6.5XeXL.L.BXr.r.G 5 U Y *.2X2X2X0Xe.e.o.F F w.8X7X X XOX7XOXOX X8X7XO.0 H XXXX1X5.5.m m v M m  XoXMXlXPXlX=Xx.`.MXxX=XzXxXPXsXxX;X*Xc.c.3.[.%XcX:XPX[.|.Z.[.HXcX:X*X*X}.c.8.9.3.l.b.4XbXKXv.s.*.F a e.e.yXuXyX....w.tX$Xn.r.m. XOX7XeX!.eXKXH.n.W.~.7XCXBXa.v.G S b & & w.&.KXb.z.C.P.#Xz.r.H.v..Xp.m.a.a.v.v.^ b.n.CXlXeXz.C.) P P N P : v 6.t.lXMXMXFXMXKX9.t.b.Z.PXcXHXcXIXDXLXHX%XjXGXgXDX8.D.+.2.{.OX#XNX7XKXw.w.n A 8 9 % @ X X   ^  X{.;X6XLXcXPXc.t.0.}.*X[.*XHXcXHXPXcX*XpX= 2.9.9.S.lXnXCX-.*.L [ g 1 6 f F p U U  .U X.Y D U U Y f r L L L F g r r g h L 7 d [ [ F d g h h L [ [ L F r r L } } 2 r F L { } } F r 7 f g F L h d r r a L r D U U A p i # # ; - - y b Q.$XKXJXMX`.}.PXcXzX9.l.4.@X|.lXiX%X[.k.0.f.[.}.MXMXJXNXmXi - y a u p p q 4 & * % 9 r.H.PXLXPXMXPX-X:Xl.3.( V.S.",
"PX-XS.3.0.l.|.Q.lXVX_ V   B V -X*XMX4.+.H P 5.nXrXrXtXH.J.p p p 6 1 s 7 r & - 6 * < u u u 5 u p a p p a u u u p r 5 r g g r 6 < a r a 5 4 4 u a a r & & r a a & & 5 u f 6 5 4 5 5 5 5 5 r a u 5 6 4 u q & & 6 & - ; 6 6 y 5 & & y !.K.nXlXPX*X=XW B f.*X;X|.*XA.Z.2.7.8.}.:XE.W Q E W b.&X'.8X#XJX@.@.# o X # = OXOXkX=XkXPXPXoX}.E 8.3.;XjX:X:XE 8.t.-X*XMXPXMXMX=Xc.3.6.Q.b.nX#X4X5XtXH.J...G U K U J.mXmXCXyX@.w.u.<XL.9X9XU.&.6.6.6.a.~.5X5X4Xy.!.+XXXXXCXm.s.F D *.o.^.~.~.e.s.@.X.o.@. .T.v.L.U.I.M.m.m.#X8Xm.H. Xm m u.a.bXa.n.H M v t v 6.6.&X=XJXMXlX3.<.B.*XsXLXxX:Xh.x.;XzX>X;X0.c.D.*X*XKXHXHXx.x.Z.jXvXMXHX3.V V 8.9.P.{.kX#X1X*.*.X.F F ~.!.yX~.J.! O.H.v.L.4X5XI.n.L.L.1Xa.v.5Xa.v.5...&.n.L.tXKXL.v.n 9 n 5.^ nXI.M.K..X#Xn.m.!.W.eX4XnXnXeX4XXX4XC.z.U.Q.4X4XCXC.n.+.P ~ H H P t p.KXJX6X4XPXMXHXB.9.}.DXPXvXsXzX).N.v B 9.8.DXl.l.: = 4.n.I.3X.XPXBXNXj.w.4 % X # % H M .XPXKXPXJXMXx.b.: : 4.PXPX[.l.= O 2.IXPXIXIXV ,.3.l.S.VXnXZX*.*.L [ L g f F g 1 g f f D U D g D g D A g { L 7 r f g F g g [ r d f h L d f 1 1 g L d d r 2 r F L g * 3 L [ L L L f 7 7 F F g g d r d g g U r p U U u 5 u - 6 6 & ; i b #X.XeXPXPX/ ) ;XPXLXHXHXPXPXPXlXIXIXAX%X3.f.A.A.;XDX6XeXKXI.9 -   . o 9 i w 8 b m m.BXdXdXoXLX;X;XA.[.HXLXHXMXjX",
"VX}.jX4.7.c.[.|.cXHXP / + H B wXwX6X3.0.H ~ 5.eXmXuXrXG.J.s a a 5 6 g 7 5 * & & * < u u u 5 u a A p a u u u u u r 6 5 p g r < & r r a u 5 5 u r 5 5 & 6 a a u & & 5 5 f 4 5 4 5 6 5 5 5 r f p 5 6 6 u u & & & $ & ; 6 6 y 5 & 6 6 W.K.kXeXKX-XjXZ E h.*XjX}.*X`.P.) 9.8.|.*X[.W ) B Q C.{.6XdX7XNX@.@.o - X . - 3XMXoXkXkXMXPX{.;XV 3.9.cX*X*X*XQ h.7.;X;XMXDXPX}.wX6.3.3.P.Q.nX1XeXrXmXs.G.X.! U A D G.9XmXKXCXw.u.w.XXL.9X8X1X6.5.&.6.a.~.1X5X5Xy.v.J.tX3XtXa.H.D J X.X.yXJ.~.u.w.i.J @.{ U 2X!.L.n.!.m.n.a.XXOXa.m.tX0 m u.u.3Xn.H.H M N b 0 6.t.lX4XMXPXLX/ 2.3.6XsXPXPX&Xl.h.jXjX;X*X0.l.l.:XjXjXPXPXl.x.b.HXxXcXPX( H V 9.9.`.#XlX.XXX@.*.X.U F /.~.2X<XJ...O.!.a.!.mX7Xa.a.1XH.!.a.J.5Xv.n.! I 5.v.v.KXZXH.L.8 i n ! ^ KXm.v..X!.XXI..XK.I..XKX5X4XnX.XbXnXb.K.z.Q.eXnX#XC.{.+.H H ^ Q 8 t 5.PXJX4X=XJXPXPXc.c.}.PXPXjXjXLX8.N.v > c.9.gXV.x.= = t.P.I. X6XNXPXFXh.6.- - X # # I H oXMXJXsXxXJXC.P.= # 8.PXHXV.[.= O 8.PXPXAXcXQ 1.W [.M.CXrXmX-.-.F L L g g F g 1 L D g g U F D f r D F F X.{ < r f L F f f } g d r f } L h 3 * F [ d f f r r L h g * < } } [ F g r 7 r F h g f r r d g g } r s Y Y u a u 6 9 9 & ; b b .X4X6XPXPX4.8.6XLXPXPXPXwXPXPXUXAXIXLXiX,.8.B.N.|.DXcXLXkXkX% ; X   @ i m - - 0 x U.NX6X;XsXLX`.[.[.[.PXzXPXvXHX",
"[.7.4.>XlXPXPXVXjX:X*X*X7.x.A.HXPXC.2.W &.&.P.mXrXZXCX*.d.6 a p p s s s s r & * @ * 4 5 5 u p p A p u u p p p p D & 5 5 p g * < 5 6 a g r r a 5 6 r 6 5 D a 4 1 6 p A u 4 6 5 5 5 5 u a r 5 5 7 5 6 q 6 @ @ * @ * & 6 u u y 5 8 t K.p.wXbX#XPXPX>X|.Z Z > x.8.8.0.  > > 9.3.x.8.4.( <.b.x.`.dX&XkX7XeX&.P - ; oXMX=X=XkXJX6X-X4.3.9.b.{.zX-X9.4.  v B l.l.}.3.8./ / p.b.Z.bXnXNXNX9XL.s.*.-.U J S s.H.CX1XKXO.....+X<Xu.G.I ! q G G v.r.5.S ^ ..*.L.KXZXXX1X1X!.L.5.*.+XY.s.w.s.Y.0X0XmXyX<XyXCX3XtX XXX1XL.9 O...5X7XXXu.y.G G OX XXXQ +.v M v G H &X=XsXJXMX7.0./ PXMX;X&Xv = > ;XAXjX;X8.q.9.jX&XsXcXMXB V > A.V.LXcXE / ) l.z.=X4XKXW.J.*.X.A *.e.9XyXyX*.w.e.v.+XL.XXr.v.U J XX!.!.m.L.1XXX!.XXG.*.! U ..*.BXmX5.q - v.a.CX$XK.H.XXU.3X4XW.XXr.6.a.n.U.OX=XeX=X4X.X#XQ.bXnXeXkXb.P 6.Q H M b m z.z.CX=XMXkX6XMXPX8.B E t.l.zXq.2..   : V A.|.vX|.Q.4.6.p.P.Z.*XDXdXFXLX<.+.# x x JXFXkX;X6XDXLXB.B.t.xXDXxXjXcX2.) O : %.jXcX;XvXW ( &.A.Z.VXtXtXe.d.f L [ h L L L f 1 < @ $ g r r F F U L J X.o.F g g d 7 r 7 F F L 2 r L L | f g } [ L g f f d } d r g r =.L L r r L r f L h g h g d r r r 1 $ & 7 5 6 a u D p ; # & y i nXeXJXPXJX0.c.H *X&XDXcXHXZ.|.0.q.zXzXAXV.N.T Q N.;X>XvX-XHX-X.X; ; o # # - 0 OXOXMXdXLXLXPX`.) 4.vX:XPX|.vX*X*X",
"v Q.jXPXlXV.A.V.xXwXlXHXlXLX:X*X;X0.2.4.K.m.OX4XeXrXtX! @.6 g g p s r r r r 5 < * & 5 u a p p p u u u i p A p a D & 5 6 s D & 6 < < r f 7 5 r 5 6 5 7 5 a 7 & 7 7 p f 5 4 6 5 5 5 u a p a 5 5 5 q 5 u 5 & & 4 < 6 6 6 5 u y 5 6 % 6.6.eXbX6XDXxXDXPX8.W W PXPXxXDX+.3.2.|.}.cXjXMX;X}.P.9.h.`.`.6XOXMXkXPXkXoXPXjXJXPXxX;X+.9.;X*XKXPXLXDXzX>XvXx.V.x.DXvXx.v v ) / S.lXMXrX4X7Xa.e...O.D a U J.Y.mXyXyXe.*.5 n J.<X!...O.n b 4 O.O.mXmXKX5.5.n i ..W.!.tXnXeX5XmXNXtXu.u.Y.NX9X+X'.u.u.u.w.e.w.Y.n.H.H. . .m m i r.v.8X1XOX! H I.OXbX6.y.M b 8 v v `.oXMXPXPX{.[.<.PXHXLXDXQ v B [.*XLXPX) B Q }.}.HXLXMXW / B 6X-XLXPX2.0.8.A.C.6X$X#Xy.r.*.@.J G.J.ZXZX<XX. .8X+X<XG.a.I I i 9 J.tXCX5X5X9XtXtX5XCXtXBXZXL.L.5.a.L. ...XX~.L.a.L.KXKX.X..! G S ..n.z.+.^ H ~ n.eXKXK.m.6.m.n.4XkXbXQ. XH H Q ^ N b y t.b.VX6XMXJXHXHX3.V 9.9.PX}.iXZ.}.*X|.PXxXHXVXPXMXz.t.t.8.Z.;XxXLXLX;XFX`.FX6XdX6XDXPXPXz.3.8.KXPXDXzXLXPXPXvXPX*X*X*XcXHX%XiX4.l.l.oX{.KXnXyXe.i.h F h h L L L g 7 1 @ @ r r r f f g F D L L g r g F F 1 2 L =.o.1 1 f | o.g g L h g d f f d L 1 2 g f } g L d g [ f g d d g F L h f f a < @ X @ $ * r r F U N y y t i .X4XeX=XFXPXPX<.= = 3.8.x.: v o O / 4.iXSXIX8.,.8.N.Z.,X}.UXkXwX@X{.- - ; 7X.XJXJX6XPXPX|.&X/ 2._ Z.A.V.x : O = ",
": }.}.lXPX|.Z.Z.Q.}.PXLXHXcXwX@XoXy.7.2.I.P.eXeXKX1X5XU U 5 a r s r 5 5 r r r r & 6 5 r p p a 5 5 5 q u p A p a D 6 5 < r D 5 5 * * r f r r r 5 5 1 r 5 7 1 * a u p p 5 4 6 5 5 5 u p p r 5 5 7 q 5 5 5 & 4 5 5 u 5 6 6 y r 5 6 ; *.6.6X6XCXMXcXDXPXA.E W HXHXHXxXB.9.0.V.}.jXjXsX:X:X`.8.9.x.[.JXcXKXcXwX;XkXcXjXDXDXPX&X9.+.&X*XJXLXlXJXVX6X@Xl.t.V.VXPXp.v B 4.) M.PXKX4XBX7Xe.a.O.X.J a X.T.~.NX5XmX..e.i n Y.L.+X.. .H 9 6 *.5.1X1X9Xu.v.i M I v.v.CXrX5X7X9XNXBXn.n.Y.9X8X9X8Xj.u.u.w.w.5.+Xv.+XY.!  ...9 G w.5.5X5X1XJ A H.3X7Xy.y.M M C 8 0 b.B.HXMXKXzXxX7.DXDXPXxXW B B |.%X:XHX4.Q V [.[.HXjX*X( ) V V.:XxXPX4.8.7.[.C.bXmXrXr.e... .D T.J.yXyXs.*.*.~.L.1Xv.a. .G A J G.9XZX5X1X1XtXBX5X9X8X9X9XL.v.G.y.r.I ! +XmXXXJ.L.9XmXXXO.G ! ! 6.W.b.&.5.m H n.KXNXK.Q.t.n.n.KXeXeXK.K.H ~ Q ~ P v M t.p.PXlX6XPXPXcXW W 8.8.IX>X[.A.&X%X:XPXLXIXPXKXJX3.t.4.x.,X>XsXPXcXxXsXC.6XdXcXFXDXxXPXx.3.x.DXHX6XKXKXKXcXxX>X*X>XjXPXPX[.[.3.l.l.{.K.lXnXKXe.=.g L } h L L [ h f d < * 1 f f f g f g D F F g r f F L 7 7 g ;.;.2 7 g | o.h g L h h g f h h F 3 1 g h [ f g d g [ g h g g g h g f r r r & @ X @ @ * r r F U D y 6 8 6 $X4XMXMXJXPXxX) = : 9.8.[.v v   O 2.2.;XxXiX0.3.N.c.V.[.E.qXUXvXwX@X; v # P.oXPXPX6XLXPX}.&XW ( 7.B.V.l.: x = = ",
"c.KX>X[.}.:   + 3.&.S.x.Z.l.9.4.6.6.C.b.6X.XnXtX7Xw.e.u p u a r r r 7 7 r r r r 5 5 5 5 r a u 5 5 5 5 u a p p u p r u 4 5 g u s $ * 5 f a r r 5 r 1 f r 7 1 * g p p u 5 6 5 r 5 5 u a a 5 5 5 5 u 5 5 5 6 6 5 u s 5 6 6 y u r 6 % b M p.z.6X6XsXxXPXLX[.A.}.Z.jXxXLXHXPXHXLX}.x.x.*XsXsX9.9.W ) A.@X*XwXxXvXVX@XLXPX;XsXx 3.7.JXLX=Xz.t.-XzXkX*XKXKXPX@X*X2.) &.Q.[.6XJXNX3XBXv.@.e.I D U J G.uX8XZXKX*.9 6 *.*.+X*.5.- % q m @.<X5Xa.r.*.<XtX..G ; P P XX+XtX7X1X1X~.9X1XXXv.v.X.@.I J G G K J G I I G G G G 6 4 A S +X5XyXe.a.O. XtXI.C.I b b 0 8 6.7.lX-XzXMXLXt.&X*XDXHX}.xX%XPXLXPXLXQ : Z l.l.jXjXPXPXKXDXPXPXx.V.+.x.x.*XoXCXZX!.O.O.U U o.yX0XmXZXe.e.r.5X8X5Xw.*.*.@.@.{  .X.X.....! ! I O.G O.5.5.8X1XL.u.! v.u.1X!.u.tXCXL.~.n ; ; H.H.H. Xm.z.K.M H 0 e.n.7XCXm.Q Q U.U.7XOXbXU.L.^ ~ P N t m 0 z.-XKX}.:XLXjXcXl.x.;XPXPXHXDXcXHX*X8.3.8.p.PX*X|.: O / A.A.&X;XPXPXxXPXLXxX&XDXf.7.: H `.JXLX`.V.R l.c.PXHXPXPXqX:X6X9.8.7.V.|.KXKXCX!.~.U } { h d h L h L L F L f h 7 g g F { g f D D F F D g f g 1 1 2 o.o.2 r r =.| [ L L F L h h } | L 2 r F L [ g g r d F g L f r r 7 r r f f f r 7 r g g h { L U Y p 6 6 8 y n.m.bXkX6XDXPXHXH Q c.t.PX}.=X( Q [.V.IXIXSXiXIX;XA.Z.].].*XKXHX@XKXP.Z.C.PXPX|.{.LX&X}.h.N.sXPXIXcXjX}.E _ B C ",
"l.[.jX-X*XB   + Q W b.Z.A.8.8.t.4.t.{.C.=X#XKXKXKXw.*.p u 5 5 5 r 7 7 7 r r r 7 a r 5 7 r a r 5 5 5 5 5 u u u u u a p 5 6 a p g $ & 6 r a r 7 7 r 6 g a 6 1 < f p a u 5 5 u r u 5 5 r 5 5 6 5 u a i q q u 5 5 u 5 6 6 5 r r r y ; t P M.C.kX=X[.PXcXAX|.A.l.V.HXLXPXLXLXsXLX}.B.h.sX}.jX0.l.B ` |.PXqX:XjX:XvX:XLXPX;X;X: 0.h.DXPXoX6.0.kX-XzXwX:XHXPX@X}.7.8.2.C.oXbXCXKXmXJXv.*.@.U U O.A s.0XyXKXmX*.& 5 *.5.9X....6 - n b O.9XyX*.r.@.yX2XY *.6 i D L.~.mXXX5X5XXXyXtXXXe.e.*.5... .S G A I J  .S n J G S G n S G XX5X8X5.e.5.3X8XL.M.Q M H 0 : / ^ 4XjXlXPXLX`.&XsXPXcX:X:XzXLXcXLXiX2.v v c.l.;X:XcXPXMXcXxXPXZ.Z.3.c.t.@X3XZXCXJ...X.J L  .yXyXyXyXO.r.e.5X5X8X5.*.w.*.-.-.X.X.X.@.*. .G G ! S O.O.O.1X8Xv.!.J v.r.1XXXa.yXKXL.~.9 6 % H.M.U.eX3XK.z.t H M 6.5.BX7XI.S ^ n.I.NX7X1XI.XX+.~ b b b y v t.PXlX-X-XwXPXPXb.V.%XPXPXLXMXPXPX|.2.8.V.9.KXZ.V.= : / ).S.&XxXPXPXLXPXcXxXdXDX3.3.> 0 b.sXHXb.Z.( l.8.vXjXPXPXcXvX*Xp.8.x.[.|.kXnXnX~.2Xo.{ [ [ [ L F g h h L } F [ d g g F [ f f f a f F F D f f 1 r r o.o.g h < o.| | [ L h h L L } =.h r d L } L h j d f h g h g d r 1 2 r f f 7 7 7 f L L g F L Y D s 6 y y y m.b.kXkXMXJXPXxXQ ( 9.S.PXjX[.^ ) C.z.jXcXHXLXPXcXZ.Z.l.A.}.KXIXUXcX}.P.&XlXPXoXA.PX[.`.A.l.jXAXPXAXHX;XW E v T ",
"cXjXLX:X-Xc.Z : A.[.jX-X( v v 2.+.n.dXbXJXeXL.&.O.6 9 6 u u 5 5 7 7 7 r r r 7 1 a r 5 1 6 7 r 5 u q 5 5 5 5 5 u 5 a p 5 5 r p g * < < 1 r r 7 7 r 7 r r < * 7 r p a u r u r u u 5 5 5 5 5 5 5 u u i q q u 6 < 5 4 6 5 r r r r s y % # 8 m z.DXPX:XsXLXPXPXsX*X`.).A.>X>X`.A.Z . + 3.7.zXA.Z.V Z _ E.[.jXDXjXqXjXPXcXc.3.4.c.z.sX=X/ .   C P z.{.[.8.3.Q ) ) b.A.lXbXJX4X8Xv.u. .@. .U J u.s.ZXmX<X*.O.& p 4 v.u.XXn n G +.v.Y.tXu.w.G U ..H.yX5XXXe.S 6 y D ~.rXrX0XuX2XtXr.@.*.U U D U  .G.J.0XH.G.G.v.5...G G J n p G.5X9Xa.u.m I.OXbX7X5.m v v 0 C B {.cXlXKXDX[.) +.A.|.PXxXcX%XZ.Z.V.:X8.) 4.8.oXcXxXLXxXLXZ.x.V R 2.[.A.-X3XtXZXJ.*.*.J F i.yXZX0XyXO.~.!.!.~.L.e.e.*.{ #.J U #.X.*.5.e...5.J ! I n n i n *. .I 5XBXa.v.tXL.r.9 9 i O.5.1XtX5.+.y.kXMX6.^ 0 m n n.H.KXr.u.4 n y.7X7X5XtXn.U.+.P P M v b 4.t.PXVXlXMXjXHXxX9.2.9.Z.`.cX;X9.O   % > A.|.kXD.x.1.4.3.A.*X&X&XFX=XcXLXPX`.4.h.cX;XPXDX*XE B + 2.<.|.[.9.8.) 2.3.8.0.}.lXkXlXnX!.=. .f L } L d L L g h g h [ g F g F F F F g g f f a f g g d f F F g } [ [ [ 1 h g } } L L F L [ L [ r d h [ | g j h h h h g g L h g d r f f f F F g L } } L h f g g g p i y : ; M P.PXJXoXDXPXxX;Xx.Q.:XkXLXKXMXPXFXPX=X&X:X;XHX%X[.2.q.D.-X}.UXvXcXPXKX6XxXPXPX*X) <.jXPXPXcXcXiXAXPXHXLXjXcX",
"-XHXLXlXwXVXjXcXHXjX[.|.) 3.&.A.A.6XkXeX6X3X5.9 b 5 u f f p 7 4 1 1 7 r r r 7 7 r 7 6 < 1 5 7 5 q q q q 5 5 5 5 5 r r r 5 5 u r 1 1 * * 7 r 7 5 7 f 7 7 $ @ f r a r u a a r 5 5 4 4 6 5 5 u r 5 5 q 6 6 7 < & 5 5 5 r r r r r s n ; 8 t : M z.t.sXzXsXcXHXHXHX9.q.Z f.c.|.;X,.: x Z.f.>X%X>X}.>Xk.0.1.S.|.DXcXgXzXAXDXAXPXsXsXDXJXy.: 8 z.z.wXwX&.= > / 3.M.vXIXkX6XeXn.v.O.....q G G.G.CXCXuXn ..O.*.v.*.@.v.~.v.n G !.1XL.H.v.G.J.2X~.~.*.*.5.w.7Xy.5.I S v.rXyX0XuXuXmXe.} =. .} D F D d.d./.!.!.9XmXY.J...I  .n n e.<X2XJ.v.t m.n.OX3Xy.G P b v v 0 t.xX6XlXLXDXQ E h.l.LXc.l.O + W ( HXV.*X( 4.V.DXzXcXsXHXv B V E 0.oX|.JXMX1X+X*.U  .F { /.ZXZXF.G.A J.G.mXtXu. . .U J { { w.s.a.G.Y.BXH.r.S I G n S 9 9 9 J Y.v.H.8XyX<XA A p G G.1X1X XI.^ ^ ) m.K.=XkX X! n H ! JXH.H.n 9 n v.H.7XJX7XnXM.P ~ H C B P b 8.4.PXPX:XLXcXLX_ W ( <.HXPXLX) ) x.x.jXcXPXPXPXgXx.l.8.7.B.`.sXDXPXsXMXDXLXMXcXMXPXxXHX|.:Xx.:XvXPXPX3.( / l.l.oX[.cXPXJX-X#X&.G U U U g L L h F g F h h L r r F g F [ L F F F D g r r r f f F f r g r L L 2 1 1 L } L L L [ [ g g 1 g L [ } k j h h L h h f r d f f h L { { { L g g F h d f g L U U Y D N b M - - {.kXLXDX6XPXPXjXVX:XQ.A.-X4XeX4Xb.x : C V HXcX:XQ W W S.c.qXcXvX*X}.KXDXMXsXR C Q Z.[.V.Q E V E ).AXLXzX;X",
"}.KXkXHXMXHXMXMXHXHX[.|.V 7.2.{.P.kXkXbX3X7X5.0 8 n u u 6 a f u < 1 5 r u r r 5 7 7 7 6 6 5 5 5 5 5 u u q 5 5 5 5 5 6 r r 5 r 5 7 7 * * 7 r 7 7 7 F 7 7 @ X g a r r r a r 5 6 4 < < 6 5 a a u 5 7 q 6 4 5 4 & p u u r r r y r s i ; 8 y - 0 C.b.xXDX:XcXcXLXPX8.h.l f.f.;XsX,.> , V.N.;XcX}.>X>XD.1.8.|.A.:XcXzXcXjXIXPXPX:XPX:XkXz.m v p.0.@X}.&.% = 4.3.C.qXjX6XBXJXr.u.X.J  .K K T.J.mXyXuX .I *.O.v.5.w.v.L.r.n S 8X3Xy.L.G.H.G.<XL.2Xe.@.@.O.KXO.O.I G p.yX5XmX2XuX2XJ. .X.U { F F A e.e.<X~.<X1X5X+X1XI J J a G w.XX<X!.J.0 M.a.3X7Xn.Q H b b 0 0 4.MX6XxX6XPXR C 8.9.PXc.x.O O E T PXZ.|.3.4.9.MXMXHXxXPXB v V B 9.;XoXCXZXXX~.*.{ X.D U <XyXZXs.v.G !.J.5XNXi.U { #.#.J U i.F.s.H.L.BXr.u.! G ! S i i 4 A 4 <XL.v.tX1X1Xi p n A H.tXtXJ.K.~ ! ! m.H.eX8XL.m ! ~ ..BXL.H.q 9 q n.n.BXNX7X#XQ.~ +.H N M t N 5.p.PX{.lXPXxXPXT _ / _ LXHXMX+.( x.x.:XPXHXLXIXIX9.l.4.8.[.C.sXDXDXLX:XHXLXPXPXLXPXcXPX|.=XV.jXvXxXPX2.2.) l.p.-XZ.wXKXCX-X4X&.A L o.o.f h g h h h [ L L h 2 2 F r g o.} [ g g F F f 7 r g F f r f L f } L r * * L | L L h L [ f f 2 [ | [ [ f j g h h g h f d f f f g L { [ } { h f g f f g F L U Y N p N S 6 H t OXK.PXPX6XHXPXcX:X}.Q.|.kXwX4XkXz.= > B B :XcXvXV P E V.M.,X:XPXjXcXHXxXKXHXH / ( c.B.;XV B T T [.LXHXcXzX",
"C > > P.P.oX=XoXV.c.3.4.8.l.A.;X6X4XeXNX+.O.9 i i & & - * g p p 5 6 & * * 6 r r r 5 g a 6 r r 7 4 6 5 u u u u u u r r 5 6 7 7 r g r * * r f d 7 1 h h F 7 7 2 f f a 7 6 1 7 r r 5 r a p a 5 4 & 4 & u p 5 5 5 A p p @ & @ % 6 6 i % = % % = b b C.b.MX@X=XPXKXKXHX3.x.c.HXHXDXjXcXcXzXcXzXvXHXvXUXD.8.) W V.x.HXjXHX:XiXHXHXcXcXUXqXHXqXUXVXQ.-X4.) 4.Q.Q.VXKXnX1XNX5.O.X.X.X.A Y.T.mXyXyX0XX.q 6 v.v.v.5.5.v.H.5.n.n.u.H.w.5.7XH.H.a.r.L.1XY.a.u.@.1XmXI.n.m.t.U.nXKXr.J.5X1X~.J.~.Y S S a.e.8XK.K.{. X.X3Xa.p n A A J.T.Y.G.s.9 ~ G BX7XOXG +.v B x = M 6X}.LXDXMXA.b.P.Z.PXx.c., > f.0.cX*XiXQ C t.jX*X*X*XLXl.9.3.3.Z.6X4XnX5XJ.s.=.J Y w.-.yXmXBXO.! H XX!.<X9Xw.J #.g D F.s.T.G.J.<X1X3X! I I ! S X. .*.*.s.a.J.BXOX XbXn.^ ^ r.u.1X! ..a.y.XXtX1X1X1X!.L.L.J.+XI G nXL.I.v.n.H.+.J U.n.JXPX3Xn.P.+.&.S y y M P M.wXlX}.HXLX;XAXc.l.xX;XsXHXPXcXPXcX*X}.Z.Z.zX:XcXZ B 2.4.V.*XjXzXHXHXcXKX[.}.8.vXcXHXHXHXvX:X[.P.3.9.c.Q.M.VXKXtX-XrX^ ..U D g f L f h h 2 < } L L h g L L g 1 2 r 2 g L L [ F g F g 7 2 r a a r r g F h 2 d d j [ [ ] h ] 2 2 2 L L | | [ f k h f h L h h L [ [ L F g d 7 7 g F { g L } U F F u n D 6 5 u y M t b Q.m.CXCX=XKXVXVXP V W H VXwX-X: v ) R *XHXjXcXHXZ.p.p.V.N.*XDXMXMXPXHXMXPXxXxXjXjXl.+ O > > ;X).).2.q.",
"C = - A.Z.[.P.6XP.l.4.^ 4.x.Z.=X#XNXeX8X5.! - i p & & & * p u p i i 6 * * 6 u r u 5 g a 6 r r 5 7 6 6 5 u u u u 5 r r 5 5 7 7 7 r r < * 7 f r 7 7 h j g 7 d 7 g r r 7 7 7 7 7 7 r r u u u 5 6 6 < & u s y 6 6 y y ; @ % % ; 8 y 8 % - % = - b t P.p.wX6X6XlXMXPXPX3.V.Z.DXPX{.HXcXcXDXLXjX6XPXcX}.8.9.W / [.V.vXvXxX:X:XxXcXxXjXvXqXvXUXIXKX}.}.&.&.5.Q.W.rXtXnXtX1Xr.@.@.{ D U Y.~.yXmX0X2X .6 5 r.a.H.e.6.m.I.5.G.v.a.u.5.r.9X XH.w.5.J.1X~.J.v.O.BXmXm.n.z.C.n.bXJXXXL.XX~.XX~.!.! i b a.t.=XU.A.{.oXOX#Xa.n A S S G.Y.~.G.H.n H I tXCXOXQ ~ H m x 0 H {.Z.PXPXMXZ.C.P.[.PXZ.{.x = ( 9.PX*X}.W P t.*X}.zXvXLXf.9.2.2.P.lXkXmXyXG.F.-.J K 5.*.CXmXtXO.^ Q 8XXXuX0Xw.L { f D s.u.G.H.H.1X5X8X! O.I U D @. .*.*.d.d.L.8XbXMXbX0.^ Q M.m.U.5.+.&.p.H.5XyXXX!.!.J.J.$X~.I I 1XXXm.6.n.z...+.H.'.NXNXbXn.y.^ &.G M S P ~ p.lXlXcXjXHXHX*Xl.Z.*X;XcXPXPXPXPXcXA.{.{.Z.HXxX*XB E 2.3.x.*X>X6XHXPXKXcX|.*X3.HXvXHXHXcXVX:X|.A.8.8.l.C.$XJXwXKXW.~.&.^ Y g g L L f g g 2 7 L L L F F | L h 2 r r r h F h [ [ L h r 1 1 f f a r a g F F 7 d j h [ [ ] ] ] e 2 e h L [ [ h f h L L L h h L [ [ h h L h r r d g F { U L F { D g p G G 6 6 6 5 S D P v.v.CXwXnXPXPXjXE / E / jXjXZ.v v ) E &XjXcXDXcX[.h.8.x.Z.;XMXvXPXLXjXHXHXxXzXjX*X3.+ O = x &X[.%X2./ ",
"/ v v }.=XoXQ V V H 4.6.Z.6X-XwXnXXX5.+.S n i i 5 @ X & & i y p u i & X X $ & * 5 < f p 5 r a r f 7 4 6 5 5 5 5 5 r u r 5 7 7 7 r s r 7 r r r r 2 d 2 d 2 d 7 d d f f f a r 7 7 < < < < < < 4 6 s r g p y u 6 6 - o o # 6 y y t : - ; # # % 8 ; y C P.kX-X=XeXcXJXLXx.l.l.{.:XxX6X:X|.8.0 : ( 3.HX[.V.Z v ) ) V.xXxXHXHXHXxX:X|.}.*X[.wXA.p.) H 6.m.W.rXtXCXtXtXv.w.@.K J  .U J.~.yX<X0Xw.*.a 5 5 O.O.5.@.O.5.w.O.L.OX<X<X<X X5.M ~  .I G J *.J.1Xs.v.H.bXKXb.^ +.5.5.U.v.XX1X9XyX8Xv.I I W.P.3XoXoX3X3XOX Xn.O.@.&.*.L.XX<Xw.r.S S S y.L. Xu.n.b 0 0 v M B.C.PXDXJXjX6XZ.V.LX;X}.Z.|.IXjXDXl.l.= ; / V.V.cXcXiX}.[.9.6.oXVXlX1X<X-.-. .F { Y.!.yXY.L.G Q J 3X+X2X/.u.-.-.o.*.J.J.L.1XOX7XtXeXa.5.J U w.0X2X2X~.yXmXZXH.n.C.b.5.6.4.eXOXr.Q.1XeX1Xw.O...S ! v.!.H.5.5.W.XXy.n.1XCX Xm.I.n.0 0 n.n.JXLXbX XH.~ M M t b M p.b.KXlX*XLXPXPXIX|.jXZ.&X[.KXcX[.> O   = 9.}.`.( / V v l.V.V.-XcXvXPXPX/ ) = x.l.|.}.p.4.( 3.0.p.z.@XeX#XCXwXwX&.^ ! U D @ X 2 g } o.| 1 1 @ * 2 d f h L [ F F h f f 2 2 2 r h h F { } g f a r a g g g d h h h ] h j h ] j j h [ [ [ [ [ L j f h L [ o.[ [ h g g g f d d F L L L { F a 5 & & r S p & 6 6 ; ; ; ; i P z.KXbX=XlXPXwX>X/ 2.}.cXPX;X;XHXPXPXcXPXcXxXPXLXHX3.8.l.*X*XLXLXPXHXcXHXHXPXPXHX*X|.|.&XHX&X}.3._ ",
";X6X;XHXoXoXW / +.2.Z.x.{.lXlXlX#X..i M 6 9 D X & X X & 6 i 6 y A S y @ @ & 4 @ * & f f 6 r f g g r 7 5 5 4 4 & 5 5 5 r r r 7 7 1 1 < < 2 2 3 3 3 2 2 d d h e e 7 7 7 7 1 1 < < < < 1 6 5 5 u u u 5 a 6 & - - ; - . @ # i s y N : : 8 O o O ; ; = % N z.K.lXMX:XwXzXMXHXZ.A.Z l.c.[.[.( O + B C |.[.*XA.A.8.%.3.x.x.>XvXcXHXPXxXHXqXW Q % y 5.z.m.nXmX2X1X1Xs.w. .X.X.J J u.u.CXmXmXe.r.q a u U ! e.r.J.~.XX1XY.Y.8XOX3X#XfX7X~ G I S n i 5 q G p <Xv.m.bX3X0.0 0 0 9 3X$XBXXXL.5X<X1XO....XP.P.&X6XdX3X XL.L.L.L.L.Y.5XyX2XO.*.9 n H O.e.1XXX X^ ^ H v : 4.3.{.=XMXKXPX[.M.;XjX:XMXcXPXIXiX8.8.0.&.) 9.8.jXIXHX).A.7.4.@XCXnX~.~.#.o.{ U #.2X5XNXv.u.n n b n.r.J.T.~.T.J.Y.J.L.L.v.1X1X1X.X#XOXXX@.! v.0X~.u.*.L.~.+XG H ~ ^ 6.eXU.4X.XU.$XL.O.5.S i S n p S n !.2X+Xv.J.n.1XW.e.I.XX5.5.I H H M U.7X=X#X4Xv.&.&.P M : b t C.A.LX*X*XPXPXHXPX,.C B |.*XsX_ 4.Q v Z.PXHXKXPXHXPX0.9.9.`.[.Z.HXKXPXHX8.jXjXcXvX) / W t.z.{.A.kXVXnXrX=X&.P P ^ Y @ o * L g h g h } } @ @ $ 3 1 7 r L [ [ L L [ g L 2 < 2 1 7 f r F L L F F L F F g h j h h j j h ] ] h | [ | h [ [ | | | } F r r 2 1 2 f g d h | L $.[ L 7 1 $ X $ * & u n D y s X @ & y b ; 8 b n.{.JXKXlXcXPXHXHX{.l.>XLXPXjXDX*X3.h.2.2.*X>X;XV B V V.A.&X}.HXPXPXPXzX-X-X*XPXPXPXPXiXB.B.8.7.",
"xXxX6XcXxXjX/ H 0.6.P.M.@XMXVX#X4X+.b b - 8 ! & @ @ @ i p a ; 8 i p 6 @ % 6 & X & < D D 4 5 r f f a a r q 6 4 6 4 1 6 6 5 7 7 2 1 < * 3 2 d 2 2 2 d 2 d j h d d r 7 1 < 3 < < < 4 6 5 r r a a u 6 6 p 6 % & ; 6 u @ - % s p y i - 8 v # # O - ; - - y m.m.CX-X-XHXxXHXcXV.|.Z Z.V.*XA.R . O V B jX:XA.V.[.3.9.( Z.V.vX:XjXxXPXHXHXkXW ^ - : &.&.K.tXtX1XmX5XJ.G. .X.A U J G.J.yXmXyXX.w.K a q  ...e.a.v.J.+X8XI. XXX+XNX8X+X+XJ ! H i i n q 4 5 G Y.u.n.3X=XC.0 0 ; 8 3XOXyX5X1X!.Y.tX5.&. XK.C.&X=X=X=X#X XW.!.L.!.~.8XyX8X5.w.A m n +.+.3X X X~ ^ C m 0 +.5.6X=XkXMXPX*X}.B.*X&XxXcXcXPX).9.8.3.( E 9.f.:XjXcXA.A.8.3.wXCXCXL.~. .o. .o.*.0X8XmXw.6.S M S z.u.T.^.2XJ.v.<XXXH.J.v.4X$X$XOX4X.XH...G J.T.!.u.s.XXXX+X~ Q ~ C 5. Xm.M.U.eXXX!...&.! n p A n i p tX+XXXL.L.u.L.3XI.n.I.6.n.~ b S Q j.7XdXbXnXW.P ^ M H C b 0 0.z.KXsXjXxXvXHXKX) B V *X}.sX<.2.v E [.jX6XPXzXjXPXA.x.l.A.V.}.PXMXcXcXV.*XxXcXLX) P Q p.z.oXK.lXnXCX$X$X! ^ &.Y Y X . @ L L } h g [ } $ @ $ $ 3 3 1 F L h f g { L g < 3 2 2 r f f r f D L F D D g g j d d j j j ] h ] ] | ] [ h [ h [ | | | h 1 1 1 1 r f h h F [ [ [ h h 2 < X X . & - r 6 i 6 u X % & 9 M i y ; Q.M.KXVXMXPXHXjX>XV.`.*XPXPX;X}.jX( 8.<.2.jXxX:XV C C x.V.}.}.PXvXxXPXLXcXzX*XHXIXxXLX|.x.x.l.f.",
"sXDXLXHX-Xb.6.A.Z.b.=X-XJXwXQ.~ ! M 8 i S y #   X % & S G p 6 5 S D n u p F A 4 6 u U F 4 1 6 7 7 7 u p a q 5 u & & & & 1 1 1 1 1 < * 3 d j j j j ] k k d j e d d r 6 < 3 < 1 5 5 7 r r u 5 5 6 & 6 A p 6 5 5 p p 6 8 ; y y 8 8 % 8 b - = o O O = 0 % 8 ; Q.@XcX[.PXvXLXcXHX8.3.3.xXPXjXx.x.*X&X*XPXHXPXHX*XHXx.( ( [.Z.jXxXHXHXHXvX/ 7.+.4.W.m.mXmXnXyXmXd.{  .U U D ~.<XZX9X<Xw.*.i D A J e.9X8XXXL.*.! ! 5.5.XX3XI.H.U.7XNXr.G ..O.O.O.O.e.L.a.u.NXNX X{.&X3.5.M ; +.O.a.v.s.<X1XnXn.r.3X3X=XMXxX6XkXJXeXK.a.v.v.v.J.~.!.u.u.! - - ~ ^ XXI.OX5.+.v m 0 v M {.6XJXKXJXoX{.+.{.*XxXzX8.3.l 9.[.vX|.W 3.3.).|.HX}.*Xb.z.KXnXmXJ.J.{ { J w.u.NXZX1X . .I H ..m.m.~.^.~.w.@.!.XXL.XX4XnX$X4XVXMXz.v.6.w.NX<X8XL.<XJ.G.e.i 0 m M n.7XCX4X$X7Xy.a.O.I ! G n A i 9 n L.!.1XH.U.XX+X+XOXI.tXa.y.~ N S 0 ~ U.I.OX4XbXp.t.~ P H 0 8 B C 0.MXPXzXxXPXPXPX2.2.*X[.DXvXPXxXvXPXMXvXvX|.xXPX|.W E 9.x.Z.-X:XHXPXPXzXHX*XvX3.c.z.=X}.kX=XJXeX$X*.&.P P ^ . @ * s F L r 1 r [ L [ 3 2 h h g * $ f F g d d F h } [ } [ g 1 < * * 1 r f g p s s d r 2 2 d d d j k j h ] ] | | :.L h 2 1 1 2 r h h [ { L [ | } g h r < 7 f f 1 $ $ D A U p G D D 5 6 o X # 8 t y : : |.Q.:XLXlXPXPXjXcX) 8.2.|.[.V.: > O = 9.}.*X;X*Xl.l.8.c.x.*XjXzXLXHXxXjXZ.h.7._ ( ( 8.h.B.N.",
"sXjXLXLXPXV.l.9.{.Q.-XeXCXW..X^ I S 9 9 b i @ @ . ; 6 G D i 6 9 i p i 5 u D A q u a U F 7 5 6 4 6 1 6 u a u u u 4 - & * < < 1 1 3 3 3 1 d d k j ] [ ] j e k e d r 7 < 3 * < 1 7 a a a u r 5 5 5 & & p A y 6 6 u s p 8 y 6 y y : % : t - : o . . ; 0 ; = N }.K.@XkX6XHXKXPXPX4.3.9.jXLXvX|.A.oXjXcXPXIXPX:XvXxXl.2.2.[.A.HXHXxXcXxXjX2.3.7.&.m.p.CXmXmXyXmXi. . .o.F J F.Y.yXKX9Xw.*.S & A J s.9XNXL.v.5.O.! @.@.L.8XOXH. XNXbXn.~ ~ I I O.*.e.s.L.O.3X7X8X'.=X0.) b v S +.v.L.J.7X7X3XH.n.3X6XkXJXHXjXsXKXbXW.m.H.J.v.L.Y.L.L.G...; 0 Q ~ I. XI.5.+.0 b x 0 0 {.Q.KXPXKX*X@XE ;X*XvXLX2.2.> Z.V.*X>X_ 3.0.[.A.cX[.}.V.C.KX4XeXv.J.o. .D s.G.NXmX1XI G  .H 5.M.H.!.J.~.e.*.~.XX.X$X4X4XoX-XwXHXp.z.5.r.7X1X2X<XXX!.!.*.m ; M H m.3X5X.X4X4Xv.w.! O.! S i 8 9 n D 7X7XXXv.n.1XOX!.~. X7XH.e.~ I 9 0 I m.I.BX8X7XI.m.^ ~ b 8 b v b z.PXzX=XjXJXjXPX6.9.oX*XHXPXHXzXjXPX*XxX;XP.HXxXHXW W 9.h.`.*XxXzXHXPXHXHX|.}.x.0.p..X.XnXVXKX.XrX^ S ! ! &.o . % s D g L f r h L F 2 7 L L f X @ 7 g g d f L F F } } { F 7 * * 1 1 7 g D g u r 2 2 2 2 j e d h ] ] ] ] [ [ :.:.L d 7 2 1 2 d d L } | [ [ } [ L h 7 < < f g 7 @ $ D u U n D a a 5 6 o @ @ t 8 b b b P.b.kXHXlXPXPXcXjX( 2.2.}.B.A.: = O = 3.&XjX:X>XB.0.8.h.V.>X&XxXHXDXxXDX-X8.0.E C ) 9.0.V.Z.",
"cXPXPX*X;Xt.*X{.@X4XbXwXW.~ 4.; n 6 n i X @ X @ @ S N I D 9 - ; p p i 9 u p A p u u Y F a a r 6 < & & 4 q q 5 5 5 6 & * & < 1 1 1 2 d d j k j ] ] | [ [ j j e k d f r 7 7 r a f r 7 6 1 < 1 6 5 p 5 D D s y 6 s ; p ; y ; 8 t 8 = ; : - b = O # o . 8 ; - % ; {.b.PX&X&XHXHXPXV.x.}.[.jXPXHX6X:X}./ E q.l.HXUX[.Z v / E Z.>X>XcXjXLXZ.P.oXC.MXCXeXtX2Xs.u.o. .J J { /.yXyXyXyX*.i S .. .0X0XT.@...i ! a.5X<XXXL.CX7X+XH.n.y.u.7X7X3X~.~.tXZXNXNXmXe.G b H.K.PX6XMXoXoX5.5.u.!.+XNXmXOXI.K.3X=X6X&XsX&X[.OX=X#XtX1X5X$X7X5XXX5X!.I.+.+.0 ; y.3XOXB.K.Q M m x ; z.t.6XlXMXMXPX/ zXvXAXPXB v   N.9.HXPX_ _ ( N.c.vXzXVX=XoXPX.X.Xe.*.{ #.{ /.<XZX9XH.q 9 ..! I.8XbXL.G.2XW.U.4X.X$XoXoXQ.-XwX@XPXwXbXr.p.H.XX+X8XJ.@.w.! &.y.3XC.3X3X1X1XeXK.$X1X7X1Xr.5.5.+.&.e.*.v.n.6.H.K. XH.u.a.n.n.!.4XOX1X~ ~ b 0 0 m.I.7XbXkXb.m.P M H v v ; z.b.bXkXVXzXzXHXzXjX*X;XDX-XcX:X>XE V > : B.x.jX2.3.V v l.`.x.;X>XzXHXPX*XA.P.oX@XnXrXCXeXW.O...n ..Y @ X @ & s U U r f * < f f h L g L L o.L F { F r 1 1 f g r h g f L L D L 1 * * 5 s r < * 1 2 d h [ ] [ :.:.| | j ] j ] ] d 2 r h h [ | } [ L [ [ r $ * d g f f r } =.X.r 5 D r } D n ; & U S % @   % @ y y - W H |.jXHXVXcXPXPXjX( 2.|.cXPXV.Z.`.V.vXPXMXPXLXjX*X|.9.3.x.x.jXPXKXjXcXvX2.) B B l.}.P.MXPX",
"jXLXHXxX*X9.}.}.wX#XeXCX.X^ ^ y y n i i @ o X % @ S S G H - - 8 n 9 5 i p u p F p A D A a A r & < $ & 5 5 5 u p 5 6 < & < < 1 1 2 2 e j j k k [ ] | ] | k ] e k d r r 7 7 7 r a r r 6 < 4 < 4 u r p p p p 5 ; y y y y 8 6 6 y i : % % 0 : 0 . o X o ; : - - - M.c.PXvX&XHXxXPXb.x.P.*XcXPXHXjX:X>XV W 8.3.PXxX|.Z v W W A.vX*XcXzXkXoXP.C.{.NXmXNXXX9XF.i.-.{ [ [ { T.yXyXyXmXw.n i @. .~.mXT.#.U G S v.1X1XY.H.BXtXOXn.U.z.w.7X7X3XXXXXXXKXZXyXZXy.n M I.U.MXMXMX#XP.+.e.6.!..XNXNXW.I. XI.dXMXsX&X=X*XoX#X$XeXrX7X8XXX8XtX X+X X+.^ 0 v 4. XdX{.n.~ S m 0 0 y.7.JXkXkXKXMX3.6XxXPXIXV v   c.9.PXvX2.Q ( l.N.vXjXjXcX4XKXXX~.e.-.{ { { <X<XyXyXG.i ; ! 5.U.bXeXH.H.$XK.W.rX2X.XoX@X|.@XcXxXwXVX=XK.z.e.mX3XL.XX*.5.I w.r..X X#X4X~.5XtXL.1X8X1XXX5.&.w.+...w.e.K.a.w.v.J.XXv.a.H.y.a.XX$XtX!.+.+.w b 0 P.U.8XNXNXn.t.H G H v 0 8 y.m.KXbXkXcXMXHXMX*XcX}.PXAXvXxX6XB V = : V.x.HX( 2.Z C 9.A.A.:XgX*XPXHX}.}.z.}.4X4XnXnXCXL...P U ! N @ o @ % p U ! r 7 1 * d f g L h { [ } L F L F r 1 1 r d d g F F L L D F 1 1 1 6 r r 6 < 2 2 d d [ ] | :.:.| ] ] j k ] ] d 2 2 L L } [ | | [ [ [ d * * r r L r f { o.=.7 r D p X.D D & & Y n ; . . @ # b 0 y v W Q.VXUXcXPXPXxXzX_ ( }.xXPX{.V.B.V.HXMXPXPXPXHX}.Z.8.9.x.b.*XPXHXjXjXHX( &.v B 0.[.}.jXPX",
"}.AX;X*XMXVXPX=X=XlX#X.X^ 8 i y t ; ; % o % & i t G M b i - % & 6 6 6 6 6 6 6 6 4 4 u p a f A f f 7 6 6 6 4 4 6 u u u r 7 1 1 1 2 3 2 3 2 e 2 j ] | :.>.| | k d f f r 7 7 7 7 7 1 5 5 5 a 5 5 u r s u y u 6 ; 5 y y y 8 y 8 8 ; 8 = ; - : y ; ; % o o % - 8 % B H x.jX:XPXzXHXcXHX>XP.3.t.B.*X*X/ +   = O V.Z.*X9.8.8.3.9.A.Z.HXjXJXMXJXVXeXeX4X1X~.~.i.w.o.o.o.T.T.uXyX0Xr.r.! *.e.BXyX<X/.{ U @.XX8X+X..I I ! ! *.y.H.v.XXH.7X7X5XNXtX5XL.J.r.*.! H 9 0 0 +.3X{.kXJXMXJX7XXXH.&.5.5.y.n.Q.`.;XxXsXMXzXMXMXQ.p.6.! ! 5.1X!.a.n.y.oX6Xn.4.y. Xn.C.m.+.^ H 0 - H H kXlXwXKXPXV.V.9.LXPX3.q.4.SX*XPXPXq.v Z 3.k.,XxXlXVXwXnXm.v.@.o.U U -.yXyX9XtX .O.y.G.z.r. XK.1X~.U.a.a.!.W.oXoXwXjX:X:X:X}.[.;XC.{.t.3X1XtX5XXX1XL.tX8XBXMXbXu.6.I G *.K.H.5XnX5XeXeX$X1XtXeXv.OX!.nX5XL.$X!.!.NXL.! 6.e.v.mX<Xn.b S ; 0 B.+X6XbXBXy.H M 0 M 0 0 0 r.OXKX4XkXPXPXKXjX9.B W %X-X>XW R = > 7.3.PX:XcX:X6X>XA.x.V.|.vXPXHXvXHX-XVXrXeXCX$X~.&.I ..S S & 6 & N p D Y g & * 1 r L r f F g L g F g F [ { { { L g 7 1 r f d g F g g L F g r 5 5 < & 7 r j j [ ] | :.| | | :.] ] | | o.[ [ | [ [ L h d d r r f [ [ h L =.{ F f f L f a D p G 6 6 @ @ & 6 D 5 ; o o # - 0 ; # Z }.@XcX*XcXHXPXxXjX}.[.>XPXPXMXxXHX*XZ.4.3.jXPXPX8./ V R 9.}.:XPXPXPXV.E.[.oXoXoX6XlXkX",
"3.|.*XHXHX6XwXeX=XwX5.&.6 i N P I 8 ; % y M s s y 6 8 6 t b t t & 6 9 9 u i u 6 G A D D 7 < 4 6 6 r 6 < 5 5 - 4 5 5 5 5 1 < * * 2 2 e 2 e j j ] ] ] >.>.:.| k e d d f r r 7 7 7 1 6 1 6 5 5 r g p p r y p u y s p y y t b i 8 ; M t N = 8 y b y 8 : = - % : % = # v &X*XcX;X-XPXHXHXHX3.E W }.:XvX3.2.V.x.cX*XPXHXPXHXcXA.8.2.x.[.6X@X-XlXkXKXKXG.G.F.i.w.o.;.;././.yX0X0X5.5.! !.H.5X9Xu.T.J s.5.CXNXL.i n 9 - 9 q q 5.O.bX3X5XBX8XtX7XmXe.e.K G q n 0 0 b C b.P.kXeX6X7XbXXX.Xn m M P ^ b.t.&XxXAXHXxXMXlX0.b S 6 t 8 J.XX7XBX6.oXC.oXU.z.6XOXI.I.+.^ n 0 0 b t oXMXkXLXPXjX8.l.xXjX*XxXzXAXAXgXPXA._ / 1.1.S.xXvXHXeXeXr.y.O.-.o.{ J.yXmXT.T.G.NXBXL.U.n.KXbXa.6.y 6 ; H ^ t.z.@XHXcXjXAXzX[.A.H ~ - M Q I.L.yXtXtXKXeX#XP.6.P O.U D G G n w.*.!.eX7XbXNXeX4XCXv.v.! P ! & 6 n G 2XNXtX=.&.P 5.I.n.n.H ~ x j.t.=X=X6Xm.z.Q H 0 9 ; - ; y.C.PX6X*XcXPXPX0.4.%X[.KXcXHX[.Z.PXPX>XLXcXPXPXjXl.l.0.8.[.,X}.HXPXlXKXnXXXW.! ^ n  . .p S p X.U X.Y p D g L { { F a D g L L [ g D F L L f f g F F r f L F r r r 7 1 D f r 5 6 4 4 1 f f h j ] j ] | :.>.R.R.] j j ] o.[ L g g h } } L L f r L =.o.h h F F h F F L F L Y Y U U Y p 6 6 & p y P 6 8 X - X = b > v > }.-XLXMX*XPXPX:XjXV.c.l.{.jXl.v 0 O O ) c.[.x.V.2.) x.A.x.*X`.HXVXUXUXVXVXKXKXCXlX",
"9.[.Z.cXHXjX:XJXkXrX^ ^ y N n S N s y ; y ; t y i - 6 ; 8 M y 8 % - 8 t i i u 5 Y G D A 5 4 4 < $ r u 6 a u & 4 6 5 r r 7 1 < 3 2 2 e 2 e k k ] | ] >.>.| | k e r r r f f r r r 7 7 1 < 6 5 u D p p r u n p u i s i s p N i y ; C b t ; y 0 y ; ; : = ; O % - = = : *X*XMXsX:XPXPXHXvX3.V ( *X:X|.x.9.9.x.xX>X:XHXcXvXvXZ.3.8.Z.A.JXJXMXVXwXlXCXU.s.s.i.i.-.;.;././.yX/.2Xa.d.H n.H.8X9XG.J.#.w.r.KXCXXX9 q 6 q 6 q 8 +.+.8X7XBXKXNX8X<X9Xe.u.G S 4 9 0 b v Q C.B.sXkXeXbXnX1X1XH M t Q ^ z.x.xXDXDXLXxXzX4X5.v b - 6 # H.XXBXbXn.{.B. X&Xh.{.K. XI.~ G b 0 S t v P.lXMXHXMXPX8.( jXzXcX%XiXGXzXIXGX].8.q.E / }.vX6XMXeXtXe.r.*.@.o.U ^.yXmXJ.Y.a.NX5XG.XXn.KXnX6.6.; t 0 M H 5.0.Q.MXVXiXcXzXZ.).B Q - G I L.L.NX5X5XZXnX4X.X&.I I I I n S M ..O.$XnX4XnXnXOXOXtXH.n...^ H t 9 G p 2XZXyXG ^ I G #XU.U.+.H 0 j.t.dXoXkXn.y.M S t t b # # p.n.KXwX6XcXsXLXc.9.x.A.sX6XjX*X:XPXHXLXHX:XPXPXPXx.x.k.q.%X*X}.LXJXMXkXZXL.J.D U G U U p u D F U !  .p p s } o.L L r g g { { [ r g F F [ g g g g L a f { L f r r 7 1 g g f u 6 < & & f d g d ] j ] | :.R.>.R.] ] j j | [ } h L h } L [ h g h [ } } [ [ g g h L { g g D g D p Y Y G u & & i n G ; b o = # : v % > : >X[.PXPXvXPXPXvXMX|.x.B.}.[.x.: >   + / B.A.[.[.( 3.x.A.A.>XP.HXPXPXVXlXVXPXKXkX4X",
"Z q.l.[.,XcX6X=X{..X5.5.G 6 y N D s o o & @ M y b ; 8 ; ; t ; ; 8 6 9 n n 9 5 9 n p n a u p u < < D D 5 u 6 * & 5 r u r 5 1 < 3 r 2 e 2 e 2 2 ] ] j R.R.>.;.j d d d a r r 7 7 7 5 7 5 5 a u u A 5 y 5 y p y ; ; 6 y s s 8 6 8 y 8 - # 8 y y - = # O X ; = - = # # V ;X*XxXzXxX6X:XxXHXMXx.V.`.Z.vX:XHXHXPXIXvX[.A.V.:XvXvX3.2./ H P.6XwXlXwXlXZXyXJ.T.-.;.;.$.$.;.;.0XyXmX8XtX&.H M H ! U.Y.J. .J w.e.mX+X<Xu.y.v.3X7XBXOX XI.8X8XNX5XtX2X~.yXY.0X..8 m e.6.=XlXsXDXMX=X6X7XBXNX8X3Xp. Xm.b.c.|.>X>XxXcXJXKX6X$X6X5.5.6.KXbXI.n.+.z.t.0 v +.#X8XH.m.G G b 9 n - 8 C.MXVXcX6XPX3.l.E Z vXPXiXHXcXiX,X>X>X|.T V k.cX:XlXrXtXr.r.-.*.@. ./.yXmXG.L.y.tXBX8X7X5. XXXXX$X^ +.+.6.y.P.z.Q.xXHXxXAXcX}.>X8.9.m 6.5.XX1XKXmXtXZXbX7X7Xn.G S D I G O.O.a.y.1XeX4XCXnX4XkXZX!.L.*.O.G 9 6 P n ~.1XyX*.5.n 9 r.7XLX5...0 <.<.dXoX8Xy.y.M N i - 9 8 9 y.5.4XlXlXHXvXjXjXSXiX[.HXPXLXvX>XHXLX[.W H 3.0.jXl.9.= : l.].V.@XoXMXKXKXe.a.D U  .Y Y u 5 a p D U ! D p p } U a F J g g { { { r g { U } f g F F { r 7 F L r r r 7 < D g f u 6 & & * 1 1 7 d ] ] | :.:.>.>.>.] ] ] k :.[ [ d d f [ [ g d d h L h h [ } L L F g g F X.=.=.=.D D A ..X.! I D I G S ~ b % ; 0 ; > = O : v *X*XHXjXxXPXPX}.V E x.x.KXl.Z.3.2.A.PXsXxXPXKXPX:Xl.l.x.x.jX:XwXPXKXwXlXVXlX4X",
"` 1.c.[.}.jXVXVX.XW.y.6.P & s D Y N o o % @ N y 8 8 y 6 8 8 0 i t 8 0 n n 9 9 p S D D p u f u * < f f 6 6 4 & - u u u r 7 1 3 * e 2 2 e e 2 2 ] ] | R.(.;.;.j d d r r r r r a a 7 r 5 5 5 5 u D 6 y y u p 5 ; 6 6 6 y y 6 ; 8 t - = O v 0 : % # o X o : : ; O % O ) >X>X6XjXzX;XvXHXHXPXx.A.[.6XHXxXPXxXcXjXHXZ.V.9.:X*XxX9.3.E W `.jXlXlXwXeXrXKXW.~.;.;.;.[ [ ;.=./.ZXmX1X7Xy.H H M G Y.Y.<X{ ..*.5.NX5XXXv.G.v.OX<X+XOXH. X8XBXKXtXZX<X9X9X~.Y...n S e.4.6X6XxX6XjX4XkX7XBXtX XOXy.K.C.A.{.;XLXAXIXAXjX6X=XkX.X6.5.a.BXtX XK.6.x.C.: : y.OXOXn.j.H H b 0 8 4 - Z.KXMXzXwXPX7.2.B E zXzXjXPXGXpX].iX%X].` / k.xX:XlXrXtXe.e.*.w.-.@.Y.yXyXJ.L.u.L.XX9X7Xe. X8XU.L.O.+...6.t.K.C.[.-XxXjXjXjX*X`.V.B.v 4.6.I. X1X7XeXZX8X8X4XL.n U A a Y O.! n.n.!.4XnXKXbX3X4XKXK.~.&.....& 6 S D ~.yXyX*. .4 A 5.BXFX5.6.# <.<.dXMXoX5.y.G b 8 9 9 5 ; &.6.eXJXkXsXHXAXPXcXZ.A.vXHXDXDX;XHXPX}.Z V 0.9.HXV.9.: c 8.V.Z.*X;XKXKXCXr.s.D p Y U F 6 r 4 D a U D D p a Y { D g g f f L L [ f g L { } 7 f F F { 7 7 F F f a f 7 6 g f a 5 < & & < 1 1 2 2 ] ] | :.:.(.(.>.] j j k :.[ h r r d L L g g f f h L L g g F L L f f U =.} U } A D S ! X.&.U n P I ^ ~ N 8 = % ; : + O Z V jX*XPXjXjXPXHX-Xx B [.[.PX0.l.3.7.b.cXHXPXLXHXDX:Xb.Z.l.V.vXcXcXKXUXkXKXVX-X-X",
"gX8.1.4.9.A.qXeXKXrXm.s...p D u ; N Y N % X o 6 : M b t y - - ; - - ; 9 9 9 9 u u p A A u u u 6 & 4 7 6 5 5 u u u u 5 5 7 7 7 1 3 3 3 3 e e e ] ] :.>.>.] [ e d r r 7 7 7 r a f a r 5 1 6 6 5 g 5 s s u u 6 6 p u y 8 8 y i t t ; 8 - 0 ; O % # O # = - = ; = Q / A.DXcXvXcX*XjX;X;X*XcXsXvX[.Z.V.[.|.[.V.:X}.:   + 2.9.|.V.9._ Q 3.x.}.qXqXeX-XZX~.2XT.T.i.o.o.| | ;.0X<X9XCX3X+.5.! S K J J.<X~.v...e.e.v.v.v.<X XH.n.L.I.#Xn.e.y.5.v.a.<X<X~.XXu.r.m.bXMXbXn.b.) H ^ ) p.I.W.nXBXI.z.z.{.:XxX>X%X;X:X6XkX6XnXKXnXtXtXOXBX8X3X<.R m : 0 U.6XJX6.5.m b i 0 6 ! H @XJXlXjX6XPX[.;XE _ cXHXHXx.V.W Q %XSXGX1.1._ }.oXkXrXmXs.a.*.*. . .i.yXyXyXyX! S I y.n.u. XI.H. XOXI.I.6XOX{.{.=X;X&X%X|.`.).|.A.|.t.4X#X3XXXv.L.v.~.W.eXbX5XXXY.*.X.r.1XW.1X1XXX4XbX#X.X{.K.a.$X1XKXmXXX7X1XL.rX!.*.*.D ! 2XY.OXS x x 0 <.8XdXLXLX0.x 0 0 M 6 I G *.w.3X6XkX4XkX6XxXxXIXHXPXLX}.) / V.A.jX>X8.O   = x B.}.jX|.).Z.l.V.P.V.#X5XtXnXmXv.e.U Y U u 5 @ * @ u 5 D g 5 * 6 r 7 f r 7 f g F f g f D X.g J [ F { < 1 f g f F F F F L F D p 5 6 < & 7 2 d d ] ] | :.| (.(.>.j k ] | L h [ =.} [ d 2 f g f d h | | h f } L L f r F g D g A A P S n a X & S p y % o # # - t y = O . v : V.A.cXHXMXPXcXPX-X*X`.l.cXPXPXcXPXKXvXPXzX>X*X;XPX}.Z.W ) B.LXVXVXwXUXKXeXK.Q.",
"GX}.>XD.&.8.|.Q.lXnX=XtXM.5.&.i N s ! U s N . o o i y i b % % - 6 9 q 9 q i i q 4 4 a p 4 & 6 5 7 7 r p p p i 5 & * $ * < 7 7 2 e 2 2 1 d j j ] ] ;.| | e j 2 d d 7 1 < < < 1 6 r a a r a 5 4 5 6 y y 6 6 & 6 p n y ; 8 p M b y = y 0 = #   = % 8 : ; # - ~ ) =X;XxXLXcXiXvXl.*X&XjXAXHXLXLXIXPXx.> O A.[.:XjXl.v Z x.x.|.HXHXxXzX).8.9.x.E.kXZXrXrXmXyX0Xd.;.o.=.;.[ -.u.0XmX5XNX1Xw.w.S A A @...L.~.J.5.6.z.n. XI. X3XXX8X8X ...U I I q G J O.*.u.5X1XI.oXy.~ Q 0 0 y.0.oXI.n.tXtXOX+.+.P.Q.{.DXzXcXzXzXwX{.K.P.p.m.KX X Xe.y.B : : 4.) 6X`.{.H H 0 i n q 9 5.z.lXMXzX6X;XKXPXLX8.q.}.%XPXE E     k.SXPX3.1.V c.A.wXrXZXU.J.u.i. .{  .0XuXZXNXv.U S J n ..v.r.m.n.m...^ n.U.m.`.kXjX*XsXxXxXDXAX0.t.C.KXbXeXtXL.v.S H H r.n.H.!.Y.8X1Xr.L.H.r.r...! ! M ! y.y..XL.m..XXX7XL.K.r.6.e.e.e.2XrXd.v.S w w 5.+.BXdXfX0.4.b m M m H I r.y.mXtX6XeXCX{.jX*X}.AXHXzXHXPX:X+.W 9.9.cXPXcXb.c.:X;XDXHXHXIXPXgXx.l.x.t.P.6X4XKXZXtXKXe.F F F D u @ @ @ @ 5 U } & $ < < g F f g F } { L g g o.f 7 < 3 L g g L F g F D g g < 4 5 u a u 5 7 1 2 r d ] ] | >.>.R.>.| j j | ] 2 3 1 L F } [ | F h g r d j g f f o.L g r 7 U D D A p a 6 @ @ @ p y S o & o @ ; ; % = = # V B |.V.PXLXvXPXcXcXcXcXPXPXvXjX|.cX*XjXzXcX9.9.+ O C v {.l.b.V C V x.p.wXVXwXJXCX-X@X",
"lXUX-X3.2.2.@XQ.zXlXkX=XQ.&.&.b p y Y ! N p o . o y y p i % % - i 4 i 6 ; A p 5 4 & D p * < 6 6 5 4 u A r 5 u 6 * $ $ * < 6 5 7 r 2 1 2 d h h h [ ;.[ [ j d 2 j r r 6 1 < 1 1 6 r p p u u u 5 6 5 5 5 5 & & 5 p N ; 8 y i n 8 i 0 ; 0 = # X = = b 0 # - - ~ ^ -XsX}.LXHXcXjXN.[.*XjXcXcXHXcXPXAXZ.+ = V.h.LXcX8.v Z l.Z.&XxXPXxXzX|.q.S.N.x.LXwX#XeXtXyXyXF.*.*.-.=.o.=.w.uX0X9XmX9Xw.*.p A A O.O.~.L.L.5.5.n.n.m. XOXeX1XXX1X..U U A F A A K X.@.v.1X9X!.+Xy.Q Q : 8 y.y.4Xa.H.tX5X<X&.O.U.W. XMX=XbXbXlX7X XK.K.n.U.OX7X4X5.t.m : : / 5.oX XXXH G n 6 S 9 - y.t.xXcXcXjXjXjXPXcX9.8.*X:XHXE E   O 0.IXIX3.9.Z V.V.cXeXnX!.~.e.w.{ X.{ 2X2XKXCXL.G G G n ! a.v.L.u.K...! r.U.K.K.4XxX;XzXiXGXzXkXp.+.$XeXrXtXnXK.v.H G t m.p.m.OXI.7XOXu.n.H.a.e.@...U D F *.u.$Xm.U.W.4X6XP.K.0.t.y.y.u.1XtXv.r.S x - 5.5.7XBXbX5.y.m 6 8 H N ~ 6.b.4X6XMX6XHX*X>X[.%XIXIXjXAXLXzX/ 2.4.8.PXcXjX[.x.}.&XcXPXxXSXPXSXc.N.f.9.Z.6X-XPXnXNXnXr.S G G J p @ * X @ < o.F < < 1 * F g f g L } L } a f o.g 7 1 * f g F F h g F h f a 7 1 7 a a r r 7 1 2 2 2 [ [ ] >.>.>.>.| j j ] | 7 < 2 h [ | } | h L g f d h d g f i.g L 2 7 F F D f A D * 6 X @ u S ; % @ & @ - & - 8 % o W b }.[.cXAXjXPXAXcXIXzXPXPX:XPX[.:X>XzX6XMX0.8.= , Z B V.x.x.V B Q l.0.VXlXVXMXMX6X#X",
"Q.}.lX4.3.> 2.3.V.Z.sXwXjXP.Q.5.&.D s s Y Y s @ . @ % p n & % % n u i & # q 6 & $ @ p a < r s s f 5 u p 5 4 4 & & & 6 u f f a 5 1 1 3 3 2 d d d d L d e 2 3 2 d f a r 1 < * * & 1 6 5 5 u p p u u u u 5 & & - 6 ; @ ; 6 i i - ; 0 - - X X = 0 0 # ; = +.&.6X4X6X&XPXAXAXc.3.c.A.V.;XiXsX|.%XHXAXHX8.9.V.9.vXvXPXMXjXLXHXcXsX}.c.|.%X9.f.,.) V.b.MXNXNX5X0X0XT.~.w.e. .L J o.-.<X<XyXyXKXu.w.8 9 n v.u.!.Y.I.m.n.t.y.z.#X1X7X7XU J a J A D w A e.*.9X<Xs.5XNXa.i M m H $X+X7XG.s.<X~.a.A G H.~.4X XoXnXkX=X=X=X6X=XU.U.#XeX=X+.4.: v B C.K.#X6.O.i n S n S m S =X-XcX>X>XjXHXjXPXPXZ.c.Z.`.PXW W Z l N.PXPX1.2.B ) 2.oX-XCX1X2Xs.s.#.o.{ J.J.yXtXXXI I J S J 5.5.y.a.3XH.L.XXW.L. X.X}.*XLXAXpX0.0.+.&.2Xa.m.U.v.eXrXy.t ; 6 ; 4XK.U.7X7X4XO...G U A q D A F a 4 tXOX.X#XeX6X*XoX{.C.K.K.v.5.! 9 S 9 +.O.NX7XOX5.6.; ; N H G H N z.cXJXwX-XHXLXcXv B 8.3.iX*XvXcXjXPXHXDXZ.h.*X|.PXHXHXPXPXcX8.8.N.S.IXSXiX_ E 3.}.Z..X{.KXKXnX6.5...J ! n D $ X X g F F g r 7 o.f r * * g o.} * X r r g f r { L g [ } [ F r < < * * 2 f g s r 1 < 2 2 d | :.| R.>.:.| ] ] [ ] ] d 1 3 * 3 r F F L F F [ L r g =.} L $ $ { { *.f a D U O.p n ; 6 G D & o . @ % ; 8 8 ; % H #X{.MX;XPXPXzX}.A.*X%XHXvXjXPXIX*XQ V W / cX*X*Xv : _ W *XzXHX:XxX[.3.7.z.y.bXJXJXkXKX",
"|.lXPX( 2.: 4.8.[.Z.LXvXlXP.M.&.&.p 6 u X.^ D X o . X a n - & & D J p @ @ 5 - & @ @ 5 u 5 a g a p 5 5 6 & & & & * & 6 u p a 5 < 7 2 2 2 7 d d 7 2 d d 2 2 2 j j f r r 7 1 1 & & & & < 5 u a p p a a s r 5 < & & & @ & 8 p p ; ; b ; - X . 0 8 ; : 8 o +.^ #XMX@X:XPXzXsX8.9.N.V.V.|.&XDX;XjXDXHXPX0.9.2.9.PXDXcXvXzXjXLXxX*X}.}.S.vXN.f.` E 8.z.7XZXKX5X0XuXJ.s.-.s.o.X.o.{ o.0XyX0X9X9X@.u.q i p s.w.v.H.U.n.C.t.y.b.#X~.4X<XD f 7 A f 5 K i e.s.2Xu.u.5XL.s.n 0 t M tX7XL.v.G.<X0Xu.S G L.J.$XU..XNXnX#X3XOXOXW.p.t..XbX6X&.2.> v Z C.K.#X5.5.n n A A 0 n H .X}.;XsXcXjXxX-XPXxXV.|.A.V.LX/ E E B S.vXGX8.1.B 2.8.oX#XCX5X2Xs.F.} @.{ i.s.mXNX~.J G S S G 5.e.a.n.+Xv.L.!.H. X!.K.P.}.cXcXzX0.z.I ^ CXU.m.a.r.$X5XU.& 9 9 ; Q. X XOXL.5X..O.I G A A U D F u & $X3X3XkXkX=XoX{.&X=X3Xm.n.@.! S - 9 5.5.mXKX4X5.5.i - M b 9 H ~ P.JXMX=XMXPXPX;XB Z 0.3.sXzXIXAXcXcXPX6XV.V.[.;XHXPXPXvXjXPX2.0.S.g.IXIXgXE W 8.[.Z.Q.OXKXNXCX5.&.I S O.Y Y X . $ 7 f L g f g =.r F 2 < f } g X $ r g L f r { F } o.} L f 1 * < * < r g g f s 7 2 2 r d | | | >.>.| [ ] [ | | [ r 7 1 $ $ 7 L { [ F } o.o.7 d } =.r $ X } } o.7 1 D U O.i 9 - & S p @ o X % 6 - 9 y - % Q .X6X-XDXPXcX:X|.;XPX;XzX}.*XPXPXPXB B <.) xX*X[.B Z / ( oXsXjX:XcXjX3.t.z.n.JXCXJXMXJX",
"0.*X:XZ.A.9.2.( 2.( &X}.VXjXjX{.Q.*.y y u s D u u @ @ 5 u 6 5 5 u u & . X # @ * < & 5 r 5 r r 5 6 < < < & < 5 5 f A D D D D D g r r 7 7 7 7 7 2 2 2 r 7 d 2 j 2 7 7 r r r r r r r 5 5 r r 6 5 u s s u u u u 5 6 % @ @ % - ; & - & o # o X x = % # - Q bX4XkXlXzXjXLX2.q.Q Q ;X`.[.7.2.Z.jXxXxXsXcXPXHX9.t.9.h.:XoX>X[.|./ = O B T ].f.8.V E / 2.{.tX7XtX5XmXmXuXJ.^.*.o.-.} { *.0X<XNXKX0XtX5.A S a.v.Y.r.5.+.+.4.oXQ.5.+.1XCXr. . .{  .*.<XXXyX8X! yXNXu.L.y.5.z.=XK.n.y.8XyX~.~.~...6 9 v.H.KXU.I.3X7X#X=Xy.~ ) H Q n.kXbXt.t.x W E oXoX X~ I G n q n i e.y.6XJXvXx.Z.Z.*XHXHXPXxX:X/ W V.{.jXIXzXGX[.|.,X,Xk.2.4.z.b.4XeXeX^./.*.w.X.X.*.0X0XNXy.5.G G I u.a.~.L.r.! ..@.*.!.H.m.{.oX;XiXAXb.z.S M 1X1X5XXX X5XXX$X^ +.&.! S 1X+XU.v.tX9X~.*.*.J u & * 4 U *.4XnX5X4XoXoXjXkX6X6X=X+...i i n A 5.3XXXOX1X6.G n S i P G H y.p.6XMXlXVXPX{.P.9.8.<.9.l.f.[.).:X:XjXPXPXxX-Xx.9.8.A.V.|.A.A.= O , , 9.).A.2.4./ h.l.C.C.eX3XPX4X5XH.w. .p D D U $ $ < [ { L d d f f $ @ @ < 1 r r g F L f f L g 2 1 < 1 r f g F f f g F D g D f g g f k [ [ j | | ] ] ] j ] ] [ [ L L g 7 2 7 1 2 7 g g { L { } { g 7 7 7 7 $ X $ a D X.S D U U & & o & ; ; i % - # 0 P C.lXVXlXcXAXPX|.f.3.x.}.PXAXHXjXcXHX[.zX) 2.*XLXPXcXcX>XoXcXMXHXcX>XPX[.V.2.5.P.=X6XJXKX",
"jXzX*XPXPXLX[.;Xq./ 8.( V.}.jXnXZX$X*.*.p u p G D 6 4 4 4 5 p p u q * $ & & < u u r 5 5 6 6 6 & < 4 4 6 r a p g a a u 6 5 u g g f f a r r r r r r 2 r 7 f 7 d 3 2 7 7 r r a f f p a a a 5 < < 5 r y y u p D p u u 6 & & 6 6 y t ; # - 8 - 0 # # +.+.{.JXMX@X-XPXPXl.4.) l.|.[.0.8.+   : A.}.cXHX;X&XHXPXcXV.x.: 8.l.B.[.R   + ) E pX>XzX[.}.b.b.5.U.v.tX4X8XZXyXCXyXs.*.-.-.-.F d.w.T.Y.9XtXtXu.r.u.v.v...6. XOXp.t.6.Q.H.6.r.mX~.~.2XG.yXa.a.G U XXv.r.5.O.I .XW..XOXW.H.L.r.u.@.*.G u i &...W. XW.OXeX3X3X+.; 0 - 0 0.4XeXn.m.m 7.4.eX4Xm.m i G n 9 0 S OX3XbXoXPXl.l.E H jXvXsXPXPX3.3.+.xXjXvXjXN./ 1.vXIX>X3.4.4.6.OXmXZX5X2X-.w.X.J  .~.~.yXJ.G.D A ! H.H.5XXX5.A G F J s.s.a.L.OXkXkX-X+.+.I G O.n.W.L.H.L.y.L.7X+Xn.v...*.s.9X+X*.~.<XBXyXv.a.e.L.s.~.XXy.K.W.C.b.C.P.C.kX=X7Xt.y.b p 5.5.$XNXmX6.6.i y y S b G p.M.KXmXkXkXwXkX6X9.`.zXPXPXLXPXc.x.c.vX:XHXHXcXcXHXPXPX) Q _ PXKX:X4.8.l.c.zXPXAXPXPXjXl.z.P.z.Q.K.bXCXKXmXmXe.U D X.*.f $ X 2 r [ [ g 1 < $ 2 f L f [ L L [ } F d f 1 f g g F { L g h { L F F g F L L L F h h ] h d ] ] j [ [ h ] ] | h g [ } { F g d h F 7 1 2 h F L { } { =.F L < * $ 5 6 A 6 & y 8 X X @ 5 i y i % N H 4XKXPXPXJXPXPX8.8._ IXPX[.A.2.%XHXcXIXvXPXPX*X*XV.jX6XHXPXvXPX}.) W ( ) >X}.4Xm 0 Q b.z.3X7X",
">X:XcXcXPXIX>X;X/ ( 2.8.:XDXjXkXnX~.=.*.6 5 6 S p u u 4 & u p p 4 & @ & 6 & < r u a 6 6 6 1 5 & < 5 5 5 a p u a 5 u 5 6 6 a D D D g r r r f f f g f 7 1 r r g r r r r 7 7 r r r a a p p u 5 5 r 5 5 6 5 u A n u 6 5 & - - & 6 6 - = = ; # # # - &.4.4X=XVXkX6XMXPXl.) 2.[.|.xX0.9.+ . > V.Z.xXIXcXKXsXcXxXl.9.: 3.3.V.Z.E + + E ( *X%X:X*X>XP.C.6.C.m.KXmX7XyX5XtX0XJ.*.o.-.i.J -.i./.Y.mX!.tXa.G.@.a.a.5.r.bXoXp.y.5..X.Xa.5.<X~.<X/.2XmXw.e.U J +Xu.v.5.5...OX=X6XkXn.n.L.u.e.*.X.K q 9 I I ~. X.XOXeXQ.W.^ b t 8 0 y.7X4Xn.n.B z.0.oXOXy.H G S S i 4 S #X=X=XcXPX8.l.E V PX*X:XPXPX8.x._ PX:XHXHXq.1.2.IXvX>XD.9.4.3..XKXZX4X<Xw.w.X.F { Y.Y.<XL.~.G G  .L.J.5X<X*.G F F F e.r.s.L. XbX7X&X+...I ! ! H.L.L.XXL.L.L.mX8Xa.a.*.r.*.<X9Xw.XX!.KXmXH.a.e.J.s.~.~.e.K.OXn.p.oXoXP.=X=X7Xy.5.A i *.r.5X7XKXr.6.b i n N y M U.M.nXeX4XlXKXMX-XC.B.[.PXPXPXHX>Xl.c.Z.*XPXHXHXHXcXPXLX2.V W PXHX-Xx.9.9.N.pXPXAXPXAXcXt.l.t.6.P.{.=XCXKXZXyX*.S S X.*.r * $ f g } [ d < 3 * < 7 L F } [ L L L g r 7 1 3 r g F L h g L L F D D g L L D g g F h h ] j ] [ j ] [ [ | [ [ | L [ } { L h g d g 2 r 2 g F =.o.o.=.o.F f < @ * * & p a y s s @ @ ; ; 8 6 8 ; N ~ MXkX-XVXLXKXPX8.9.( PXPXx.V.) AX;XLXvXiXPXHXZ.}.9.:XjXMXHXPXMX[.Q R ) ) *X[.A.m C H h.b.kXkX",
"xXcXHX4.f.|.LXHXf.0.l > <.V.Z.kX4X5X$XrXy.5.n i q u A 6 6 a 5 a 5 < & a p 5 p u 5 u & 4 5 5 r < 4 a u 5 a u 6 6 < 5 5 6 6 u f g 6 < & & 6 r r 7 r g < * < 2 r g g f r 7 7 6 7 7 7 u a a p p p a 5 5 6 & 5 a a 5 i n y y 8 ; i t ; 0 ; 0 0 0 +.5.=XOXKXlXMXMXMXx.x.x.PXPXvXjXcX:XjX) ) ) [.A.[.|.zX-XjXPXKXHXPX2.l.9.KXPX6X}.[.DX&XIXAXAXHXHXMXJXb.6.4.K.m.7X5XtXZXZXyXs.s.w.-.-.f D s.i.yX2XCXyXmXw.5.n q N n.t. X^ M m.U.H.J.KX~.~.@.r.X.*.a.8X!.tX4 n n i v.KXNX=X6X7X8X&.G ..U J  .U  .5.5.$XK.K.K.!.5.6.H M G N b n.nXeXn.n.M [.P.=X6X&.i 9 b n n 9 +.kXbXMX6XPX( ) + + jXMXjXPXPX[.*X9.PXHXQ.Q.O > : %X,XzX2.2._ ) K.CXmX7XmXG.a.*.J Y i.i.mXyXmXX. ...H.G.5X<X*.J D J J *.*.s.Y.L.1X3X3Xa.n.J A J ..G 6 n 5.s.G.L.XX8X1Xa.A f T.2XJ.*...v.J.Y.XXXXH.n.n.a.H.K.K.H P .X4X7Xy.n.K.O...5.e.+X!.2X5.5.5 5 5 p b I ^ a.KXrXrXlXMXkX{.5.8.6XMXPXA.A.x.N.IX|.%Xl.9.|.*X:XHXPXLXDXHXA.9.[.`.KXPXPXPXIXGXzX;X*X%XPXPXHX+.W 6.0.b.6X4XmXZX4X6.*.U U { 5 < f r L [ L 3 2 [ [ L [ F F h g d 7 r d g { [ { [ [ L d r g g f f f g L L f r r h h h h h | [ e e d h [ h j r 7 r f g L [ [ L { L L g 7 1 d r f } { } { o.F D & 4 p S s - & ; & i % - & & i rXW.wX=X6XPXPXV.x.2.8.8.V.l.,.0.  _ _ cXcXHXPXLXPXPXA.( / ) ) *X*XV.: = : : V.*XjX&X6Xx.8.l.x.9.",
"sX6XDX7.8.`.LXLXf.c.> : 7.[.`.kXeXeXtX!.5.*.n 6 q p D 5 r a < a & & & p a r g 4 5 a & 6 r 5 r 1 6 p a 5 p u < 4 4 5 u 6 4 5 p p < & & & 5 f f s 7 F 1 < < 1 7 L F g f 7 1 1 7 7 5 r r r f D D u r 5 < & 4 u i 6 u N y y ; & y y 0 m ; = - - 5.+.kXoX4XMX=XMXPX0.9.[.HXPXxXxXPX&X}.2.2.<.x.Z.[.}.MXcXjXcXLXPXHX3.8.7.PXHX:XjX}.;X;XAXHXHXPXMXMXHX{.4.5.z.n.PXOX4XNXmXtXd.F.*. .F.D g d.e.0XyX0XyXyXw.*.6 n m m.I.I.G C K.n. X XtXY.~.u.w.O.e.s.<XBXH.p 9 9 ~ G.bXbXbX6X3X3X..! !  .J ..Y U *.e..X XW.K.I.+.O.M H G m t n.mXtXm.n.M .X X X3X..i i n i m i 0.bX7XkXLXMX+.<.O O }.-XjXPXPX*X*Xx.LXPX[.-X+ : > ;X,XgX3.8./ ) C.nXnXtXtXv.u.*.U U w.e.yX0XyXX... .H.J.8X<X@.U F L J o.o.s.J.G.5X5X4Xv.y.G G ! A G q q e.e.<XY.XXBXtXu.U K G.s.yXO.*.u.s.1X5X7Xr.H.p.y.v.H.!.G ~ eX4X=XC.r.z.*.O.*.*.<X~.5X*.O.y - n i b ! I p.nXCX4XwXwXlXwXt.3.cX6XPX).*Xl.l.LX;XiX0.8.[.jXsXcXPXcXPXcXx.x.A.|.PXDXPXPXIXHX;XHX%X`.HXLXPXH Q 0.0.C.rX4XmXtXZX6.6.n D U 5 1 F g L h g 7 < L L L L L [ F h d 2 7 7 d | | [ F L [ f 7 7 g r r f f L L f r r L h h h h | | d 2 d h | h g r d f d d F { L { [ { g L r 7 2 a D L { L { X.g D $ & u G N - - - & N % & - # M .X@XkXVX;XMXPXx.l.3.) x.c.N.9.2.+ E E zXLXvXHXPXPXKX>XB W 3._ jX-XV.= > : > l.:X6X*X*XP.8.b.l.A.",
"|.W <.    V x.).h.c.) W T l.8.P.P.6XCXnX1X.X5.i A & 7 f F 7 < 6 r 5 g 5 5 & < 1 5 < < 6 5 5 5 5 5 6 4 4 1 < 6 u f 6 5 < & D u L $ @ 6 6 D 5 6 r s r f f < * r r 7 7 r r r 7 r r 7 7 & 7 u 6 u 5 p a u r 5 5 6 ; 6 6 ; 6 y 6 ; 8 8 = ; % ; 4.6XCX#XkXlXMXPX3.+.3.9.HX}.*X8.3.|.cXxXHXHXZ.Z.V.8.<.;XvXxXvX*XPXHXPX0.x.l.[.PXoXjXPXLX[.C V +.E LX6XoXH V B W Q.lXJX4X1XZXKXyXJ.F.=.-.;.D  .o.e.<XyXyXmX9XO.9 9 e.5.kX5.5.; 0 ~ J y.yX0X! ! ..8XtX5.w.S i n H.H.CX XoXoXkX5X1XL.*.5.@.*.X.! ..O.5.r.O.y.....H G I n b b S I.mXtX&.O.4.{.6XM.H.G A G n n b M 3XkX6XMXcXjX: > v : 8.KXHXcX-XHXLX0.HX>X6X|.v ) W vX;XcXE V C C p.@X4XnXtX+X1Xe. .X.F F 2XCXyXd.r. .~.XX2XT.J.=.@.{ o.L { -.s.G.H.L.CXa.a... .q n n n G A A !.1X2XBXtXu.K q U K T.0X<XJ.G.! I G &.5.m..Xv.G i I S nXy.p.; 0 0 &.w.5X1X8X5Xe.p y p i b I I n.M.nXrX$XVX6XlX4.^ 0.4.Z.}.A.= = O > ,.[.).[.Z.0.;X*X-XDXcXcXHXKXPX[.[.9.6X;X|.}.A.Z B : = B.*X;X8.3.v v t.{.Q.VX$XKXCXrXe.*.F Y L } L h h d } L h h h g d r 7 F g F } [ L g h d d j h d d d d h 7 L g L { 1 2 1 L [ L [ h [ [ d d 3 [ [ h L F g F g f f f 7 g f { L } L } F F f r r D F D L Y X.X.S s N s 6 n y ; - ; y i 4XlX4XVXVXKX{.Q.Q.Z.IXIXPXHXPX%X[.8.4.8.l.x.;XHXcXHXxXPX|.Z.E _ ;XjXHX-X}.;X>XjXPXPXHXLXHX-XjX+.0.",
"vXA.).Z E c.>X>XSX>XxXIX*X4.4.b.0.P.7XeX7XnX+X5.*.p u 7 a 7 7 a r 5 r 1 6 < 6 5 5 6 < 6 5 5 5 5 4 < < 4 6 4 5 r p 6 5 6 1 g & < & * r r g r 5 s r r f a * * 7 r r 7 7 7 r r r r g g 5 f f 5 a 5 u r y u p A n a u 6 ; & 6 6 6 i - % # &.6.bX4X}.kXwXVXA.c._ W Z.9.PX3.7.+ . : |.*X*X:X|.E E V H x.:XcXjX*XPXLXMXHXPX0.2.V [.Z.A.}.4..   = > *X*XP.b.P.9.( 3.b.b.7X4XnX5X5X2XuXT.;.d.=.=.D D -.0X0X0XyXtXG G e.6.6X.XoXH b 0 8 i !.T.5.u.H.G.w.6 - 6 XX1XJX7X XKXkX6XOXn.I.5X5X8Xs.s.5.! J G S G ~ G ! G ~ ! 0 H H ..O.3X7X XH H t.OX3X6.6.b 9 i 6 i ~ +.kXbXkXPXMXl./ <.*X&Xc.6XjXxXHXPXLX3.l.9.M.Z.;XHXHXPXIX}.Z.c.2.W 6..XOXrXZX3X5Xu. .X.J F F.yXyX~.Y...~.!.<X<X2Xi.d.*.-.o.o.F { X. .U Y n n S G ! 6 n ..e.Y.u.*.NXXX2X1XKXa.u.D i 4 w.e.9XZXn 5.r.mXtX! ^ i - 9 e.6.CX&.^ 8 b u.1X5X9X5Xe.X.n 5 y p n I H.W.VXVXeXVXJXkX6Xb.{.=XJXcXMX;X;XV V / W %X%XS.Z V v <./ ;X-XxXvXzXcXHXDXLX3.V Z |.}.DX2.,., = V.sXzX*XcXwX;XV.t.7.|..XeXeXnXmXmX&.G D L h F [ [ h g d d g L [ L F } L F g d g d d r d h F h g h h F 7 L F F L 1 a a } [ f f j [ [ h [ 3 g j [ | L g g g g g F f r r f g F L } U U } } L f 7 5 g p D Y S s i N D o & & G ^ 4XrXVXVXPXPXKXz.4.p.HXIXcXAXA.cX}.AXHXAXAXjXV.x.9.vXzXxXzXHXHXPXA.x.Z.x.HXHXHXKXPX:X[.x.9.h.-XHXLX<./ ",
"wXA.b.V V 3.&XsXHXsXDXzX*X3.l.) 9.{.MXeX6X6X~.w.*.u a 5 a r a r r r 1 1 < 5 r r r 5 6 6 5 5 5 6 1 < < 6 5 5 5 5 u < 4 5 5 D * * < & u r a 5 5 r r r g f < * 1 d f r 7 7 7 r r r D D a f f r a 5 u 5 6 5 u p a u i 5 & & ; 6 ; y % 6 # p.6.eX-X6XlXcXHXA.0.) W l.V.cX) 2.    : @X}.@X-Xx.Q Q E E A.xXcXvX*XjXxXcXPXjXx.x./ P.A.`.*X3.o   = : oX*XZ.P.x.3.2.<.A.{.MXbXKX7X5XyXyXT.o.=.o.o.U { =.uX0XyX0XNX..! +.5.=X6XoX^ H % 8 8 ~.Y.r.@.Y.L.a.i 9 i I.I.7XNX XJXJXkXoXH.!.L.1XXXd.d.w...! G n n I i  .! I ! i I n ....1XtXtX..I C.#X=X5.5.G G J % ; &.5.6XkX6XPXPX3.3.( Z.[.3.*X}.:XxXLXHX`.3.l.M.b.KXcXHX*XLX;X|.Z.1./ ^ }.OXnXCXeXtXv.X.o.J F F.yXyX/.~.U !.~.!.2X0Xd.F.*.-.-.o.D  .o. . .p ! J G n I 9 A 5.w.H.G. .yXmX+XXX9XG.a.A n 6 *.5.yX2X! e.e.XX+X&.^ n y & e.r.7X..^ 4 8 H.7X9X<X9X..5.S i 5 8 8 ~ .XQ.-XnX@XKXPX}.jX6.=XlXJXlXzX;X*XE B E W %XV.).E V E ( / jX>XvXcXjXPXPXPXPX8.x E *X|.xX<._ = : 9.vXjXjX-XjXHXV.l.x.b.Q.wXCXwXKXKX&.y D L L [ L h F F d r d g F g [ [ F F g d h d 2 d j L [ h h h F F 7 F F F F 1 g g { L d d k h [ | h 3 g h } L L f f g g g F g f d r f f L L L } X.} L L D f g g p p S n y s N ; & X ~ b Q.wX4X-XKXkXPX0.p.l.PXPXPXcX[.>XjXLXPXAXPXxXc.A.3.PXHXMXHXcXHXPX{.|.h.A.jXPXPXHXPXHXl.Z.0.<.:XPXHX7._ ",
"jX@XPXPXHXjXPXIX[.iX;X:X:XlXHXP V 3.{.{.oX6XmX$XtXe.*.f r 6 f 7 a s & 5 1 r r r 5 6 < 6 5 5 5 6 6 6 6 5 5 5 6 4 5 & & 5 u D < & & & s u r r r a r r D f 7 1 1 f f d r 7 7 7 r r D D f f a r a a p u 5 6 6 6 6 6 u 5 ; ; 8 6 - - 8 &.6.4X#X#XMXVXMXJX{.oXsXcXPXPXcXHX|.@XB C l.|.|.}.Z.= ) / c.V.x.*XjXPXPX>X;XcXPXxXKXHX( Z Q lXlX6Xz.z.P.z.HXzXHXxXxXHXIXN.( W A.K.kX4X7XyXmX/.^.T.;.-.*.=.U -.*.0X0X0X5XW.6.5.m.oX`.K.OXQ ~ n s.a.J.!.L.q i ! 5.8XCXbX7X3X6X XK.U.K.L.!.r.!.L.yXmX9X<X1X1X1X3XtX7X7X1X..! ! n I L.J.tXv.r.S I I..X X^ ! b 9 9 S m M.b.lXJXzXLXHX9.>XcXjX`.) x.|.cXPXKXKX:X: : oX}.MX*XQ.9.9.l.gXgX9.8.Q Z.M.4XeXeXbXY.*.@.J F *.0XmXmXmX! a.r.8XyX0Xi.i.F J o.-.i.F.F.s.J.@.*.5.*.5.s.1X1XmXXXv.G.O.H.<X1XNX9XNXKXY.v.G i q v.~.~.<X!.e.O.D 5 - ! ..NX4XI.H H I.n.8XmX~.G.u.S 9 y n I &...M.nXCX6XwXVXMXjX( 4.KXJXVXlX;XHXPXMXKXHXiXzXIX%X}.W E 3.7.l.&X>XjXPXcXHXjX>XcXDXl.V.*X:XHX;X>XHXvXPXPXPXPXHXjXcX;XV.V.3.0.,XjX;XbX4XKXw.*.L g [ L h L [ L h F { } { h 7 1 d f g F 7 d j F [ L h g g g g r F L h g 7 F f D L F L h d e | | d 2 1 } L L r r g g g g f F L h L r g f f f g f g { } U D D a 5 p N y - % - % M CX#XCXrXlXPXPXz.A.P 0.8.}.Z.9.9.+ E V ).l.*X*X}.1.2.Z 8.8.HXMXHXxXHXxXPX*X*X2.3.x.l.V.|.: > O + 8.*X;X[.Z.",
"kXlX6X6XMXjXLXLX;XsX[.*XHXcXVXB _ 8.}.{.oX=XCXnXXXr.e.p r 1 f r r a * r 6 r r 1 < & & 1 5 r 5 6 5 5 5 5 u u 5 6 6 & & r 5 p & & < < a p 7 a a f r 7 g f d 7 < 7 r f g r 7 7 7 7 D D f a r a a p p s 5 < & & 6 5 6 6 ; ; y 8 & % # &.p.$XlXwXKXMXJXVXoX:XvXcXPX;XcX:XQ.C.Z E A.oX-X}.{.# 3.W c.c.;XzXzXMXHXoX&XLXDXPXPXPX8.Q B 6XkXkXP.b.M.x.MXPXPXiXjXzXcX).E / P.C.NXNXmXtXyX0Xs.T.=.-.=.o.o.} o.0X2X5XZX4X5.^ n.oXI.OX7X^ ~ 4 5.r.L.5XJ.n q 5.G 7X8XBX3X XJXK.=X{.I. X!.r.Y.G.tXyX<XY.~.XX1X7XtXZX5X5XO.O.A G G v.H.yXJ.v...P 3X.X X~ ! S i 9 0 4 n.b.6XPXLXHXcXl.cXPXZ.P.E x.9.cXPXDXHXLX: > Z.-XnXoX@X9.2.|.}.:Xx.V.E Z.C.VXwXMXeX~.*.*.{ [ =.0X0X0X9X..r.a.5X5X8Xs.F.D F *.#.F.i.s.F.T.e.@.*.5.v.a.9XtX<X1Xs.v.5.L.a.ZXtXXXCXKXu.n.i 9 p <XL.~.0X0X*.X.6 u p X.I 4XmXU.S 8 M.H.7XyX9Xr. .A i G t b ^ ~ .XkXwX@X}.PX}.*X8.3.PXJXPXJXMXMXzXsX:XHXxXxXzX%X%X_ / 9.c.Z.[.*XvXHXLXLXcXjX-XPXZ.l.lXkXHXzXjXPXvX;XPXKXjXHXsXxXPXx.x.2.4.[.}.jXPXFXbXe.w.f f } } [ h [ [ [ [ { [ F g 7 2 d d g L d j h [ [ h h h j d f g L L d r r L g g L L L h r 2 =.=.F 1 * } L L f r g F g g g F L L L r f f g f g f g } X.X.} D p u 5 y y - o - % ^ Q..XtX=XlXPXVXc.0._ l.x.Z.*X9.9.. V V *X).jX).[.3.( / ,.8.HXsXPXcXLXPXPX6XoX3.0.l.*XA.}.: = O , f.;X%X>X*X",
"l.LXlX}.cX|.l.A.Z v > : Z.C.}.y = v q.l.|.Q.eX4XtX1X2XX.U 7 7 * r a & r r 1 1 $ * & & 6 5 r u 5 5 5 5 r u r u 5 & < < f u u & & 6 1 a f 1 a r 7 r 1 r r g d * 1 7 f h f 7 7 7 7 D g D r 7 a r f u r 5 & @ @ * & ; 6 ; - 5 5 - & I 2X$X4X#XlXwXwX3.4.oX*X&X>X;X;X:XHX-XPX:XjX:XVX-X4.0.Q x.l.@XZ.jXDXxXV.`.Z.Z.xX>X:XsXxXHXA.8.}.Q.bXJXPXPXkXxXjXl.f.A.>XgXSX) _ C B C.4XmXyXyXZX0XmXF.F.-.=.-.L L -.e.tX<XnX.X X0.K.I.{.#X'.#Xy.w.y.@.O.5.L.Y.!.XXBXOX3X X X6Xr.6.M H I.XXa.u.v.s.J.H.G.J.L.J.L.L.!.+XXXL.~.n H.a.7X1X!.G S *.a.XXn.r.m S i 9 q ....NXkXlXLXDXZ.Z.2.PXHX( 8.  Z V -XxX6XjXPX3.0.}.4X4X^ ) + . ) DXLX|.|.B 6.6.=XkXJXbXOX*.*.o.o.F T./.CXCXu...! 8XXX9X~./.X. .*.#./.T.2X0X<XmXmXmXZXBX<X!.!.O.e.1X~.a.I A 9XmX X8X7XBXKX8XO.A S S v.s.F.u u U  . .!.~.rX!.O.5.m.tX8X1X&.e.6 q G i H N ^ Q.{.KX=X#XJXMXDXQ _ 2.<.[.{.C.C E P E -X>X:XIXHXiX,.q.,.8.l.oX}.HXcXHXvX*XsXDXPX6XPXHXLXV.b.MXMXKXjXcXDXl.h.R 2.3.8.PXq.0.c : c.[.`.&XsXPX3X1Xo.o.} [ g h F F F f 7 3 $ 3 d h [ F h [ f d h h h j h h h d d F L L 2 1 d U U F F g f h d f } L h 2 * L g L f f g g F L h L L U L r f g L g 5 * * p g g p D Y G y & - ; ; H P $XrXCXVXeXKXV.P.[.}.xXPXIX:XjXx.8.B / 2.;XxXA.B v Z V 8.,.q.sX>XPXcX:XHXjX;XDX[.V > }.:XPXx.B.0.8.sXLXjXjX;X",
"V.-X:X=XjX}.x.[.v C : > Q.Z.z.: Z v ( 0.}.Q.eX4X5X2X/.D L 7 r r r r 1 r s * 1 @ $ * 1 6 5 r u u 5 u u 5 5 u u 5 & 4 6 D a 5 < 1 r 7 r r * a r 7 r 1 r 7 g g * 2 2 f g r 7 7 7 7 r r D r 7 p r p r 5 6 & @ @ @ % & 6 ; ; 6 ; & % p ~.$XeX4XKX-XwX4.( jXxX>X[.%X>X-XVX-X-XjXHXVXVXPX3.( &.9.x.[.P.vXcXPXx.Z.[.Z.PXxXxXPXjXHX9.b.A.P.eXCXPXPXKXjX:Xl.l.9.zXpXAX_ V T C P.kXCXNXuXyXuX/.F.F.=.-.*.F { X.*.tXmXnX1X4Xb.C.{.{.C.3XOXy.e.5.@.5.5.v.L.OXI.XXXX3X{.{.7Xy.t.m H .XOXL.r.s.e.a.a.a.G.J.L.+X+XJ.tX1X~.J.G H.J.XXXX~. .G r.*.tXn.r.n S i 9 i H ~ 7XkXlXPXPXl.l.9.PXLX( 2.+ : v 6XxXHXcXMX8.0.Q.W.lX&.4.+ + ) zXcX[.*XC 7.0.zX;XLXbXtXe.e.o.o.[ T.T.uXyXT.! ! 1XXXBX8X0Xw.=.X.@././.<X<XT.ZXyXmXmXmXtXJ.m.5.O.~.$Xv.n G tX7XL. X#XKX7X3X^ O.A A T.s.i.f < o.L X.T.5X$X+X&.y.y.4XtX5X@.w.i q p G b P I Q.#XwX@XoXLXHX|.R T 7.f.{.}.=XH W Q v ;XxX6XcXHX*X,./ q.q.x.-X&XPXPX*X*X:XHXvXDXHXHXcXHXb.C.MXKXPXwXjXcX3.l.B W 8.q.IXS.D.> = 8.pX).;XxXFXbX1XX.o.L [ [ h h h F f < $ $ X 7 h [ L F h d d h h j d h h j d d L F [ 1 1 g { { D g d d L f d L } L 1 $ f h L g f f f h L L L L } L g g L g U r $ * r f p g D U Y s & % - ; P P $XeXVX4XVXKXC.V.*X-XPXPXPXcXvX9.l.B 3._ ;XvX[.v > V E q.4.2.;XjXLXHXsXxXPXPXxX`.v v jXPXPXl.A.f.c.*XxXAXPXIX",
"@XB C 0.p.[.*X{.v R O > 4.0.0.9.q.Z B C 8.0.@X5XtXZXyX} =.r 7 1 r r 6 r g * 6 o $ & 6 5 5 r u u u a a 5 6 5 5 5 5 5 6 g 5 6 & 1 f r a a * g g r f 1 r r F h 3 d 7 f d 7 7 7 r 7 7 7 D a u A a A u u y 5 6 ; ; ; & 8 8 ; 6 ; # o &.4X#X.X-XVXp.p.2.2.*XPXHX4.2.: = ^ wX|.-X{.-X( &.W 4.t.@X-X6XLXLX[.c.= = > 0 P.=XMX6XHXMXPXcXt.3.z.z.b.oX;XZ.A.+ O + S.S.%X3.8.B v y.m.{.1X2XyXyX2XyXyXd.s.i.-.o.X.J @.mX2X1XmX3Xu.t.n.y.BXBX8XXXXX5X+XY.7X3XH.L.OXI.XXOX4XKX..+.H S ^ ! 5X8X<Xw.*.! A G ..r.Y.*...1X1Xv.a.XX1X1XXX!.a.i i Y.!.I.+.O.9 S b 9 b r.y.MXbXMXPXPXW Q 8.xXPXA.t.E B B ;X|.cXPXPX;XkXoX{.CXZ.x.B v 9.jX:XA.[.v Q Q C.Z.MXbXCXs.u.*.o.F d.F.0XyX0X! ! 6.e.+X+XtX~.~.d.e.^.J.s.XX<XtXa.a.5.5.+.S I 1X XXX.Xn n i 3XU.KX.XoX XOX#XBXKXL.XXw.w.*.d.F.T.^.5XrX1Xe.m.6.4XrX$XOX5.i 9 A p n S H Q.U.nXeX-XPXKXcX6XA.|.).%X*XDXt.t.. . v v A.&X|./ V R Z.l.x.p.wXMXkXJXMX) 9.0 A.;XcXPXxXMXPXPXjXz.3.) z.V.[.2.8..   v v 9.( 2.B Z v ,.2.`.A.MXKXNXs.s.F L L L h h h d * @ $ * h h g F [ [ L F [ [ h h h h f d d F h [ 1 1 L { L r f g h [ d h k g [ g r f r } L g f f h L L g g { L L g F r r * o X @ X $ a 5 a p y ; % % - m.M.rXnXnXwXVXp.{.|.cXxXcX|.:XDXPXcXLXzXjXxXPXHXB.E ( P.x.V.zXDXPXPXjXLXKXVXPXcXLXHX[.`.3.<.DXPXPXDXPXPXcX:X>X}.",
"PXx.V.&./ LXzXHX|.|.[.*X|.cXPXcXIX}.v B / ^ Q.tXCXuX2XU L 6 a r p r s 6 ; s y y 6 u u 5 5 r u u r u u 5 < & < 5 & a a g r & r 5 g g 5 * < 7 7 7 r 1 * 1 g r r < 1 6 1 g 5 r 6 u & & f u 5 p p p i a a a i i 9 6 ; 6 - - # o - - Q MXzXjXLXVX3.7.,.2.:XHXDX8.9.= % 5.VXlX3.6.O E E A.b.wXkX4XnXbXn.# - X . ; # N XXK.bXMXlXMXzXPXPX) : m HXjXxX>X9.) ) -X[.jXVXlXlX=X{.+.+.W..XtXtX<XtXmXZXmX*.i.u..... .*.*.yX5X9X9X!.XX+Xr.u.Y.a.e. XH. Xy.r.~.L.5XU.L.XXL.5X+...I ! S G U 2X<X8X9X~.5.s.v.*.CX X X7X7XI.1X7Xn.n..XI.n ..&.1X$Xn.H S S S b C M =X{.bXlXKX{.{.3.3.|.LX6XPXxXA.9.8.b.l.cXxXLXcXzXP.A.KX6XHXA.|.PXvXHX|.[.3.W V x.z.6X6XbX8XXXX.@.X.X.{ uX<XZXe.p.N M Q..X#XW.W.XXXX!.W.#X$X4Xv.*.&.4.+.) CX4X.X.XP P b t v .XQ.MXwX4X@XoXy.$X{..X.XXX1XeXL.H.+XL.y.^ *.6.y.nX4X#X&.5.n n n n S G G W.CXKXQ.4XKX-XMX8.D.HXHXPXPXHXcXPXPXZ.%X].A.PX;X;XC Q c.z.z.6XbX#XnXnXm.U.; # X = % C.P.xXFXsXPXPXFXQ _ }.A.PXvXcXV.A.Z.x.xXPXPXAXPXQ Q W 9.8.jXkXnXv.v.g L U { L g g f d f r f [ } L g g L o.} o.} r g g g d d r [ d g d g { d h $ * [ [ d 2 2 r d [ } L * 1 L [ [ r d L d g f g g F { L g f f f r r g u 5 A p Y p - 6 ; # o }.-X-XVXPX}.*XQ LXHXHXLX8.v : ( ,.%XZ.PXjXMXV.x.6.h.z.OXm.bXnXJX8X6X^ I ^ MXkXkXKXMXVXPXV.%X8.*X|.jXcXxXR _   , ",
"cXA.V.+.8.zXPXzX*X}.}.;XjXxXHXxXAX,XZ Z Q ^ .XCXmXrX2XY Y 5 p s 5 5 g 6 ; s t y y y u u u a r 5 5 r r 5 6 < 1 6 < a s p y < u r g g 6 * 1 r r r r 6 * * s r g & 6 5 5 a 5 f 5 5 & & p i u n p n u y i i t y 6 ; ; ; & - % # - # P lXjXjXHXDX3.7.3./ DXDXDX9.,.O # y.kXkX0.&., ) E S.Z.-XMX4XnXCXy.# # . . - & A !.L.CX#XkXwXMXHXHX<.Z Z ;XxXxXjX( ( 7.*X}.lXlXlX6X6XoX+.7.C.I.PXkXnXmXmXtXuXG.s.u.X.O...*.-.yXyXyX2X!.Y.!.r.r.Y.H.a.U.M.K.n.a.W.XXL.L.$Xv.G.ZX! *.G G n I ..XX1X5X1X<Xr.w.r.e.mX XXXOX8XXX=X XI.I.L..Xb +.! .X7Xn.H S H H : H Q Z.{.MX6XLXoX[.4.7.P.zX:XvXjX;X9.l.9.9.PXPXPXHXHX[.A.HX:X:X|.[.PXHXcX}.[.9.W V 9.h.dX6XMX7X1X@.X. .U U yX2XmXe.r.n N p.$X$XK.W.rX$X.XQ.W.eXmXM.&.6.+.^ 0.-X4X.X4XH H b M b .XQ.lXwX-X#X{.0.Q.Q.}.@XnX.XW.Q. X X{.p.5.+.y.t.eX$XnXa.&.b 8 b M N ~ H U.eXKXrX$XKXlX}.p.9.PXPXPXPXIXIXPXHX}.).[.|.AX*X;X/ W 6.z.m.6X4XZX1XeXr.r.; # X # - h.h.PXLXxXLXLXPX) 2.A.P.PX*X;X[.Z.[.[.>XIXPXzXHX2.Z B 9.p.-XVXCXs.s.F U D F L F g r f g r f L { L L F L { } o.{ f F f g L g f [ d f g F { d g * 1 [ [ k 2 2 e r [ | | 2 1 h { | g d f d j h h h F { U D g a g r 5 u u 5 a A G n 6 ; - o o oX}.cXLXPXQ.Q.2.HXDXPXjX9.v Z <.W Z.Z.PXzXcXP.C.6.t.U.U.!.NXBX7X3X3X~ ~ J 7X7XPXkXMXPXPX[.|.h.A.&XjXxXLXV B #   ",
"xXLXKXb.V.b.HXxX&X;XxX>X6X[.oX:X|.HXl.x.3.&.K.tXrX1X2XU U r p u * 6 D y - s p i t y y i p A a 5 5 5 5 5 5 5 6 4 6 s u u 5 5 u r a s 6 < r f a s r r 1 * r g D < < 5 5 r 5 p 5 < < 4 p p y s u y y t i i t 8 ; - ; - o o % - ; - Q vXjXjXHXcX3.4.: Z PXAXxXiXDX&XQ..X-XoXv H / x.A.*XoX=XJX7Xm.n.q X $ @ $ 9 6 9 n G XXK.CX6XMXHXLXiX8.2.Z.[.sX:XPXPXLXHXlXkXQ.Q.MXJXdX2.3.Q Q Z.6XMX4XtXtXyX/.w.u.s.v. .D F i.*.<X2XNX5X<Xw.@.e.z.y.y.6.r.m.u.n.r.m.a.s.!.~.mXU.L.! ! S G 9 n i *.5.<X5X1X8X1XtXBXJX6XkXbX8XC.OX X~ ..; .XQ.7XI.5.t 0 S Q ; ) +.VXkXLXMXMXV.Z.4XLXcX}.|.>XjXLX3.3.Z Z |.}.jXcXPX[.[.2.[.>XgXHX:X[.V.[.|.*X8.3.x.7.=XOXBXtXyXa.r.*.U F T.J.yXT.<Xb S &.4X$XH.m.W.$XrXtX#XrXtX.X1X4XkX4XeXn.z.+.~ Q N y H H XX XOXM.C.=X=XP.oXC.t.&.{.y.y.K.{.y.6.+.t.y.4X4X4X5.6.& - S P G P ! K.$XZX4XoXeX4X-XN / 4.( VX}.l.8.( l.*XjXPXIXPXGX>Xc.A.9.h.U.oXOXbXrXKXr.a.G U n S $ X . ; > }.xXDXzX=XPX;XxXx.9.}.PXPXcXHXPXPXIXHXxXSXLXsX/ W 0.3.=XKXKXp.s.U { r f f L g g L } f g L { L } L g f f F J f F 7 d f F h L r d h F L r d 3 e L [ h 2 2 2 2 h | | 7 1 d [ { F g d d r L L F h L L g D D U F f D F A p 5 ; ; ; - - ; ; {.Z.HXKXcXx.x.8.LXzXPXHX3.. , 4.9.AX;X8.0 0 E 4.t.OXK.7XBX8XmXNXm S . 4 # 5.5.4XPXMXkXMXPXPXB.B : l.9.HXl.x.) Q ",
"jXPXPXZ.A.9.jXPXcX:X*X*XvX-X[.*XgXIX2.8.2.6.K.$X2X1X5XU U u g s * & s s 6 y t s y 9 u a A D f u 5 5 5 5 5 5 5 4 4 u a r 5 5 u u 5 r 6 6 p g s 5 r a 1 * 6 s g < & 6 7 r r r 5 4 6 6 u u 5 u y 9 p i b i y 6 - - ; - X o - - - % ^ lXvXvXcXxX4.( v v sXxXAXDX;XZ.P.oX-XkXB v 3.x.b.oX-XkX6X7Xa.J.# X X @ $ 4 i 9 i S L.W.KXwX-XjXcXHX( 8.A.[.KXvXPXPXVXwXKXnXK.Q.KXbX7X3.3.V ( oXzXkX4XbXmXCXyXs.e.u.G.@.X.o.d.-.0XyX9X!.L.5.r.*.u.p.e.5.z.U.n.5.y.v.n.a.H.U.tXXX+X..I i n i n S 5.*.I.1X8X1X1X XNXJX6XMXdX6XK..XMXH G 8 W.U.Q.K.&.m 0 N I : 5.+.MX4XMXPXVXp.9.cX6XHX|.;X6X[.PXB.l.v v [.{.HXPXPX[.A.q.A.x.HXjXcXA.l.}.|.xXl.9.2.8.=XoXbX7XtXJ.G.X.J U s.F.mX2X5Xn P N W.W..X X X$X.XnXrXZXCX1X.XI.7X7XBXn.u.^ ! N 9 0 I I OX3X8Xb.b.=X=XoX}.b.&.y.{.6.y.m.W.z.n.~ n.m.4XnXW.&.5.b t t H i P ! m.K.rXeXwXPXPX@XC C 0.l.PX}.Z.2.( V.vXzXDXPXPXIXiXN.9.8.9.z.{.OXtXCX5Xr.d.S A f p @ X @ & - z.LXLX`.}.PXPXDX0.h.;XLXPXvXPXPXcXcX*X>XLX>XsXW / 0.8.-XKXKXp.s.U U 7 r 2 F F L } o.g F L L { } } g f r K J g F f g d L L h r d h F g d d d h h h L h d 2 2 h [ [ d d 7 L F [ [ f d 3 [ [ L F L L D F D D D A D D p 9 n % % ; % % ; : Q.Q.UXVXlX9.l.&.PXcXcXHX<.+ = 0.( %X:X2.B V / H y..XM.BXbXKXXXBXS b . - % ! y.KXnXCXMXzXLXHXB.: x [.9.PXc.9.B / ",
"*XjXPXPXPX[._ W &XjXzXjX/ > = x.D.HXV.[.3.3.{.CXeXrX5XU Y u D g * @ 6 D N 6 6 8 5 8 9 i a a a u 5 5 5 5 5 5 5 6 5 a p 6 & 5 p D 5 5 1 6 a g r 5 5 5 * < 6 5 r 1 7 1 6 a D f 5 6 6 4 5 u 5 u p i n b b t 8 - - - - - o # ; = # o / jXzXxXcXxXq.<.W B 9.|.>XxXiXPXMX4XH W 4.t.b.*X6XjX=XeXC.H.- X 4 f A J J f f * q 5 S P z.bXwXHX:XPXjXqXl.8.x.*XoXjX-X{.{.^ # % 7.3.oX|.V.T V T |.P.-X-X#XrXnX5X9XJ.s.w.*. .U D e.<X2XmXCXtXtX*.v M H M t.m.U.5.&.W.v.*.W.m.m.mXCX!.I.e.5.5.5.6.u.u.n.y.y.~ ! ~ `.`.oX6XI.=XoXm.b.: t ~ Q.{.K.3XH N b v M N P.C.MXVXPXKX-XZ.b.LXMXZ.+ O / ) *Xl.x.v v x.c.jXHXxXHXHXW |.}.PXPX9.: : 3.3.*Xx.V.W Q B.C.MX7XmX1X<X@. . .*.*.0XuX2X6.y.0 5.y.#X3X X.Xn.3XOXa.n.u.r.u.n.u.u.y.O.I O.~ ~ O.y.&.!.1X1XQ.K.=XQ.b.m.C.n.j.y.+.5.~ M 0 - y.4XeX.X#X+.t ; N H 8 &.+.m.$XCXeXeXlXVXwX=Xb.M.b.*X|.E.Q E     W [.,XD.V._ / _ N.h.V.C.#XPXPXtXmXX. .J < 6 A D K q - # # x `.`.PXPXMXxXPXPX6X9.V.P.>X>X[.[.( 4.Q xX;XIX8.8.3.3.wXKXCXr.a.F L r * $ F L L g g D f F L L } } L D J f f f F d g h L [ g d d L L d r d [ [ h h L [ [ 2 2 j } [ F [ d [ F [ [ f f r F L h g L L F L  .F D J Y G S n n @ # ; - - : ; P.@XkXKXLXt.l.B &XjXPXPXIX).N.B.).gXAXq.W W z.C.I.8XKXmXbX9X4 - & - % i n 9 9 ..6.#XKXJXMXPXLXZ.9.l.b.PX*XcXjXHX",
"vXZ.`.:XHXPX8.l.*X&X:XHXB     x.c.:X3.8.( &.{.eXmXrX2XD D r L L @ o & ! ! y - & 8 9 y y 5 6 5 r r 5 6 6 6 5 5 6 g p a & & u D U r r 1 < r r r r r r < s r r p g D & * 7 U D p 5 5 5 6 u u 5 p 9 n i t t 8 % # - - ; X X = # % - _ :XvXxXxXDXl.9.zXiX|./ B ,.2.%X4X6X) 2.9.z.[.HX-XKXJXm.# & # A f f w 2 < $ * $ f u X X b =X}.*XcXqXIXPXHXVXE Q H Z.=XJXeX+.= - 7.4.&XcXcX|.;X%Xl.8.P.{.4XeXeXtXyXmX9Xs.w.e.*.X.D u.d.<X0X0XCX~.H Q ~ H m.P..X5.t.5.W.Q.p.m.eX5XOX7XKXBXBXeX3XOX X7XbX8XXXH S M C.b.6X6XA.{.=X7.y.> > p.eXeX0.6.0 N M 0 ; Q eXMX6XkXHXjX3.^ 2.KXPXjX> > ( ( xX6X|.W V 9.8.jXLXcXIXHX[.>XA.IX*X9.  . 2.9.jX[.A.v l 4.0.lXbXNXtXtXe.o.X.J Y !.ZXmXL.I.t ^ ..XX Xm.I.p.3X XH S S 5.5.XX5XG.Y.L.+X3X!.L.L.8XXXBX8XI.4.0.{..Xz.U. X6XbX+.0 ; - 0 5.u.4X4X#X+.&.N H S ; H H .X.XnXnXeXnXVX6X@Xb.Q.}.PXHXPXPXIXQ.:X&.3.A.PXPX9.c.T 1.S.l.).-X@X7XKX8X..*.X U J a 7 < $ w q n n x . 0 = P.}.sXxX6XPXPX-Xl.2.HXvX|.*X. , : iXiXcX9.f.9.S.kXCXnXr.a.D F r X @ L F g $ $ g g L F g L L D D J 4 7 F L 7 d h L [ d g g [ L d * 1 h [ h h h [ | 3 3 e L [ [ { d F [ [ [ h L | r d r f D F F U U p q u 5 6 9 t 8 . o : : - ; = C.@XwXPXPXt.h.: 0.9.%X`.PXzXPXiX;X3.2.,.V.M.P.C.bXCXmX8XtX! n S J J J G U 9 4 p & &.bXKXlXMXLXDXPXc.x.S.PXPXPXwX",
"xX}.*XvXxXPX9.9.|.&XHXcXZ + + l.x.jXx.c.8.&.W.rXtXrX1XA p 5 L Y $ @ & U ! y ; % i t u 9 6 4 5 u r 5 4 < & < 6 6 A a u & & g D F a u 6 6 r r r r a g 5 p 5 5 a D g < < 6 Y D D p 6 6 - u i 6 i 6 i y t b 0 - # - - - .   # % - 0 _ -XjXjXsXHXZ.A.iXiXiXv Z 4.,.;XzX{.2.3.2.t.oX*XoXlXKXb.% # 6 6 7 e 2 f d * $ $ 7 u @ @ 9 K.K.JXqXqXPXPXHXVXV B H *XOXJX=X^ 8 ; c.x.}.zXzX%X%XZ.c.l.l.A.MXbXCX7XOXZXCXs.*.r.*.o.L =.d.uX<XyXZXZXI ~ M C n.=XkXb.r.y.$XQ.I.U.U. XOXnXBX7X8XOX=XOXOX3X7XkX=XM M 0 t.t.sX6X}.`.=X5.2.; - b.OXOXt.z.M H S y - &.=X6X6X6XPXPX3._ ) JXHX}.> > ) 2.cX[.[./ E 0.3.jXHXHXPXPXA.}.}.HXPX8.  . 2.l.:X[.A.: Z <.4.dXdX7X8X1Xe. .o.{ U J.mXmXL.I.n Q ! XX XI.U.n.L. X..~ 8 5.u.<XmXL.G.L.XXL.XX!.G.+X8XmX8X!.+.7.C.oXz. XoXdXBX~ = # 8 0 5.y.CXW.XX+.+.M m 0 v 0 P Q.6XMXkX=X=XPX6X{.C.C.jXHXPXHXVXHX@X@X4.2.}.cXPXc.c._ _ 3.c.[.oX#XbXbXtX*.{ < o.J f 7 $ $ q q q A n @ % - 6XP.MXDXzXMXKXDX9.( vXxX}.*XO : v %XAXAXf.9.8.3.6XCXmXr.d.D L r X X D a g @ X L L U F f D D g D J w f F F r g h h L r h h L L g 2 1 g h L L j L [ 1 2 2 g F L L d j F F [ L g [ 2 r r f F F F U  .G G p - ; i i 0 o o ; ; % # O C.Q.kXPXLXl.x.W 3.8.Z.*XPXLXDX;XjX2.2.3.B.l.C.{.4XKXNXtXyX4 D A A U U D F u & & 4 ..KXPXJX=XMXPXLXZ.V.3.VXVXLXVX",
"|.[.oXsXjXcX8.W 2.2.V.A.9.|.|.cXzX:XW V ) &.@XrX2X1X1XD D r F D * # & G P y y ; M b i u 9 5 u f r 5 < & & & 4 6 a 5 5 & 6 D f a r u r u f a r r 5 p < 6 $ * 1 r a r a 5 A f U U @ $ $ u i 5 n 5 9 9 v b 0 - = - # ; X o ; = # # / -X6X6X>XHX|.}.zX[.HX> = . . &X}.oX3.+.4.t.}.HXJX.XK.N   . p * h j d h ] 2 3 7 f a & & X 0 t P.[.lX-XvXVXPXVXVXE -XC.KXKXbXeX6XxXLXzXcXIXIXHXIXk.A.3.3.Q.C.VXlXKX4X2X<X~.J.=.*.;.F F e.e.yX<XmX1X.X+.^ t.Q.C.+.) +.C.m..XQ.n.{.K.6XOX7X=XC.n.r.y.6.C.MXJX+.+.v H Q P.P.&XP.=Xt.t.M v Q.=XK.+.Q b 0 0 v b K.kXeXVXkXlX=X) p.z.MXcXPX}.|.Z.l.HXl.x./ ( Z.B.HXvXjXPXHXjXE.Z.HXPX[.[.l.xX*XvXZ.A.Z v W Q &XdXnXCXCXH.X.X.F A e.yXCXmXbX..~ J H.H.Y.Y. XH.u.n H b KXBXe.w.U.J.G.Y.U.G.L.s.u.w.w.r.v.bXoXb.B.4.P.I.3XoXI 0 M n.n.dX3X#X+.&.n y b m M ~ Q OXMXbX{.=XPXPX=Xv H Z.A.PX@X[.l.p.:XHXPXPXPXPX*X|.8.k.x.x.A.iXzXeXMX7X5...& * 3 { F F F $ < q 7 w q 9 & . o 8 v =XkXMXcXLX-X) 4.V.*Xl.x.2.>X%XPXHX|.( 3.x.l.-XKXZXr.d.D L r X X a 1 L < * { L L g f D L L L D q q $ $ 2 L F h L 2 h j h L h =.{ L F } } h L [ g } g f g } { L d g h [ [ 3 3 d g g g L U U { U I U A & - 9 8 ; o o - > > : : {.A.VXKXVXx.Z.A.HX:X_ Q E zXcXcXIXf.9.8.B.P.=XkXCX8X8Xn K U G U K U u * $ 4 6 p i @ O.&.BXNXKXNXKXHXPXV.v Z c.A.",
"V.;X*X;XMXPX) / +.8.V.V.9.{.*XjXHX*XW E 2.+.Q.rXrX!.1XD D r D D * @ & Y I 8 8 ; S S i 6 6 u f a f 4 < $ * * 5 5 g r 6 6 7 F 5 f u 5 f A u a p 5 5 A < < * * & u r a r 4 a p } U X $ & 4 i p p 9 9 y b b 0 ; = # = - o # - = = # ) -X:X-XxXcX}.}.sXsXiX: =   O |.`.cX) +.7.7.|.HXMX{. X6 @ X 4 6 j d j ] j e 2 2 7 f & & X 6 M n.C.VXlX-XVXPXMXVX^ M. XPXbXkXNX6XxXPXxXAXDXPXGXGXN.S.,.9.A.[.KXeXnX5X<XrX~.G.*.*.e.U U =.u.uXmXyXXX3X5.! y.{.P.&.+.+.n.K.I.W.M.W. X#X4X3X XU.n.t.t.t.m.bXPX+...0 H C `.P.&XC.6X0.6.C C .XP.{.^ ~ m v 8 v t P.kXeXlXJX6X6X) 9.8.cXzXHX*X*Xc.A.HX8.c.( ) |.x.:XHX>XPXPXjXV.Z.PXHX*X}.x.:XvXvX[.V.Z B Q E &X;XkXJXNXJ. .o.F D =.ZXtXmXtX! ! ! m.U.L.L.3Xr.u.J S m CXtXH.e.s.T.J.G.J.G.G.s.a.r.5.r.Y. X7Xz.n.5. XK.8X3XS m m r.U.8X#X1X+...t t b b m ~ H OX6XKX@X}.KXLX*XV : [.}.VXoX|.9.0.jXJXPXPXPXPX}.Z.x.9.l.V.V.kX6XbXbXtX*.X.$ $ d F [ { f 3 $ q q 7 q q # X X 0 0 =XLXjXHXJX6X) ) }.V.V.x.D.[.;XHXPX).2.4.9.9.6XnXZXr.d.Y F r X X 1 r f * < U } F g s g D } A J q f < @ 7 L F h g r h d L F g } o.U F } } F L L [ } r g r o.} F 7 d L F [ 3 1 d d g f { U { U U ! I J # # 0 8 : . o ; > = > : Q.Q.JXHXjXQ.V.}.HXxXQ E T cXiXDXcXx.c.3.P.b.eX6XJX3X5XI q J J J U f D $ @ 6 < f p X *.&.bX7XKXJXPXLXHXZ.Z v l.Z.",
"[.cXvX:XjXzXW W ) <.[.HXPXxX*X>X[.V.v v E _ oXCXrX!.XXD D r D D $ @ & P H 6 9 9 b t 6 & 4 i f u a < & $ & < a u 5 4 4 5 7 r @ $ * * < 5 5 u a a 5 f r 5 1 4 & a r f r 4 r r U U @ $ & 4 a n p 9 ; ; ; 8 8 8 ; ; - - o o = % = # ) wXcXxXHXHXx.l.zX;XIXh.N.<.E N.B.&XW <.B.B.*XxXMXm.z.X X $ 4 7 e e e j j d e e 2 7 1 4 & & ; G H Z.6XlXkX@XPXKXJXz.6.m.z.JXoXMXkX-X7.Z B c.A.SX].S.: : ) 3.x.eXnXNXtXyXXX~.s.F.U o.=.F D =.s.0XKXZXnX2X5.I ! i M t S P ..6.y.U.K.M.y.&.~ M v 8 K.C.OXK.n.H S m 0 ; _ W 5.y.6X{.{.6.5.=Xz.t.b b 0 0 0 Q ~ OXbXkXKXVXA.}.oXPXHX6X;XjXDXxX[.{.9.) Q 3.8.;X*XPXPXHXvXvXvXV.l.l.V.>XjXjXPXPX[.[.*XiX>Xq.W h.jXkXNX8X5X*.*.{ F { ~.~.mXmXy.y.n.1X$XW.H.n...^ m n S 5X5X<XL.r...J G I 5.w.u.H.H.v.G.J.3XK.+.G M ! ~ 5.O.! 6.j.BXBX#XI...M n i M M ^ H oX6XMX-XlXMXKXDXjX3.V.;Xb.[.HX> v . . 2.P.6X[.}.( 2.2.9.A.[.A.*XkXKXNX1X5.p J A 7 h F h g d e d F K f A i & X o # # `.LXjXcXDXcX: : 9.8.[.}.UXPXAXAX*X2.v T 8.A.6XMXZXe.r.Y F r X X r f F 5 r } } g 1 1 p r L D q X X X * h { [ g f f [ h d 1 * U L L L L L L g [ L L 1 < * U L $.h h h h L * * $ $ r a L L U f n S I ..b t m ; : o O > > = > = Z.Z.VXVXcX|.[.jXHXjXB v + c.A.AXAXV.V.2.b.z.=X.XnX*.! @ $ F { } { L { 7 1 g f F D X @ @ +.5.8XbX6XMXPXcXp.t.x.0.",
"9.:XxXDXHXMX) ) }.}.HX*XV.7.8.9.9.Z.W ) &.&.OXrXtXW.~.A D r D D @ @ & n t % - ; - % o o & u a q a < * $ 6 5 f a 6 6 5 D F g * * f p a p p 5 6 5 u a A A 5 5 * a r g a 6 6 6 Y U & & & 6 a p a y & % # % - ; 8 8 ; ; o o = % = # _ wXzX6XjXHX) / f.h.DXzXIX;X[.%X|.C.> = <.7.:XMX6Xy.n.# q p 4 w d j j j h [ h j 2 7 7 6 q & @ % # ; wX-XeXVX@XrXJXlX4X&.6.H oXP.oXP.Q . . ,.2.>X).,X*X:Xl.2.8.#XQ.bXnXnX4XyXuXmXs.d.-.X.o.F D w.5X7XtXZX1X5.e.H.v.y.e.6.e.r.y.M.n.y.5.5.5.e.y.e.y.e.XX6.6.6.y.U.n.6.y.+.5.0.{.oX=XU.n.#X5.5.b m N N H p.z.nXCXMXPXJXt.0.*XjX@XB v W >XcXHXjXv V Q [.|.jXzXDXoX*XHXPXPX}.V.B E >XHXHX8.8.B ,X|.%X>XT T _ sXoXbX7XNXe.w.X.{ Y F.G.KXKXXXH.W.XXW.r.u.6.....~ ! H y.e.Y.<Xv.O.! U I n n  .e.u.s.a.5.H M H S H - - i S H.NX8X+Xv.<.w.4 S 9 n b H =X=X6X6XP.KXPX;X[.c.V.IXvX>XPXPX;X9.4.Q ( xXVX6X) 4./ *X[.l.l.*X*XKXBX7X@.O.K D f r f F [ [ d f h F f K f p i 4 # # . . C.LXzXzXcXMX3.3.xXxXPXjX:XS.c.Z.Z.c.q.q.3.2.6XCXCX6.e.Y F 5 X X r p g 5 5 D D & X @ a r L } o.< $ < 7 F F h d r h L F * @ @ D f F L f g L f f d f r $ * g f L j j j h | h h X $ d g L U U 5 6 6 i n i 9 n ; : O # - - - > # Z.Z.cXVXVX|.}.zXPXPXA.|.Q ).B.>XiXN.V.3.Z.Q.KXMX1Xi 4 @ & J { F [ { { h g L L F g u q 4 9 % y.JXPXwX-XPXPXPX:X6X",
"0.jXcXLXLXMX2.2.A.[.HXHX}.h.4.8.l.>X2.2.) ^ oXrXtXW.~.p A r D g @ @ ; b y - - ; - % @ # - q u 7 a 6 < * 7 r f a 6 1 5 D F r * * A A a a A q 4 a a 5 D D 5 5 X 5 5 g f 5 4 4 D U r 6 & 5 i s u y & # @ @ % - ; ; 0 ; o o = = = # +.VXMXjXvXPXW / 8.9.LXPXAX;XiX|.;XB.: > 3.0.sXdXMXy.r.X p K < 7 7 h h d j ] j d e 7 f r u & & & - i .X4XKXlXeX=XKXVXJX4.+.H Z.@X=X{.C .   _ ,.iX>X].;X;X8.9.8.V.I.PXKXCX4XuXuXyXe.o.=.o.*.F D *.mXyX0X5XtXe.&.v.a.r.r.r.y.e.6.e.v.u.y.6.e.e.5.5.H.u.Y.5.5.y.5.y.y.e.6.6.y.n.U..XI.H.m.L.....b n 0 b S m.K.7XeXkXlXMXz.0.KXjXHXv Z C vXjXPXxXB W E `.[.:XcXHX6XHX:XxXcX|.,XZ B *XHXPX8.3.v jX|.;XpXT ,.) xXoXbXKXmXr.r.X.X.U e.d.tXnX4Xv.L.W.!.p.r.&...! ! ! ! &.r.L.W.a.O.! G i I G O.6.6.a.n.*.m m ~ H I - 8 m S H.7XJX1X+X<. .% G n G b ! 3X=X4XJX6XLXPX|.`.V.S.AXLXPXHXPXvXV.B.( / [.lXJX) +.v {.P.V.c.6X6XJXbX8XO. .F J f d d f [ [ d d F K 7 f f i i 8 - = . + A.LXxXcXcXjX8.3.cXHXPXPX[.9.f.%X`.l.2.q.0.8.-XCXKXe.e.Y F 5 X X s p g r r r s & @ $ g r D } L 1 < < 7 d f g d 2 F h g @ @ < D f F L D L L g r d D L * * a r [ h h d j | [ [ $ * g g F U { 5 u 6 6 ; t 9 H 8 : O O - - - = # A.A.cXVXHXA.A.|.HXHX[.|./ B.`.zX;Xf.f.2.[.{.KXCXNX9 & & < f #.o.[ | F [ [ F [ g F f 4 & - & O.KXlXzXlXHXPXVXQ.*X",
"l.xX:XjXxXMX9.x.KXjXvXxXV . + 8.8.jX8.8.) ) @XrXtXW.^.p p r g p @ @ 8 M M b b b t t 0 8 9 u q 7 q u 5 * r r a a 7 7 6 a f & @ @ a p 5 q A a 5 A p 6 D D 4 < X < 4 a a a 6 6 A L p u 5 5 5 5 5 y i y 6 8 y i i t 9 8 o o = % - # 4.HXHXjXzXPXW ) 7.<.).`.[.sXLXxXsX[.V R c.c.zXsXFXy.n.X K F 6 7 7 h F d d h j e e d f g 6 6 4 5 i # - - Q..XeXrXkXwXKXMXVXW l.z.JXPXOX{.[.jX;XPXIXLXIXAXPXPX0.&.^ {.{.#X#XrXyXmX<Xs.u.{  .*.*.U *.*.<XyXmXtXCXZXmXNXmXmXmXmXCXKXNXNXNXCXKXKXKXCXBX7XmXyXKXKXKXCXNXKXBXNXNXtXOX4X3XOX+XL.^ ! i t i H Q .X4XCXKXPXC.b./ ) JXoX6X> v : *X*XHXcX0.3.8.[.|.zXcXcXxXHXcXPXPXjXPX3.2.vX>X*XB E O q.9.SXhXl l : A.A..X4XNXJ.J.X.X.U o.O.uXrXmXQ.!.W.$XQ.2X$XrX$X2X4X1X4X$X1X$X~.XX4XrXrX1X~.$XXXL.XX1XH.tX1X XL.<X!.!.+XXX9X+X!.!  .A 9 A G i ! ! K.NXbXoX=XLX;X[._ 2.;X>XPX>X>X|.*XjXLXHXHXJXJX=X-X+.6.t.C.z.xX4XJXMXNXS J p a f f f F f d F F e r F F f K A n n 9 % # O # P.MXjXKXHX&Xx.8.PXHX,X:Xl > l %XHX>X3.3.9.l.-XCXKXy.r.Y D 7 @ $ D Y U L Y D D D r 5 D r a p f 7 r 7 7 F L { g r [ d f X * F L U F D } } L L L } } { @ @ u a [ [ h 2 r L [ L * * r f A F  .a p u 5 5 S n H 0 8 X X ; ; = = = V.A.VXHXLXl.l.p.:XjXLXPXsX>X|.A.)._ W W A.M.bXBX<X& w { { F } { $.| h $.| h F h F a a A K i % ^ 4.VXPX-XlXPXPXPX",
"0.jX*XvXMXHXc.b.xXHXPXPXZ . + l.q.xX8.x.3.&.#X4XtXW.W.s a 5 p p * # 9 i b N t y 8 8 9 9 9 5 q q 7 a r & a 7 r a r f f f f $ @ @ A A p a f f p p p 5 p p & & X & & r r f 5 6 a D p p u 6 4 6 6 6 i y 8 8 9 t t 0 8 8 # # & % = # +.lXcXzXxXHX/ ) 2.8.|.`.&XHXzXxXzX&XQ Q 7.7.xXJXMXy.v.# J F a q 7 e f f d h F e e d h F 6 4 4 5 5 @ ; 6 1XnXeXbXnXPXVXVXPXC Q.c.bXKXoXoXoX*X:XAXSXAXPXjXxXHXx.W +.oX{.kXZXmXtXyX2Xe.w.Y  .*.e.U *.e.0X2XmXyXyX5XmXCXNXNXyX9XmXmXKXCXCXZXmXmXmXmXNXKXNXKXKXBXCXNXNXJXNXNXKXCXtXtX5XXX+XH.! U n i 0 Q ~ .X$XeXMXPXm.p.2.2.cX}.}.b : : [.*XzXjXZ.8.0.x.P.MXLXcXHXHXxXPXHXvXHX9.8.[.xX*XB B , 9.x.SXhXZ c : c.P.3XeXyX<X2X@.o. .{ U 2X$XZX4X$X~.$X~.K.!.tXtXtXtX$X~.$X$X.X!.!.~.#XrX2X$X#XXXK.!.$XQ.XX1X+X~.1X5X1X1XXX0X!.0XJ K q q S i 9 ! ..1XBXKXFX[.JX*X&X_ W cXzXHX[.zX|.|.PXPXKXPXPXlX-XeXt.4.t.t.t.7X=XJXKX3XG K K f K f e 7 g f f g d d g F f f a n A 0 # # # % A.sXjXPXLX}.c.9.PXPX*XvXO = > ;XIX;X2.3.c.S.6XCXCXy.d.Y D 5 * & L L Y D D a u D D u g r p r r d d 1 2 g f f f d { 1 7 X $ D F { D g } } L L L =.o.L X X < 6 h ] L e d h | } 1 1 f f D F U p p p 5 5 n b H b i X . - : = > - S.A.VXLXPX0.8.3.xX6XHXxXIX;X;XA.).T V W [.K.MXCXBX6 4 U { K } $.$.| h | | j h h g r f q q A - O.+.HXPXwXcXHXPXPX",
"9.HXcXPXHX:X2.( :X>X}.}./ _ E 0.x.DX) 2.E W #XnXtXW.^.s u 6 p a & @ 6 ; - 8 - & % % & - - - 6 5 7 f a < f 7 7 7 6 f f 7 7 X @ X 6 4 5 5 q A D p u 5 5 u $ * $ * * 7 6 f 5 6 5 u p p u & & 6 5 ; # @ o o o @ # # ; 6 # # & # % # 3.cXHXPXPXcX9.9.zXzX[.v l Q Q [.&X&X( 7.9.0.6XFXJXe.5.. 6 4 D K 7 $ * 7 2 d h 1 7 7 F g q 1 7 < % S X o t @ .X#X#X4XwXPXUXPX0.p.OX3XCXMXMXcXjX*Xq./ N.A.-XVX}.y 0 4.+.{.CXtX5XuXZX2XyXs.w.Y  .o.r D =.o.2X2X~.2X!.<X/.8X2X~.<X!.!.!.!.!.~.+X<X<XL.+XY.~.!.L.XX+X!.~.!.L.!.Y.Y.G.G.s.a.*.n A u q M 5.6.eXeXnXKXPX2.&.6.0.cXLXLXA.[.A.HXDX|.|.c.l.Z.;XjXLXHX[.V.V.xXHXxXHXPX}.*X:X:XPXV.x.Q ;X*XzXSX,.,.l 9.9.oX1XtX2XyX*.-.X.L U v.a.4XrXrXyXyXyXZXZXyX4X4XZXrXyXrXmXZXmXrXrXrXtXtXnXmXmXVXCXCXZXZXCXNX5X9X9XyXZXmX!.! X.i A q q G I ..XXU.tXXX#XKXMXzX<.9.N.f.>X%X).l : > : l.Z.P.;X-X9.^ +.p.b.z.7XFXPXdXBX8XI b A { F K d h F f f f g F K f g q w 6 q n 0 = # # O b.sXzXPXKX*Xx.l.PXHX|.>X> / Q PXLX;Xq.3.3.&.kXnXmXy.d.D D s < & Y D a r r & & 5 r r s r Y g h F F d f [ L L d f F $ * X X 7 D D g g L U L g f o.o.g X X $ @ h | | h h h } [ h g F F U F J A G Y u a p S P P N # o = > > > = V.A.VXKXPX3.8.2.|.{.&X|.IXHXIXzXvX3.1.,.}.P.nXBX8Xq u @.@.F F f | [ [ [ [ h h h F g a a K S $ # # 2.2.cXPXHX:XwX",
"8.DXxXPXcX*X2.( 6X*X;X|.) H W x.c.cX) 3._ ^ =XnXtX~.~.a r 1 s a % @ 6 & % ; & - - & & & & - 4 7 u D f < f 7 6 4 7 D g 6 4 X @ X 6 6 5 5 5 D J u 5 5 < 5 @ $ & $ * 6 < a 6 6 6 5 p p 5 & & 5 5 & & % @ X X o # & - ; # # & # # # 3.jXcXHXLXsXV.N.;XcX|.v v ) C }.[.&X<.h.7.7.=XJXJXe.w.X q 4 J A f @ $ 7 7 d F 1 e < F d g 7 f < 4 5 . X 6 ; 4X$XnX6X=XPXPXHX9.c.OXW.PXeXkXLXjX}.E ) x.x.LXkXC.b v 2./ }.KXnX4XrXtXtXuX*.r.X.X.X.D r e.d./.T./././.0X~.<X<X~.<X^.Y.Y.Y.Y.~.~.~.Y.~.<X~.Y.Y./.~.Y.~.!.<XL.~.~.<XG.J.s.d.*.p A a p 9 6.y.tXeXMXKXJX7.4.t.0.-XPXxXZ.A.[.xXPX[.&X8.Z.x.jXxXDXLX[.c.V.PXHX:XHXMX:X:X[.PXHX8.x./ jX;XGXGX1.,.> 3.2.6X3XtX5XmXe.e.o.F L G.d.2XmXyXZXuXmXmXZXrXrXuXZX2XrXyXZXZXrX1XrXrXrXyXmXnXmXZXZXmXCXNXyXyXtXKXNXmXyXyX<XG D p A q A S H H 4XOXMX#XoXKXPXsX4.3.N.f.iX>X>X> , : : x.|.oX-X-X0./ ^ b.z.m.bX7XfXBXNX5X! K A J J f f j f F K e d F F f K f w < q A 9 % = # + x.zXMXPXLX-Xc.V.PXHX>X[.> ) W PXcX;Xq.3.q.8.lXlXtXe.i.g g f 1 & L F a 5 u 4 5 6 r 5 5 6 L g g h L d r j d h d g h X $ $ X 6 f u D L g L U f f =.o.f @ X @ X d [ | [ [ h } [ L h F f U D D F A U p D p S n S H & O % = ; : = Z.Z.cXVXPX4.7.2.*X:X*X}.HXLXDXzXiXq.2.( |.{.CXnX1Xp f @.o.f K h [ [ [ ] h ] h j h F 7 7 K K w $ o 6.^ KXkXVXzXPX",
"A.vXxXxX>XLXE E 8.3.>X>XcX&XxXjXxXN.B Z 3.0.m.CXCX~.J.a r r g D y t & % o X # o @ X X o @ @ & 6 7 g f 7 r F 3 7 r f g 7 6 < u u u D u 5 u p p 6 5 6 u 5 6 5 < 6 < * < 7 7 g * < 5 r u 5 1 * $ @ @ # # # % # @ o o @ # - - - # # 7.jXzXcXHXjXA.A.*X>XcX= = = = |.).*X9.7.9.x.=XFXJX5.@.$ X @ f u 7 $ @ < d 7 7 f 7 q f d 7 7 q q 6 6 i q & # ; - OX6X4X6X;XHXAXjX+.3.4.b.S.oX|.8.    v P c.x.Z.c.c.( 4.4.p.C.VXtXZXrXtX1X^.r.s.*.o.$.;.;.{ } o.F } o.} } } } { } { #.@.o.o.o.#.#.o.#.#.o.#.{ {  . .{ U U  .U G K A K J D a a a i G XX.XmXnXCX{.-XZ.x.:XcX}.vXzXPXHXzX}.*Xb.l.l.[.}.UXcXcXHXE : = zX6XMXMXMX:X6Xc.jX;X|.[.AXLXIXgXpXaX].k.( ,.|.P.7XmX9XY.T.=.*.-.*.e.*.*.=.} X.=.o.o.o.X.o.*.*.*.*.*.*.@.*.*.w.*.@.X.X.X.X.X.X. .*.@.@.X.X.@.*. .U Y i u i p D S ~ Z.K.PXKX-XMXlX;X|.).cXLXDXIXLXIX:XZ B Z V |.HXPXE _ _ c.b.t.5.MXmXKX9X9X@.#.& #.F f f e 7 7 7 e 7 d K g f f 7 7 * @ * 5 4 & # # = h.LXMXHXMXoXQ Q V.A.Z.[.jXxXzXHXLXx.` ,.l.9.>XJXKX*.e.g f h r r 5 6 & @ @ $ @ $ X X @ @ * r d h h h h h h h L } g < * 6 7 7 D L L p } U L g a L U X.F g & $ 1 F 2 L F f h L | L h g r * $ $ $ . X X @ # # i i 9 8 6 ; - % % Q.Q.VXlXlX}.Z.}.:XAX) ( x ).).PXIXA.S.( `.P.kXCX9X5 7 f 7 o.7 f 3 3 $.] ] j j | | | h d f A f 9 4 @   O.CXJXKXHX",
"9.:XcXcXvXPXE E t.x.xX*X*X&X;X[.).f.v v <.3.K.CXnXW.G.r r 7 p p D G y t y ; y 6 p i i u 5 ; ; 6 1 f f 7 g F 7 r 7 a g 6 6 6 A D p A 5 5 A 5 5 5 5 5 f a r r 4 5 7 1 1 7 1 f < 1 7 r u u 5 5 6 6 5 9 9 t i i 9 9 9 9 8 8 6 - # # 3.jXxXDXHXcX9.0.-X:XcXV.&Xl.t.;XiX%X( W t.z.&XbXMX&.5.@ X X 6 4 f < * 1 7 3 * < 7 7 7 6 1 7 7 f a i i q - # o X : {.4XPXDXcXLXDXPXHXy / ) LXPX@X9.4.p.0.}.:XVXLXPXjXlXS.8.4.Q.W.rX4XmXZXKXuX2X-.;.=.;.;.o.;.i.=.o.=.o.o.=.=.o.;.o.o.o.} { } o.o.;.-.-.-.o.{ [ [ #. .{ U J D A i K K F D A f a u *.mXtXtXrXCXK.Q.6X*XPXvXD.q.9.%XxX:X8.3.W ) 9.*X-XPXIX|.A.% . O 4.0.jXlXLXKXHXl./ 7.%X;XzXZ.N.0.8.aXpXpX,.W 9.8.bXKXNX2X2Xe.-.-.*.-.o.=.*.}  .X. .X.o.#. .#. .{ { X.X. .{  . .{  .X.X.X.X. .{ U D F U U J J F p n D u a n p U I -XkXwX@X|.PXZ.@X4.9.xXPXIXsXSXiX;XPX:XPXPXxXHX{.oX_ 4.4.P.oXMXLXBXJXBXG G $ < o.f f K K r 7 r F { q < < < 7 q 7 f < * < 4 * @ X O O 8.DXxXLXPX6XC C }.;XMXMXJXzXlXoXoXE Z Z c.D.vXVXZX*.;.g h [ h F F g p i i i n A q 6 5 1 1 f d h L h L L k d L L f 7 r F F g F g f r U L g D r p f D D D F L * j d } [ g d r L F L L g a f g Y 5 9 u p i & - & - ; 6 ; - % # W.Q.VXVXHXwX-XcXPXIXV V + f.f.zXSX].).( A.Q.bXNX5X< * * 3 $.7 e $ 3 [ j j j j | [ h j d f q w w n q 9 % O.+.JXPX",
"t.cXcXsXjXPX/ ( V.B.&X*XoX*X[.A.c.c.V C ( +.K.nXtXL.L.u p r g p S N y p p 8 y y p i i i 9 6 4 4 & q 7 7 g g g g r f g 1 6 < p g a u ; 6 P & & u 5 5 u u 5 5 6 u r 7 7 7 7 a 6 5 r r u u u u u u 8 8 9 9 t t 9 9 9 8 6 ; - - % # 6.vXjXxXMXKX2.4.vX&XjX|.}.l.Z.}.&XA.W R b.t.oXNXJX5.y.@ @ . - & w < < 7 w * 3 7 7 7 7 6 < 6 7 f u q 6 4 6 - # X 0 =XV.LXDXjXPXLXjXlXB ^ / KXMX|.7.8.p.z.-XVXjXHXHXwX:X9.&.3.@X4XmXmXmXmXZXrX~.*.e.-.;.=.} =.;.=.$.o.} } o.o.o.o.o.-.@.{ { #.-.-.;.-.-.-.o.#.{ { o.X. . .U U F D G K K D K K p u *.5X5X.X#XCXQ.K.}.*XvXcX( 2.3.cXHXPX3.4.W ) l.:X-XHXKXM.A.= . + 4.6.PXlXlXJXMX0.) <.>XxXSXl.N.f.g.IXpXSX/ _ 8.5.=XnXmXyXyXs.e.-.-.w.o.o.*.{  . .X.o.X.X. .{ { U U  .X.X. .{ { U  .X.X.X. .{ { U J J J D a n D G q n q 9 A 9 O...Q.KX}.jX*XHX|.}.,.<.LXLXPX;XDXHX;XPXxXjXPXHXPX[.x.4.3.3.C.C.sXJXNX3X5XS I q & w.w f K F f 7 q F F e w < * < w 4 u 4 & 4 4 * X X . . 3.JXMXPXPX=Xv v [.;XKXPXDXxXMX=X`.W V c c.l.PXVXnX*.-.r d L f f r r a p p i p n u u u 5 1 r f L L h h h d r [ g r r r g F f g r p r U L s g L A g f D p p f < r r L L L f g L L L g f r a g F u u p n i & % - ; 6 6 ; - % # oXW.lXVXKXwXjXVXPXIXE Q + 8.f.GXSX|.|.,.V.{.CXnX5X4 * $ $ { r e $ 3 [ [ ] h d h [ h j h D a q A n 4 i X &.5.PXkX",
"l.HXHX;X-XDX) 2.[.*XHXHX4.v v c.N.&X3.2.3.2.oXnXrXU.L.5 r & 5 1 n y 6 y y ; 6 6 6 4 - - - 4 6 6 6 f 7 w f 1 r 7 f f D 5 5 4 u 5 4 & @ & P ; 6 p u & ; & & 6 4 u 7 r 7 5 1 6 < 4 6 6 4 & & & & - ; - - - - - - & & % # # # % % % 0.vXzXcXcXPXQ / 3.3.PXDXsXxXjX:X[.9.Z Z B.9.&XKXMX+.5.  X X 4 5 7 < & < $ X X @ * * * * * $ $ $ $ $ X X # # o o   m > [.:XsXcXjXVXLXMXl.9.jX[.wXLXLX-XoX-X-Xp.x.c.|.:XZ.+.W P b .XrXrXrXrXuXZXuXd.i.d.i.-.-.;.=.-.-.=.o.-.-.=.=.o.;.w.o.o.-.-.-.-.-.-.-.*.o.o.o. . . .U U U I U I D S F G D A A U.ZXKX4X5XrXp.0.MXPX;XvXO l > |.*XHX( 3.) 3.A.VXHXHXjXE ) O % > v b 6X=X6XPXPX*X7.3.HXIX%Xv : O , N.N.GX) ( 2./ Q.4X5XmXmXJ.r.e.F.s.*.o.*.X.*.*.*.*.@.o.o.o.o.o.X.*.*.-.*.*.=.=.X.X.o.X. .{ { { A G !  .J D G n S P S A O.U ~.!.nX-X-XHXLX6Xv v Z.8.xXc.c.= = C ) |.jXjXvX:XP.( 0.t.t.b.xX6XKXJXBXI ! # 4 q 4 w q q q f f 7 7 q 7 7 q 7 * $ & < q 6 5 u 5 & $ @ 8 = t.JXsXHXLXoXx.t.KXHX=XoXW E C t.c.|.8.3.l.8.cXwXrX5.*.f d L g f s p A D G S n A A D F g g g r g f r g L [ [ L g F F f a g g < * a s =.=.D A u 4 5 u U D F D g d d d f g r g g L L g g L L Y F D P P G S n G M N i 6 - - - - @X.XkXlXMX|.[.[.zXPX>XAX9.}.).zX,Xk.x./ V.{.KXNX+X5 5 & $ F 7 e d d F d e j j [ h g f f f f K G I n n @ - # 3.0.",
"9.cXHXjXjXxX( ) 6X}.;XzX2.: > h.0.%Xh.0.3.<.oXkXnXW.W.a i - 6 & p 8 6 6 6 6 - 6 6 ; - & 4 6 6 6 4 f w q r 7 D g D g g 6 r 5 p u & & @ # S u y u y & & & & 6 - 5 u A A u 5 4 6 4 6 6 6 ; - - - - 8 8 ; ; ; ; - - - & % % % # # # 9.vXcXKXMXLXV R l.0.HXzX:XKXcX;XiX7.> > z.z.6XKXJX5.5.X @ X - - i 4 & * $ X X X & * * < 4 & $ $ o @ . . @ # o # . = : [.[.cXDXcXLXvXPXc.S.[.A.vXHXPXwXzXcXlX9.0.3.*XqX@XW W H P m.rXnXmXrX5XyXtXd.d.s.d.-.*.*.*.*.-.*.=.-.*.o.o.#.-.w.-.@.-.-.*.-.-.-.-.-.*.@.o.O.O... .! U I I J G G D G S S G L.5XmXtXCXoXt.6.wXPX}.*X+ > : cXiXHX) ( ( 3.Z.VXwXMXPXP P O O O 0 0 -XVXzXzXMX}.2.8.PXPX%X: > , , A.).zXE W ( 4.P.4X4XmXmX~.s.s.G.s.@.X.@.X.*.*.*.o.X.X.X.X.@.o.X.o.@.=.@.@.@.*.*.=.@.o.X.X. . .G G I ! I G G n S H S n O.! L.K.JXjXVXPXPXS.v v 8.8.jX8.l.O O 2.4.:X>XjX}.jXV.) _ 0.8.B.MXzXJXkXMXS S - % w K 9 w w w 7 q q q q f q q w @ X $ & 7 6 5 5 6 & @ @ o O 8.LXDXLXJX[.7.t.MXPX=XjXQ Q E {.V.*X) q.D.D.VXVXVXe.o.f r f g a s p D D S A A A A D D D g p F L g f g L L } d f g L D a a p @ * y r =.-.U p D 5 5 6 S n D A a 2 r f F L g f f g D g F U U F F Y Y Y D S P I P G b ; & - ; ; Q.Q.kXKXPX=X*X@XLXPXAXsXN.Z.).>XHXf.k.2.[.[.MXnXL.6 6 * $ f 7 7 e d f d d h d d g h h g f D G G S n n 8 # o W 0.",
"b.cXMXjXjXxXt.9.oX:XcX;XW = = 9.l.&XV.x.9.6.oX6X#XU.H.D n A A n a y i u u a u a u u u i p A p q q A a D 7 r r r F D g < 4 < q 5 5 9 % & 8 p i - ; # % - ; ; # & @ & & * & $ 5 6 n S G P I P I I P H H H H G H H H S M M M N N m Z.xXvXHXxXHX3.8.V.A.|.|.}.*X-XjXjXc.V C h.l.6XMXlXz.u.b S i H S J A n S S A A G n q q p n i q q n M m m S M m m b 0 Z 7.2.6XDXxX>XjXvXwXlX-XwXxX*X:X-XvXzX6X8.4.8.-XwXcXp.z.) ^ 6.K.W.rXyXmXNXZXJ.J.G.a.r.r.r.d.u.d.r.r.s.s.r.d.s.F.F.s.s.F.F.F.G.G.G.F.G.J.F.s.H.m.v.v.n.a.a.p.e.r.y.e.w.e.y.y.4XnXNXnXNX0.+.^ VXMXMXjXf.3.2.zXHXjX<.2.9.9.|.HXPX@X}.- ; = : ; % # z.KXLXcXHXHX{.V.HXzX%XW _ W E *XpXzX( Q v v b.=X$XtXyX4X~.W.J.J.e.e.u.e.r.u.u.e.e.r.r.e.e.e.e.e.e.e.i.e.e.r.-.*.*.*.@.@.o.X.O.! U I G G ! ! G I O.5.W..XKXKX|.MX6X-X*Xc.xXcX}.sXHX0.9.> O E V qX>X}.B B ) 9.9.}.}.;XHXxXDXMX+.0 x 9 q 4 9 4 4 4 4 4 < < 4 w q 4 < & $ $ $ $ 5 6 5 9 6 & % # # = t.LXKXPXDXoX`.{.xXMXb.b.: x v x.[.}.f.l.S.c.jXwX4X*.U p r r r r 5 r i i u 9 9 6 5 5 5 r s r 1 5 r a F L L U o.} D f D D D U 6 u 6 % Y ..P 6 6 - ; 6 p n S A U g g g f 5 r 1 g p a r r s r - y i 6 5 y 8 8 - 8 y 8 - % % % % @X-XlXVXwX8.2./ ;XiXIXIXDXxXsX[.V.v C Q Z.[.JXPXOX5 - * < D A q F f < * $ 7 r f r g g a a p i 8 8 - 0 # % o = O ",
"}.xXzXsX-XxX[.[.jXjXjX:X{.x.l.iX;XDX:X&X{.{.kXkXbXrXeXa.r.G.s.v.a.s.Q.v.v.L.H.U.G.H.G.H.L.~.!.J.Y.XX!.<X*.o.a r D D F 6 & @ & # i b - 8 & N n - ; # - ; - % X o @ ; 6 & 9 9 ..O.m.W.1X7X7X7X7XeXeX7X6X4X7XeXeXeXkXeX6X6XeXeXkXkX6XxX;XcXxXDX[.|.PXHXx.: = v W }.&X[.9.0.9.t.4XlXNXkXnXOXeX7XKXKXtX4X3X7X7X1XOX8XBX7XtXBXtX8X8XtX8X3X8X7X6X7XdX6XJXkX-XxX*XPXDX;XvXcXvXcX:X{.jXjXHXcXxXxXzXLXvXcXlXPXcXlXkXPXVXVX4XVX#XnXtXrX4XtXmXyX5X1X7XrXeXtXtXyXtXrXnXmXyXmXmXyXyXyXyX9XyXyX9XyXyXyXyXmXyXtX5X4X5XeXbXtXeX5XeXCXCXtXtXmXNXeX#XbXkXCXPXt.Z.C.*XP.cXjXPX:X[.vX*Xl.W ( S.V.jXPXlX4.4.% - y ; % o o W wXlX6XzXKX}.V.}.:XPXvX;X|.>XIXzX|.0.8.2.4.4.{..XrXeXnX#X.X1X5X+X<X5X<X1X2X5X<XXX<X1X1X<X<X2X<X/.<X2X<X<X<X2X<X2X2X9X0X2X~.+X~.1X7XXXL.U.H.L.L.4X4XrXrX2X-XPXQ.oX2.8.HXcXPXPXPXLX:XxX`.Z.iXjXPX9.8.V W l.V.V.;XjXcXDXMXJXLX6X X XL.3X XL.+X<X<X<XY.Y.J.Y.Y.Y.G.Y.~.~.!.L.v.a.u.a.a.r.y.e.6.y.7.}.xXsXxXMXJXjXsXHXMXxXLX[.&XoXLXPXvX*X|.>X:XLXMXCX.XW.G.s.G.d.d.s.s.s.p.r.r.r.e.r.d.e.s.G.d.G.s.s.s.i.} g g o.} < X $ & 4 D U Y & @ n p N & y N M b 6 - @ X < < 1 7 r r =.=.-.-.-.*.6.e.6.-.*.6.=.*.6.6.6.^ ^ O.&.^ ~ ~ P H Q.@XkXPXLXS.V.x.[.Z.|.|.;XIXPXsXIX( 2.4.&X[.MXbX7Xb 9 4 q K J K q f 6 6 * 7 < * < < 4 4 - & $ o $ # -   o X O + ",
"}.-XjXvX:XzX}.[.6X:XjX6X*Xx.l.sXsXsX*X}.oX;X6X4X7X6XrXm.a.W.v.m.p.v..Xm.v.!.H.J.W.L.H.v.J.~.!.L.L.~.XXtX*.*.6 6 p D U u & X @ o i b ; i # N M ; : - ; ; = O . O @ - - # ; 8 &.5.M.W.4XbXkX6X6XeXeX6X4X4X6X6X7X6XkXeX6X4X7XkXbXbXzXvX>XPXLXxX|.A.HXHX}.O O ) B &X=X}.h.t.3.z.kXkX3XMXbXbXbX7XKXJX6X4X7XnXbX3X3X7XeXkXMXNXkXOX#X7XNX6X7XkX3XkXFXbXMXMX6XMXsX:X:XDXxX}.PXsX6X:XvXxXvX:XHXcXjXcXzXcXlXHXPXwXVXjXcXkXlXKX=XbXeX4X1XZXnXeX#X1XnXnXeXtXtXnXeX4XeXtXnXCXCXyX9XyXyX9X9XmXtXyXtX9XtXmXtX8X7X4X4XrXbXnXeX4X7XCXKXnXnXKXCX7XkXKXbXMXKX5.{.P.}.{.HXjXPX*X|.IXHXh./ / x.V.6XKXPX+.+.= # ; ; : o O H lXLXMXzXLX:X}.|.|.cXjX>X%X&XzXLX%XB.0.+.2.+.{.oXwXrXnX#XW.1X5XXX1XeX5XtXyXtX1X.XXX1X1X5XtX8XXX~.2X5X8X<X<XXXXX<X8XtX9X1X~.XXXX8X8X!.m.m.H.H.H.rXrXeXCX.X4XKXZ.V.8.0.PXPXcXPXcXHXPXxXZ.|.:XgXPX9.l.2.E l.x.`.=XzXDXMXDXDXJX6XI.3XI.I.Y.I.OX1X+XY.U.Y.Y.Y.J.J.H.Y.+XL.L.L.H.v.n.a.a.r.y.w.6.7.8.}.xXcXxXxXDXMXsXDX6XLXMX=XoX*XwXxX:X;X;X%X:XHX:XlX4X#XJ.a.s.e.d.s.s.a.r.y.r.a.y.a.a.e.d.v.d.s.d.d.v.d.! p g U o.r X * & 4 U =.! # @ n y S ; - M S N % - # @ & 5 5 r 5 * O.X.e.6.*.*.*.*.5.6.*.e.&.*.*.&.5.^ ^ &.&.^ ~ P P M Q.@XwXHXcXl.b.x.`.|.}.%X}.IXPXcXzX_ ( 2.}.{.MXbX8Xm m i q n G G q A w 5 & 7 5 6 6 & & 4 ; # @ # X # o o # % . O ",
";XsX;X*X&X*XjXvXsX*X*X*X;XjXcX>X:X:XjXxXMXcX4XlXMX4X=XMXnXeXbXeXrX4X#XtXZX1X$X5X5XNX5XmX1XtX1XmXtX7XBXZX1XyX&.*.5 i u X.G 6 o X # . p 6 ; 6 8 8 y = o + o + O 0 8 # - ; 6.5.mXMXbXbX6XkX#X4X=XlX4X6XlXMXNXlXlXlXMXMXkXkXOXMX6X-XzX&XjXzXxXxX*X}.vXxX*X: : v v }.*X;X/ _ h.h.MX=X=XOX{.CXJXMX3XJXkXbXkXkX6X6XlX=XkX6XkX3X6X3X=XNXMX#XNXeX=XlX6XJXoX6XMXMXjXzXcXcX:X>XxX-XsXPXPXxXMXxXcXjXjXcXcXDXxXPXwX-XLXPX-XoXwXPXbXJXPX=X6XlXkXbXMXbXMXbXbXkXbX7XKXJX6XkXNXeXeXtXZXBXNXCX7XtXtXKX7XXX5XtXCXeXKXVXbXnXkXkXCXlXJXlXMX4X#XOXMXKXMXPXMX4XoXoXjXMXV.Z.V.x.vXsXcXh.8.v 0.3.xX;XMXzXkXb 8 % % M 8 : # - o -X|.KXKXlXvXMX9.9.Z.*X*XxXxX:XsXh.xXMX[.{.4.M.z.kX6X#XkX6XnXnXnXnXbXeX6X4X3XeX3XbXCXbX7X4X1X5XmXNXNX7X5X8XyXZXtX9XtXBXtXNX7XtXtX7XKXNXKXZXCXeXCXeXKXCXKXPXZ.: : 8.9.HX8.b.Z V 8.HXcXVXxXHXPXV.2.( x.9.x.*X-XKXMXMXcXHX-XsXNXBXNXLXNXbXbXBXNXBXJXbXJXmXNXBX7XJX7XmX7XBXnXNXNXKX7XKXNXPXKXJXJXJXHXKXMXxXDXMXKXLXxX-XLXxXLXcXcXcXHXvXcXjXxXvXcXVX4XkX#XCXCXnXrXyXZXZXtXnX4XKXNXnXKXtXCXrXyXKXKXKXmXZXmXyXU X.g p X.p g @ . @ y ; Y Y ; 8 N i i ; t % X # % - u * & $ & =.KXuXuX2XrXtX4XKXnXCXZXKXtXZXtXCXrXCXeXKXVX4X-XlXJXvXlXVX6XMXcX*X*X:XPXPXv l : |.Z.cXxXA.V.2.V.V.LXKXKX3X4X X<X1X8X8XXXXX5X<X5X~.5X7X7X2X1XXX1X7X8X8XOX X{.{.P.Q.Q.A.",
"-XjXsX:X>X:XvXjX*X*X>X6XjXjXjX*XoX;XjXxXDXxX;X4X6X6XeXMXbXMXMX6X.XeXnXeXrX4X4X1XnXNXBXtXtX7X4X7XBX3XeXmXnX4X6.e.S 5 u G p 6 @ X X X 9 y b b t = # - # O o   O = - % # m 5.6.kXJXkXkX4X6XjX6X-XcXMXkXMXwXlX-XkXlX-XMXMXVX;X6X;XkXvX;X;X:XjXxX}.*X:X*X[.v : v V }.=X}.) W z.t.jX=X4XoXP.3XMXJX6X=XkXlXlX6XdXlXkXxX4XoX6X=XkX4X6XMXKX=X=X=X6XMXkX6X=X6XlXxXxXxXxXcXxXcX6X6XjXDXPXxXMXvXDX:X>XxXvXLXHXxX6XcXjXcX6X=XcXPXHXMXlX-XkXVXlXkXMXkXJX4X6XMXMXkXJXJXkXlXlX6XkXeXNXbXeXNXnXCXnXNXOXeXNXbXeX4XMXlXkX6XkXMXlXMXwX6XkXlXwX6XkXlXlXMXJX{.oX=XKXJXZ.[.A.t.vXvXHX7.9.B 0.<.}.|.HX-X@Xb 8 ; & b 8 8 % O X @X{.KXVXVXHXHX9.9.x.:XjXxXcX|.:Xx.DXjX}.oX4.x.b.VXMX=XkXlXCXMXbXkX4X=X=X=X6XkX6X4X6X4XkXMXnXBXBXtX7X3X5XBXZXCXtX3X4XeXBXZX3X7XbX#XNXeXCXMXMXwXbXnX6X4XPXPXc.: v 8.l.cXl.l.Z V V.cX-XjXPXVXcXD.8.9.9.8.[.*X6XHXHXLXjXzX-XkXkXkXNXPXLXbXMXPXJXkXBX7XJXNXJXBXbXBX7XkXJXNXJXbXbXMXJXMXKXkXKXKXlXDXLXPXMXxXMXMXLXDXjX6XPXDXHX-XwXwXcXjXcXjXxXvX-XlXlXKXeXCXCXCXtXtXZXVXCXVX4XnXKXKXCXCXrXnXrXCXCXKXKXCXZXrX*.*.s A X.U g @ @ . 6 y U P 8 ; p t b & - o o # # & ; % & & # *.eXmXnXtXnXrXnXnXnXKXVXZXnXKXVXKXCXPXKXKXMXMXlXjXlXcXwXjX;XjXjXoX:XHXPXPXC Z : Z.[.PXxXA.V.<.x.b.LXJXLX6XkX{.XX3XbXbX!.XXtX7XmX5X4X.XOX$X4X7XeXdX=XOX8XoX=X{.{.Z.[.A.",
"HXcXcXvX6XxXHXHXcXxXjXcXxXcXcXHXMXJXMXMXJXMXMXLXKXMXMXMXkXwXlXzXkXKXVXwX4XlXeXlX#XOX6X#XnXeXCXCXMXbXeX=XkXrXeXmX^ 9 n a n N y ; X o o o ; y t # ; -     % : t = # 0 ; z.kXbXJX4X6XJXcX:XcXDX;X|.*X=X-X*X;XoX*X*X*X6X}.=XoXP.0.0.oXjXjXLXLXcXt.h.xXjXLX{.[.[.V.-XoXx.Q B l.9.sXxXsXMXLXMXDXcXxX;X&X-XxX*X:XjX}.6X6X=XxXjXxX-XoX;X6X=X=XkX6X*X;XoX=X;XsX6XjX;X=X&XjXHX>XjXsX;XcX%X|.*XHXHXcXxX&X;XjXoX:XHX*X>XjX;X*X*X:X@X*XjX-X-X*X;X6XjXHX;X*XcXxX;X=X6XxXjX6X=X7X=XbX6X.X=X=XoXP.=X.XMX.XK.P.kX`.6XkX=XoX[.[.xXjX-X6X;X*XoX6XMXHX=X=X0.t.=XMXsX: = + # }.PXPXV B B V.V.HXMXKXt.p.t 6 t 6 9 5 6 - - % 4.) PXVX-XVXVXl.l.l.jXvX>X*XB Z B :XcXxX;X3.b.V.MXlX6XxXzXlXkXVXJXMXMXMXkXkXbXJXMXxXjXcXVXkXbXnXCXMXMXMXJXCXJXCXbXMXMXMXMX7XCXnX7X6XeX3X=XCX=XeXMXMXJXQ.V.c.x.N.Z.}.A.v B +   / S.[.V.C.V V / l.x.l.l.:XPXcXzXMXPXMXPXPXPXJXLXLXJXPXJXJXJXLXKXPXJXJXbXNXJXNXKXKXNXKXbXPXCXJXJXPXMXPXkXPXHXJXLXPXHXDXLXLXJXPXPXLXJXPXMXPXHXPXPXPXHXPXHXPXPXKXKXLXKXcXMXMXJXPXnXCXeXCXCXVXCXkXbX=XMXkXPXMXnXkX-X-X-XrXrXrXyX^ Y D !  .U U o X o - ; G G Y y y @ o X ; ; 8 b 6 5 ; ^ &.tXtXrX4XeXnXlXPXeXnXVXCX6X=XMXVXPXMXwXzXwXzXcXcXjXjXcXvXHXcXLXHX}.*XjX:X6XW W v l.Z.jXDXx.9.) A.[.PXMXxXkXPXbXMXMXNXbXLXJXJXdXMXJXPXKXJXJXbXkXkXMXJXLXFX6XxX;XzXvXPXPX",
"x.9.l.9.7.l.x.l.x.c.8.9.9.c.x.Z.`.P.h.9.h.t.b.P.}.x.C.x.l.8.t.x.C.x.8.7.6.t.6.z.oXC.z.0.0.7.4.~ ) c.A.P.-X4XKXCXtX*.*.6 6 i D G 5 i X X & y H - o % = = ; > O O - 6.6.kXeX=XJXKXKXVX3.v Z c.A.[.x.t.) / Q 3.9.c.h.3.v v E W C Q x.:X:XKXHX;XV B 9.l.-XcXDXHXjXjXMX+.= # A.{.MX&X;XjX6X3.Q H 4.3.t.0.8.V E +.) P.{.V.t.7.W 2.4.c.9.z.4.2.Q C 7.8.x.t.4.H V Q 3.7.7.8.W v Z Q 2.4.h.7.E Z v B 4.l.9.) / B Z B 4.8.9./ W v B 3.4.3.0.0._ W / 3.8.{.[.8.B B W ( 7.l.0.Q H b v ) z.b.b.0.v B v +.7.Z.<.( > : W ( 9.l.t.Q Z v 0.t.A.x.3.H B R Q xXxXxXB V V Z -XKXKXE ( q.*X|.zXzXjXC Q 8 ; n p 6 6 ; # % O : ; KXCX-XPXPX-X-XV.IXUX*X*Xy : Z |.[.jXjXW 7.7.V.A.[.|.V.t.9.V.[.[.}.|.V.c.l.[.Z.P.V.B.l.p.c.z.P.P.[.A.Z.t.9.x.z.b.z.c.0.6.6.P Q ~  X=XPXCXkXKX4X@XwX+.z.LXIXPXPXDXHX:X&Xx.0.VXVXkX&.&.B B c.A.l.HXPXjXsXcX{.P.{.7.8.0.5.B.`.C.7.z.B.b.9.9.c.A.P.b.y.h.B.b.C.b.b.l.t.C.b.l.b.z.A.C.C.b.t.B.b.x.9.x.`.C.b.b.B.b.C.b.z.Z.A.`.[.|.x.x.l.Z.[.;X[.A.A.V.B.z.A.oXZ.C.S.p.Z.Z.}.@X{.C.C.oXoXQ.0.c.x.x.@X=XwXKXmXrX~.*.Y S U O.D o o @ # ^ Y p . X @ % 6 n t # # - +.5.rX4XKXbXnXKXKX|.Q.6XP.}.=X=XkXPXPX-XoXwXHXxXMXHX;X[.Z.N.c.jXxXxXDXcXV.V.Z.PXPXMXMX*X*X*XZ.A.W W Q P.{.PXPXxXsXPXLXPXDXMXkXFXMXFXFXJXFXDXMXFXLXLXPXPXMXFXMXJXJXPXPXPXPXLXvX",
"B.3.9.3.2.l.x.l.x.c.2.3.8.x.x.[.{.P.7.5.0.9.Z.}.|.B.`.8.8.9.x.x.[.V.9.3.( l.8.V.}.A.8.h.+.h.3.<./ h.h.*XkXkXnXrX.X*.6.9 t i G ! 5 p . . % 5 i o & X % = y v O = = p.C.4X-XoXPXPXPXVX&.Q C x.x.A.V.x.W ) V l.9.c.l.8.v v V E Q <.B.zX:XHXMX;XR E x.A.cXLXcXHXjXcXxX<.> = A.`.MX-XxXDXxX7.R R 7.7.h.9.0.R V / / `.`.Z.h.h.Z <.( x.z.B.<.) V Z 7.7.z.x.9.m m Q 8.0.3.3.( > : ( <.f.0.f.V E V v q.3.9.7.2.> V Z 4.q.x.( ) v v 2.<.7.9.x.Q _ C l.h.|.|.9.Z m Q / 8.h.c.E Z : v 2.b.V.V.l.B : v l.c.b.8.8.O : ) ) B.9.9.Q Q : l.8.Z.x.7.R V ) ) xXsXDXZ B m M ;XLXPX/ _ 7.[.).6XKXlXH b y 6 n n ; 6 ; 6 = = 0 8 eX-XlXKXPXHXVXE.VXvX*X*X: > Q vXjXcX%X) 2.4.C.`.}.Z.B.9.8.V.*X*X:X&Xl.l.8.).A.*X}.A.0.l.l.c.|.|.*XZ.A.7.4.l.f.x.h.x.3.6.4.^ Q 7.#X4XMXkXMXPXPX;X|.p.9.AXPXPXiXPXPX%XoX3.l.VXwXVX+.W Q P D.l.9.HXPXcXzX-XZ.P.[.+.4.h.z.B.{.}.z.A.9.0.l.l.x.V.Z.c.8.0.C.V.Z.l.A.3.t.h.9.h.V.B.V.x.l.B.l.P.P.C.8.t.C.c.C.C.B.x.V.t.t.Z.P.[.|.}.l.9.9.[.*X*X{.|.V.B.c.f.[.&X*XZ.}.4.Z.V.-X[.[.A.Z.V.A.}.B.c.V.l.:X|.kXKXtX4XW.X.u F *.Y Y X @ @ @ ! P N @   ; - t 6 t # % @ &.5.-XeX=XCXPXPXKXM.Q.6X:X-X6XzXzXHXHXxX-XxXLXLXAXAX}.A.A.c.N.jXsXsXjXcXx.x.x.DXcXLXxXVX@X:XS.S.V E ) }.A.MXPXPXxXLXcXDXxXMXHXxXzXxXLXIXAXxXDXDXLXDXPXPXxXDXxXKXKXLXPXHXLXUXjX",
"A.) _ B v 2.l.x.x.l.R V Q 9.l.|.}.C.W E ) 3.`.=X}.A.Z.Z B q.V.c.A.).8.Z > 3.9.[.[.;Xc.c.= Z x R _ Q C l.@X@X#X4XCX4XeX6.&.N t i A F $ & ; a S % @ o t ; o + = 0.3.=X=X-XJXlXwX}.P V V [.}.HX>XcXcXxXl.A.f.HXjXxXcXjX7.8.9.h.c.x.V.zXvXHXPXcX8.9.vX|.x.( 2.A.V.jX;Xz.Q H C.x.xXzX&XxXHXV._ ) V.`.6X:X;Xc.8.0.0.&XDXDX:XjX<.B.x.=XiXAX}.A.8.4.|.&X6XMXMXt.9.b.jXjXcXzXsX<.2.%X`.AXPXPXx.x.f.q.AXLX6XzXjX2.[.V.zXcXxX*X;Xl.8.Z.|.HXsXDXZ.[.8.xXjXDXDX:Xx.V.`.[.MXDXHX}.[.A.Z.:X6X*XjXHXoXl.t.HXxXjXxXPXl.V.`.x.LXDXLX:X:X7.xX}.PXLXPX&X&Xb.b.oXDXPXMXMX=XC.=XP.`./ ) c.jXjXLXPXM.- t N i i a 6 6 5 ; ; # o O M.z.wX-X:XVXlX[.wXlXVXPXx.Z.@XcX[.vXIX7.<.3.*XsX&XV.`.W / x.:XsXiX).) ) E N.V.;X%Xl.W _ 2.7.%X%X>Xc.8.T T 8.0.c.3.4.C o o ^ / MXMXMX6XJXwXz.C.: ; -XZ.PXN.V.0.7.;XHXvXPXPXVXc.[.0.7.p.x.A.xXDXHX>XvXvXcX6X6X`.B x C Q B.P.&XC.x.v v ,.N.Z.`.A._ v T 0.f.[.B.).Z Z Z C A.B.N.R R x 7.l.oX[.B.Q Z R Q z.P.Z.z.7.v m 7.P.Z.|.[.8.<.+.x.Z.;X}.|.3./ R Q B.|.}.h.B.v 8.8.}.*XzXx.c.> > l Z T _ B 8.4.|.nXnXnXKXrX..P p 5 *.u y @ X p 6 6 . @ p 5 8 @ - ; 8 0.kXOXKXPXlXPXJXz.c./ 3.l.[.A.Z.P.2.C W A.`.c.7.f._ _ / ,.2.,.c.cXzXHXIXPXl.3.2.;X*XvXsXPXxXLX|.{.B Z / 6X|.xXjXxX`.`.c.B.x.A.Z.|.).B.).B.).`.pX;X&Xx.B.V.b.*X;X}.Z.V.V.x.Z.|.}.",
"Z.W E v : 2.c.V.V.x.C v V c.c.[.{.V.R H ) 3.[.&X;XA.A.v C 7.).).V.V.2.c = 0.f.[.|.;Xc.c.O Z Z ( R T Q 8.*X}.-XrXnXrX#Xy.6.N 9 p p p * < * 5 i # # % - ; % . 0 7.z.#X-X#XVXCX:XVXH Z ) @X*X:XvXHXPXHXA.x.l.zXAXHXzXjX9.0.3.9.Z.Z.c.*XjXjXLXzXl.b.>X*XZ.( 7.}.9.-XMXP.V Q P.C.xXoXxXDXAXA.R W c.|.DX6X{.c.3.3.c.}.HXjX-X{.( h.Z.sXjXxX|.c.<.2.[.;XHXMXxX9.9.t.kXKXPXAX&X,.<.B.A.IXIXDX).N.8.q.*XIXcXjXoX3.f.x.xXLXAXzX*Xf.0.N.[.PXIXcX}.A.4.[.jXcXcXxX`.A.t.c.PXPXAX>X}.A.Z.;X:XzXPXPX*XD.N.AXxXxXPXDXh.c.A.`.PXLXFXsX|.3.sXzXPXcXDXsXjXA.|.}.LXPXPXxXP.[.=XA.b.2./ l.iXjXLXKX0.t 8 N n 5 i u 6 u ; b % . O p.b.PXwX-XPXVX:X*XwXPXvXE.V.,XvXqXHXLX0.3.9.&X=XoXB.Z._ ( A.jXiXiX|.1.,.Q ).Z.;X%Xx._ W 4.0.>X%X>Xc.f.C B 0.f.N.1.,.l + o +.+.kX6XlXMXzXcXA.S.y # vXjXLXc.c.q.q.sXcXPXvXPXlXV.p.7.8.V.x.l.*XcXIXcXKXjXsXsX:XZ.C v C H C.`.oXx.c.v v ,.V.[.|.).W x C 8.f.].).A.v : Z V `.Z.N.Z Z > 7.x.}.[.b.H v B C z.{.`.x.8.: 0 4.`.Z.|.[.8.2.2.l.b.jX;X&X<._ E W A.%X}.c.N.v 0.9.|.%XsXc.c., , Z _ T W Q q.9.}.wXrXKXtXK.I Y s S *.a y X X ; - u & & i p u & @ 6 - 5.=XbXHXKXMXlXJXl.8.2.<.8.[.|.&XZ.8.R R A.Z.N.V.N.Q Q _ 4.q._ 3.iX:XHXIXPX0.2.) }.jX-XMXHXPXjXA.Z.b 0 H *X*XLXzXAX&X|.9.f.N.).Z.A.).x.c.f.`.|.%XpX&Xh.N.B.c.&X*X&XA.[.x.Q.x.|.A.",
"LXV.}.Z.V.cXLXDXHXPXV.V.}.PXHXKXJXDXA.{.xXsXPXDXDX`.zXN.|.;XDXPXLXAX%X).).PXzXIXPXAXc.|.3.xXiXiX;X>X>X3.l.9.Q.Z.-XCXnX2X4XO.y 5 a a 5 f & u y @ o ; o ; ; = 0.kX-XwX@XwXKXwXW P O : x.HXPX:XqXV.iXAXHXjXjXvX*Xx.V.xXiXjXf.,.8.4.[.jXMX:XcX6XA.[.HXHXx.+   v v -XoXoX/ / 9.3.zXDXcXDXPXPX[.%X&X|.jXxXHXPXHX6X6X*X;X*XPXPX*X*XsXsX;X:XiXjX;X&X|.c.cXMXPXsXjXP.4XjX;XAXAXiXzXiX}.HXjXjXIXzX[.Z.[.DXHXMXLXcX[.[.;X*XjXDXDXsXjX%Xx.|.jX6XPXLX}.&XzX&X;XHXDXDXB.t.jX;XxXcXvX}.[.}.[.>X}.;XcX}.Z.).Z.:XxXzXxXsX|.).`.`.`.PXPX|.`.V.`.;XiXIXzX>X&X`.x.7.:XDXjXzXt.B H ) ,.N.AXcXHXjXP = % i n 6 p S 6 u 6 y o o O C N -XVX-XPXcX:Xx.x.}.>X,X}.vXvXwX:X>X*XvXcXDXxXPXDXzXiX%XSXIXzXIXPX;XzX).PXiXAXIXHX*X,XgXpXPXzXIXiXzX,X).SXzXGX,XpXl.7.7.;X;XDXxX*XHXHXoX2./ l.9.[.V.B.+ , , + 9.Z.Z.V.9./ 4.&.0.0.S.V.vXPX>XxXxXLXKXLXLXKXLX}.:XxXsXDXPXPX-XPX;XvXPXPXDXzXPXDXzXsXPXLXHXzXHX[.;XHXzXIXPXPX;X&X}.LXPXJXJXPX6XsXjX{.PXPXJXzXPX&X;XJXLXPXPXPX:X:X6XKXPXJXHXPX&XxXsX*XPXLXPXIXPXA.DXzXHXHXLXiXsXq.<.%XiXiX,XA.0.8.l.Q.}.nXnXnX#X.XI I p Y U 5 6 * o 5 5 u 6 9 % 6 ; y.p.MXHXHX6XjXMX0.4.C _ [.}.HXPXPXcXPX;X9.q.AXxX;XAXAXA.V.N.[.>X9.2.sX;XAXcXPXV.[.}.oX*X&.3.2.-XvXHXxXp.0.4.[.A.DXDXHX;X`._ _ f.[.`.>X%X8._ _ ).iXsXsX[./ W _ ) A.}.*X0.9.Z 3.%.qXwX",
"3.8.8.KXJX;X9.0.z.l.A.[.cX}.}.) / ) ;X=XxXkXz.Q Q 7.9.LXxXxX8.8.V ( f.iXAXzX%Xq.T R 3.9.iXzXPXxXLX;X;XsXq.9.9.k.Z.|.*XPXnX5XO.5.a 4 5 5 q 9 ; & % % ; ; t.9.lX:XwX:XKXPX3.x.Z.Q.9.9.cX:XxXA.A.: 1.8.vXIX,XE B O O S.cXIX3.q.+ O V.jX:XPXPX&XV.A.jXHX>X/ _ _ V vX[.|.V C V.A.jX:X>XHXLXSXHXHX3.q.v c.9.cXjX,X;XV : l *X[.PXc.V.v : C xXzX-XDX3.3.> B.P.MXDX6XB Z v : *XDXzXA.`.> Q / DXLXHXcXV = = P.C.xX;X&X0 v > ;X&XPXJXB.c.. 2.4.cX:XPXV H > : V.cXLXV.x.+ ) ) zXzXPXLX2..   3.4.LXjXxXl Z = `.V.PXIX|.%X= : : ;XzXHX7.2.+ + 2.cXxX>XsXB O O l.8.PXcX0.: > 0.f.zXAXgXZ.Q.# O o y i u 5 a 6 y & 8 ; . o . O Q.=X:XIXVXVX/ P x.8.PXcX*XV E 3.2.zXxXjXh.3.+.}.&XxX>XDX,./ h.7.`.).DX&X>X8.f.Z.>X>XzXSX).f.3.).|.hXaX|.q.4.3.1.S.iXcXiXIXjXPXLX*X;Xf.AXPXPXIXHXvXjX) 3./ W jX*X:XC C Q p.A.Z.x.vXxX:XvXvX*X*XPXA.@X) W ( @X*XLXHXQ.0.3.8.l.jXjXcXA.[.x.Z.|.cX6XjX:XV.V.A.}.;XDXIXZ.V.l.*X%XiXLXjXA.[.5.&X[.PXLX6Xx.9.B.b.;X6XHXC.Z.2./ x.MXDXxXsXt.3.t.}.&XPXPX&Xh.h.c.x.jXHXcX*XA.9._ 4.zXHXAXcXLX6XHXDXDXx.9.c.%X[.:XVXnXW.Q.U p p D D p 5 a & 6 % - - 5.5.VXeXMXDXLX;XHX8.= > f.f.PXPXiX>X%X;X*XPXHX;X|.A.>XvXvXIXPXA.0.8.1.4.jX*XLXxXDX*X{.xXPXLX= :   A.Z.PXPXS.x.W |.Z.cXHXcXPXPX*X;X[.PXLXHXxXPX&X[.;XzXDXPXPX;X;X&X&XPXPXPXPXPXA.cXPXxX:X",
"+.b.9.DXPXxX9.8.h.t.}.`.xX[.&XQ W ) ;X=XxXJXx.H E z.t.sX;XMX9.t./ _ x.sX;XiXzX( Q T 3.<.DXiXiXPX;XsXsXAX0.9.3.k.].%X}.JXKXtX*.U a q q 4 6 & - - ; # : = 0.M.jX-XvX:XHXjXx.l.V.[.9.x.:XvXHX[.|.> 2.3.AXxX>XT E O = Z.PXcX) 2.O = x.:X:XPXPXjXV.Z.HXjX[./ / +.) &XjX[.E C V.V.iX>XiXGXSXiXzXAXq.0.Z f.0.PXPX>X*Xv : v %X|.PXA.x.= : Z HXJXMXJX4.4.: b.x.MXxX&Xm v B v *XDXsXV.A.= _ _ DXDXHXHX_ > # C.x.PX:X;X> : : ;X&XLXxXb.B.. 3.( HX:XvXV ) = O V.PXPXb.b.O ( W jXzXPXLX4.+   2.3.LXcXxXB C + ).A.LXDX`.)., : x &XiXIX8.3.+ . ,.cXDXzXxXV O O 0.3.LXHX0.v : 8.9.gXPXPX[.V.% # % y 6 s u s < 5 6 ; % . o . O Q.kXcXIXUXVX/ P 3.c.KXcX*XV E 8.0.}.:XcX8.3.) *X}.jXsXHX,.( f.q.&X|.AXB.&Xh.c.).>X%XhXSXf.8.8.pX%XaXpXzX1.,.q.) N.AXHXHXjXgXvXPX;X*X%XAXAXPXPXcX;X[.2.4.Q _ lXjX:X` V _ 9.l.V.x.jX6XVX*X-XwX*XPX*XP.) &.4.|.V.lXPX;X8.4.S.x.jXjXlXQ.|.Z.S.[.jXzXwXHXx.V.B.jX:XcXcX[.x.l.vX|.jXxXvX[.{.0.sXP.MXJX{.t.t.=XC.*XoXJXV.B.2./ B.xXMXjXJX6.9.8.=X}.JXPX;X9.9.x.l.xXPXKXV.-X3.+.) ;XjXHXcXkXMXPXDXzXc.h.).[.>XAXvX*X{.W.P i p Y G u u a 8 - y 8 # +.0.6XkXjXHXPXiXsX9.: , 9.l.IXPXIX[.).jX&XKXsX:X}.*X[.HXjXPXHXA.8.l.3.( HXjXPXHXHXoX|.HXLXcX: Z + A.P.cXvXl.l.W |.[.HXUXHXPXHX[.*X*XPXPXIXcXDX&X&X%XiXPXPXPXsX;X%X>XHXPXLXLXPX*X>X*X:XjX",
"+ C.A.PXHXh.# . = 0 }.=XJXx.9.  o x oX6XxXxXQ     3.l.MXxXjXm >     h.LXxXjX;X= O O B.c.DX*XA./ 3.B.h.zX)._.B v q.S.Z.-X4X5XeXZX*.U & & n 5 ; o # : y.t.jX6XjXMXPX*X}.x.jXjXxXxXV.[.,XHXcX[.[.= Z V jXjXHX/ ) O + 3.:XgX9.[.' : V.jXjXxXHX*X( 2.>X;XDXcXvXxX*X>X[./ : : x.V.xXcXiXAXzXSXAXLXf.f.. Z v xXxXvXxXE O O 8.9.PX|.[.v > > ;X;XMXMX8.9.  ) +.JXPXsXE B   + A.PXLX*XA.O : : sXzXPXcXE   + 8.4.LX=XMXv C + z.A.PXHX`.{.O : : jXcXHX( 3.. O 0.PXcXx.Z.O v V *XjXPXPXc.: = ) ,.xXcXcX2.4.> N.A.IXLX>X%XZ V v `.|.DXc.B.v x _ ;X:X;XjXW > : B.h.DXHX3.E Q [.Z.zXjX>X4.4.; i t s y A g p 5 a % & ; ; y .   / jXkXjXjXPXx.C.[.x.PXcXB.O + v V MXxX*X: = = c.c.PXHXN..   = v ).%XPX0.(     R iXiXIXzX> . . f.S.HXpXN.    Q 4.AXIX>XSXzXPXZ.A.( ,.zXLXzX}.}.>XAXPXcXPXHX:XlX[.[.2.( 0.Z.Z.*X:XPXPX|.: : c.V.:X4.2.+ . : @X-XcX:X+.O O 2.0.cXcX:X% O = 0 *XPXHX8.3.O v V jXcXMXjXB , , l.l.cX*X*X+ # > &X6XPXPX3.+   W +.LXPXzX0 > + O h.JXJXb.x.. : x oX6XKXJX<.  + ) <.DXLX6XB Z . 4.8.PXLXMXA.A.oX&XjXIX)._ Z 8.9.|.vXkXeXKX!.Y p u u p P u @ - # o ^ KXKX=XkXMXxXDX).`.;X`.A.}.}.DXHXoXv = V H sXJXMX) E O 3.9.PXPXx.= , = > }.[.xXHXHX[.Z.zXvXPXl.Z.E Z.A.*XvXD.l./ }.}.DXvX|.HXPXPXcXx./ / f.x.zXzXxX0./ <.2.`.iXDX;X%X8.0.B.*XvXxX[.c.c.l.",
"  oXoXPXJX7.+ . > : =X;XxX7.0..   m xXKXMX6XR   O z.b.xXkX;Xv : + + x.DXzX&X&X: O . ).Z.LX&XsXQ Q A.c.DX%XA.v Z 3.V.V.JXlX7X1X1X .O.& 4 ; % - 8 # t 0.C.zX6XjXLXPX*X*Xx.*X*XxXHX[.Z.}.PXvX|.A.Z V E *X>XvX) ) + O 4.HXHXx.V.' v V.vXcXxXPXjXW / }.{.cXPXzXcXDX}.>XQ v v x.x.zXzX;XzX>XzXzXHXl.f.O V E PXHXcXjXV O = 8.l.PX*XA.: : > =X6XPXMX9.7.. W / JXJX=XR v . O x.LXcX&Xx.O : : 6XjXPXHX( O O <.4.HXsXjXZ m - 7.x.LXDX`.P.= 0 v *XxXPX8.7.+ + 3.PXPX`.A.= v C }.jXKXLXx.: = _ ( sXLXcX3.( O x.Z.xXDX;X[.B Z C Z.|.PX[.).v > / %XiXAXHX2.= = l.c.cXPX8.( _ V.[.AXjX>X) &.b b i i 6 p u p r a - - - - ; O + E PXHXjX-XIXA.Q.9.V.PXLXV.= O Z V *X*X*X> > = c.9.IXIXc., , l Z |.%XLXq.,.O   Q zXiXiX%X= , O h.9.zXiXq.+ . _ ) [.xXSXPX>XAXV.V._ ,.IXDXHX).|.;XvXxXLXPXHXcXHX-X|.2.%.c.[.[.*XwXcXPX|.: : Q.V.LX8.( O + v :X>XzX:X&.O O 9.l.LXLX}.= = v : }.LXHX8.8.O V E HXxXjX*XW O O b.x.PXA.V.# # : ;XzXLXLX_ .   +.2.LXKXzX0 > + . l.PXPXA.P.  0 : *XMXPXPX3.  . ) +.HXHXDXE B   0.3.*XMXcXc.x.6X&XPXPX%X_ _ N.f.[.zX6X4XnX$XG Y y a i n n - # y ; 6.VXVX6X=XLX;XsX*X[.6XA.l.A.Z.xXKX&X0 > Z V xXKXLX( 2.+ 8.3.PXHXZ.= > > = *X}.HXPXPXP.A.vXxXcX[.`.+.l.[.*X*X1.4.) *X,XDXcXvXHXxXPXLXP./ 0.h.8.AXzXAXq.0.2.,.&XLXAX|.;X3.9.8.HX>XcXx.x.3.8.",
"W DX[.-XcXx.B R t.4.PXDXsXt.P.) <.C.PXDX`.&Xb.3.+.6X}.xXxXxX7.z.<./ &XxXxXoX6Xt.[.h.;X`.DXQ Q O + ( 2.AX>X%X_ / _ 2.) -XoXbXtXZX5XmX .! # X X ; b b.lX6X*X}.xXxXA.Z B V.PXPX:XA.v : 3.vXjXxXjXZ.}.[.*X*XvX*XPX>X>X|.:X*X[.>X2.3.V.xXcXcXPX>XV C V.c.|.;X}.cXKX>XcX( ` V V.x.jX:XHXPXDXxXAXIX&X%X3.x.8.>X}.PXPX|.Z.x.|.V.xXHXPXP.oXt.xX}.xXxX&X6XB.=XB.DXMXJXoX&X[.x.*XxX:XHXPXA.oXx.cX}.MXPXxXA.A.;X{.sXJXPXoX6X[.}.C.6XsXsXPX`.-XA.|.A.HX|.cX}.*X*XvX-XvXPXZ.*X{.MX6X=XzXLXsXPXoXC.-XHXDX=XPXjX;XiXsXcXLXPXzXcX}.cX;XHXxXPX;XiX;XDX:XcXPXxX&XxXzX;X;X&XQ ( 3.;X[.DX*X}.W / N : 8 t y p u D p s p p y % % % O ' |.[.*X>XPXcXVXb.V.cXPX*X3.t.`.V.xXHXPX3.8.4.cX>XcXPX&Xq.f.h.7.sX;XHXN.).3.) Z.LXDXzXcX,.7.,.iX%X|.iX2.) <.zXiXPXzXvXIXHX}.E W 3.4.}.N.c.= O : > qX}.E.|.}.D./ / 7.3.Q.:XjXVXHXVXjX7.> > l.9.PXp.c./ _ 0.PXHXLXKXA.) &.;X{.PXPX[./ &.l.2.xXVXVXl.x.B x.l.PXHXcXHX9.H W cX;XPXoX:XW / 8.PXxX;XxX4.V E =XP.PXJXzX) l.3.+.sXLXMXb.P.( P.x.PXDX6XsX3.( W `.A.PXxXDX7.C.+.LXMXHXPXb.= + V V xXAXiX/ ,.Q ,.x.Z.}.KXPXrXa.v.n N ; % 8 # ; ^ P #XkX6XPXKXMXx.z.oX=XJXoX=XB.x.KXPX&Xm m v v }.HXLX9.A.> 8.3.HXvX*XZ V V v jX;XxXHXvX3.2.x.PXMXHXDXcX*X*Xl.c.v C _ |.|.HXPXjX[.V.cXKXl..   > : zXLXPX( / .   3.LXPX>X%X: O . }.|.PXl.8.+ . ",
"Q [.4XzXDXx.C v 0.8.MXLX4Xx.z.7.4.[.PXPXoXP.b.0.t.=X;XxXlX-Xz.b.7.0.;XsXFXoX`.P.B.x.oX:XcX<.4.O O / <.AX>X%X,.` / 1.2.@X{.7X4X5X7X7X! ~ # # o t # C.MXlX;XxXHX[.*XB Z [.xXvX[.*X> = 9.HXcXHXvX:X[.*X[.*XvXxX:X[.[.Z.:XcX>X[.3.8.A.xXxXMXHX[.B Z x.x.|.{.:XPXKXHX-X3.E E x.x.cXjX;XHXLXiXcXcXAXiX3.x.A.}.}.PXPX>XV.A.[.|.*XcXvX{.=XP.6X;XMX6X6X=Xx.P.`.6XxXJX;X&Xx.b.[.:X:XLXxXA.[.[.jXjXPXHXzXZ.Z.`.&X}.PXxXzX6X{.C.`.6XMXPXLX6X[.[.V.Z.PXcXvXjX*X}.jXcXHXPX*XjX6X6X6XlXxXKXdXlX4XoX&XDXMX6XMXkX=XzXsXIXPXPXsX[.vXjX:XcXPXLXiX*XcX:X&XHXPXHX;X*XAXjX}.Z.) 0.9.*X>XIXZ.Z.E Q N ; ; y i D a F g r N M y & % % O O *X|.cXjXPXLXJXC.[.jXLX6Xl.l.V.c.cXsX}.9.0.9.-X;XHXIX).h.l.N.N.iXiXzX`.x.2.( [.AXAXsX;Xf.0.+.|.}.*X&X_ q.4.*X=XHXPXcXvXLX}.E V 0.9.A.x.l..   l v *X*XwX*X|.9.4.7.q.7.|.qXHXHXHXPXPX4.: > p.P.lX9.p.3.( c.LXPXlXjXS.8.7.|.*XHXcXV.+./ 4.8.HXLX:Xp.9.E c.b.HXHXcXxX4.W ) ;X>XHX*X6XE / b.JXDX}.oX9.Q Q P.}.JXJX[.4.+.+.8.xXMXlX`.`.W x.Z.LXLX4XoXb.E Q C.oXJX=XdX[.z.8.=XxXMXPXb.+ + B C PXPXzX/ E ( q.l.V.}.MXeXnXQ.K.t p ; & y 8 ; ^ ) PXJX=XPXPXkXz.7.*XdXLXb.{.z.9.PXPXoXH H v v A.PXPXV.x.v 3.8.xXIXcXB Z Z E vXvXHXPXHX3.) 4.HXcXDXzXPXsX-Xl.l.: v W Z.[.cXPXjXZ.Z.HXKXb.O . > : ;XIXHX2.(   . ( AXPXzX*X:   O }.|.HX0.7.. . ",
"HXMXJXC.C.`.xXPX6XxXHXMXoX=X[.cXHXLX*XjXC.A.MXDXDXHXDX;X=X;XzX6XxXMXLX6X6X=XoXxXLXMXLXkX`.P.`.: B h.B.DXN.A.pXvX>XD.2./ 5.{.bXeX7XnX.XU.H m H 0.C.cX6X-X-XHX[.3.3.B E [.PXcXl.8.O + 2.*X*X>XjX|.wXjX0.8.{.HXLXPXPXQ.8.8.l.x.l.9.Z.vX6XPXPX*X0.8.sXjX[.E W 8.8.:XvX[.2.( x.x.cXsXxXPXPX`.}.`.AX:XPXHXHXA.A.@X@X-XPXPX@X:XA.cXzXLXDXxX}.[.[.[.PXPXPXxXsXh.z.-XDXPXKXJX[.b.V.zXMXLXMXMXV.b.{.P.MXVXPXlXlXb.4X}.HXMXPX}.[.8.t.;X=XLXxXxX9.8.`.;X;XxXcX[.c.Z.:XvXjX*X{.0.y.b.z.=X=XoXK.C.5.t.b.oX=X6X[.[.3.4.l.A.jXjX{.h.9.8.}.}.sX:X&X0.4.V.V.*X;X&X}.Z.<.W Q h.V.zXjXHXl.V.Q V b y : & & s r g s 5 u 6 % % % - ' : 8.3.vX*XwXVXVX[.A.c.{.zXvXxXPXPXsX;X}.PXPXPXPXLX>X;X%XDXxXDXAXHXAX*XzX>XzXzXLX*X;X}.`.:XxX6X6X[.t.c.b.jX6XLXsXjXcXPX;XV.}.cXPXjXcX*XV.V.B Z W B A.:X-XV v 2.p.3.}.}.VXcXHX-X:XLXPXkX6XjXHXPX}.oX[.JXcXHXlXMX}.=XHXHXlXHXPXHXVX*XPXPXHXHXVX:X:XLXPXDXPXHXHXPXjX&XPXHXxXPXPXjX*X*XLXMXPXLXLX&X&X;XxXsXKXPX6XsX{.PXPXcXDXLX;X;X6X=XKXPXPXcXLX6X}.MXPXPXPXPXsXP.{.xXLXPXLXPXMXsXP.x Z 3.l.KXHX*X&XjX[.).l.l.b.P.M.JXnXCXU.r.i - - Q +.kXVXKX=XkXMXMXH +.0.JXPXMXb : M H 6XMXKXI.oX6X-X[.cXjXDXKX:XvX:X*X*XUXl.S.q.8.[.&XjXPXcX3.2.3.`.:X&X6XcXPXDX*X*XW / 1.A.|.UXHXHXvXKXPXLX:X4.4.+.3.}.LXHX}.}.4.2.x.jXHXHXHXl.( ) V.[.PX*X}.W W ",
"=Xt.C.R W t.=X[.MXMXB.7.Q l.8.sX6XP.R +.E W [.oX}.c.t.R R <.}.P.|.P.z._ ~ 3.7.C.b.B.t.0.B.MXMX X`.iX%XzX4.2.S.c.>XA.[.V C ) P.{.6X#XnXlXoXK.{.6X*XwXLXPX>X*XV.jX*XHXHX*XxXcX*XvX2.2.[.xX>XZ.*X7.3.8.v : ( 0.2.4.3.E : y B C ) E }.cX-XPXLX}.x.x.DXPX[.O . > : oX>X*X4.2.l.l.HXjXvXxX;XZ Z : 0.3.Z.8.0.v B W W l.V.b.E ) : 4.4.A.`.`.) Q m M z.x.`.9.x.v v 4.h.x.{.[._ Z V 0.c.oXA.[.B C Q C l.P.C.8.4.0 Q Q c.z.h.+.7.v M t.4.A.c.V.W W ( A.A.Z.A.9._ _ 2.8.}.}.=X+.~ +.~ n.P.K.C.K.^ +.4.C.n.b.3.9.W / 3.8.[.V.[.4.2.W V.l.}.{.x.T C 2.) l.V.c.4.4.C V 3.|.}.cXcX>XB V % O : P P ; & p s D D D 6 ; 8 b b : > O > v qXjXMXPXLX*X*XW V 9.}.|.V.l.E V B [.V.B.<.( B E 2.>X[.Z.c.<.<.Q ).A.;X>XZ.V R +.3.oXA.A.z.t.B.c.jXlX6XMXMXKXb.l.3.l.xXxXLXLXHXHXPXPX}.>XPXPXPXx.p.) 4.0.x.|.HXcXHX}.P.4.&.x.p.{.;X-Xx.Q.v 9.p.HXwX*X8.0.H _ A.cXcX|.x.V ) 0.|.:X:XxXl./ / Z.V.;X:X}.2.7.3.9.*XHXcX}.[.( 0.l.6X6XxXz.t.W +.[.PXMX&XoX4.4.Q ;X6X;XxXC.Q R 0.t.;X&X=X4.3./ W =X6X6X{.{.7.4.0.6X&XMXU.B.z.h.MX`.A.*X-XxXcXb.%XP.PXPX[.) W 3.+.{.VXVXnXeXM.M.4.wX6XPXMXwXJXKXl.x.5.{.C.4X6X4X: ; v M =XOXPX{.K.MXDX) 3.3.zXHXHX}.:X3.2.Z.S.}.8.3.vXjXsXcXcXc.A.}.cXjX/ W W [.&XjXIX9.0.q.A.*XIXcXHX:XzX[.*XPXLXPXMXHX}.HXxXHXLXPXPX&X[.}.vXPXPXPXPXc.c.jXHXPXHXPX",
"&XB.V.Q B B.&X}.DXMXh.9.H t.x.;X=X}.H R Q Q P.&X&Xz.t.W C 9.A.A.P.A.b./ ~ 3.7.B.z.C.t.z.h.MXLX`.|.`.;XcXW 2.Z.x.*XQ.Z.Z Q ( }.Q.=X=XeXlX{.P.oX;X-X>XPXPX&X;XV.;X*XcXcXjXjXVX:X>X2.9.V.vXjX[.[.9.7.&.C b W 4.9.&.7.W v : b P W Q *XsX6XHXPX}.x.x.PXxX[.# O = : ;X-X*X+.( l.x.DXxXzXzX;XP Z v 3.3.P.z.&.H B P &.0.C.b./ ^ b ( 3.A.A.P.) Q B Z t.b.C.x.9.B m 4.t.x.{.C.+.E C 6.M.{.Q.p./ B b W t.P.C.0.) b H ^ t.z.b.4.^ b b +.0.P.x.x.W W ) `.V.`.V.x.W Q 2.8.Z.=XoX7.~ ~ +.y.P.{.b.z.^ 6.4.y.C.m.3.2.) ( 3.t.V.P.V.9.( ( 9.A.|.}.l.W V ) 2.0.x.N.,.,.E V 2.*X}.jXcXgXB C = = - I M y 6 s u s L D 8 6 : y y : > = : = zXDXcXPXHXoX}.E W 2.|.|.l.B.V C W V.[.V.2.( C V 8.[.[.).x.,.( ( N.`.;X;XZ.V C 3.7.P.P.C.t.b.b.C.kXMXkXMXMXLXx.9.9.3.xXHXLXLXHXLXPXLXzXoXPXLXcXZ.p.( &.8.P.A.MXlXKXoX[.) 4.0.x.P.=XoXC.z.R 9.z.=X6XoX6.5.) _ Q.jXjXZ.Z./ W l.@X-X:X-XS.W ) {.{.*X:X[.3.4.9.9.sXcXxX*XZ.2.l.h.*XjX;Xh.x.( ( [.JXJX=X4X) 2.( oX;X;X6XC.^ / 9.t.-X*X[.7.7.+.W =XdX6XoXoX8.4.0.oX6XsXP.b.b.5.LXA.V.}.:XvXKXb.*XA.PXLX;XE _ 3.7.[.lXlXwXVXA.C.0.=XlXzXjXPXjXHXx.b.5.m.K.6X6X6X8 0 b M OX3XMX{.{.lX6X8.3.2.LXvXHX*X|.8.3.A.|.V.9.q.xX*XMXvXMXx.V.6XxXjXW W ) &XP.xXgXV.l.2.Z.}.xXPXPX*XjX}.}.KXLXPXHXcX&XHXjXPXcXPXPX;X|.[.PXPXPXPXHXV.B.*XPXHXPXPX",
";X7.0.3.4.B.C.[.[.oXb.P.8.A.b.`.}.oX0.c.B.t.{.}.;XA.C.t.7.P.sX-XdX4X{.t.t.x.b.P.`.`.B.P.h.+.4.z.B.sXDX&XO + : : -X*X:X/ E B <.+.{.P.-X-XcX*X;X:XjXcX[.x./ ) }.IXxXZ.x.9.:XPXcXjX[.Z.jXjX|.9.9.x.KXVXoX{.oX@X*XZ.Z.P.Q.P.C.z.0.4.>X:X-XHXLX}.8.8.6XvXHX8.4.) _ *X*XV./ W b.V.MXjX6XHXPX}.[.C.}.P.{.|.|.[.Q.P.P.P.oX=X{.@XA.}.{.=X;X6X`.&X;XoXjX&X-X;X=XP.A.oX}.oX=X4XoXoX{.-X=X=XoXoXoX=X=X@X}.Q.@X=X6X=X6X=X@XQ.P.{.oXwXwX@XoX}.;XjXjXcX*X}.[.;X*XjX}.6XHXvXjXsXkX3X7XJXKXKXbX=X6XMXMXJX6XkXMXkXPXLXcXjX:XjXvXlXcXxXvXxXMXMXzX:XLXjXzXPXLXxX;X}.iX>XZ.l.V.AXxXPXHXZ.: : . + # M P D s p a p U Y n t N N b = O + = , Z.V.|.:XLXPXPXZ.`.c.A.x.8.l.l.8.3.V.b.x.0.l.f.3.h.B.c.B.V.9.f.7.c.l.N.Z.[.3.5.z.t.0.0.5.t.y.6X=X4XkXJXkXdXP.0 V l.c.jX9.( 0 0 8.}.*XjX;X-XoXP.4.4.b.Q.P.zXPXjXjXKX6XjXt.l.x.0.x.b.b.z.t./ t.3.b.V.b.4.3.+.) 0.S.V.0.9.Q Q 8.l.c.S.b.3.P W 9.8.9.c.l.8.3.2.W x.A.Z.V.x.2.9.9.P.}.oXz.x.2.( b.=X=X[.oX3.0.3.{.A.Z.}.V.4.3.b.b.oX[.[.z.c.h.7.sXU.P.B.A.0.7.t.{.C.b.B.t.t.P.oXC.[.>XjXjX-X> Z C HXMX:XE T R E 2.V.E.jXHXlXvXjXKXMXMXcX*XB.{.P.;XJX6X3XkXMXPXt.b.K.b.KXPXoX5.4.4.3.V B v 9.7.9.2.3.V v V E ` Q _ *X|.HXHXPXV.V.*XHXPXE W + 0.8.HXHXx.D./ >XjXHX>X:X) E v B V.6XjX}.*X8.W W :XxX*X*Xx.) / l.c.}.oXvXc.l.7.Z.V.>X*X",
"`.t.b.9.4.B.Z.[.=XoXz.t.4.x.A.oX=X{.9.7.9.t.`.;X}.P.C.A.b.A.=X[.oXoXb.z.b.b.B.C.C.P.b.x.C.+.4.b.b.LXxXP.= > : 0 *X}.|.) E E ( 3.A.P.KX:XLX*X%XgX*XPX).V.2.E :XjXHXV.*Xl.xXjXjXHXA.}.cXZ.x.l.8.l.lXzX=X=X@X{.{.A.Z.{.@X}.C.t.3.4.oX|.&XLXPXvX2.3.LXvXvX9.2.) <.`.sXh._ E P.P.lX4X@XwXcX6X-X=X@XQ.{.{.}.@X@X}.Q.Z.Q.}.oX*XoXoX}.oXoXoX}.*X6X6X=X[.=X*X}.=X=X{.oXoX{.OXoX4X#X=X.XoXoXoXOX=X4X=X.XP.{.oX@X6X-X6X@X.XoX@XQ.wXjXQ.@XoX6X*XvXcXxX}.*X;XxXcX*X;XjX:XjXcX6XzXdX4XkXzXkXkX6X-XMX6XlXHXMXxXHXHXHXcXlXvXjXjXlXcXHXHXcXjXjXjXjXcXDXHXHXjX*X;X}.&X[.A.`.xXcXPXPX9.: > O O O b H Y S p p a F Y n y M b t . . + + = l.x.LXcXHXLXMX|.|.l.x.b.9.9.x.c.l.B.l.l.9.l.x.0.h.x.l.x.V.t.9.9.V.V.b.x.V.0.t.z.c.2.2.2.C.x.zXxX-XMXPXlXMXZ.E Q t.t.;X4.6.; ; c.*X}.6XHX=XMX9.3.3.t.z.oXzXMX6X=XlX;X6Xz.9.9.9.b.t.t.h.z.6.z.z.b.z.z.0.0.4.<.b.x.x.9.9.) ( 8.0.0.l.l.7.2.3.8.9.l.9.8.0.9.3.2.x.A.A.V.x.3.9.8.`.Z.`.z.l.6.8.C.oX}.}.}.z.z.7.x.P.P.|.P.t.l.V.z.`.A.[.b.b.B.h.{.`.`.C.A.h.h.t.x.C.b.8.C.0.t.t.`.V.:X:XjXKX; v M VXxX:XQ T T / 2.x.V.PXHXPXDXPXcXjXcXPX|.`.Z.}.&XPXZ.oX6XlXKXP.V.P.V.KXPX{.0.t.4.4.) / Q 3.3.3.2.( E E W ` V E W }.{.cXHXPXV.Z.:XvXPX) 4.+ 8.h.PXPXS.S._ ,X,XPXcXvX) W V V A.cX:X|.|.3.) ( *X:X@X}.A./ / 9.0.*X@X*Xc.x.( x.x.xX:X",
"xXxXJX;X}.MXJXMX=XkXDXKXJXMX-XoX=X6XMXJXPXMX;X6XxXzX-XMXkX=XxX=XkXlXoX6XMX=XsX6XPXMXKXKX&X- : <.<.PXLX=XB C B W cXoX|.x.f.l.,._ q.0.zX*XgXvXHXHXPX}.W T 2.q.jX%X>Xv v O x.[.}.:X|.|.9.) ) A.Z.6XwXkX6XlXkX-XlXMXzXwX-X@XOXoX}.}.HXjXjXPXDX;XB B c.V.HXPXPXcX&X}.V.E v v A.P.MXMXLXLXzXMXwXMXeXeXJXlXwX6X6XwXwXjX6X-XkX-XzX6XlXkXlX6XMX6X=XsX6XMXMXMX6XDXMX6XDXHXkXkXkXbXeXeXkXMXKXMX6X=X4XkXMXMXwXkX=XkX=XMXkXMXMXMXkXJXLXkXMXlXMX>X:X>X:XxXPXjXvXzXjXvXcXxXxXzXxXKXDX6XzXlXxXJXMX4XJX=XxXxX6XzX@X*X-X:XjXjXjXwX>XwXvXjX-X-XjXMX*XxXsX*X:XiXsXHX;XsXjXsXjXAXxXxXDXV > > > : = i 8 P S p p y r s p y M ; : . = = O , Z V cXzXcXzXHXxXHXjXcXKXcXxX6XxXcXHXcXxXvXjXxX:XxXDXcXDXDX6XzXjXMXcX:X-XxXzX;X;X;X[.B.b.;XoX;X6XJXMXJXP.P.C.zX-XkX*X@X^ /   . 3.6XcX}.Z.v v ( l.c.x.M.LXPXMXMXcXLXMXPXjXjXlXlXJXkX6XxXxXMXMXbXkXkXMXMXMXMXcXVXjXlXVXHXcXVXHXlXjXcXVXvXVXHX:XxXKXDX6XvXvXvXHXxXcXHXHXHXcXHXHXPXMXJXxXjXxXxXLXxXxXLXJXDXJXxXHXxXxXJXJXxXDXKXHXJXxXJXMXxXDXsXxXDXDXMXMXMXJXHXMXDX;XPXPX;XoXB _ ) PXPXcX-X: C P =X6XKX).).V.c.q.2.( %X}.iXiXLXzXPX;X}.2.A.Z.HXDX;XH ) P.[.LX&XZ.cX=X&X&Xz.c.;XxXzXJXMXjXxXcXcXcXcXvXjX*XS.0.3.2.*X&XcXHXPX9.l.A.PXPX>X}.8.A.Z.Z.>X3.0./ [.A.HXPXPX[.|.Z.t.A.Z.l.Z.Z.b.[.V.[.Z.}.[.{.9.c.Q.V.@X}.A.l.V.0.V.A.sX*X",
"DX{.oXMXKXcX*X;X6X;X-X;X6XsXMXDXxXsXsX;X6XjX;XMX;X6X&XcXxX=XxX*XzXVX-XMXVX=X-X-X{.{.VXVXPX*XoX2.<.dXsXLX*XcXP.C.VXp.2.W ) A.x.l.;X[.cXgX*XPXPX|.|.N.;X%X*X}.iXPXcXW ( B >X>X*X*X9.8.Z 8.8.V.l.}.6XwX-XlXkX=XlXCXVXMXbXMXJXJXJXVX:X|.}.PXcX-XV E V.c.V.V.Z.:XjXcXLXh.( Q [.A.6X6XwXkX-XVXwXVXwXkXlXwXwXkXMXlXlXbX6X-XlX6XVX6XkX4X-X-XKXMXxXDXxXPX;XMXxXLXJXzXLXMX6X6XbXMXMXeXeXkXkXbXMXCXNXMXbXkXeXVXVXPXVXVX-X=XeXwXbX6XwXVXeXwXkXcXPXLX*X:XvX:XsXjXMXHXLXLXcXjXcXPXPXxXcXxXsXcX&X;XPXHXLX6X;XPXHXcXcXcXVXVXlXwXwXcXHXHXVXlXlXcXxXPXLXxXDXcXiXvXcXAXHXHXLXIXcX}.}.> = = > ; o % X ; ; - - $ @ @ 8 : t o % . , + O O . + [.sXxXjX:XjXHXcX6X:X-XcXcXcXcX:X:XjXzXsXMXvXjXjX:XsXsX>X6XjXzXxX-X;X>X-XzXjXsXKX;X;XMXMXHXjXLX`.B.c.A.PXMXPXKXPXVXoXMXC.Q.lXKXVXt.p.W ) x.P.oXHXMXMX=X-XkXzXMXzXJXsXzXHXMXJXNXMXMXkXMXkXlXdXlXMXMXlXMXMXMX:XwXVXcXVXHXcXMXvXcXcXlXPXPX>X}.xXHXDXLXHXxXLXxXvXvXvXjXMXcXcXxX6XHXLXMXLXMXxXjXsXLXxXcXMXxXMXxXxXMXcXsXxXcXxXMXsXMXDXMXKXJXxXcXxXxXsXcXDXMXjX6XPX;X6XLXPX-XW E UX:XHXPX6XeXOXJXlX=Xh.N.|.).N.).S.zXIXzXvXAXvX;Xc.f.) |.`.PXDX9.. . W / xXsXjX3.8.4.0.c.b.|.6X-XDXcXjXsXxXjXjXjXjXjXqX}.*XqX:X*X-XLXPXPX2./ / :X&XPXMXPXHXPXZ.l.v B ) ,X,XvXxXxXvXHXLXPXPXHXHXxXPXKXLXjXVXVXVXVXHXVXLXPXPXVXLXPXHXHXPXPXHXMXvX",
"MXoXoXDXPXsX=XMX-X;XsXjXxXkXxXMX6XsXjX6XsXsX=XsX6XsX6XxXxX6X6X=XzXcXwXlXlX-X=X:X=XZ.kXMXMXx.Z.3.0.;XsXJXP.Z.K.#XPX0.q.) _ S.S.k.gX,XjXAX>XLXPX%X,Xx.iX;XiXcX*XcXPX( W Z }.xX:X>X8.8.Z 9.3.V.A.>XkXkXwXMXbX-XwXwXkXMXJXCXMXMXMXJXHXsX:XKXMX|.R E x.V.[.V.[.HX-XMX6Xt.W Q A.B.lXMXwXkXwXKXlXCXeXlXkXwXeXMXMXlXkXlXlXwXlX-XMX6XkX6X6X;XDXMXMXLXjXMX;XMXMXMXxXcXJXcX4X6XMXlXMXkXkX6X6XkXCXKXJXMXkX7XkXMXMXKXMXlX6XwXMXwXbX}.oXJXlXMXjXzXHXPXcXvXjXxXHXvXHXcXcXKXHXcXxXAXxXsXzXcXDXLXsXxXDXsXcX:X=XHXVXcXkXlXlXlXkXwXlXcXVXVXVXVXMXMXxXHXHXDXDXcXiX;XjXjXjXjXHXIXHX[.V.l : : : : o o o & & & * @ @ @ & ; 8 o % O = . , = , = Z.cXxX:XzXjX:XxX>X;X*XvXvXvXvX*X6XsXxX6XzXvXjX6XsX6X-X>X;XjXzXHXxXvX*XoX&X*X|.HXsXsXxXLX;X;XDXV.x.&XA.HXMXPXlXJXPXKXcXP.P.oXMXPXb.t.^ P z.A.}.MXKXMX6XLXJXJXJXHXJXkX4XzXlXlXJXMXFXkXlXkXNXMXJXMXMX4X6XsXJXcXjXHXwXjX:X-XHXxXlXzXlXHXVX6X>XjXxXMXPXHXvXsXKXHXcXjX-XcX:XsXxXsXMXMXjXPXMXxXLXHXPXMXxXsX;XjXLXLXHXcXsX4X;X;XDXzXcXHXJXLXJXMXLXDXDXsXcXjXzX:X6XDXLXjXPXPX*XQ ) :X*XPXjX#X4XkXKXJXC.9.c.>X).N.S.S.>XIXvXIXSXcXiXA.c.4.Z.V.PXPX0..   / / jX&X>X0.f.3.( x.V.Z.sX;XzXzXsXjXvX:X:XxXjXjX:X,X*X>X,XvXzXHXPXKX2.) / xX:XPXcXPXxXxXV.Z.v v %.,X>XxXcXHXPXcXDXPXHX6XjXLXPXVXlXlXLXLXVXVXHXHXVXVXPXkXKXPXHXDXPXPXPXxXxX",
";XDXxX;X=X6XMXLXxXzXxXcX6X;X;XsXxXDXcXxXMXxXjXxXsXsXxX;X6X6X}.}.*X@X*X}.@X*X}.-XcXlXwX}.KXPXPX[.`.h.7.P.P.{.wXlX@Xv v O O 3.%X%XiXzXiXzXpXN.).f.N.>XHXAX).).*XvXvX*X:X[.*X[.Z.*X) 8.9.|.[.HXvX*XlXbX-XwXwX=X-XoXQ.}.oX{.K.C.P.}.-X*X*XLXPXoX8.l.PXcX9.= # ) ( >XMX[.<.<.Z.B.cXzXkXkX6XwX-XrX#X#XwX=X#X=X@X{.{.@XwX@X.XP.}.}.=XoX=XoX&X}.oX&X[.[.-X&XoX`.[.=X=X;X#XoX=XQ.#XOX4XOX=XOX{.{.{..XoX=X=X{.Q.C.P.P.=XkXwXkXbXkXnXJXlX6XZ.x.c.x.>X6X*X[.V.x.}.*X*X:X[.x.x.x.).;XzXzXjX;XLXIXc.2.q.8.3.4.2.4.4.3.3.7.0.9.9.9.9.9.p.l.x.V.x.h.l.c.c.x.A.A.A.A.x.f.x.N.V.W ) l v Z v B b M b s y p u < r u ; 8 t : v v v : : : = , 4.iXsXjXcXxX;XcXcXLXMXcXjXjXHXxXLXcXHXcXlXMXVXHXPXLXMXVXHXLXwX:X*XlXjXcXxXAX:XxXcXiXsXzXPXPXA.v v Z.[.DX3.+.0 ; z.kXVXJXPXwXQ.{.&.6.z.b.oXJXJX4XzXlXkX6X6XlXlXxXDXMXlXHXMX=XJXlXMXbXdXMXdXdXMX6XMXkXJXJX6XjX:XcXwXcXlXHXHXVXzXvXcXlXjXVXKXcXxXcXxXxXzX:XcXxXxXzXjXPXcXHXMXMXxX-XoXHXxXJXxXxXDXJXcXMXjXJXsXxXxXxXHXMXlXxXDXMXxXMXDXxXxXxXjX:XcXvXHXxXKXPXHXPXjXHXLX>XPX*X|.x.D.jXjXwXOXW.KXkXE : : 8.f.).gXvXIXPXIXPX>X].).>XiX;X:X|.DXIX|.V Q [.[.PX&X%Xl v 2.3.|.;X>XjXxXHXLXDXPXLXHXHXHXcXIXPXPXIXIXDXHXcXxXLXPX7.9.0.}.}.}.}.*XcXHXjXcX) ( %.Z.].HXPXjXjXjXcXLXHXMXMXVXkXwXlXHXVXcXlXlXLXwXlXwXlXlXKXcXsXjXHXxXcXHXKX",
"=XLXMX=X;XcXMX6XxXMXxXDX;X;X=XzXzXLXzXzXxX6XkXkXdX7XMX=X3XkX XOX4X#X=XQ.oX6X}.6XwXcX:X-XPXcXzXwX;X4.<.P.oXP.wX6X-Xy v O + 3.;X%XiXzX}.iXPXN.N.f.3.HXcXLXA.c.AXiX;X:X*X}.}.*X|.}.2._ p.A.}.lXjXwXKXCX3X#X3X$X$XL.!.W.Q.Q.P.K.K.P.6X-X;XLXPX`.l.b.LXPXV.= # ( _ jX;X`./ 4.A.V.HXkXeXrXtXrXrXrX#X!.7X4X4X4X#X X X$X3XOX.X.XOXOXXX XoX=X3X=XOX X X XkX XoX{.oX4X{.oX=X#X8XI.#X#X7X.X$X.X X XXXOXOX.XOXP.W.m.Q.C.@X4XMXCX4XMXCXkXJXkXA.A.V.3.jXDXcXB.V.l.}.*X*XjX}.b.V.l.A.>XzXcXAX:XHXPXc.) _ 3.3.2.+.4.6.6.4.4.6.t.0.y.p.p.z.z.b.b.b.9.h.x.h.c.Z.Z.x.x.c.0.c.z.C.P C v N V y b t M N 6 6 g r & r 5 ; 6 ; 8 t v v v : > = = ) cXxXzX&XMXcXKXxXMXxXxXcXzXHXwXMXwXCXJXVXJXcXkXMXMXMXLXvXPXcXDXxXLXjXjX;XzXiX&XHXsXcXjXAXPXh.: x ;XzXsX3.+.m - P.MXcXKXKXVXP.P.0.0.z.t.Q.NXPX=XMXMXMX7XNXNXtXeXnXnXbXNXJX XCX7XBXmX7XNXNXNXKX6XbX7XCXnXeXMXeXMX4XkXwXJXMXMXeXeXbX4X4XKXCXkXCXJXwX6XMXkXJXMXMXcX4XKX6XkXkXJXMX6X*XJXjXHXMXxXDXPXMXHX-XMXxXcXxXDXPXLXjX6XMXMXxXFXJXbXBXCXkXeXCXlXJX6XVXKXKXMXLXHXsXxXLX;X;X8.9.wXkXkX6X#XKXKXH : = 3.0.%XiXAXIXvXIXPX;XA.).xXjX;X[.}.PXPX%XE ) S.[.AX%X>XB v 0.4.A.&XsXzXMXMXJXMXPXJXJXJXPXHXJXPXHXHXIXHXHXcXcXPXPX0.9.8.;X*X[.`.[.xXHXcXcX1.q._ Z.A.PXHXlX4XkXCX4X=XKXVX6XlXVXeXlXCXCXwX4XKX#XVXlXeXKXVXJXlXVXkXkXkXPXPX",
"6XzX*XMXPX6X3.9.lXjXQ.Q.l.-X>X>XUX).3.3.Z.P.4XkXbX5.5.9 9 q i q p n n n i i m S K.n.JX6XjXHXDXLXPX=XxXv C ) sX6XP.^ _ 0 x ;XxXxX:XHXLXLXB.: > B.B.LXx.Z.= > 4.xXcX|.iX[.|.Z.0.h.t.6. XbXOX7XbX1X..I q < 6 7 6 4 * @ o o o # % # 7X=X*XJXzX=Xb.x.HXDX[., O : T >XxXZ.7.3.x.V.wXnXtX0X/.F.-.;.-.w.*.O...!  .*.*.U X.X.X.X. . . ....... . ..... .! O.@.O. .!  . .! .. .U @.@.U  .! U G K J ! ! I I ! ^ H G H H M ~  XnXeX6XkXKXbXJXV.h.# > z.PXHX8.<.. 0.4.DX:XA.t.9.+./ 9.8.|.AXHX:XvX}.E W   O = : 8 # 8 % 4 6 - - 4 4 w 9 5 4 ; X - o 0 0 Z R R O % o # @ @ $ i u s p D A s D p a r 5 5 r u s p r r u p i y y b 8 9 9 t H Q I Q Q H Q Q <.<.7.4.+.^ +.H N ..&.6.^ &.) &.+.) 4.2.3./ W / / / ( V.[.jXHX*XsXcXMXPXZ.b.B.P.;XC.P.&Xv C + + 4.V.-Xb.x.^ 4.+.p.p.Q.K.tXCXtX5XyXG.s.u.s.s.u.u.u.u.i.w.e.w.e.w.*.-.e.e.e.e.e.e.e.e.e.e.e.r.r.y.y.r.a.a.e.e.r.r.w.e.e.w.r.e.e.5.&.5.5.5.+.4.+.+.+.+.! ....! .XnXeXJXPXjXQ.S.:X:X|.c.:XjXzXLXLX|.h.c.V.[.6XMXJX5.5.J J K D S J A U F U ! I y.KXJXMXxXDXPXLXzX*XV V 8.MXJXMX[.B > > Z.].cXcXxXIXHXjXiX) jX;XDXLXx.x.3.HXxXSX>X`.IXGXSX8.f.B.h.C.C.dXdXBXJXNX3XU.H.m.m.H.n.H.n.m.z.b.B.}.|.HXxXcXPXLXb.Z.sXPXjX: x > |.).cXjX[.Z.q.}.E.zXkXBX9XCX9XNXmXnXnXrXtXmXNXZXZXNXNXmXmXNXNXmXmXNXNXmXmXnXnXtXtXmXmX",
"oXkX6XPXLXt.= O 0.x.|.*X*X-XjX>X*X) : v 8.z.kXCXtX..I $ $ X X X X $ 4 6 4 & @ X = = t.t.}.&X:XxXsXxXPX[.4.Q b.C.A./ 4.=X-XxX;X4XKXxXA.B.`.b.c.;X}.LXC.B.O O +.MXzX>XiXC R 2.B.B.=XoXOXbXBXtX1X..$ @ X X < w < * 6 & * @ X X # % {.OX4XPXKX&X4.) MXxXHXZ.[.N.9.;X[.2.V E N.).cXbX9X2X/.F.;.;.;.-.*.*.O.U U X.o.J  . . . . .U ! ! U U U {  .X. . . . . .J J U  . .O.#. .o.X.J U J U U U U G K K K n u G O.n A H m n !.7XKXJXJX=XbXMXJX3.2.b.PXPX[.jXt.}.[.jXLXJXKXMX-XoXl.2.x.*X&XHXHXPX:X>XV v = 0 m m b - - q K q * * w 4 q A A % 9 - v v v W W , % X # # < 1 f u N p g g s g p f s r s s s p n r r s n b t t b S A p u i p 0 - # X X . # % 0 0 ; 0 9 o X & - ; ; ; % % # o % # O   = O   + x xX:X>X-XcXPXLXA.x.Z.`.JXJXPXPXPXMXoX6XB.z.FXcX=X) / E 9.0.W..XbXCXtXmX0XJ.s.*.-.i.{ { { { {  .} { o.#.#.#.{ L { { { { { }  . . . .X.X.X.....! ! I ! ! X.X. .#.o.} #.{ U U G G I P b M m i i q 5 9 i b L.nXCXCXMXM.W / }.>XAX;XPXDXxX;XZ.R V E l.A.HXbX7XU K X X X $ < 7 7 7 & @ . . @ H ~ FXPXLXsX6XPXPXjX}.C }.A.Z.*X8.l.l.PXHXjXHXHXPXvXW ) ) MXjXLXxXC = = |.sXpX).k._.).8.N.V.h.B.=X3XmXLXNXw.w.q - & q q A 4 - # # X o # : : [.[.;XLXLXB.`.sXcXPX9.q.: 0.9.vXcXV.9._ ].}.PXKX7XJ.G.-.w.*.w.r.e.6.*.*.*.*.*.-.-.-.w.w.e.w.w.*.w.w.e.e.e.w.w.w.",
"{.=X6XPXPXz.0 : c.x.jX>XVX}.jX,XiX_ v v t.t.7XtXBX! G $ $ X X X $ * & & & % @ . % - B.b.6X-XsXjXLXLX;X=XQ W A.=X0.3.8.cXzX;XxX;XHXDX&Xb.P.P.{.=XxXJXC.h.# + 4.sXAX%XzXT 2.,.x.7.U.oX8XJXKX1X7X@.X @ X @ < w < < < * & $ . . # =  X=XOXCXLX=X4.4.PX-XjX&X}.N.h.).:X2.C T ).).xX4X9X/./.F.=.;.;.-.@.O. .U U X.#.J { {  .{ U J ! U J Y U U U U U I U ! ! J G !  . ...O.U  . .J { J U J J J G A A A G A I O.n S S b I W.m.eXbXCX7XPXPXxX3.+.4.MXJX;Xb.c.C.=X;XMXDXMXLXjX:X3.2.8.*X6XPXjXDX*X[.) E O b 0 m 4 4 4 q K K $ < f 7 q D a 6 n 9 0 v : W _ = =   . o 4 < 5 y G i y n p p a p s a a y y t b 5 r u i v y y t N a p u 9 p 9 o # X X X - - 8 8 # t 9 X o - & & ; ; # # # o # O > . +     + v &XsXvX>XxXcXPXP.b.c.x.PXMXMXPXPXFX;XoXB.x.LXcX*XQ V W z.t..X.X4XeXZXmXyXJ.F.w.-.w.{ #.#.#.#.o.o.#.{ {  .{ J J { U U U U U { }  . .X.o.*.*.O....... . .@.@.X.o.o.} } { { U S S H H 0 b b t n i i n 9 t m.tXCXJXVXM.Q W [.Z.jXvXPXcXcX&X`.B Q T B.V.LXMX7XG K $ $ $ $ * 4 7 < 6 & X . # H Q PXFXLX6XPXJXJX6X:XH A.oX[.*X3.x.l.>XUXcXPXKXsX*X_ ) 3.-XjXPXDXZ , > cXIXIX|.%XS.N.q.V.l.N.x.oXbXBXmXLXw.y.- w & n i n & 4 $ $ X o # 0 0 |.oXxXPXLXx.V.;XxXHX9.4.v q.x.IXAXc.8.) |.}.KXNX7XG.G.w.w.*.5.e.d.y.w.*.*.*.-.w.-.-.e.e.e.e.w.*.*.*.5.5.*.*.5.w.",
"4X4X;XKXLXc./ +.zX@XjX@XwXQ.,XZ.A.Q ` P x.t.bXnXKX*.@.f K f f f a u 5 & - 6 6 % ; . - = 3.cXMXjX;XMXxXPX0.t.t.3.b.6X&X-X{.jXPXPXb.t.h.x.MXxXsX[.P.6X*X6X8.3.oXsX>Xf.c.V h.9.[.A.3X7XmX8XL.n n & 5 f f q 7 w < 4 < < w 9 - - 8 0  XeX=XCXJXC.B v l.B.vXPXPXAXzX*X}._ Z Z ).S.MXbXyX/./.i.=.:.;.i.!.L.Y.T.J.^.^.G.T.T.T.J.G.G.J.J.T.Y.Y.Y.T.J.G.v.L.Y.L.H.G.L.L.J.Y.!.J.J.G.G.J.F.J.s.u.a.G.G.u.5.*.5.! ! ! ! H I N ..I OX=XnX6XCXJXPXPXPXB.;X;XxXPXJXMXxX6X6XoX;XcXjXMX*X;X_ 9.8.[.[.HXHXxXsX-XH X X 9 q ! G p 9 K 4 w f u q q 4 5 p n 8 v = Q W v v # o # u u u t P v 8 N b i 9 y t i b t 8 0 t 6 5 y y y ' ' y y 5 u p u G S # # X o - m m x 9 % H S % - a 9 5 t i ; 0 v 0 x > O O   + C Q *XcX>XxXjXxXV.x.Q E LX*XJXz.t.C.B.FXsXMXPXLXDXA.A.2.2.9.Q.K.VXKXKXKX1Xs.G.w.e.-.{ { -.-.-.-.-.w.-.@.@.@.-.-.@.*.-.-.*.*.*.*.w.w.w.w.*.*.*.5.w.w.e.r.r.r.a.d.e.e.w.-.w.-.w.*...! O.O.+.....G H 9 9 9 S n H.tXnXKXPX@XZ.Q.PXPXHXjXA.x.[.}.}./ 2./ V.l.zXJXNXU  .K F q J F D F 6 D f & & - % . Q W ;XFXsX-XPXPXPXl.2./ 9.x.V.PXPXcXvXUXvXHXZ.|.xXjX[.6X:XPXPX/ v v -X|.SXq.f.W T V.N.V.xX=XbXJXBXw.w.4 n X 8 4 G G A G J q 9 # # O > - =X*XsXLXcX0.9.Z.HXHXjXjX;X;XZ.S.A.W W / |.Z.MXNX9XG.G.u.u.*.O...I U !  . . .{ { { {  . . . . .U  .! ! U U  .O.=.",
"zXjX-XKXKXc.3.9.jXjXvXPX>X*XA.S.N.) W V c.z.CXNXmX5.w.K K K f q 7 7 w 4 6 5 6 - # # ; x <.LXsXsXxXjXJXJXt.b.t.h.l.oX6XjX6XPXLXPXC.8.z.z.DXMXLX[.oXJXxX}.8.l.&X|.sXN.l._ 0.f.P.P.3X3XCXOX~.! n w 5 f f A f 7 < < w < 4 4 - ; 0 v OXlX4XKXJXC.M v c.V.;XLXDXIXDXjX&X/ Z Z ).V.HXNXyX^./.;.$.o.d.d.T.J.Y.T.J.T.T.F.F.F.G.G.G.G.G.G.J.J.J.J.G.v.s.s.G.L.L.G.v.H.H.v.L.!.G.s.s.s.G.s.J.s.u.a.v.v.r.5.5.r.@...! U n G n H H .XK.bXNXbXsXxXLXPXc.A.=XPXLXxXJXMX=XxXx.MXsXKXvX:XjXZ 9.9.A.Z.cXPXjXvX;XC o # 8 9 ! K n q q A q 6 u u 6 5 r g D 5 b # P H 0 y O X o 5 5 i v E v : m m 0 0 0 t b m v : l v ; 6 8 : : : : : 8 ; u u u G S # % X . - b n q 9 & G p * & u 5 6 s i ; 8 0 : 0 > l = +   C B -XvXvXjX:XxXt.3.V / =X-XLXt.B.P.t.PXLXLXPXPXsXt.9.8.4.l.}.Q.kXCXtXtXCXJ.s.w.e.@.{ { i.e.-.-.i.i.w.@.@.@.*.-.@.@.*.*.*.*.*.*.*.*.*.*.w.*.w.e.e.e.r.a.a.d.s.s.d.d.i.-.-.*.*.*...^ O.+.~ Q ~ S H 0 9 i n n L.mXnXVXKX@XA.Z.IXPX*X:X0.|.h.oX}.7.( ( N.c.sXMXBX .@.U J q J F F F 7 D A & & # % 0 H +.dXLXxXPXxXPXHXZ.0.( x.9.|.HXvXjX:XPXxXjXZ.l.cX:X*XzXvXPXHX( v v >XzXLX3.8.E Z l.l.c.6XkXMXBXNX5.*.p & $ 9 w K K 4 J J q 9 & - # - - =XoX;XDXcX0.8.c.HXzXAX*X;X[.|.V.Z.Z B _ }.A.MXKX9Xu.u.e.w.@.*.=.Y U ! .. . .{ { #. . . . . . . .X...! U U ! ..O.",
"6X6X4XPXPXZ.Z.Q.PXLXc.l.y 4.9.:X*Xl.) ` V.Z.kX7XtX*.w.f f 7 * $ < 4 6 6 6 6 4 ; - 8 - # O 7.9.zXcX}.zXzX}.[.h.x.6XxXMX=X=XsX7.7.v W jX-XxXh.7.: v A.cXxX}.=X:X|.).3.,.f.%X&X6XMXJX7Xm.q 9 4 6 i q w < 4 r f q a q $ X X X o = ; #XkX4XKXLXoX4.4.zX}.V.x.c.[.[.xXPXf.W E ].).MXeXyXT.^.:.| $.F.d.yXyXmXZXmXZXZXyXyXmXNXmXmXmXNXZXmXmXmXmXZXZXZXZXNXCXKXNXNXCXCXNXZXCXyXmXmXmXZXZXmXZXCXZXNXNXNXNXmX7X7XXX....O.~ M 9 0 +.^ OXkX=XJXMXPXPX=XA.c.8.b.}.DXLX0.z.. _ R ;XjXHXxXE 2.W V.l.[.LXxXHXPX{.0 8 o o i q i 9 6 F a 6 A p < 5 5 p D y i # M v V H 8 - - p p S Z T v : v v x x x v v Z v l l x - ; : : : : > > = & ; 6 u D M - 6 # @ b H G i 9 & n u & 6 6 u 5 b s ; ; 8 8 v : :   V B xX&XsX*XsXKXPX&X2.0.8.9.6XsXz.  . > > C.&X`.B.C.7.) _ 0.9.Q.VXbXNXCXeXyXs.O.*.*.-.o.-.i.9X0X0X0X9XyX9X<X0X0XyXyX9X9XyXtXtXtXtXyXyXtXtXtXtXyXyXNXmX9X5X7X7X5XyXyX9XyXyX0XmXyXmXNXtXeXnXbX3X XI.6.5.m i q i i K.nXeXeXVX@XkX=XcXHX) 2.= 7.h.xXsXA.,.4.A.A.cX6X7X5.i.J K q 7 7 f g f L { D I n 9 b   . +.=XDXMXjXLXLXLX9.0.V.V.HXcXvXPXHXxX9.8.cXHXPXcXZ.x.A.HXPXvX}.P.PXHX>X,.2.8.l.l.cXcX4XbXbX8Xv.q p J  . . .U  .{ 7 F f 4 6 - ; - 8 : ;X&X6XLXDX7.( 4.|.*XPXPXPXzXcX}.}.C V 1.:X|.JXnX9Xu.u.e.w.r.J.G.a.a.a.d.u.r.i.i.i.e.w.w.w.e.e.e.w.e.e.5.*.*.*.*.",
"jXjX=XMXLXA.}.{.LXPXx.A.> 3.8.>X>Xc.E V Z.Q.4XBXCX5.w.K K q < * < < 6 7 5 - 4 q - % % > : 3.4.kXMXlXxX;X;X{.B.b.6XMXzX-XcXDX9.9.H R &XoXsX7.8.m 0 oXPXPX;X6X}.}.`.3.) c.&X&X;XMXMXKXH.S i 5 5 9 A a 4 4 q q r K f * X @ o @ - -  X=XkXPXLXoX4.) |.oXZ.7.9.}.Z.PXcXc._ _ A.].cXbXyXT.^.o.[ [ F.d.yXyXmXmXyXyXyXyXyXyXyXyXyXyXmXmXmXyXyXmXmXCXCXCXNXZXNXtX9XBXmXBXmXmXtXZXZXyXZXZXtXmXZXNXmXZXJXJXmXtXBX5X5.@.O.~ n 6 t Q +. X XbXdXDXJXJX;XA.}.9.7.}.PXPXt.b.  W / MXcX>X[.2.) Q x.x.Z.PXDXMXcX6XC H . # n i A w w A u u D f 4 1 r f g s p % b 8 H H 8 ; - y y N T T c l x l Z v v v v Z Z v l v > : l l l l : > % % % ; i D H b 6 % # n S S 6 6 & u 6 u 5 6 u u i i ; : 8 ; 0 > : + W Q sXvX;X:X:XHXPX{.4.9.3./ =X;Xz.. + - 0 U.oXsXP.C./ W H c.c.Q.VXKXnXnXeXrXs.e.e.*.o.} i.i.yXyX9X0X9XyXyX9X0X8X9X9X1X8XtX7X5X5X5XrXrXrXrX5XtXtXBXZXNX7X5X7XtX9XyXyXyXmXmXyXyXyXyXmX9X7XbX7X=X{.I.5.&.9 8 6 n n L.nXeXeXKX-X*X,XPXPX,.( + 4.t.LXcX[.,.<.V.V.MX6XBXe.u.J K K 7 7 f f D F U U G p n S   . _ PXcXxXJXxXcXPXh.B.b.Z.xX>XjXPXPX[.t.2.cXHXHXPXx.}.[.PXDXjX*X:XHXAX%X3.) 8.8.9.lXlXbXCXtXKXO.A u o.J D U U { L J f J q q 6 9 - ; > &XoX:XHXxX2._ <.;X:XjXxXiXIXcX|.A.T _ ( }.|.PXBX7Xi.i.@.#.w.J.H.v.s.d.r.e.e.i.u.e.w.w.w.w.w.w.e.e.e.e.e.5.*.*.*.",
"=X6X-XLXPX{.6XoXlXcX/ (   2.8.vXHX[.Q V S.C.OXKXmX . .q A 4 $ $ $ $ 6 a q & & 6 - ; m 0 . + = b.z.LXKXxX6X=XjX=X;XxXxXPXPXZ.B Q 4.Q 6XxXxXB m + O x.;X6XC.c./ +.2.l.).).&X6XFX6XI.I.9 . X @ q A w a f f r 1 < w w * # - 4 - - - 4X4X=XJX6XoXc.x.cXPXx.+   C Q *XjXZ.q.3.N.V.jXMXmXT./.:.[ { F.i.uX5X2X~.T.J.T.G.G.G.G.G.G.G.v.v.s.p.r.r.p.a.a.a.L.W.K.a.a.n.v.n.$X+XL.XXXXJ.L.L.L.J.H.v.J.L.H.n.v.XX1XtX5XXXy.5.! N S H H Q H kX6XMX6XsXPXxX=XH B 9.MXxXoX&Xv 2.2.jXjX6XxXHX[.*X3.t.9.}.}.jXxXlX3X3Xi - # @ i K p 6 4 7 a p p a p F g p N - b 8 H H 8 8 8 M S Q Q T c c l l Z Z Z Z Z C T Z Z Z v b Z Z Z Z c : : 8 6 6 p S N N n 6 % n p n u D s p a G p 6 s y y i 8 y 8 = % +   V %X&XcX;XcXPXPXV.x.{.:XDXKXPXDXxX6X4.<.) <.MXdX`.Z C C B.9.*X6X@XnXMX#X$XH.a.w.*.o.U { -.yX9XyXmXmXyX9XyXyXyXZXmXNXmX5X5X5X4X4X4X4X5XrXrXrXrX5X2X8XtXtX7XtXNX7X5X5X0X2X9XyX0X9X0X9XtX8X3X3XOXkX#XOXy.6.b t 9 i b !.KXKXCXKX=X@X[.PXDX2.3.: `.b.PXHXZ.( ) V.V.zXkXmX*.@.f 7 w $ * 7 7 F g A A U 9 9 H - # + W +.MXDXHXHXjXMX;X:XvXPXHXHX>X*XE 0.l.PXDX*X}.+ E E :XjXcX|.`.V.V.l.q.q.Z.l.HXkX-XKXnXe.5.. { F K J u #. .L g o.4 4 @ * # - % 8 : &X&XzXPXPXc.l.`.cX;X9.c.4.zXcXzXLXS.V.4.c.x.KXNX5Xw.@.J I r.tXmXmXyXyXyXyXyXyXyXNXNXmXmXmXmXmXmXyXyXyXuX5X5X0XtX"
};
